LUT color transfer/LUTs/1.cube
LUT_3D_SIZE 6
0.000000 0.000000 0.000000
0.123259 0.008771 0.003519
0.243190 0.020525 0.010854
0.364465 0.035220 0.022383
0.494481 0.053682 0.038885
0.640501 0.076847 0.061174
0.027672 0.102412 0.008927
0.135865 0.109504 0.017175
0.247812 0.119159 0.029489
0.369056 0.132644 0.046770
0.506427 0.151050 0.069886
0.666389 0.175435 0.099674
0.056080 0.213696 0.028968
0.153936 0.218864 0.042375
0.263426 0.228677 0.060944
0.389686 0.244088 0.085487
0.538972 0.266141 0.116838
0.727006 0.306102 0.146073
0.092826 0.336407 0.064111
0.185664 0.344779 0.084200
0.297669 0.359711 0.110592
0.449693 0.396859 0.136252
0.632631 0.451379 0.156892
0.818412 0.507253 0.177149
0.145471 0.487217 0.119491
0.250058 0.519792 0.140241
0.397018 0.574455 0.156483
0.562325 0.632165 0.173982
0.733088 0.691257 0.191563
0.898463 0.750720 0.208322
0.234300 0.726722 0.168813
0.360550 0.782205 0.180824
0.509227 0.840795 0.194711
0.666089 0.901141 0.209235
0.819597 0.961730 0.223372
0.959918 1.021620 0.236281
0.005495 0.002784 0.049978
0.125724 0.012574 0.056090
0.243624 0.024739 0.064136
0.364460 0.039932 0.075470
0.495408 0.059066 0.091233
0.643663 0.083078 0.112423
0.032489 0.104692 0.061889
0.138071 0.111880 0.069725
0.248924 0.121966 0.081110
0.370530 0.136124 0.097126
0.509609 0.155499 0.118791
0.672592 0.181083 0.147023
0.060892 0.214708 0.080598
0.157027 0.220464 0.092528
0.266249 0.231169 0.109460
0.393681 0.247713 0.132253
0.545468 0.271205 0.161844
0.742805 0.319887 0.190668
0.098666 0.338022 0.112894
0.190654 0.347507 0.131040
0.303246 0.363808 0.155465
0.468369 0.413389 0.181185
0.649773 0.468446 0.207722
0.832515 0.524725 0.234451
0.153318 0.491433 0.164854
0.267059 0.537886 0.184795
0.415382 0.593305 0.207159
0.580016 0.651619 0.231333
0.748367 0.710990 0.256129
0.909705 0.770594 0.280650
0.248826 0.746241 0.218615
0.377632 0.802456 0.237529
0.526616 0.861649 0.258876
0.681889 0.922235 0.281351
0.833384 0.980922 0.317201
0.967268 1.038702 0.361075
0.011088 0.006291 0.130576
0.128242 0.016635 0.134142
0.244395 0.029280 0.139715
0.364987 0.045098 0.148613
0.497215 0.065043 0.162036
0.648015 0.090063 0.180987
0.037461 0.107231 0.137247
0.140671 0.114679 0.142399
0.250708 0.125353 0.151242
0.373010 0.140378 0.164830
0.514019 0.160864 0.184204
0.680282 0.187829 0.210289
0.066218 0.216353 0.150793
0.160910 0.222897 0.160065
0.270133 0.234621 0.174488
0.398974 0.252483 0.194974
0.562575 0.284490 0.223613
0.759025 0.334800 0.257987
0.105376 0.340677 0.178231
0.196772 0.351394 0.193812
0.319369 0.377848 0.217378
0.487824 0.431075 0.248802
0.667445 0.486568 0.282006
0.846655 0.543077 0.315977
0.165902 0.505261 0.226520
0.285123 0.557139 0.252029
0.434496 0.613233 0.281245
0.598175 0.671892 0.312878
0.763768 0.731576 0.345725
0.917088 0.791888 0.392893
0.264407 0.766767 0.291815
0.395472 0.823756 0.318458
0.544473 0.883430 0.348041
0.705092 0.938302 0.402840
0.853423 0.993701 0.473819
0.977590 1.053919 0.526391
0.016692 0.010192 0.227716
0.130926 0.021032 0.227922
0.245638 0.034253 0.230351
0.366305 0.050820 0.236437
0.499989 0.071712 0.247233
0.653543 0.097887 0.263813
0.042720 0.110132 0.227733
0.143869 0.118023 0.229785
0.253323 0.129452 0.235775
0.376504 0.145495 0.246821
0.519697 0.167244 0.263910
0.689426 0.195721 0.287941
0.072167 0.218753 0.235408
0.165673 0.226208 0.241905
0.275136 0.239118 0.253791
0.405680 0.258488 0.272085
0.582155 0.300176 0.306689
0.775764 0.350801 0.347838
0.113030 0.344423 0.257853
0.204089 0.356554 0.270976
0.339770 0.396108 0.300564
0.507949 0.449827 0.338974
0.685485 0.505619 0.379745
0.857007 0.564272 0.426220
0.181639 0.524768 0.309042
0.304119 0.577506 0.341756
0.454236 0.634277 0.378850
0.616651 0.693151 0.418831
0.779324 0.752957 0.460669
0.917781 0.816944 0.550330
0.280931 0.788210 0.388401
0.414032 0.845714 0.423815
0.582483 0.894158 0.489597
0.740530 0.948657 0.564230
0.878578 1.008448 0.638756
0.993514 1.070078 0.705551
0.022385 0.014487 0.337285
0.133952 0.025853 0.334052
0.247476 0.039756 0.333509
0.368474 0.057200 0.336871
0.503836 0.079164 0.345278
0.660357 0.106627 0.359750
0.048380 0.113536 0.330654
0.147720 0.122002 0.329745
0.256865 0.134348 0.333172
0.381167 0.151567 0.341941
0.526844 0.174745 0.357125
0.702550 0.205997 0.382033
0.078846 0.221998 0.332857
0.171410 0.230517 0.336855
0.281400 0.244810 0.346623
0.416661 0.267715 0.365151
0.602260 0.316902 0.411613
0.792862 0.367750 0.460543
0.121748 0.349399 0.350964
0.213991 0.364515 0.363231
0.360840 0.415346 0.405501
0.528578 0.469491 0.451900
0.703701 0.525511 0.501240
0.848701 0.598464 0.569364
0.198460 0.545299 0.413177
0.323825 0.598709 0.454201
0.474414 0.655884 0.500141
0.635587 0.714885 0.550122
0.793756 0.776505 0.620302
0.921855 0.845970 0.710754
0.298179 0.810469 0.508767
0.443213 0.863504 0.559080
0.630163 0.904486 0.642565
0.785023 0.960786 0.727354
0.911873 1.025315 0.805099
1.018553 1.089011 0.881554
0.028294 0.019234 0.457347
0.137429 0.031203 0.451077
0.250014 0.045898 0.447893
0.371580 0.064338 0.449042
0.508896 0.087519 0.455550
0.668572 0.116404 0.468463
0.054565 0.117563 0.444845
0.152349 0.126791 0.441443
0.261442 0.140140 0.442749
0.387112 0.158708 0.449795
0.535431 0.183450 0.463652
0.721752 0.219859 0.500356
0.086387 0.226222 0.442470
0.178265 0.235958 0.444536
0.289056 0.251740 0.452743
0.438832 0.285041 0.483981
0.622744 0.334511 0.538744
0.809891 0.385427 0.596516
0.131632 0.355729 0.457306
0.234458 0.384157 0.481934
0.382624 0.435503 0.532635
0.549499 0.489940 0.588057
0.721411 0.546699 0.646869
0.856695 0.627809 0.707619
0.216253 0.566774 0.539505
0.344127 0.620699 0.589886
0.494908 0.678189 0.645764
0.662948 0.737373 0.706254
0.813334 0.805057 0.777110
0.932226 0.881069 0.856728
0.316052 0.833408 0.653420
0.474318 0.882825 0.711438
0.661736 0.927625 0.784044
0.824773 0.982954 0.866975
0.954353 1.047217 0.951959
1.056297 1.112908 1.032769
