LUT color transfer/LUTs/1.cube
LUT_3D_SIZE 16
0.000000 0.000000 0.000000
0.040849 0.002389 0.000685
0.082375 0.005418 0.001898
0.123259 0.008771 0.003519
0.163548 0.012403 0.005542
0.203418 0.016316 0.007979
0.243190 0.020525 0.010854
0.283087 0.025059 0.014196
0.323425 0.029946 0.018029
0.364465 0.035220 0.022383
0.406431 0.040912 0.027293
0.449720 0.047056 0.032783
0.494481 0.053682 0.038885
0.541043 0.060841 0.045634
0.589564 0.068538 0.053047
0.640501 0.076847 0.061174
0.009447 0.030357 0.001740
0.048768 0.033610 0.003160
0.088269 0.036924 0.004928
0.127408 0.040362 0.007064
0.166258 0.043966 0.009597
0.205061 0.047799 0.012555
0.244037 0.051894 0.015968
0.283445 0.056304 0.019868
0.323561 0.061079 0.024287
0.364711 0.066253 0.029260
0.407077 0.071861 0.034812
0.450942 0.077948 0.040978
0.496619 0.084556 0.047790
0.544313 0.091718 0.055278
0.594232 0.099460 0.063458
0.646789 0.107850 0.072391
0.018678 0.065982 0.004791
0.056162 0.068701 0.006686
0.093861 0.071542 0.008936
0.131484 0.074541 0.011571
0.169162 0.077768 0.014623
0.207066 0.081259 0.018127
0.245469 0.085069 0.022115
0.284625 0.089244 0.026623
0.324738 0.093821 0.031681
0.366149 0.098847 0.037322
0.409079 0.104370 0.043576
0.453762 0.110406 0.050473
0.500502 0.117020 0.058053
0.549519 0.124260 0.066343
0.600969 0.132111 0.075359
0.655279 0.140666 0.085152
0.027672 0.102412 0.008927
0.063407 0.104557 0.011279
0.099517 0.106911 0.014017
0.135865 0.109504 0.017175
0.172531 0.112382 0.020783
0.209790 0.115573 0.024877
0.247812 0.119159 0.029489
0.286885 0.123184 0.034656
0.327199 0.127646 0.040401
0.369056 0.132644 0.046770
0.412737 0.138175 0.053783
0.458402 0.144289 0.061477
0.506427 0.151050 0.069886
0.556939 0.158469 0.079036
0.610077 0.166574 0.088949
0.666389 0.175435 0.099674
0.036700 0.139050 0.014230
0.070850 0.140752 0.017065
0.105589 0.142734 0.020332
0.140846 0.145002 0.024054
0.176782 0.147663 0.028266
0.213552 0.150717 0.032997
0.251395 0.154217 0.038288
0.290541 0.158204 0.044163
0.331278 0.162720 0.050661
0.373804 0.167813 0.057808
0.418362 0.173516 0.065644
0.465193 0.179868 0.074193
0.514603 0.186913 0.083487
0.566695 0.194676 0.093559
0.621884 0.203210 0.104438
0.680246 0.212531 0.116154
0.046071 0.176014 0.020853
0.078812 0.177416 0.024218
0.112381 0.179180 0.028054
0.146786 0.181332 0.032390
0.182136 0.183912 0.037255
0.218642 0.186962 0.042684
0.256515 0.190554 0.048707
0.295937 0.194691 0.055352
0.337227 0.199425 0.062660
0.380572 0.204787 0.070648
0.426218 0.210834 0.079364
0.474379 0.217588 0.088821
0.525348 0.225082 0.099068
0.579246 0.233377 0.110120
0.636467 0.242489 0.122019
0.697262 0.252524 0.134816
0.056080 0.213696 0.028968
0.087599 0.214978 0.032911
0.120215 0.216679 0.037374
0.153936 0.218864 0.042375
0.188924 0.221572 0.047951
0.225352 0.224853 0.054139
0.263426 0.228677 0.060944
0.303346 0.233161 0.068428
0.345335 0.238267 0.076589
0.389686 0.244088 0.085487
0.436595 0.250654 0.095143
0.486235 0.258003 0.105579
0.538972 0.266141 0.116838
0.594786 0.275130 0.128926
0.659242 0.289450 0.138342
0.727006 0.306102 0.146073
0.067020 0.252553 0.038753
0.097506 0.253915 0.043332
0.129358 0.255785 0.048478
0.162627 0.258239 0.054210
0.197419 0.261272 0.060563
0.233964 0.264912 0.067552
0.272395 0.269133 0.075208
0.312971 0.274118 0.083570
0.355896 0.279832 0.092664
0.401382 0.286297 0.102524
0.449702 0.293581 0.113178
0.501005 0.301698 0.124652
0.561490 0.315629 0.133830
0.626585 0.332771 0.141328
0.692426 0.350099 0.148808
0.758159 0.367538 0.156185
0.079168 0.293241 0.050400
0.108831 0.294899 0.055682
0.140120 0.297094 0.061561
0.173113 0.300021 0.068098
0.207914 0.303507 0.075264
0.244699 0.307690 0.083116
0.283734 0.312613 0.091695
0.325099 0.318293 0.100999
0.369132 0.324785 0.111087
0.415949 0.332093 0.121968
0.472071 0.345591 0.130863
0.534126 0.363036 0.138054
0.597352 0.380767 0.145279
0.661016 0.398654 0.152451
0.725050 0.416674 0.159576
0.788813 0.434806 0.166603
0.092826 0.336407 0.064111
0.121848 0.338521 0.070147
0.152781 0.341308 0.076840
0.185664 0.344779 0.084200
0.220648 0.349009 0.092266
0.257911 0.353967 0.101051
0.297669 0.359711 0.110592
0.340023 0.366287 0.120908
0.391360 0.379211 0.129459
0.449693 0.396859 0.136252
0.509690 0.414824 0.143118
0.570755 0.432995 0.150004
0.632631 0.451379 0.156892
0.694758 0.469916 0.163733
0.756890 0.488561 0.170500
0.818412 0.507253 0.177149
0.108247 0.382638 0.080063
0.136807 0.385443 0.086917
0.167564 0.388979 0.094473
0.200543 0.393259 0.102740
0.235891 0.398365 0.111751
0.273777 0.404294 0.121527
0.319903 0.416531 0.129681
0.373802 0.434215 0.135965
0.429909 0.452266 0.142383
0.487766 0.470638 0.148895
0.546932 0.489210 0.155453
0.606833 0.508084 0.162025
0.667271 0.527081 0.168578
0.727499 0.546115 0.175047
0.787543 0.565266 0.181443
0.846701 0.584470 0.187704
0.125718 0.432732 0.098470
0.154016 0.436375 0.106200
0.184768 0.440890 0.114683
0.218024 0.446193 0.123918
0.258461 0.457640 0.131617
0.306979 0.475226 0.137274
0.358485 0.493221 0.143140
0.412443 0.511634 0.149177
0.468249 0.530313 0.155313
0.525391 0.549229 0.161512
0.583534 0.568423 0.167757
0.642101 0.587705 0.173968
0.700811 0.607151 0.180161
0.759152 0.626672 0.186260
0.816907 0.646208 0.192264
0.873493 0.665669 0.198118
0.145471 0.487217 0.119491
0.173684 0.491914 0.128158
0.207889 0.502535 0.135357
0.250058 0.519792 0.140241
0.296081 0.537589 0.145437
0.345248 0.555853 0.150870
0.397018 0.574455 0.156483
0.450766 0.593394 0.162234
0.506051 0.612606 0.168077
0.562325 0.632165 0.173982
0.619212 0.651752 0.179883
0.676184 0.671407 0.185741
0.733088 0.691257 0.191563
0.789255 0.711042 0.197269
0.844541 0.730874 0.202877
0.898463 0.750720 0.208322
0.169515 0.551438 0.141071
0.203987 0.568211 0.145024
0.243421 0.585640 0.149401
0.286937 0.603579 0.154113
0.333824 0.621992 0.159096
0.383374 0.640733 0.164268
0.435162 0.659845 0.169621
0.488550 0.679291 0.175087
0.543029 0.698912 0.180596
0.598261 0.718677 0.186153
0.653757 0.738589 0.191701
0.709028 0.758681 0.197204
0.763800 0.778701 0.202626
0.817636 0.798597 0.207918
0.870272 0.818681 0.213111
0.921304 0.838523 0.218128
0.201587 0.637147 0.155102
0.238228 0.654586 0.158930
0.279234 0.672534 0.163127
0.323816 0.691015 0.167638
0.371312 0.709965 0.172391
0.421095 0.729185 0.177318
0.472654 0.748721 0.182388
0.525456 0.768679 0.187567
0.578993 0.788531 0.192758
0.632947 0.808677 0.197961
0.686819 0.828823 0.203144
0.740161 0.848926 0.208251
0.792764 0.869141 0.213271
0.844068 0.889199 0.218176
0.893874 0.909205 0.222916
0.941803 0.929318 0.227513
0.234300 0.726722 0.168813
0.272807 0.744755 0.172503
0.315118 0.763287 0.176523
0.360550 0.782205 0.180824
0.408403 0.801384 0.185309
0.458106 0.821010 0.189961
0.509227 0.840795 0.194711
0.561243 0.860786 0.199541
0.613655 0.880987 0.204398
0.666089 0.901141 0.209235
0.718168 0.921327 0.214032
0.769444 0.941655 0.218743
0.819597 0.961730 0.223372
0.868251 0.981832 0.227853
0.915157 1.001797 0.232142
0.959918 1.021620 0.236281
0.001772 0.000760 0.010696
0.042440 0.003476 0.012546
0.083565 0.006603 0.014543
0.124088 0.010015 0.016756
0.164070 0.013692 0.019230
0.203707 0.017647 0.022021
0.243309 0.021899 0.025171
0.283094 0.026477 0.028719
0.323371 0.031416 0.032710
0.364424 0.036746 0.037175
0.406401 0.042498 0.042155
0.449791 0.048715 0.047694
0.494685 0.055415 0.053799
0.541440 0.062652 0.060540
0.590279 0.070455 0.067925
0.641346 0.078835 0.075982
0.011247 0.031577 0.014342
0.050200 0.034804 0.016342
0.089321 0.038107 0.018553
0.128141 0.041534 0.021036
0.166737 0.045153 0.023834
0.205332 0.048996 0.026996
0.244149 0.053130 0.030557
0.283497 0.057576 0.034565
0.323611 0.062392 0.039057
0.364741 0.067621 0.044056
0.407199 0.073294 0.049621
0.451209 0.079454 0.055769
0.497016 0.086136 0.062538
0.544939 0.093391 0.069967
0.595110 0.101235 0.078076
0.647991 0.109731 0.086926
0.020362 0.066967 0.018392
0.057481 0.069678 0.020622
0.094830 0.072494 0.023131
0.132172 0.075494 0.025958
0.169626 0.078735 0.029155
0.207368 0.082254 0.032760
0.245670 0.086102 0.036806
0.284761 0.090323 0.041344
0.324895 0.094967 0.046401
0.366340 0.100047 0.052017
0.409375 0.105650 0.058226
0.454253 0.111785 0.065069
0.501148 0.118484 0.072565
0.550416 0.125810 0.080759
0.602123 0.133789 0.089668
0.656799 0.142457 0.099350
0.029266 0.103148 0.023111
0.064659 0.105297 0.025648
0.100459 0.107633 0.028524
0.136549 0.110242 0.031768
0.173033 0.113154 0.035433
0.210162 0.116403 0.039545
0.248115 0.120029 0.044154
0.287152 0.124102 0.049283
0.327537 0.128650 0.054980
0.369480 0.133725 0.061288
0.413267 0.139345 0.068212
0.459149 0.145572 0.075811
0.507321 0.152425 0.084105
0.558124 0.159971 0.093138
0.611602 0.168209 0.102919
0.668310 0.177209 0.113516
0.038242 0.139575 0.028740
0.072073 0.141271 0.031657
0.106541 0.143297 0.034962
0.141583 0.145608 0.038699
0.177352 0.148292 0.042894
0.214010 0.151408 0.047590
0.251834 0.154972 0.052829
0.291013 0.159037 0.058624
0.331784 0.163642 0.065030
0.374434 0.168830 0.072077
0.419146 0.174644 0.079795
0.466221 0.181112 0.088219
0.515822 0.188274 0.097376
0.568296 0.196187 0.107310
0.623670 0.204852 0.118030
0.682517 0.214347 0.129606
0.047601 0.176385 0.035504
0.080051 0.177815 0.038866
0.113390 0.179621 0.042684
0.147612 0.181812 0.046980
0.182834 0.184461 0.051773
0.219265 0.187596 0.057117
0.257106 0.191252 0.063039
0.296603 0.195489 0.069577
0.337965 0.200321 0.076757
0.381461 0.205792 0.084618
0.427292 0.211967 0.093192
0.475750 0.218848 0.102511
0.526922 0.226530 0.112603
0.581280 0.234994 0.123516
0.638769 0.244251 0.135235
0.700520 0.254885 0.147457
0.057634 0.213948 0.043618
0.088894 0.215298 0.047512
0.121322 0.217077 0.051902
0.154884 0.219351 0.056818
0.189776 0.222125 0.062285
0.226159 0.225477 0.068345
0.264218 0.229394 0.075021
0.304266 0.233966 0.082363
0.346356 0.239206 0.090384
0.390895 0.245152 0.099128
0.437976 0.251866 0.108621
0.487991 0.259432 0.118915
0.540932 0.267733 0.129998
0.597785 0.277269 0.141736
0.664639 0.293809 0.150050
0.732093 0.310509 0.158351
0.068639 0.252851 0.053321
0.098907 0.254270 0.057800
0.130583 0.256236 0.062831
0.163739 0.258735 0.068434
0.198470 0.261812 0.074640
0.234981 0.265542 0.081481
0.273428 0.269947 0.088983
0.314097 0.275069 0.097188
0.357218 0.280904 0.106121
0.402924 0.287507 0.115807
0.451469 0.295014 0.126302
0.503347 0.303486 0.137559
0.567322 0.320409 0.145618
0.632374 0.337585 0.153707
0.697663 0.354932 0.161751
0.763279 0.372457 0.169776
0.080897 0.293602 0.064804
0.110363 0.295278 0.069945
0.141513 0.297612 0.075685
0.174422 0.300578 0.082050
0.209188 0.304200 0.089057
0.246010 0.308534 0.096744
0.285064 0.313596 0.105145
0.326599 0.319426 0.114281
0.370798 0.326066 0.124180
0.417875 0.333561 0.134889
0.478154 0.350612 0.142675
0.540141 0.368158 0.150460
0.603032 0.385922 0.158274
0.666646 0.403864 0.166092
0.730211 0.421922 0.173851
0.793702 0.440108 0.181545
0.094685 0.336834 0.078280
0.123546 0.339054 0.084152
0.154351 0.341941 0.090668
0.187205 0.345552 0.097859
0.222191 0.349865 0.105736
0.259508 0.355003 0.114339
0.299335 0.360896 0.123688
0.341886 0.367666 0.133826
0.397514 0.384532 0.141284
0.455855 0.402246 0.148671
0.515684 0.420262 0.156148
0.576673 0.438499 0.163675
0.638225 0.456951 0.171197
0.700179 0.475542 0.178726
0.761815 0.494232 0.186176
0.823088 0.512998 0.193546
0.110289 0.383306 0.093968
0.138732 0.386226 0.100643
0.169404 0.389891 0.108002
0.202371 0.394332 0.116081
0.237752 0.399582 0.124896
0.275736 0.405652 0.134468
0.325960 0.422024 0.141479
0.379903 0.439828 0.148373
0.436028 0.457963 0.155412
0.493798 0.476366 0.162548
0.552815 0.495045 0.169775
0.612622 0.513922 0.177029
0.672716 0.532922 0.184258
0.732803 0.552044 0.191471
0.792234 0.571231 0.198585
0.851204 0.590462 0.205632
0.127956 0.433597 0.112055
0.156155 0.437377 0.119586
0.186865 0.442030 0.127859
0.220137 0.447514 0.136894
0.264185 0.463244 0.143354
0.312931 0.480927 0.149629
0.364576 0.499106 0.156139
0.418532 0.517584 0.162818
0.474295 0.536332 0.169628
0.531353 0.555320 0.176504
0.589293 0.574543 0.183451
0.647715 0.593943 0.190418
0.706074 0.613405 0.197327
0.764148 0.632969 0.204203
0.821357 0.652512 0.210993
0.877638 0.672028 0.217684
0.147968 0.488490 0.132763
0.176131 0.493403 0.141233
0.213088 0.508307 0.147023
0.255606 0.525725 0.152541
0.301874 0.543617 0.158377
0.351239 0.561969 0.164479
0.403035 0.580657 0.170750
0.456800 0.599681 0.177207
0.512001 0.618914 0.183757
0.568131 0.638499 0.190385
0.624805 0.658054 0.197021
0.681644 0.677812 0.203682
0.738107 0.697694 0.210288
0.794010 0.717507 0.216803
0.848747 0.737323 0.223233
0.902258 0.757309 0.229571
0.173892 0.557203 0.152597
0.208890 0.574060 0.157183
0.248701 0.591588 0.162215
0.292529 0.609655 0.167596
0.339645 0.628342 0.173306
0.389369 0.647228 0.179207
0.441141 0.666393 0.185281
0.494477 0.685868 0.191451
0.548907 0.705564 0.197746
0.603898 0.725332 0.204071
0.659151 0.745316 0.210409
0.714100 0.765386 0.216739
0.768544 0.785374 0.223005
0.822080 0.805591 0.229177
0.874191 0.825487 0.235244
0.924745 0.845297 0.241172
0.206159 0.643291 0.167812
0.243276 0.660906 0.172348
0.284629 0.678937 0.177244
0.329466 0.697567 0.182473
0.377137 0.716551 0.187951
0.427004 0.735859 0.193638
0.478528 0.755502 0.199480
0.531230 0.775260 0.205390
0.584686 0.795257 0.211420
0.638347 0.815336 0.217434
0.691959 0.835487 0.223459
0.745004 0.855682 0.229443
0.797232 0.875987 0.235373
0.848115 0.896158 0.241217
0.897414 0.916124 0.246859
0.944857 0.936195 0.252436
0.238986 0.732993 0.182770
0.277892 0.751094 0.187174
0.320509 0.769696 0.191941
0.366160 0.788817 0.197028
0.414137 0.808211 0.202304
0.463926 0.827889 0.207759
0.515002 0.847740 0.213350
0.566887 0.867723 0.218976
0.619141 0.887950 0.224696
0.671314 0.908074 0.230409
0.723095 0.928261 0.236102
0.773982 0.948656 0.241758
0.823777 0.968841 0.247320
0.872033 0.988939 0.252764
0.918328 1.008899 0.258005
0.962332 1.028471 0.265146
0.003628 0.001727 0.028353
0.044019 0.004610 0.030370
0.084717 0.007815 0.032482
0.124904 0.011282 0.034772
0.164610 0.015005 0.037291
0.204032 0.019004 0.040097
0.243456 0.023303 0.043241
0.283138 0.027935 0.046751
0.323372 0.032925 0.050682
0.364393 0.038315 0.055075
0.406456 0.044138 0.059966
0.449936 0.050425 0.065394
0.495027 0.057215 0.071396
0.541948 0.064535 0.078000
0.591029 0.072424 0.085246
0.642445 0.080922 0.093171
0.013034 0.032797 0.032255
0.051621 0.036002 0.034313
0.090389 0.039299 0.036564
0.128887 0.042730 0.039060
0.167229 0.046355 0.041830
0.205633 0.050233 0.044951
0.244314 0.054388 0.048448
0.283594 0.058891 0.052377
0.323707 0.063753 0.056769
0.364872 0.069038 0.061664
0.407413 0.074787 0.067104
0.451542 0.081026 0.073117
0.497579 0.087805 0.079753
0.545707 0.095146 0.087028
0.596217 0.103103 0.094991
0.649244 0.111687 0.103646
0.022045 0.067967 0.036400
0.058796 0.070647 0.038613
0.095822 0.073468 0.041097
0.132887 0.076484 0.043867
0.170124 0.079744 0.046993
0.207707 0.083297 0.050506
0.245895 0.087181 0.054454
0.284919 0.091457 0.058871
0.325131 0.096164 0.063804
0.366617 0.101329 0.069278
0.409787 0.106995 0.075348
0.454793 0.113232 0.082031
0.501945 0.120044 0.089369
0.551417 0.127469 0.097395
0.603616 0.135568 0.106147
0.658545 0.144359 0.115642
0.030872 0.103905 0.041076
0.065921 0.106045 0.043547
0.101429 0.108421 0.046342
0.137296 0.111030 0.049489
0.173586 0.113966 0.053039
0.210584 0.117269 0.057027
0.248475 0.120973 0.061500
0.287502 0.125099 0.066487
0.327955 0.129729 0.072037
0.369935 0.134888 0.078167
0.413921 0.140626 0.084939
0.459978 0.146940 0.092360
0.508434 0.153922 0.100484
0.559456 0.161571 0.109332
0.613437 0.169960 0.118944
0.670270 0.179075 0.129328
0.039810 0.140132 0.046572
0.073323 0.141862 0.049379
0.107539 0.143893 0.052562
0.142363 0.146240 0.056162
0.177999 0.148983 0.060218
0.214566 0.152152 0.064759
0.252348 0.155790 0.069825
0.291523 0.159944 0.075459
0.332405 0.164650 0.081694
0.375183 0.169951 0.088568
0.420086 0.175874 0.096110
0.467342 0.182469 0.104332
0.517272 0.189767 0.113312
0.570005 0.197815 0.123057
0.625847 0.206634 0.133599
0.684962 0.216259 0.144956
0.049165 0.176804 0.053125
0.081342 0.178258 0.056349
0.114444 0.180102 0.060007
0.148502 0.182362 0.064131
0.183608 0.185076 0.068764
0.219978 0.188293 0.073928
0.257805 0.192046 0.079674
0.297344 0.196361 0.086025
0.338846 0.201341 0.093017
0.382487 0.206945 0.100688
0.428550 0.213248 0.109074
0.477180 0.220282 0.118200
0.528759 0.228065 0.128091
0.583319 0.236669 0.138790
0.641355 0.246132 0.150345
0.705682 0.258935 0.161056
0.059235 0.214300 0.060978
0.090255 0.215684 0.064695
0.122475 0.217529 0.068900
0.155913 0.219867 0.073631
0.190727 0.222719 0.078916
0.227076 0.226153 0.084770
0.265166 0.230208 0.091260
0.305236 0.234929 0.098400
0.347526 0.240317 0.106235
0.392234 0.246418 0.114769
0.439596 0.253278 0.124067
0.489786 0.260909 0.134142
0.543175 0.269410 0.145030
0.603518 0.281735 0.155429
0.670319 0.298306 0.164343
0.737212 0.315048 0.173203
0.070314 0.253162 0.070363
0.100374 0.254645 0.074651
0.131900 0.256684 0.079476
0.164949 0.259292 0.084878
0.199623 0.262486 0.090883
0.236138 0.266354 0.097524
0.274684 0.270923 0.104821
0.315448 0.276181 0.112817
0.358715 0.282172 0.121549
0.404613 0.288928 0.131014
0.453407 0.296541 0.141295
0.509393 0.308253 0.151309
0.573393 0.325257 0.159954
0.638062 0.342514 0.168634
0.703287 0.359940 0.177334
0.768366 0.377489 0.185976
0.082681 0.293962 0.081495
0.111976 0.295750 0.086426
0.143014 0.298198 0.091962
0.175830 0.301271 0.098098
0.210594 0.305044 0.104900
0.247453 0.309484 0.112379
0.286610 0.314693 0.120550
0.328258 0.320702 0.129477
0.372616 0.327505 0.139168
0.423895 0.338469 0.148736
0.484307 0.355787 0.157039
0.546181 0.373400 0.165436
0.608960 0.391219 0.173888
0.672143 0.409207 0.182320
0.735535 0.427347 0.190769
0.798544 0.445552 0.199153
0.096627 0.337367 0.094607
0.125350 0.339703 0.100259
0.156081 0.342728 0.106562
0.188871 0.346444 0.113512
0.223877 0.350936 0.121174
0.261268 0.356211 0.129555
0.301200 0.362293 0.138678
0.347467 0.372434 0.147793
0.403761 0.389909 0.155652
0.462054 0.407735 0.163659
0.521768 0.425794 0.171752
0.582608 0.444107 0.179939
0.644035 0.462650 0.188166
0.705476 0.481238 0.196347
0.766947 0.500028 0.204546
0.827682 0.518801 0.212644
0.112419 0.384044 0.109908
0.140739 0.387075 0.116346
0.171348 0.390864 0.123477
0.204308 0.395464 0.131329
0.239761 0.400930 0.139914
0.280778 0.410251 0.148560
0.332151 0.427711 0.155850
0.386162 0.445563 0.163341
0.442272 0.463782 0.171035
0.500001 0.482262 0.178850
0.558838 0.501000 0.186736
0.618391 0.519919 0.194690
0.678159 0.538976 0.202644
0.737939 0.558108 0.210593
0.797178 0.577368 0.218490
0.855521 0.596590 0.226314
0.130312 0.434642 0.127612
0.158444 0.438622 0.134906
0.189108 0.443397 0.142945
0.224587 0.451790 0.151072
0.270067 0.469096 0.157660
0.318988 0.486866 0.164565
0.370733 0.505030 0.171722
0.424718 0.523580 0.179055
0.480420 0.542387 0.186545
0.537421 0.561454 0.194158
0.595124 0.580737 0.201826
0.653300 0.600147 0.209539
0.711379 0.619708 0.217229
0.769038 0.639317 0.224904
0.825983 0.658913 0.232518
0.881660 0.678458 0.240026
0.150570 0.489842 0.147911
0.179991 0.497284 0.155472
0.218434 0.514305 0.161251
0.261306 0.531806 0.167419
0.307810 0.549794 0.173902
0.357287 0.568235 0.180682
0.409192 0.587020 0.187681
0.462951 0.606077 0.194834
0.518021 0.625429 0.202120
0.574045 0.644954 0.209507
0.630490 0.664647 0.216935
0.687038 0.684508 0.224385
0.743145 0.704275 0.231807
0.798659 0.724172 0.239166
0.853101 0.744098 0.246478
0.905997 0.763825 0.253661
0.178475 0.563264 0.166717
0.213936 0.580252 0.171948
0.254150 0.597885 0.177657
0.298217 0.615981 0.183729
0.345530 0.634608 0.190118
0.395363 0.653543 0.196734
0.447178 0.672834 0.203561
0.500471 0.692359 0.210504
0.554769 0.712091 0.217577
0.609648 0.731971 0.224721
0.664577 0.752124 0.231912
0.719325 0.772205 0.239106
0.773317 0.792183 0.246228
0.826461 0.812443 0.253278
0.878125 0.832364 0.260281
0.928118 0.852249 0.267144
0.210907 0.649644 0.183147
0.248432 0.667261 0.188369
0.290127 0.685506 0.193987
0.335197 0.704214 0.199962
0.383001 0.723257 0.206200
0.432953 0.742589 0.212653
0.484484 0.762318 0.219283
0.537129 0.782216 0.226037
0.590393 0.802109 0.232861
0.643922 0.822317 0.239756
0.697220 0.842462 0.246651
0.749956 0.862725 0.253555
0.801612 0.882911 0.260385
0.852196 0.903058 0.267161
0.900929 0.923046 0.273754
0.947910 0.943046 0.280316
0.243835 0.739506 0.199375
0.283119 0.757681 0.204529
0.326050 0.776487 0.210083
0.371815 0.795482 0.215910
0.419896 0.814894 0.221999
0.469766 0.834638 0.228275
0.520768 0.854562 0.234708
0.572561 0.874746 0.241210
0.624585 0.894811 0.247797
0.676606 0.915292 0.254464
0.728037 0.935671 0.261083
0.778626 0.955815 0.267682
0.827937 0.976009 0.274205
0.876132 0.994796 0.289474
0.921583 1.014097 0.301384
0.964705 1.033620 0.311366
0.005495 0.002784 0.049978
0.045569 0.005784 0.051899
0.085877 0.009057 0.053915
0.125724 0.012574 0.056090
0.165161 0.016345 0.058480
0.204362 0.020391 0.061146
0.243624 0.024739 0.064136
0.283205 0.029424 0.067492
0.323397 0.034480 0.071258
0.364460 0.039932 0.075470
0.406613 0.045826 0.080182
0.450192 0.052197 0.085429
0.495408 0.059066 0.091233
0.542620 0.066491 0.097649
0.591867 0.074475 0.104696
0.643663 0.083078 0.112423
0.014812 0.034021 0.053668
0.053034 0.037209 0.055601
0.091429 0.040496 0.057711
0.129629 0.043945 0.060049
0.167741 0.047592 0.062672
0.205975 0.051489 0.065621
0.244545 0.055699 0.068939
0.283734 0.060234 0.072689
0.323825 0.065171 0.076891
0.365081 0.070517 0.081603
0.407684 0.076336 0.086834
0.451998 0.082664 0.092658
0.498197 0.089533 0.099089
0.546622 0.096987 0.106174
0.597390 0.105046 0.113925
0.650847 0.113763 0.122381
0.023727 0.068984 0.057536
0.060127 0.071643 0.059597
0.096830 0.074472 0.061905
0.133636 0.077507 0.064498
0.170673 0.080784 0.067439
0.208107 0.084379 0.070762
0.246220 0.088319 0.074515
0.285200 0.092645 0.078728
0.325393 0.097418 0.083459
0.367010 0.102663 0.088732
0.410283 0.108432 0.094595
0.455501 0.114748 0.101075
0.502839 0.121677 0.108190
0.552641 0.129233 0.116015
0.605020 0.137432 0.124549
0.660431 0.146366 0.133840
0.032489 0.104692 0.061889
0.067212 0.106830 0.064176
0.102436 0.109214 0.066772
0.138071 0.111880 0.069725
0.174201 0.114842 0.073063
0.211084 0.118192 0.076844
0.248924 0.121966 0.081110
0.287951 0.126185 0.085886
0.328360 0.130876 0.091217
0.370530 0.136124 0.097126
0.414659 0.141967 0.103680
0.460965 0.148409 0.110899
0.509609 0.155499 0.118791
0.561039 0.163295 0.127442
0.615143 0.171798 0.136823
0.672592 0.181083 0.147023
0.041405 0.140726 0.067020
0.074621 0.142467 0.069609
0.108576 0.144527 0.072587
0.143232 0.146935 0.075963
0.178710 0.149734 0.079804
0.215211 0.152980 0.084130
0.252958 0.156701 0.088963
0.292154 0.160944 0.094377
0.333126 0.165746 0.100397
0.375994 0.171148 0.107028
0.421096 0.177195 0.114340
0.468589 0.183914 0.122366
0.518811 0.191360 0.131134
0.571949 0.199556 0.140651
0.628076 0.208521 0.150972
0.687675 0.218351 0.162141
0.050770 0.177262 0.073173
0.082670 0.178767 0.076170
0.115572 0.180662 0.079600
0.149468 0.182988 0.083485
0.184467 0.185782 0.087893
0.220793 0.189081 0.092834
0.258631 0.192929 0.098340
0.298229 0.197380 0.104455
0.339820 0.202434 0.111218
0.383623 0.208170 0.118674
0.429891 0.214617 0.126822
0.478765 0.221773 0.135718
0.530642 0.229722 0.145394
0.585694 0.238502 0.155881
0.643960 0.248174 0.167216
0.711298 0.263267 0.177218
0.060892 0.214708 0.080598
0.091674 0.216153 0.084078
0.123721 0.218037 0.088041
0.157027 0.220464 0.092528
0.191773 0.223467 0.097571
0.228106 0.227002 0.103208
0.266249 0.231169 0.109460
0.306412 0.235977 0.116357
0.348802 0.241497 0.123952
0.393681 0.247713 0.132253
0.441282 0.254732 0.141311
0.491726 0.262546 0.151159
0.545468 0.271205 0.161844
0.609522 0.286399 0.171648
0.675907 0.303030 0.181137
0.742805 0.319887 0.190668
0.072058 0.253539 0.089546
0.101913 0.255123 0.093575
0.133287 0.257249 0.098158
0.166258 0.260014 0.103332
0.200901 0.263337 0.109086
0.237431 0.267291 0.115479
0.276033 0.271933 0.122537
0.316910 0.277306 0.130271
