LUT color transfer/LUTs/10.cube
LUT_3D_SIZE 6
-0.153474 -0.126897 -0.153474
0.005168 -0.109344 -0.140540
0.279119 0.115423 0.001210
0.676027 0.268515 0.054960
1.008179 0.383487 0.191149
1.166036 0.451863 0.277840
-0.131145 0.072655 -0.131145
0.009436 0.091088 -0.114519
0.287808 0.196486 0.003913
0.681638 0.318506 0.070281
1.011079 0.417424 0.204729
1.168013 0.475060 0.287072
0.018730 0.337165 0.008300
0.082886 0.343003 0.011385
0.323101 0.366591 0.029270
0.704963 0.465566 0.142368
1.023355 0.533284 0.258272
1.176312 0.560643 0.324660
0.186911 0.604924 0.145886
0.257282 0.608490 0.155094
0.470725 0.623468 0.192115
0.750167 0.652456 0.258146
1.047672 0.699429 0.350799
1.192993 0.694836 0.393332
0.354794 0.824787 0.320963
0.403849 0.827151 0.327165
0.573911 0.837242 0.352842
0.823344 0.857187 0.401454
1.084987 0.887817 0.471355
1.219018 0.855840 0.488098
0.456756 0.958095 0.427780
0.490602 0.959648 0.431984
0.616775 0.966442 0.449693
0.817984 0.980124 0.484033
1.048151 1.000611 0.535358
1.254613 1.029088 0.602037
-0.149251 -0.121338 0.001219
0.005973 -0.102387 0.002139
0.280916 0.122320 0.025784
0.677265 0.271984 0.135608
1.008777 0.385678 0.253175
1.166458 0.453368 0.321001
-0.125842 0.079271 0.002856
0.010418 0.096758 0.004137
0.286062 0.176782 0.018588
0.679496 0.296497 0.103939
1.009913 0.401852 0.229337
1.167484 0.466834 0.309437
0.020615 0.339183 0.044383
0.059517 0.342356 0.032721
0.324193 0.367765 0.061125
0.703682 0.457161 0.173645
1.022438 0.524074 0.281005
1.175888 0.554730 0.345706
0.189948 0.606166 0.213955
0.225320 0.607309 0.185774
0.457825 0.622893 0.221375
0.750649 0.653049 0.285588
1.047232 0.695603 0.371213
1.192689 0.691444 0.412402
0.356844 0.825578 0.368599
0.380692 0.826394 0.348067
0.559837 0.836649 0.373217
0.817405 0.856975 0.420906
1.085247 0.888146 0.489907
1.218915 0.854471 0.505103
0.458118 0.958609 0.460641
0.478087 0.959340 0.450157
0.607613 0.966256 0.467428
0.812564 0.979968 0.501146
1.046393 1.000661 0.551600
1.254851 1.029371 0.617260
-0.113372 -0.062801 0.222042
0.029003 0.044774 0.227795
0.288565 0.147971 0.251693
0.682155 0.286305 0.377000
1.011326 0.395129 0.453250
1.168178 0.459730 0.473536
-0.020268 0.150051 0.231517
0.018154 0.130122 0.232081
0.294194 0.195976 0.257565
0.684550 0.309864 0.366733
1.012507 0.410934 0.440522
1.169219 0.472992 0.465983
0.029335 0.347554 0.269960
0.072690 0.351240 0.273401
0.331627 0.375910 0.296695
0.702598 0.436475 0.357233
1.021925 0.507605 0.433357
1.177275 0.557223 0.488932
0.202670 0.611305 0.425036
0.237299 0.612700 0.413976
0.423731 0.623784 0.393141
0.754302 0.656897 0.444135
1.047686 0.690236 0.505602
1.194089 0.693658 0.541983
0.365373 0.829093 0.536098
0.389003 0.829849 0.523568
0.532429 0.837280 0.507251
0.807158 0.858428 0.547212
1.087123 0.890732 0.606519
1.220336 0.856574 0.619054
0.463943 0.960937 0.584515
0.483713 0.961705 0.576864
0.608694 0.968285 0.587419
0.813923 0.982055 0.615677
1.047660 1.002665 0.658717
1.256400 1.031378 0.716125
0.007081 0.133973 0.624836
0.085261 0.155504 0.628572
0.377118 0.223021 0.644162
0.691964 0.312865 0.675076
1.016482 0.413447 0.727839
1.171665 0.472278 0.701774
0.017118 0.224729 0.630881
0.046994 0.194006 0.629755
0.365430 0.251706 0.645976
0.694721 0.334999 0.678024
1.017751 0.428682 0.723624
1.172734 0.485206 0.698107
0.085887 0.415065 0.656629
0.130046 0.407280 0.656405
0.352080 0.397814 0.663376
0.713512 0.454699 0.697825
1.027306 0.521702 0.728075
1.180783 0.567115 0.715170
0.227145 0.621586 0.706090
0.260467 0.623355 0.707709
0.440750 0.635265 0.719472
0.764476 0.667577 0.751549
1.054967 0.710384 0.795459
1.204532 0.742915 0.829788
0.382287 0.836012 0.785643
0.405413 0.836918 0.780717
0.545676 0.844576 0.777813
0.832202 0.867309 0.822836
1.092409 0.897815 0.863472
1.228228 0.881930 0.879594
0.475539 0.965611 0.784714
0.495021 0.966444 0.780365
0.617810 0.972966 0.788997
0.883791 0.992983 0.877302
1.074431 1.011196 0.906253
1.260733 1.037054 0.945782
0.043691 0.217219 0.966786
0.141631 0.230333 0.969268
0.406694 0.278211 0.979997
0.712723 0.352397 1.000337
1.024646 0.440674 1.024646
1.177238 0.491516 0.969064
0.060703 0.279546 0.970960
0.101782 0.256095 0.970067
0.391152 0.299778 0.980982
0.708070 0.369782 1.001329
1.026054 0.455234 1.026054
1.178255 0.503922 0.968285
0.142187 0.444497 0.988598
0.177731 0.434499 0.988086
0.379907 0.426691 0.993077
0.711205 0.476052 1.010459
1.035822 0.543179 1.035822
1.186364 0.582470 0.981643
0.266176 0.641251 1.016328
0.293548 0.638220 1.016443
0.459155 0.639816 1.020880
0.778926 0.682540 1.039454
1.062820 0.724175 1.062820
1.209509 0.752758 1.035402
0.408134 0.846884 1.055196
0.430573 0.848069 1.056018
0.566091 0.855944 1.061709
0.845478 0.877819 1.077633
1.099889 0.907850 1.099889
1.242120 0.931456 1.117600
0.493610 0.973053 1.022328
0.512644 0.973856 1.021249
0.632374 0.980429 1.026547
0.893156 0.999542 1.063104
1.128969 1.025561 1.128969
1.266784 1.045098 1.146097
0.086935 0.264078 1.127825
0.166018 0.272749 1.129104
0.384885 0.306461 1.134400
0.655365 0.363280 1.145058
0.944572 0.435644 1.161778
1.185017 0.517200 1.185017
0.103732 0.307435 1.129908
0.145426 0.295666 1.129823
0.374755 0.326705 1.135183
0.650867 0.380196 1.145895
0.943597 0.449652 1.162766
1.186196 0.529047 1.186196
0.166436 0.438875 1.138618
0.201318 0.432509 1.138617
0.401549 0.448572 1.143475
0.668447 0.485855 1.154157
0.956507 0.538593 1.170951
1.194128 0.603423 1.194128
0.265668 0.609536 1.156012
0.293320 0.606684 1.156191
0.462703 0.617490 1.160980
0.790532 0.694530 1.181060
1.018387 0.725323 1.195860
1.216383 0.766329 1.216383
0.386135 0.793854 1.183198
0.408333 0.793211 1.183540
0.548310 0.801231 1.188259
0.840328 0.844134 1.205319
1.105935 0.915978 1.232106
1.247280 0.939307 1.247280
0.518320 0.983518 1.220230
0.536772 0.984446 1.220892
0.652562 0.990960 1.225637
0.906380 1.007888 1.238655
1.134813 1.032250 1.257043
1.271825 1.051606 1.271825
