LUT color transfer/LUTs/10.cube
LUT_3D_SIZE 16
-0.153474 -0.126897 -0.153474
-0.140065 -0.124979 -0.152008
-0.058120 -0.117740 -0.146588
0.005168 -0.109344 -0.140540
0.041233 -0.082513 -0.123338
0.148640 0.048947 -0.072744
0.279119 0.115423 0.001210
0.410627 0.170496 0.007990
0.542347 0.220407 0.024106
0.676027 0.268515 0.054960
0.808156 0.314523 0.104887
0.926263 0.354716 0.155032
1.008179 0.383487 0.191149
1.038371 0.396598 0.207721
1.087788 0.418044 0.234841
1.166036 0.451863 0.277840
-0.151042 -0.115983 -0.151042
-0.137296 -0.113806 -0.149544
-0.049027 -0.107190 -0.144338
0.005443 -0.101358 -0.138897
0.041840 -0.068891 -0.121214
0.149423 0.061217 -0.067195
0.279740 0.123248 0.001357
0.411150 0.176285 0.008367
0.542778 0.225108 0.024784
0.676415 0.272476 0.056008
0.808494 0.317935 0.106169
0.926520 0.357691 0.156190
1.008386 0.386026 0.192151
1.038548 0.398781 0.208569
1.087929 0.419916 0.235581
1.166196 0.453581 0.278518
-0.141857 -0.050617 -0.141857
-0.128819 -0.044068 -0.140437
0.000193 0.017778 -0.134122
0.006677 -0.045502 -0.131549
0.044443 0.047959 -0.111469
0.152672 0.100804 -0.026025
0.282437 0.151933 0.002069
0.413451 0.198943 0.010076
0.544794 0.243997 0.027757
0.678215 0.288681 0.060556
0.810041 0.332045 0.111680
0.927833 0.370068 0.160992
1.009278 0.396760 0.196344
1.039305 0.407908 0.212115
1.088597 0.427929 0.238720
1.166830 0.460816 0.281336
-0.131145 0.072655 -0.131145
-0.121211 0.074092 -0.130047
-0.048369 0.079992 -0.125222
0.009436 0.091088 -0.114519
0.049902 0.114991 -0.086713
0.159252 0.154397 0.000291
0.287808 0.196486 0.003913
0.418024 0.237355 0.013973
0.548720 0.277642 0.034260
0.681638 0.318506 0.070281
0.813108 0.358590 0.122619
0.930546 0.393672 0.170672
1.011079 0.417424 0.204729
1.040830 0.425649 0.219318
1.089927 0.443581 0.245003
1.168013 0.475060 0.287072
-0.096240 0.157100 -0.096240
-0.078389 0.157849 -0.094416
0.001958 0.161042 -0.085980
0.017522 0.167307 -0.063799
0.059071 0.176804 0.000054
0.169444 0.211435 0.001748
0.296317 0.249563 0.007900
0.425236 0.286420 0.021358
0.554946 0.322717 0.045903
0.687216 0.359845 0.087216
0.817993 0.396470 0.139371
0.934869 0.427986 0.185582
1.013952 0.447954 0.217781
1.043277 0.452183 0.230479
1.092070 0.467213 0.254871
1.169983 0.496731 0.296091
0.002244 0.245865 0.000671
0.003763 0.246396 0.000727
0.012783 0.248661 0.000995
0.040220 0.253180 0.001658
0.101895 0.260182 0.003017
0.183395 0.269772 0.005546
0.308049 0.306976 0.015616
0.435317 0.341858 0.034195
0.563754 0.375533 0.065020
0.694869 0.409717 0.112057
0.824838 0.443262 0.161933
0.940944 0.471308 0.205874
1.018014 0.487112 0.235667
1.046724 0.486668 0.245904
1.095137 0.498243 0.268535
1.172722 0.525516 0.308594
0.018730 0.337165 0.008300
0.022214 0.337610 0.008508
0.039247 0.339406 0.009416
0.082886 0.343003 0.011385
0.155814 0.348663 0.014877
0.237067 0.356511 0.020546
0.323101 0.366591 0.029270
0.448349 0.401004 0.055207
0.575137 0.433299 0.094709
0.704963 0.465566 0.142368
0.833767 0.496665 0.189847
0.948864 0.521579 0.231217
1.023355 0.533284 0.258272
1.051270 0.527819 0.265517
1.099089 0.535772 0.285996
1.176312 0.560643 0.324660
0.055830 0.427129 0.030332
0.061464 0.427490 0.030746
0.087572 0.428982 0.032543
0.140076 0.431989 0.036332
0.208855 0.436735 0.042781
0.288107 0.443340 0.052733
0.374057 0.451919 0.067323
0.464407 0.462470 0.088001
0.589256 0.494268 0.132016
0.717477 0.525424 0.177366
0.845027 0.554809 0.222495
0.958875 0.577071 0.261268
1.030056 0.584878 0.285275
1.056985 0.574425 0.289120
1.104117 0.578656 0.307190
1.180861 0.601188 0.344258
0.118540 0.515914 0.076219
0.124975 0.516212 0.076917
0.150953 0.517445 0.079863
0.197894 0.520048 0.085984
0.261806 0.524074 0.096054
0.337888 0.529747 0.109973
0.422165 0.537166 0.127564
0.512191 0.546333 0.148595
0.606188 0.557262 0.172672
0.732571 0.587984 0.216183
0.858535 0.616244 0.259159
0.970877 0.636293 0.295377
1.038139 0.640574 0.316257
1.063914 0.625148 0.316420
1.110172 0.625821 0.331841
1.186484 0.646177 0.367184
0.186911 0.604924 0.145886
0.192407 0.605188 0.146571
0.215141 0.606278 0.149420
0.257282 0.608490 0.155094
0.316487 0.611995 0.164047
0.388836 0.617031 0.176384
0.470725 0.623468 0.192115
0.559476 0.631514 0.211157
0.653044 0.641190 0.233228
0.750167 0.652456 0.258146
0.874364 0.680070 0.299273
0.985114 0.698414 0.333074
1.047672 0.699429 0.350799
1.072076 0.679190 0.347097
1.117390 0.676403 0.359728
1.192993 0.694836 0.393332
0.253473 0.692106 0.215090
0.258333 0.692289 0.215678
0.278357 0.693259 0.218194
0.316305 0.695171 0.223182
0.370921 0.698204 0.231097
0.439133 0.702573 0.242087
0.517785 0.708242 0.256227
0.604231 0.715448 0.273466
0.696341 0.724098 0.293655
0.792774 0.734098 0.316648
0.892480 0.745635 0.342234
1.000278 0.762608 0.373839
1.058653 0.760566 0.388451
1.081491 0.735675 0.380779
1.125704 0.729737 0.390534
1.200622 0.746344 0.422377
0.312388 0.769182 0.276576
0.316650 0.769436 0.277108
0.334375 0.770251 0.279297
0.368335 0.771973 0.283743
0.418090 0.774660 0.290721
0.481467 0.778512 0.300476
0.555729 0.783582 0.313089
0.638348 0.789926 0.328587
0.727350 0.797464 0.346856
0.821264 0.806440 0.367806
0.919021 0.816697 0.391334
1.014399 0.828363 0.417178
1.071099 0.823523 0.428742
1.092207 0.794160 0.417051
1.135208 0.784996 0.423974
1.209273 0.800137 0.454022
0.354794 0.824787 0.320963
0.358495 0.824919 0.321399
0.373949 0.825656 0.323314
0.403849 0.827151 0.327165
0.448258 0.829523 0.333263
0.505670 0.832866 0.341773
0.573911 0.837242 0.352842
0.650778 0.842752 0.366538
0.734383 0.849384 0.382744
0.823344 0.857187 0.401454
0.916436 0.866201 0.422545
1.009101 0.876414 0.445900
1.084987 0.887817 0.471355
1.104183 0.854078 0.455690
1.145787 0.842082 0.459719
1.219018 0.855840 0.488098
0.374294 0.850300 0.341357
0.377446 0.850432 0.341749
0.390625 0.851071 0.343380
0.416323 0.852309 0.346615
0.454913 0.854351 0.351818
0.505473 0.857141 0.359146
0.566225 0.860893 0.368612
0.635539 0.865526 0.380357
0.711509 0.871175 0.394403
0.792961 0.877918 0.410638
0.878838 0.885693 0.429048
0.967949 0.894440 0.449597
1.045296 0.904280 0.472024
1.117421 0.915126 0.496285
1.157595 0.900375 0.497506
1.229772 0.912885 0.524218
0.406208 0.892074 0.374792
0.408946 0.892153 0.375096
0.420540 0.892733 0.376568
0.443240 0.893849 0.379417
0.477703 0.895596 0.383956
0.523316 0.898081 0.390377
0.578750 0.901334 0.398733
0.642460 0.905422 0.409177
0.713017 0.910400 0.421627
0.789326 0.916298 0.436139
0.870108 0.923131 0.452659
0.954551 0.930890 0.471119
1.031446 0.939551 0.491396
1.100264 0.949229 0.513425
1.170487 0.959791 0.537167
1.241612 0.971375 0.562320
0.456756 0.958095 0.427780
0.459237 0.958180 0.428092
0.469780 0.958626 0.429368
0.490602 0.959648 0.431984
0.522384 0.961265 0.436154
0.564701 0.963548 0.442002
0.616775 0.966442 0.449693
0.677212 0.970241 0.459228
0.744681 0.974728 0.470676
0.817984 0.980124 0.484033
0.896252 0.986379 0.499307
0.978329 0.993460 0.516440
1.048151 1.000611 0.535358
1.115515 1.009237 0.555962
1.184538 1.018745 0.578279
1.254613 1.029088 0.602037
-0.152975 -0.126249 -0.141152
-0.139498 -0.124321 -0.139498
-0.056415 -0.117120 -0.135202
0.005225 -0.108863 -0.132316
0.041364 -0.081748 -0.112505
0.148806 0.049777 -0.033868
0.279238 0.115927 0.001992
0.410736 0.170870 0.009899
0.542413 0.220711 0.027451
0.676166 0.268766 0.060085
0.808224 0.314734 0.111130
0.926354 0.354932 0.160530
1.008222 0.383654 0.195891
1.038409 0.396750 0.211766
1.087822 0.418172 0.238402
1.166069 0.451957 0.281063
-0.150536 -0.115246 -0.138413
-0.136717 -0.113050 -0.136717
-0.044774 -0.104613 -0.130393
0.005727 -0.094527 -0.123193
0.042366 -0.057493 -0.101681
0.149851 0.065427 0.000000
0.279946 0.124533 0.002286
0.411252 0.176513 0.010261
0.542807 0.224895 0.027738
0.676423 0.272032 0.060138
0.808472 0.317401 0.110896
0.926490 0.357213 0.160255
1.008386 0.385692 0.195904
1.038571 0.398745 0.212271
1.087963 0.420063 0.239127
1.166203 0.453705 0.281732
-0.141380 -0.048531 -0.129877
-0.126026 -0.039860 -0.126026
0.000224 0.019974 -0.118882
0.006913 -0.025372 -0.114857
0.044928 0.054070 -0.089079
0.153100 0.103550 0.000173
0.282629 0.152918 0.003162
0.413527 0.199146 0.012124
0.544826 0.243819 0.030866
0.678222 0.288280 0.064854
0.810021 0.331567 0.116337
0.927840 0.369619 0.165053
1.009277 0.396445 0.200083
1.039328 0.407885 0.215838
1.088631 0.428049 0.242225
1.166863 0.460929 0.284530
-0.130770 0.073151 -0.122008
-0.113132 0.075826 -0.113132
-0.011491 0.081344 -0.107515
0.009551 0.091783 -0.094630
0.050293 0.117184 -0.049196
0.159595 0.155876 0.000839
0.288002 0.197164 0.005324
0.418087 0.237532 0.016328
0.548711 0.277510 0.037671
0.681649 0.318157 0.074886
0.813102 0.358228 0.127112
0.930529 0.393331 0.174610
1.011079 0.417168 0.208369
1.040854 0.425646 0.222946
1.089961 0.443691 0.248497
1.168046 0.475166 0.290235
-0.095627 0.157349 -0.079952
-0.063788 0.158664 -0.063788
0.002566 0.161764 -0.047590
0.018345 0.167886 0.000000
0.059286 0.177138 0.000351
0.169738 0.212149 0.002774
0.296486 0.250010 0.009783
0.425308 0.286563 0.024191
0.554997 0.322642 0.049791
0.687233 0.359594 0.092248
0.817994 0.396136 0.143732
0.934850 0.427648 0.189422
1.013954 0.447727 0.221357
1.043300 0.452175 0.234019
1.092104 0.467327 0.258254
1.169964 0.496831 0.299192
0.002298 0.246056 0.001188
0.004356 0.246797 0.001471
0.013603 0.249044 0.001829
0.041211 0.253504 0.002665
0.102736 0.260474 0.004280
0.183585 0.269986 0.007149
0.308196 0.307216 0.018114
0.435376 0.341972 0.037670
0.563771 0.375473 0.069554
0.694873 0.409566 0.116797
0.824837 0.443025 0.166003
0.940932 0.471026 0.209479
1.018017 0.486927 0.239099
1.046748 0.486668 0.249317
1.095144 0.498344 0.271839
1.172755 0.525623 0.311605
0.018866 0.337322 0.010014
0.022738 0.337772 0.010448
0.039857 0.339568 0.011436
0.083599 0.343204 0.013575
0.156327 0.348834 0.017324
0.237389 0.356664 0.023344
0.323263 0.366703 0.032526
0.448461 0.401115 0.059493
0.575195 0.433313 0.099827
0.704977 0.465463 0.146760
0.833778 0.496471 0.193632
0.948864 0.521378 0.234676
1.023361 0.533125 0.261548
1.051295 0.527828 0.268782
1.099122 0.535851 0.289176
1.176345 0.560722 0.327606
0.056050 0.427252 0.033710
0.061565 0.427589 0.034062
0.087689 0.429086 0.035943
0.140199 0.432098 0.039897
0.208983 0.436851 0.046610
0.288224 0.443465 0.056933
0.374164 0.452022 0.072003
0.464492 0.462587 0.093224
0.589372 0.494320 0.136582
0.717514 0.525393 0.181398
0.845031 0.554698 0.226026
0.958888 0.576909 0.264478
1.030066 0.584768 0.288363
1.057011 0.574430 0.292251
1.104151 0.578722 0.310227
1.180893 0.601238 0.347091
0.118807 0.516001 0.081767
0.124548 0.516274 0.081808
0.150577 0.517505 0.084820
0.197575 0.520096 0.091100
0.261595 0.524138 0.101108
0.337761 0.529815 0.114855
0.422153 0.537248 0.132223
0.512260 0.546408 0.152971
0.606248 0.557325 0.176822
0.732644 0.588002 0.219862
0.858581 0.616173 0.262441
0.970906 0.636218 0.298390
1.038152 0.640474 0.319161
1.063940 0.625166 0.319362
1.110206 0.625939 0.334715
1.186487 0.646253 0.369936
0.187126 0.605052 0.151208
0.191713 0.605220 0.150870
0.214504 0.606305 0.153712
0.256754 0.608543 0.159336
0.316064 0.612059 0.168181
0.388519 0.617040 0.180428
0.470527 0.623487 0.195985
0.559336 0.631570 0.214861
0.652980 0.641244 0.236785
0.750229 0.652474 0.261525
0.874383 0.680077 0.302309
0.985113 0.698360 0.335904
1.047689 0.699345 0.353511
1.072103 0.679194 0.349930
1.117423 0.676464 0.362470
1.193040 0.694895 0.395940
0.253631 0.692159 0.219750
0.257482 0.692309 0.219287
0.277594 0.693280 0.221761
0.315629 0.695195 0.226716
0.370361 0.698231 0.234597
0.438705 0.702617 0.245493
0.517486 0.708282 0.259520
0.604019 0.715502 0.276658
0.696194 0.724108 0.296734
0.792733 0.734191 0.319600
0.892523 0.745700 0.345089
1.000304 0.762617 0.376497
1.058675 0.760553 0.390969
1.081540 0.735672 0.383394
1.125738 0.729823 0.393121
1.200655 0.746408 0.424811
0.312538 0.769267 0.280689
0.315868 0.769451 0.280226
0.333659 0.770268 0.282413
0.367702 0.771991 0.286829
0.417550 0.774681 0.293765
0.481025 0.778536 0.303467
0.555355 0.783596 0.316007
0.638058 0.789900 0.331425
0.727191 0.797507 0.349643
0.821176 0.806492 0.370518
0.918980 0.816726 0.393882
1.014434 0.828389 0.419641
1.071127 0.823500 0.431118
1.092237 0.794188 0.419565
1.135241 0.785039 0.426388
1.209306 0.800196 0.456345
0.354950 0.824866 0.324524
0.357966 0.824948 0.324252
0.373446 0.825685 0.326167
0.403397 0.827181 0.330009
0.447864 0.829555 0.336082
0.505387 0.832901 0.344534
0.573631 0.837240 0.355563
0.650524 0.842794 0.369149
0.734274 0.849431 0.385312
0.823215 0.857214 0.403932
0.916381 0.866242 0.424983
1.009100 0.876482 0.448241
1.084998 0.887863 0.473568
1.104200 0.854079 0.457968
1.145820 0.842100 0.461999
1.218977 0.855880 0.490282
0.374411 0.850358 0.344353
0.377345 0.850492 0.344533
0.390528 0.851107 0.346153
0.416227 0.852369 0.349404
0.454856 0.854363 0.354537
0.505418 0.857178 0.361859
0.566166 0.860956 0.371299
0.635458 0.865590 0.382972
0.711496 0.871240 0.396951
0.792957 0.877963 0.413139
0.878807 0.885721 0.431456
0.967990 0.894472 0.451880
1.045320 0.904356 0.474229
1.117455 0.915127 0.498450
1.157628 0.900424 0.499634
1.229804 0.912962 0.526318
0.406298 0.892111 0.377414
0.409014 0.892204 0.377763
0.420662 0.892736 0.379189
0.443340 0.893852 0.382066
0.477797 0.895645 0.386586
0.523400 0.898119 0.392972
0.578790 0.901344 0.401345
0.642556 0.905452 0.411664
0.713112 0.910403 0.424077
0.789394 0.916313 0.438525
0.870156 0.923140 0.454953
0.954567 0.930917 0.473333
1.031481 0.939574 0.493551
1.100298 0.949308 0.515485
1.170521 0.959863 0.539135
1.241646 0.971403 0.564322
0.456877 0.958087 0.430176
0.459338 0.958195 0.430498
0.469870 0.958708 0.431792
0.490664 0.959717 0.434392
0.522449 0.961344 0.438536
0.564793 0.963561 0.444365
0.616833 0.966509 0.451977
0.677283 0.970321 0.461482
0.744778 0.974808 0.472910
0.818076 0.980129 0.486246
0.896321 0.986407 0.501439
0.978432 0.993459 0.518539
1.048186 1.000646 0.537375
1.115548 1.009273 0.557969
1.184541 1.018780 0.580121
1.254704 1.029119 0.603845
-0.151180 -0.123900 -0.072638
-0.139371 -0.122176 -0.068909
-0.048132 -0.114397 -0.048132
0.005468 -0.106789 -0.083789
0.041893 -0.078363 0.000000
0.149484 0.053243 0.001436
0.279787 0.118077 0.007160
0.411227 0.172436 0.020054
0.542825 0.221972 0.043889
0.676463 0.269830 0.084306
0.808542 0.315629 0.136699
0.926572 0.355716 0.183166
1.008406 0.384332 0.215705
1.038564 0.397334 0.228687
1.087944 0.418682 0.253265
1.166209 0.452437 0.294612
-0.149029 -0.114144 -0.066320
-0.134613 -0.110284 -0.060197
-0.032621 -0.101526 -0.032621
0.005965 -0.092111 -0.069153
0.042895 -0.051841 0.000073
0.150510 0.068269 0.001797
0.280504 0.126543 0.007666
0.411752 0.178034 0.020555
0.543277 0.226139 0.044261
0.676860 0.273087 0.084386
0.808824 0.318310 0.136475
0.926779 0.358035 0.182946
1.008571 0.386412 0.215704
1.038731 0.399348 0.229174
1.088109 0.420557 0.253970
1.166383 0.454148 0.295266
-0.139296 -0.037697 0.000000
-0.123669 -0.024018 0.000000
0.000348 0.026716 0.000073
0.007888 0.042457 0.000204
0.046490 0.070238 0.000799
0.154141 0.108790 0.002866
0.282928 0.152491 0.008466
0.413521 0.196419 0.020431
0.544612 0.240152 0.042577
0.677931 0.284250 0.080438
0.809771 0.327546 0.131670
0.927635 0.365947 0.178389
1.009130 0.393653 0.212513
1.039284 0.406365 0.228240
1.088638 0.427175 0.254127
1.166870 0.460131 0.295390
-0.129171 0.075206 -0.061204
-0.111272 0.077732 -0.039510
0.001225 0.086462 0.000323
0.009968 0.094224 0.000555
0.051573 0.123762 0.001596
0.160575 0.158872 0.004573
0.288336 0.197012 0.011675
0.418082 0.235584 0.025688
0.548605 0.274632 0.050443
0.681449 0.314820 0.091489
0.812818 0.354691 0.142024
0.930237 0.390012 0.187673
1.010938 0.414622 0.220583
1.040813 0.424254 0.235154
1.089970 0.442890 0.260224
1.168054 0.474424 0.300959
-0.092926 0.158436 0.000426
-0.058978 0.159719 0.000649
0.004723 0.164148 0.001618
0.020936 0.169794 0.002221
0.060069 0.178383 0.003358
0.170547 0.213797 0.008014
0.296842 0.250105 0.017740
0.425404 0.285370 0.035206
0.554887 0.320588 0.064240
0.686989 0.356998 0.109131
0.817695 0.393279 0.158033
0.934655 0.424881 0.202046
1.013827 0.445516 0.233242
1.043265 0.450943 0.245971
1.092115 0.466572 0.269770
1.169974 0.496137 0.309692
0.002536 0.246810 0.004791
0.004649 0.247555 0.005273
0.015139 0.250068 0.006447
0.043130 0.254480 0.007838
0.104503 0.261341 0.010310
0.184244 0.270709 0.014328
0.308604 0.307559 0.028253
0.435501 0.341419 0.050983
0.563718 0.374170 0.086329
0.694758 0.407696 0.132665
0.824625 0.440809 0.179661
0.940717 0.468778 0.221643
1.017901 0.485083 0.250571
1.046720 0.485619 0.260893
1.095160 0.497712 0.283011
1.172742 0.525026 0.321890
0.019436 0.337910 0.018921
0.023344 0.338398 0.019476
0.039130 0.339980 0.019894
0.082887 0.343637 0.022611
0.156025 0.349295 0.027286
0.237505 0.357155 0.034590
0.323717 0.367231 0.045423
0.448682 0.401051 0.075796
0.575245 0.432583 0.117058
0.704904 0.464232 0.161555
0.833652 0.494878 0.206509
0.948726 0.519616 0.246228
1.023264 0.531681 0.272515
1.051276 0.526984 0.279894
1.099143 0.535328 0.299981
1.176406 0.560203 0.337579
0.056981 0.427771 0.049925
0.062530 0.428106 0.050352
0.083627 0.429238 0.048988
0.137047 0.432263 0.053558
0.206909 0.437037 0.061228
0.287094 0.443707 0.072900
0.373815 0.452341 0.089755
0.464853 0.462963 0.111440
0.589463 0.494140 0.152342
0.717531 0.524758 0.195132
0.845033 0.553619 0.238102
0.958731 0.575634 0.275429
1.029988 0.583636 0.298813
1.057004 0.573721 0.302857
1.104178 0.578296 0.320583
1.180917 0.600840 0.356694
0.119894 0.516421 0.106253
0.125621 0.516709 0.106339
0.145050 0.517520 0.102587
0.193149 0.520126 0.108732
0.258367 0.524203 0.118320
0.335572 0.529936 0.131489
0.420916 0.537430 0.148155
0.511804 0.546632 0.168200
0.606459 0.557630 0.191302
0.732781 0.587820 0.232620
0.858572 0.615604 0.273778
0.970822 0.635382 0.308738
1.038107 0.639648 0.329106
1.063948 0.624633 0.329509
1.110269 0.625562 0.344622
1.186517 0.645938 0.379163
0.188051 0.605385 0.173034
0.192641 0.605568 0.172801
0.208492 0.606251 0.168297
0.251660 0.608472 0.173726
0.312024 0.612005 0.182287
0.385562 0.617047 0.194118
0.468497 0.623574 0.209332
0.558210 0.631677 0.227712
0.652467 0.641410 0.249139
0.750484 0.652768 0.273378
0.874495 0.679861 0.312940
0.985121 0.697891 0.345680
1.047678 0.698828 0.362923
1.072128 0.678825 0.359461
1.117469 0.676287 0.371874
1.193079 0.694682 0.404759
0.254472 0.692469 0.239126
0.258307 0.692641 0.238689
0.271533 0.693142 0.233931
0.310323 0.695124 0.238802
0.365939 0.698237 0.246485
0.435204 0.702583 0.257172
0.514878 0.708283 0.270916
0.602185 0.715470 0.287715
0.695133 0.724217 0.307461
0.792320 0.734256 0.329973
0.892746 0.745808 0.355081
1.000365 0.762473 0.385706
1.058703 0.760272 0.399876
1.081562 0.735498 0.392477
1.125794 0.729590 0.402118
1.200702 0.746180 0.433224
0.313295 0.769532 0.297826
0.316575 0.769716 0.297426
0.328152 0.770135 0.293031
0.362771 0.771914 0.297348
0.413299 0.774571 0.304180
0.477551 0.778462 0.313727
0.552580 0.783561 0.326056
0.636031 0.789955 0.341252
0.725850 0.797539 0.359184
0.820341 0.806521 0.379782
0.918684 0.816859 0.402928
1.014561 0.828541 0.428378
1.071199 0.823521 0.439539
1.092279 0.794080 0.428110
1.135311 0.784987 0.434864
1.209364 0.800122 0.464408
0.355589 0.825085 0.339456
0.358603 0.825249 0.339267
0.369172 0.825636 0.336007
0.399476 0.827141 0.339744
0.444397 0.829494 0.345695
0.502423 0.832857 0.354065
0.571242 0.837260 0.364906
0.648683 0.842804 0.378332
0.732898 0.849432 0.394252
0.822237 0.857288 0.412656
0.915848 0.866290 0.433440
1.008955 0.876588 0.456449
1.085141 0.888018 0.481579
1.104292 0.854098 0.466092
1.145903 0.842110 0.470065
1.219047 0.855837 0.497923
0.374941 0.850587 0.357150
0.377883 0.850713 0.357274
0.388095 0.851157 0.355785
0.413975 0.852405 0.358988
0.452824 0.854396 0.364058
0.503666 0.857229 0.371257
0.564717 0.861012 0.380526
0.634276 0.865640 0.392052
0.710479 0.871315 0.405855
0.792310 0.878040 0.421788
0.878386 0.885831 0.439911
0.967778 0.894609 0.460061
1.045289 0.904481 0.482202
1.117541 0.915329 0.506072
1.157704 0.900481 0.507222
1.229849 0.912990 0.533610
0.406776 0.892271 0.388681
0.409500 0.892434 0.388958
0.419116 0.892802 0.388313
0.441962 0.893919 0.391111
0.476518 0.895666 0.395602
0.522239 0.898185 0.401909
0.577864 0.901482 0.410109
0.641723 0.905533 0.420346
0.712511 0.910533 0.432572
0.788884 0.916409 0.446823
0.869806 0.923220 0.463076
0.954396 0.931006 0.481232
1.031412 0.939704 0.501206
1.100320 0.949391 0.522949
1.170611 0.959975 0.546333
1.241800 0.971471 0.571178
0.457283 0.958257 0.440438
0.459760 0.958375 0.440737
0.468538 0.958780 0.440134
0.489384 0.959798 0.442692
0.521232 0.961362 0.446768
0.563761 0.963648 0.452551
0.615929 0.966582 0.460084
0.676449 0.970353 0.469489
0.744009 0.974847 0.480751
0.817543 0.980248 0.493907
0.895901 0.986460 0.508981
0.978091 0.993578 0.525896
1.048053 1.000744 0.544550
1.115494 1.009379 0.564902
1.184569 1.018891 0.586912
1.254775 1.029245 0.610369
-0.149251 -0.121338 0.001219
-0.141095 -0.120114 0.001278
-0.094490 -0.114687 0.001540
0.005973 -0.102387 0.002139
0.042980 -0.070769 0.004265
0.150866 0.059807 0.011281
0.280916 0.122320 0.025784
0.412150 0.175582 0.049962
0.543709 0.224539 0.087510
0.677265 0.271984 0.135608
0.809146 0.317494 0.183606
0.927119 0.357346 0.225535
1.008777 0.385678 0.253175
1.038878 0.398523 0.261055
1.088215 0.419731 0.282028
1.166458 0.453368 0.321001
-0.147743 -0.114517 0.001316
-0.132335 -0.107256 0.001487
-0.081946 -0.101174 0.001750
0.006458 -0.086927 0.002347
0.043956 -0.036368 0.004803
0.151851 0.073784 0.012067
0.281629 0.130477 0.026640
0.412652 0.181100 0.050723
0.544102 0.228653 0.088027
0.677543 0.275228 0.135748
0.809479 0.320163 0.183459
0.927378 0.359612 0.225323
1.008943 0.387762 0.253189
1.039036 0.400561 0.261546
1.088390 0.421603 0.282685
1.166632 0.455089 0.321606
-0.141043 -0.075078 0.001767
-0.124860 -0.064319 0.001933
0.000497 0.032685 0.002627
0.008304 0.046878 0.003161
0.047526 0.074452 0.006771
0.155462 0.112651 0.014255
0.284049 0.155715 0.028133
0.414444 0.199147 0.050802
0.545460 0.242502 0.086099
0.678729 0.286304 0.132429
0.810371 0.329344 0.179422
0.928107 0.367551 0.221418
1.009503 0.395007 0.250390
1.039589 0.407524 0.260745
1.088908 0.428178 0.282877
1.167078 0.461040 0.321751
-0.125842 0.079271 0.002856
-0.107344 0.081500 0.002998
0.001448 0.089149 0.003532
0.010418 0.096758 0.004137
0.050997 0.114088 0.005858
0.158599 0.141764 0.009962
0.286062 0.176782 0.018588
0.415858 0.215122 0.034436
0.546496 0.255089 0.061272
0.679496 0.296497 0.103939
0.811017 0.337812 0.152315
0.928731 0.374916 0.196735
1.009913 0.401852 0.229337
1.040034 0.414205 0.244496
1.089352 0.434527 0.269452
1.167484 0.466834 0.309437
-0.087099 0.160655 0.006424
-0.046990 0.161867 0.006929
0.005200 0.166085 0.008670
0.016453 0.169729 0.007116
0.060894 0.179694 0.009262
0.169744 0.207458 0.015186
0.295260 0.239098 0.026493
0.423548 0.272084 0.045786
0.553042 0.306497 0.076873
0.685194 0.342859 0.121429
0.816040 0.379514 0.168284
0.933037 0.412106 0.211031
1.012847 0.434352 0.241884
1.042506 0.442000 0.255203
1.091508 0.458994 0.278912
1.169449 0.489162 0.318108
0.003044 0.248375 0.018211
0.005262 0.249099 0.018963
0.016044 0.251577 0.020822
0.030711 0.253479 0.014923
0.095178 0.261104 0.018534
0.184951 0.271513 0.024244
0.307955 0.303085 0.039835
0.434294 0.333741 0.064356
0.562277 0.364733 0.101218
0.693232 0.397340 0.144842
0.823180 0.430121 0.189820
0.939321 0.458396 0.230550
1.016992 0.475696 0.259161
1.046017 0.477903 0.269969
1.094571 0.491034 0.292013
1.172217 0.518736 0.330173
0.020615 0.339183 0.044383
0.024597 0.339616 0.045161
0.040619 0.341251 0.045902
0.059517 0.342356 0.032721
0.140116 0.348474 0.038619
0.230745 0.356938 0.047744
0.324193 0.367765 0.061125
0.448163 0.397834 0.093151
0.574307 0.426999 0.131870
0.703682 0.457161 0.173645
0.832392 0.486990 0.216636
0.947506 0.511513 0.255100
1.022438 0.524074 0.281005
1.050631 0.520542 0.288812
1.098597 0.529617 0.308772
1.175888 0.554730 0.345706
0.058892 0.428800 0.091348
0.064505 0.429139 0.091910
