LUT color transfer/LUTs/11.cube
LUT_3D_SIZE 6
-0.139228 -0.130856 -0.161684
0.004980 -0.114982 -0.150309
0.279375 0.123551 0.000364
0.672494 0.264390 0.021287
0.848827 0.317654 0.054310
1.030113 0.375065 0.108779
-0.094248 0.099582 -0.128431
0.010277 0.111633 -0.112055
0.293701 0.247477 0.002201
0.682838 0.348525 0.034621
0.855143 0.369932 0.068142
1.032883 0.411034 0.119438
0.066494 0.452362 0.013944
0.138075 0.457184 0.017072
0.351594 0.478851 0.034783
0.725970 0.560883 0.115081
0.881421 0.525985 0.125469
1.044627 0.530627 0.163530
0.262929 0.767982 0.176501
0.319981 0.770962 0.183057
0.515367 0.783212 0.210614
0.808576 0.809727 0.264094
0.933200 0.726516 0.231599
1.067926 0.698034 0.246712
0.352858 0.895737 0.269449
0.388593 0.897390 0.273662
0.522044 0.904478 0.291302
0.737768 0.918661 0.326220
1.006262 0.941945 0.379813
1.103710 0.885456 0.366376
0.456516 1.030716 0.380364
0.481684 1.031764 0.383375
0.580381 1.036235 0.396266
0.750231 1.045227 0.422070
0.972804 1.059384 0.462030
1.151969 1.079052 0.516797
-0.131355 -0.122217 0.001181
0.006092 -0.104423 0.001583
0.282500 0.131594 0.035868
0.674702 0.268396 0.121018
0.850189 0.319460 0.130475
1.030710 0.376130 0.167056
-0.079638 0.107206 0.002387
0.011597 0.117789 0.002970
0.288238 0.195690 0.012846
0.678082 0.302110 0.066595
0.853598 0.348854 0.107634
1.032712 0.401185 0.159086
0.070802 0.455098 0.087102
0.104706 0.456201 0.046074
0.353013 0.479753 0.075849
0.723131 0.545614 0.148752
0.880249 0.514805 0.161512
1.044508 0.523840 0.199789
0.266174 0.769667 0.264976
0.288252 0.770041 0.217623
0.500416 0.782839 0.244655
0.809477 0.810173 0.298490
0.932859 0.722590 0.265023
1.067927 0.694887 0.280314
0.354806 0.896628 0.327045
0.374979 0.897349 0.306768
0.512704 0.904559 0.323534
0.733951 0.918858 0.357908
1.006734 0.942385 0.410732
1.103882 0.884571 0.396910
0.457830 1.031308 0.422174
0.475998 1.031988 0.413943
0.575739 1.036481 0.426124
0.747591 1.045511 0.451341
0.972112 1.059735 0.490742
1.152356 1.079465 0.544319
0.001080 0.062713 0.322770
0.055161 0.089708 0.327635
0.303151 0.172560 0.348215
0.684179 0.292403 0.458457
0.855912 0.333592 0.386148
1.033243 0.385640 0.374426
0.009887 0.226282 0.335587
0.026827 0.166773 0.331762
0.309197 0.227582 0.354617
0.687829 0.324134 0.438779
0.859377 0.361797 0.374455
1.035255 0.410079 0.369919
0.091219 0.472800 0.388857
0.125494 0.474195 0.391219
0.367008 0.490596 0.412835
0.728500 0.535957 0.465043
0.897228 0.560932 0.494876
1.056727 0.592081 0.530732
0.281680 0.776620 0.561913
0.303889 0.777305 0.540949
0.493000 0.788548 0.537068
0.817527 0.814926 0.579206
0.945608 0.741100 0.561002
1.078172 0.732476 0.581359
0.364304 0.900745 0.537961
0.384411 0.901490 0.525199
0.560622 0.912440 0.606192
0.760132 0.925737 0.629540
1.011189 0.946490 0.669568
1.111282 0.904135 0.667158
0.464627 1.033844 0.583783
0.482656 1.034534 0.577806
0.643247 1.043823 0.691082
0.793912 1.052139 0.708707
0.998820 1.065255 0.739165
1.156009 1.083522 0.781401
0.029085 0.186164 0.885495
0.122801 0.200188 0.889157
0.386846 0.254021 0.905026
0.716628 0.335126 0.936740
0.867504 0.360319 0.751961
1.038385 0.404141 0.686472
0.051200 0.301003 0.895342
0.074870 0.242127 0.891419
0.372252 0.289122 0.907916
0.720177 0.364102 0.940896
0.870948 0.386628 0.749332
1.040399 0.427415 0.685199
0.154008 0.540025 0.936754
0.176083 0.524531 0.934677
0.398258 0.516909 0.946434
0.755297 0.559716 0.979909
0.907754 0.574930 0.824485
1.061396 0.602575 0.795163
0.312021 0.798203 1.008478
0.334427 0.798929 1.009310
0.517763 0.806504 1.017121
0.836190 0.828583 1.034594
0.990142 0.843250 1.044858
1.108753 0.862148 1.058225
0.383327 0.909390 0.872001
0.403242 0.910091 0.866786
0.574781 0.920691 0.915027
0.885350 0.945587 1.061433
1.021231 0.958099 1.071308
1.132216 0.969878 1.083224
0.478147 1.038981 0.854415
0.495997 1.039684 0.851151
0.653756 1.048545 0.930221
0.947957 1.070077 1.095552
1.053703 1.079466 1.104642
1.164396 1.092640 1.117382
0.056313 0.230327 1.077769
0.124124 0.238072 1.079013
0.325147 0.271321 1.084202
0.590324 0.327360 1.094651
0.890842 0.398698 1.111081
1.046511 0.431797 1.036399
0.074782 0.303376 1.081020
0.105068 0.276613 1.080551
0.316771 0.305522 1.085804
0.588769 0.356074 1.096383
0.894097 0.422672 1.112998
1.048548 0.453534 1.037167
0.146188 0.487711 1.094634
0.171777 0.476809 1.094361
0.414890 0.531865 1.106117
0.647832 0.557783 1.115750
0.925985 0.596376 1.130877
1.068750 0.618806 1.075374
0.263415 0.701796 1.121579
0.285362 0.698484 1.121715
0.487975 0.723791 1.131296
0.846893 0.836919 1.161438
0.999559 0.851403 1.170195
1.113851 0.869732 1.177111
0.412731 0.923745 1.162868
0.432324 0.924544 1.163557
0.597171 0.932688 1.169993
0.895676 0.952593 1.184388
1.027162 0.964895 1.192855
1.138317 0.980676 1.204086
0.499464 1.047095 1.113747
0.516890 1.047830 1.113248
0.670336 1.056052 1.137178
0.957501 1.075429 1.209361
1.062827 1.085359 1.222017
1.169332 1.098034 1.232817
0.097450 0.277078 1.234158
0.147278 0.282163 1.234914
0.309110 0.304966 1.238384
0.536028 0.345978 1.245433
0.799100 0.401700 1.256559
1.057913 0.467763 1.272045
0.111157 0.327602 1.236232
0.141664 0.315774 1.236396
0.306594 0.336084 1.239837
0.535967 0.373339 1.246922
0.800843 0.425098 1.258128
1.059975 0.487720 1.273668
0.165031 0.474804 1.245420
0.191666 0.468691 1.245566
0.436333 0.550980 1.257663
0.623006 0.570879 1.264038
0.856241 0.601127 1.274279
1.079120 0.641081 1.288471
0.258401 0.660165 1.263699
0.281235 0.657735 1.263932
0.493345 0.704375 1.274528
0.860946 0.847832 1.304232
1.003444 0.861479 1.311531
1.121033 0.880392 1.321476
0.382290 0.857876 1.292223
0.401870 0.857486 1.292558
0.581116 0.882067 1.300938
0.907448 0.957572 1.323162
1.034959 0.973866 1.331195
1.145059 0.989444 1.340654
0.528733 1.058494 1.331282
0.545809 1.059268 1.331901
0.693469 1.066579 1.337088
0.970750 1.082938 1.349054
1.070253 1.092597 1.356238
1.175843 1.105154 1.365508
