LUT color transfer/LUTs/11.cube
LUT_3D_SIZE 16
-0.139228 -0.130856 -0.161684
-0.127860 -0.129499 -0.160673
-0.063490 -0.124444 -0.156991
0.004980 -0.114982 -0.150309
0.045456 -0.079450 -0.128844
0.153938 0.061722 -0.054841
0.279375 0.123551 0.000364
0.411700 0.176764 0.002683
0.546854 0.223947 0.009125
0.672494 0.264390 0.021287
0.769746 0.294175 0.036691
0.826666 0.311153 0.048845
0.848827 0.317654 0.054310
0.852132 0.318606 0.055124
0.941995 0.344774 0.078959
1.030113 0.375065 0.108779
-0.135901 -0.118330 -0.159001
-0.124095 -0.116756 -0.157973
-0.053970 -0.112779 -0.154549
0.005315 -0.103349 -0.148019
0.046428 -0.046819 -0.125083
0.155040 0.079260 -0.033730
0.280425 0.136893 0.000441
0.412585 0.187137 0.002927
0.547711 0.232504 0.009636
0.673210 0.271554 0.022111
0.770389 0.300176 0.037750
0.827272 0.316135 0.049945
0.849379 0.321791 0.055290
0.852537 0.322052 0.055960
0.942341 0.347765 0.079735
1.030308 0.377779 0.109538
-0.122889 -0.023102 -0.148803
-0.110993 0.003952 -0.147818
0.000177 0.021011 -0.143489
0.006825 0.026301 -0.137600
0.050634 0.078405 -0.106778
0.159874 0.134461 0.000000
0.284851 0.182376 0.000859
0.416637 0.225324 0.004115
0.551249 0.265293 0.012007
0.676421 0.299845 0.025884
0.773233 0.324297 0.042531
0.829570 0.336466 0.054894
0.851215 0.338672 0.059525
0.854087 0.336168 0.059483
0.943772 0.360377 0.083131
1.031165 0.389166 0.112784
-0.094248 0.099582 -0.128431
-0.078066 0.100456 -0.127352
0.001108 0.104164 -0.122605
0.010277 0.111633 -0.112055
0.059594 0.156361 -0.033589
0.169468 0.205313 0.000323
0.293701 0.247477 0.002201
0.424668 0.284946 0.007259
0.558518 0.319513 0.017778
0.682838 0.348525 0.034621
0.778788 0.367119 0.053319
0.834189 0.373253 0.065093
0.855143 0.369932 0.068142
0.857362 0.362598 0.066635
0.946748 0.384265 0.089935
1.032883 0.411034 0.119438
0.002396 0.214287 0.000000
0.003624 0.214835 0.000000
0.010480 0.217180 0.000000
0.030346 0.221849 0.000000
0.074699 0.229876 0.000204
0.184422 0.279792 0.001726
0.307681 0.321183 0.005902
0.437377 0.356172 0.014493
0.569846 0.387171 0.029797
0.693004 0.411512 0.051733
0.787549 0.424191 0.071716
0.841671 0.423610 0.081285
0.861261 0.413560 0.081785
0.862449 0.400135 0.077947
0.951324 0.418727 0.100715
1.035635 0.442884 0.129838
0.020719 0.334976 0.001989
0.023996 0.335392 0.002049
0.039707 0.337247 0.002317
0.078251 0.340899 0.002922
0.135400 0.346615 0.004058
0.204904 0.355795 0.006043
0.326950 0.398898 0.014950
0.455049 0.433501 0.029976
0.585857 0.462592 0.053329
0.707266 0.483477 0.079431
0.800027 0.490908 0.097464
0.852202 0.483662 0.103873
0.869927 0.466485 0.100831
0.869592 0.446461 0.093841
0.957968 0.461922 0.115816
1.039514 0.483374 0.144493
0.066494 0.452362 0.013944
0.072222 0.452724 0.014156
0.095541 0.454194 0.015086
0.138075 0.457184 0.017072
0.196912 0.461947 0.020556
0.268335 0.468579 0.026150
0.351594 0.478851 0.034783
0.477881 0.514239 0.060729
0.606698 0.542541 0.089672
0.725970 0.560883 0.115081
0.816145 0.563678 0.130471
0.865876 0.550130 0.132860
0.881421 0.525985 0.125469
0.879121 0.499238 0.114561
0.966504 0.511733 0.135467
1.044627 0.530627 0.163530
0.131880 0.565065 0.050940
0.137179 0.565353 0.051447
0.159011 0.566618 0.053547
0.199731 0.569139 0.057969
0.257462 0.573089 0.064962
0.329116 0.578714 0.074912
0.411629 0.586048 0.087863
0.505848 0.597124 0.104001
0.632332 0.625347 0.133868
0.748934 0.641773 0.158194
0.836372 0.640504 0.170507
0.883020 0.620959 0.168186
0.895685 0.589980 0.155697
0.891045 0.556601 0.139955
0.977385 0.566444 0.159695
1.051027 0.582994 0.186918
0.199453 0.672774 0.113607
0.204262 0.672976 0.114129
0.224315 0.674030 0.116278
0.262357 0.676239 0.120638
0.317544 0.679509 0.127583
0.387274 0.684297 0.137349
0.468922 0.690611 0.150110
0.560304 0.698359 0.165947
0.662933 0.709967 0.184910
0.776595 0.724906 0.208061
0.860496 0.719911 0.216972
0.903629 0.694738 0.209472
0.912970 0.657106 0.191115
0.905366 0.617087 0.170033
0.990472 0.624626 0.188319
1.058771 0.639037 0.214676
0.262929 0.767982 0.176501
0.267225 0.768218 0.176952
0.285260 0.769158 0.178980
0.319981 0.770962 0.183057
0.371142 0.773813 0.189549
0.437057 0.777864 0.198663
0.515367 0.783212 0.210614
0.603828 0.789866 0.225471
0.700714 0.797880 0.243324
0.808576 0.809727 0.264094
0.888795 0.801288 0.269443
0.927680 0.770581 0.256315
0.933200 0.726516 0.231599
0.922344 0.680025 0.204558
1.002389 0.685022 0.221241
1.067926 0.698034 0.246712
0.312407 0.839199 0.227199
0.316159 0.839365 0.227613
0.331901 0.840166 0.229410
0.362598 0.841705 0.233040
0.408444 0.844128 0.238816
0.468350 0.847539 0.246985
0.540442 0.852004 0.257673
0.622905 0.857664 0.271014
0.713895 0.864491 0.287073
0.812358 0.872485 0.305816
0.920960 0.884027 0.327375
0.955446 0.848106 0.308312
0.956552 0.797515 0.276823
0.941787 0.744663 0.243310
1.013893 0.747435 0.258330
1.078433 0.759042 0.282824
0.341523 0.880008 0.257521
0.344704 0.880138 0.257896
0.358032 0.880750 0.259430
0.384255 0.882002 0.262573
0.423952 0.884004 0.267530
0.476374 0.886866 0.274467
0.540317 0.890599 0.283705
0.614100 0.895357 0.295173
0.696307 0.901011 0.308988
0.785797 0.907721 0.325264
0.881690 0.915537 0.343933
0.986456 0.926562 0.365048
0.982657 0.869677 0.326300
0.963895 0.810664 0.285999
1.026897 0.811077 0.299242
1.090395 0.821622 0.322800
0.352858 0.895737 0.269449
0.355486 0.895793 0.269754
0.366616 0.896350 0.271029
0.388593 0.897390 0.273662
0.422112 0.899049 0.277771
0.466924 0.901433 0.283639
0.522044 0.904478 0.291302
0.586389 0.908396 0.300924
0.658632 0.913040 0.312530
0.737768 0.918661 0.326220
0.823032 0.925048 0.342059
0.913798 0.932696 0.359865
1.006262 0.941945 0.379813
0.988588 0.877668 0.332314
1.041383 0.875860 0.343800
1.103710 0.885456 0.366376
0.354550 0.897966 0.271221
0.356718 0.898111 0.271441
0.365955 0.898477 0.272532
0.384269 0.899361 0.274642
0.412441 0.900784 0.278071
0.450373 0.902674 0.282950
0.497511 0.905256 0.289321
0.553048 0.908477 0.297426
0.615787 0.912381 0.307108
0.685078 0.917003 0.318494
0.759954 0.922370 0.331731
0.839811 0.928473 0.346691
0.924621 0.935867 0.363479
1.008673 0.944270 0.382038
1.057330 0.941349 0.391753
1.118433 0.950077 0.413401
0.400904 0.960817 0.320446
0.402878 0.960918 0.320637
0.411330 0.961326 0.321637
0.428081 0.962020 0.323625
0.454045 0.963328 0.326819
0.489284 0.964974 0.331343
0.533378 0.967259 0.337204
0.585654 0.970223 0.344698
0.645094 0.973541 0.353690
0.711149 0.977777 0.364386
0.783046 0.982610 0.376650
0.859882 0.988004 0.390759
0.941179 0.994208 0.406448
1.016130 0.999966 0.423809
1.074743 1.006710 0.442878
1.134568 1.014536 0.463655
0.456516 1.030716 0.380364
0.458346 1.030792 0.380585
0.466132 1.031113 0.381442
0.481684 1.031764 0.383375
0.505868 1.032810 0.386412
0.538830 1.034280 0.390683
0.580381 1.036235 0.396266
0.629954 1.038698 0.403310
0.686880 1.041692 0.411910
0.750231 1.045227 0.422070
0.819451 1.049347 0.433781
0.893880 1.054063 0.447019
0.972804 1.059384 0.462030
1.036382 1.065326 0.478653
1.093489 1.071886 0.496981
1.151969 1.079052 0.516797
-0.138523 -0.130087 -0.147400
-0.127066 -0.128719 -0.146255
-0.061620 -0.123728 -0.144104
0.005052 -0.114271 -0.138176
0.045671 -0.077870 -0.107863
0.154183 0.060943 0.000000
0.279601 0.121757 0.000835
0.411851 0.175164 0.004048
0.547020 0.222530 0.011877
0.672598 0.263170 0.025685
0.769954 0.293151 0.042276
0.826806 0.310301 0.054633
0.848998 0.316957 0.059322
0.852248 0.318029 0.059308
0.942112 0.344245 0.082951
1.030156 0.374623 0.112623
-0.135168 -0.117441 -0.144335
-0.123264 -0.115853 -0.143155
-0.049445 -0.109896 -0.138785
0.005509 -0.098395 -0.130763
0.046617 -0.044036 -0.103317
0.154955 0.074718 0.000000
0.280204 0.131402 0.000712
0.412347 0.182179 0.003633
0.547375 0.228082 0.010957
0.673043 0.267794 0.024214
0.770230 0.297219 0.040686
0.827217 0.313992 0.053520
0.849359 0.320458 0.059167
0.852652 0.321379 0.059963
0.942508 0.347263 0.083736
1.030352 0.377403 0.113392
-0.122160 -0.012211 -0.134790
-0.108047 0.008897 -0.131159
0.000208 0.022754 -0.126197
0.007003 0.031242 -0.118443
0.050839 0.079070 -0.077410
0.159795 0.131642 0.000097
0.284640 0.178754 0.001242
0.416423 0.221574 0.004967
0.551007 0.261721 0.013512
0.676267 0.296661 0.028204
0.772973 0.321661 0.045668
0.829472 0.334498 0.058580
0.851198 0.337457 0.063384
0.854119 0.335558 0.063480
0.943877 0.359886 0.087089
1.031209 0.388807 0.116655
-0.093301 0.100085 -0.112846
-0.070456 0.101358 -0.105803
0.001299 0.104952 -0.099689
0.010396 0.112236 -0.085326
0.059810 0.156467 0.000000
0.169461 0.204055 0.000582
0.293551 0.245358 0.002838
0.424461 0.282444 0.008435
0.558280 0.316899 0.019670
0.682600 0.346042 0.037371
0.778602 0.365022 0.056857
0.834092 0.371641 0.068776
0.855130 0.368839 0.071955
0.857368 0.362100 0.070634
0.946779 0.383855 0.093831
1.032930 0.410663 0.123246
0.002391 0.214595 0.000000
0.003608 0.215136 0.000097
0.010487 0.217487 0.000097
0.030441 0.222154 0.000204
0.074931 0.230106 0.000431
0.184522 0.279382 0.002325
0.307601 0.320056 0.007014
0.437180 0.354636 0.016261
0.569722 0.385432 0.032391
0.692843 0.409733 0.055202
0.787399 0.422607 0.075282
0.841555 0.422331 0.084909
0.861256 0.412713 0.085612
0.862510 0.399728 0.081917
0.951477 0.418398 0.104618
1.035679 0.442611 0.133646
0.020607 0.335234 0.002877
0.023138 0.335508 0.002708
0.038815 0.337340 0.003023
0.077492 0.341005 0.003726
0.135166 0.346742 0.005021
0.205083 0.355941 0.007252
0.326950 0.398466 0.016871
0.454938 0.432645 0.032704
0.585823 0.461495 0.056948
0.707072 0.482251 0.082942
0.799835 0.489719 0.100976
0.852114 0.482654 0.107398
0.869932 0.465817 0.104558
0.869591 0.446145 0.097765
0.958134 0.461658 0.119679
1.039557 0.483154 0.148230
0.066223 0.452560 0.016928
0.070101 0.452727 0.016016
0.093715 0.454211 0.017016
0.136729 0.457224 0.019158
0.196102 0.461974 0.022889
0.268018 0.468651 0.028858
0.351738 0.478933 0.038003
0.477885 0.513899 0.064606
0.606602 0.541883 0.093330
0.725813 0.560116 0.118549
0.816077 0.562863 0.133914
0.865842 0.549380 0.136334
0.881354 0.525458 0.129149
0.879153 0.498984 0.118383
0.966579 0.511545 0.139244
1.044670 0.530426 0.167122
0.131624 0.565250 0.057671
0.134897 0.565337 0.055243
0.156987 0.566606 0.057419
0.198051 0.569136 0.061804
0.256275 0.573099 0.068864
0.328352 0.578764 0.078766
0.411377 0.586100 0.091748
0.505978 0.597180 0.107917
0.632338 0.625065 0.137451
0.748892 0.641274 0.161567
0.836279 0.639974 0.173815
0.882937 0.620452 0.171591
0.895721 0.589615 0.159205
0.891119 0.556390 0.143679
0.977329 0.566303 0.163311
1.051063 0.582846 0.190436
0.199236 0.672935 0.120373
0.202056 0.672967 0.117754
0.222240 0.674016 0.119878
0.260625 0.676225 0.124260
0.316158 0.679499 0.131197
0.386299 0.684308 0.140950
0.468346 0.690645 0.153680
0.560039 0.698411 0.169509
0.663026 0.709991 0.188443
0.776615 0.724737 0.211363
0.860494 0.719594 0.220177
0.903632 0.694413 0.212768
0.912999 0.656865 0.194522
0.905439 0.617013 0.173624
0.990582 0.624560 0.191822
1.058821 0.638979 0.218123
0.262745 0.768155 0.182837
0.265251 0.768185 0.180337
0.283373 0.769122 0.182368
0.318299 0.770937 0.186415
0.369802 0.773795 0.192896
0.435995 0.777862 0.202013
0.514589 0.783230 0.213935
0.603341 0.789873 0.228759
0.700583 0.797928 0.246572
0.808678 0.809784 0.267370
0.888829 0.801152 0.272583
0.927713 0.770414 0.259492
0.933163 0.726293 0.234888
0.922379 0.679971 0.208022
1.002434 0.684929 0.224648
1.067968 0.697999 0.250015
0.312232 0.839296 0.232805
0.314550 0.839345 0.230809
0.330396 0.840149 0.232601
0.361196 0.841693 0.236255
0.407257 0.844124 0.241977
0.467402 0.847546 0.250169
0.539705 0.852026 0.260810
0.622346 0.857660 0.274123
0.713604 0.864480 0.290135
0.812244 0.872579 0.308880
0.921052 0.884100 0.330355
0.955416 0.847978 0.311387
0.956628 0.797477 0.280012
0.941858 0.744623 0.246617
1.013933 0.747423 0.261623
1.078484 0.759033 0.286052
0.341413 0.880076 0.262358
0.343601 0.880161 0.261051
0.356994 0.880727 0.262594
0.383298 0.881970 0.265704
0.423059 0.884005 0.270602
0.475668 0.886905 0.277603
0.539710 0.890647 0.286779
0.613581 0.895311 0.298207
0.696049 0.901085 0.312051
0.785657 0.907753 0.328275
0.881636 0.915596 0.346914
0.986451 0.926576 0.368019
0.982713 0.869675 0.329338
0.963959 0.810677 0.289114
1.026941 0.811080 0.302390
1.090437 0.821633 0.325810
0.352728 0.895740 0.273438
0.354935 0.895816 0.272927
0.366048 0.896374 0.274235
0.388053 0.897434 0.276807
0.421618 0.899059 0.280946
0.466508 0.901461 0.286724
0.521712 0.904499 0.294410
0.586132 0.908368 0.304018
0.658403 0.913069 0.315609
0.737677 0.918676 0.329303
0.823001 0.925133 0.345028
0.913836 0.932796 0.362904
1.006304 0.941969 0.382777
0.988704 0.877701 0.335354
1.041426 0.875859 0.346792
1.103752 0.885494 0.369277
0.354396 0.898061 0.274523
0.356556 0.898163 0.274643
0.365832 0.898532 0.275768
0.384096 0.899461 0.277868
0.412307 0.900861 0.281340
0.450282 0.902683 0.286171
0.497453 0.905288 0.292521
0.552990 0.908507 0.300508
0.615793 0.912401 0.310184
0.685029 0.917004 0.321544
0.760016 0.922460 0.334731
0.839943 0.928609 0.349719
0.924746 0.935921 0.366426
1.008715 0.944327 0.384928
1.057373 0.941395 0.394592
1.118474 0.950145 0.416115
0.400853 0.960903 0.323511
0.402789 0.961010 0.323710
0.411230 0.961370 0.324693
0.427998 0.962127 0.326691
0.453965 0.963313 0.329813
0.489178 0.965080 0.334374
0.533345 0.967298 0.340265
0.585615 0.970200 0.347633
0.645060 0.973587 0.356662
0.711080 0.977802 0.367291
0.783017 0.982645 0.379638
0.859870 0.987983 0.393645
0.941266 0.994229 0.409194
1.016174 0.999966 0.426577
1.074786 1.006754 0.445667
1.134642 1.014580 0.466376
0.456459 1.030759 0.383220
0.458273 1.030836 0.383479
0.466121 1.031157 0.384423
0.481663 1.031808 0.386222
0.505842 1.032845 0.389298
0.538805 1.034323 0.393531
0.580382 1.036288 0.399118
0.629976 1.038741 0.406165
0.686874 1.041724 0.414715
0.750253 1.045271 0.424800
0.819519 1.049377 0.436518
0.893977 1.054099 0.449788
0.972945 1.059427 0.464848
1.036425 1.065352 0.481333
1.093518 1.071929 0.499676
1.151965 1.079095 0.519305
-0.135954 -0.127280 -0.058371
-0.125790 -0.126047 -0.054564
-0.052527 -0.120592 -0.030534
0.005359 -0.111154 -0.036916
0.046558 -0.070541 0.000204
0.155173 0.064217 0.001760
0.280570 0.124471 0.006202
0.412729 0.177356 0.015328
0.547787 0.224400 0.031428
0.673384 0.264689 0.054242
0.770474 0.294331 0.074175
0.827377 0.311096 0.083334
0.849383 0.317355 0.083325
0.852608 0.318085 0.079049
0.942468 0.344248 0.101718
1.030335 0.374737 0.130729
-0.132966 -0.116016 -0.047343
-0.120225 -0.112534 -0.038723
-0.036393 -0.106303 0.000000
0.005820 -0.094613 0.000000
0.047513 -0.021057 0.000230
0.156018 0.076337 0.001685
0.281162 0.132388 0.005755
0.413234 0.182844 0.014223
0.548164 0.228639 0.029417
0.673632 0.268232 0.051341
0.770808 0.297479 0.071688
0.827763 0.314029 0.081713
0.849770 0.320321 0.082744
0.852980 0.321111 0.079453
0.942793 0.346974 0.102219
1.030538 0.377211 0.131235
-0.118967 0.013869 0.000000
-0.104363 0.017718 0.000000
0.000330 0.028394 0.000000
0.007554 0.042260 0.000000
0.050865 0.070865 0.000204
0.158736 0.111751 0.000924
0.283182 0.157005 0.003148
0.414818 0.200795 0.008499
0.549415 0.242785 0.019289
0.674908 0.280124 0.036778
0.771985 0.308146 0.057155
0.828819 0.324260 0.071083
0.850941 0.330501 0.076670
0.854087 0.331410 0.077495
0.943893 0.356358 0.100818
1.031224 0.385791 0.129977
-0.089116 0.102194 0.000000
-0.064203 0.103405 0.000000
0.001838 0.107574 0.000129
0.010826 0.114270 0.000173
0.060144 0.153898 0.000649
0.168763 0.195063 0.002109
0.292368 0.232982 0.005679
0.423055 0.268791 0.013094
0.556811 0.303231 0.026736
0.681394 0.333271 0.047326
0.777570 0.353949 0.068630
0.833423 0.362910 0.081049
0.854754 0.362749 0.084969
0.857347 0.358282 0.084333
0.946850 0.380579 0.107322
1.032948 0.407789 0.136274
0.002663 0.215916 0.001304
0.003873 0.216477 0.001325
0.009262 0.218180 0.001066
0.029631 0.222990 0.001381
0.075730 0.230922 0.001982
0.184329 0.276172 0.005251
0.306779 0.313623 0.011671
0.436091 0.346312 0.023083
0.568554 0.376256 0.041902
0.691653 0.400564 0.066931
0.786450 0.414227 0.087070
0.841011 0.415468 0.097043
0.860995 0.407683 0.098428
0.862510 0.396581 0.095484
0.951489 0.415620 0.117967
1.035699 0.440119 0.146553
0.021396 0.336263 0.009292
0.023754 0.336535 0.008940
0.032727 0.337346 0.006388
0.071926 0.341152 0.007465
0.132869 0.347074 0.009426
0.205680 0.356342 0.012667
0.326710 0.395943 0.024664
0.454250 0.428029 0.043133
0.584882 0.455622 0.069228
0.706205 0.475872 0.094708
0.798986 0.483592 0.112620
0.851538 0.477476 0.119446
0.869647 0.461942 0.117282
0.869620 0.443627 0.111186
0.958113 0.459426 0.132807
1.039582 0.481094 0.160902
0.067718 0.453390 0.034813
0.071160 0.453554 0.033342
0.082905 0.453987 0.024888
0.128631 0.457082 0.027577
0.191003 0.461980 0.032279
0.265917 0.468855 0.039692
0.352204 0.479232 0.050929
0.477684 0.511997 0.078089
0.606043 0.538554 0.105766
0.725111 0.555920 0.130276
0.815351 0.558516 0.145416
0.865359 0.545570 0.148160
0.881170 0.522523 0.141554
0.879190 0.497038 0.131449
0.966583 0.509779 0.152102
1.044701 0.528793 0.179546
0.133045 0.565918 0.088196
0.135877 0.566064 0.085632
0.145725 0.566336 0.070903
0.188885 0.568912 0.075281
0.249620 0.572957 0.082346
0.324245 0.578756 0.092360
0.409592 0.586229 0.105459
0.506367 0.597402 0.121708
0.632225 0.623645 0.149974
0.748510 0.638875 0.173229
0.835830 0.637146 0.185160
0.882619 0.617758 0.183131
0.895549 0.587429 0.171301
0.891213 0.554937 0.156465
0.977531 0.564939 0.175868
1.051100 0.581547 0.202627
0.200508 0.673508 0.150556
0.202936 0.673542 0.147764
0.211410 0.673734 0.132462
0.251301 0.675907 0.136746
0.308809 0.679332 0.143706
0.381077 0.684216 0.153441
0.465056 0.690645 0.166210
0.558656 0.698519 0.182049
0.663345 0.710162 0.201032
0.776449 0.723720 0.222983
0.860234 0.717885 0.231344
0.903324 0.692576 0.224025
0.912847 0.655331 0.206278
0.905542 0.615963 0.186023
0.990692 0.623547 0.203989
1.058867 0.638008 0.229939
0.263884 0.768646 0.211077
0.266051 0.768707 0.208423
0.273600 0.768875 0.194017
0.309598 0.770721 0.198034
0.362546 0.773568 0.204497
0.430341 0.777710 0.213598
0.510545 0.783140 0.225497
0.600822 0.789912 0.240332
0.699597 0.798079 0.258107
0.809000 0.809928 0.278886
0.888822 0.800456 0.283561
0.927607 0.769411 0.270454
0.933200 0.725332 0.246296
0.922505 0.679208 0.219971
1.002498 0.684209 0.236418
1.068005 0.697296 0.261463
0.313259 0.839718 0.258075
0.315235 0.839791 0.255902
0.322289 0.839976 0.243785
0.353737 0.841475 0.247299
0.400837 0.843967 0.253103
0.462102 0.847433 0.261211
0.535678 0.851974 0.271857
0.619499 0.857651 0.285139
0.711878 0.864531 0.301086
0.811621 0.872679 0.319833
0.921288 0.884246 0.341269
0.955488 0.847548 0.322100
0.956686 0.796870 0.290966
0.942015 0.744201 0.258195
1.014013 0.746885 0.272953
1.078550 0.758516 0.297069
0.342175 0.880395 0.283991
0.344144 0.880458 0.282520
0.350995 0.880760 0.273585
0.377704 0.881943 0.276673
0.418096 0.883986 0.281553
0.471465 0.886838 0.288483
0.536316 0.890632 0.297625
0.611024 0.895362 0.308999
0.694155 0.901108 0.322762
0.784614 0.907854 0.338897
0.881319 0.915784 0.357475
0.986748 0.926691 0.378517
0.982909 0.869564 0.340016
0.964111 0.810435 0.300255
1.027028 0.810844 0.313389
1.090492 0.821316 0.336554
0.353318 0.896089 0.291490
0.355330 0.896142 0.290816
0.362194 0.896421 0.285313
0.384347 0.897465 0.287844
0.418303 0.899102 0.291959
0.463587 0.901451 0.297710
0.519251 0.904589 0.305355
0.584224 0.908489 0.314887
0.657004 0.913149 0.326389
0.736660 0.918731 0.339917
0.822432 0.925246 0.355604
0.913687 0.932892 0.373357
1.006463 0.942131 0.393122
0.988826 0.877601 0.346054
1.041533 0.875750 0.357369
1.103831 0.885300 0.379629
0.354906 0.898293 0.289470
0.356830 0.898376 0.289433
0.363857 0.898676 0.287093
0.382188 0.899539 0.289099
0.410546 0.901001 0.292526
0.448759 0.902809 0.297330
0.496167 0.905406 0.303585
0.551929 0.908652 0.311516
0.614990 0.912580 0.321081
0.684493 0.917196 0.332422
0.759675 0.922622 0.345443
0.839694 0.928714 0.360305
0.924759 0.936113 0.376861
1.008876 0.944480 0.395241
1.057489 0.941450 0.404749
1.118584 0.950118 0.426115
0.401223 0.961076 0.337312
0.403113 0.961196 0.337434
0.409645 0.961493 0.335479
0.426449 0.962267 0.337427
0.452545 0.963453 0.340561
0.487907 0.965189 0.345033
0.532213 0.967451 0.350905
0.584650 0.970354 0.358243
0.644254 0.973747 0.367163
0.710629 0.977927 0.377700
0.782682 0.982727 0.389942
0.859693 0.988124 0.403762
0.941246 0.994406 0.419364
1.016255 0.999966 0.436553
1.074937 1.006911 0.455502
1.134730 1.014666 0.475950
0.456850 1.030938 0.396222
0.458608 1.031022 0.396390
0.464741 1.031260 0.394645
0.480299 1.031903 0.396469
0.504549 1.032954 0.399430
0.537664 1.034430 0.403642
0.579382 1.036387 0.409178
0.629128 1.038842 0.416221
0.686154 1.041838 0.424685
0.749730 1.045376 0.434715
0.819180 1.049511 0.446306
0.893757 1.054225 0.459454
0.972822 1.059558 0.474386
1.036447 1.065489 0.490865
1.093601 1.072063 0.508872
1.152148 1.079225 0.528630
-0.131355 -0.122217 0.001181
-0.121914 -0.121059 0.001210
-0.056943 -0.115937 0.001325
0.006092 -0.104423 0.001583
0.048360 -0.050859 0.005428
0.157306 0.073486 0.016456
0.282500 0.131594 0.035868
0.414502 0.182805 0.064182
0.549310 0.228810 0.094691
0.674702 0.268396 0.121018
0.771694 0.297416 0.136616
0.828395 0.313643 0.138587
0.850189 0.319460 0.130475
0.853241 0.319836 0.118774
0.943052 0.345831 0.139534
1.030710 0.376130 0.167056
-0.128578 -0.111649 0.001251
-0.114720 -0.106450 0.001312
-0.033268 -0.100398 0.001431
0.006560 -0.086202 0.001691
0.049348 0.022615 0.005635
0.158144 0.084751 0.016359
0.283114 0.139150 0.034964
0.415006 0.188122 0.062276
0.549744 0.232968 0.092354
0.675057 0.271903 0.118584
0.772021 0.300514 0.134563
0.828689 0.316569 0.137184
0.850534 0.322442 0.130014
0.853597 0.322810 0.119089
0.943399 0.348533 0.140004
1.030905 0.378604 0.167536
-0.115597 0.009428 0.001583
-0.099480 0.019263 0.001640
0.000584 0.036691 0.001833
0.008307 0.048895 0.002115
0.052799 0.077936 0.005899
0.160913 0.118713 0.014403
0.285154 0.162836 0.028671
0.416639 0.205685 0.050415
0.551175 0.246907 0.078506
0.676338 0.283641 0.104462
0.773184 0.311153 0.122080
0.829770 0.326711 0.127928
0.851711 0.332532 0.124597
0.854812 0.333084 0.117424
0.944550 0.357932 0.138815
1.031595 0.387128 0.166445
-0.079638 0.107206 0.002387
-0.047777 0.108295 0.002440
0.002257 0.111801 0.002629
0.011597 0.117789 0.002970
0.058499 0.134579 0.004135
0.165144 0.162181 0.007029
0.288238 0.195690 0.012846
0.419002 0.231694 0.023487
0.553107 0.268344 0.041460
0.678082 0.302110 0.066595
0.774840 0.327982 0.088667
0.831518 0.343039 0.102213
0.853598 0.348854 0.107634
0.856876 0.349698 0.108414
0.946425 0.373319 0.131060
1.032712 0.401185 0.159086
0.003341 0.218633 0.009774
0.004638 0.219151 0.009874
0.010316 0.220901 0.009594
0.023035 0.223300 0.006340
0.077164 0.232394 0.007944
0.182701 0.264309 0.013068
0.303910 0.294340 0.021926
0.432803 0.323484 0.036536
0.565227 0.352187 0.059351
0.688643 0.377171 0.084869
0.783983 0.393336 0.105177
0.839167 0.398278 0.116208
0.859864 0.394769 0.118958
0.861993 0.387700 0.117454
0.951148 0.407734 0.139496
1.035479 0.432942 0.167393
0.023170 0.338335 0.035481
0.025596 0.338641 0.034987
0.034871 0.339497 0.030768
0.052635 0.340432 0.017363
0.123780 0.347184 0.020658
0.206725 0.357180 0.026284
0.325476 0.388377 0.041339
0.452039 0.415648 0.063062
0.582330 0.440640 0.088406
0.703604 0.460016 0.112923
0.796818 0.468548 0.130805
0.849931 0.464502 0.138360
0.868677 0.451812 0.137541
0.869210 0.436502 0.132805
0.957831 0.452926 0.154102
1.039379 0.475070 0.181488
0.070802 0.455098 0.087102
0.074206 0.455268 0.085577
0.085950 0.455749 0.075781
0.104706 0.456201 0.046074
0.175768 0.461489 0.052316
0.259244 0.468912 0.062451
0.353013 0.479753 0.075849
0.476767 0.506874 0.100132
0.604312 0.530035 0.125611
0.723131 0.545614 0.148752
0.813539 0.548073 0.163610
0.863889 0.536066 0.166918
0.880249 0.514805 0.161512
0.878825 0.491488 0.152753
0.966429 0.504563 0.172979
1.044508 0.523840 0.199789
0.135841 0.567378 0.145912
0.138689 0.567487 0.143845
0.148560 0.567799 0.131783
