LUT color transfer/LUTs/13.cube
TITLE "Generate by Resolve"
LUT_3D_SIZE 33
0 0 0
0 0 0
0 0 0
0.00393683 0 0
0.0887617 0 0
0.149386 0 0
0.202838 0 0
0.252506 0 0
0.299901 0 0
0.345968 0 0
0.391455 0 0
0.437095 0 0
0.484016 0 0
0.534829 0 0
0.609049 0 0
0.66212 0 0
0.707057 0 0
0.748363 0 0
0.787289 0 0
0.82446 0 0
0.860212 0 0
0.894789 0 0
0.928344 0 0
0.961028 0 0
0.99292 0 0
1 0 0
1 0 0
1 0 0
1 0 0
1 0 0
1 0 0
1 0.00218204 0.00218204
1 0.00700389 0.00700389
0 0 0
0 0 0
0 0 0
0.00703441 0 0
0.0935683 0 0
0.156252 0 0
0.212207 0 0
0.265064 0 0
0.316777 0 0
0.369299 0 0
0.427512 0 0
0.504814 0 0
0.556664 0 0
0.602594 0 0
0.645212 0 0
0.685496 0 0
0.723964 0 0
0.760952 0 0
0.796674 0 0
0.831327 0 0
0.865034 0 0
0.897887 0 0
0.929976 0.00534066 0
0.961364 0.0108492 0
0.992111 0.016144 0
1 0.0212558 0
1 0.026215 0
1 0.0310369 0
1 0.0357214 0
1 0.0402838 0
1 0.0447547 0
1 0.0491035 0
1 0.0533761 0.000198367
0 0 0
0 0 0
0 0 0
0.00949111 0 0
0.0995651 0 0
0.167163 0 0
0.230976 0 0
0.310597 0 0
0.379599 0 0
0.433417 0 0
0.48188 0 0
0.526894 0 0
0.56936 0.00183108 0
0.609796 0.00920119 0
0.648569 0.016022 0
0.685939 0.0224002 0
0.722072 0.0284123 0
0.757137 0.0341344 0
0.791257 0.0396124 0
0.824506 0.0448615 0
0.856977 0.0499275 0
0.888731 0.0548257 0
0.919844 0.0595712 0
0.950347 0.0641794 0
0.980301 0.0686809 0
1 0.0730602 0
1 0.077348 0
1 0.0815442 0
1 0.0856489 0
1 0.0896773 0
1 0.0936294 0
1 0.0975052 0
1 0.10132 0
0 0 0
0 0 0
0 0 0
0 0 0
0.112367 0.019501 0
0.188342 0.033875 0
0.25005 0.0437018 0
0.304524 0.0518502 0
0.354299 0.0590372 0
0.400656 0.0656138 0
0.444358 0.0717174 0
0.485924 0.0774548 0
0.525719 0.0829175 0
0.563989 0.0881208 0
0.600961 0.0931411 0
0.63679 0.0979782 0
0.671595 0.102663 0
0.705486 0.10721 0
0.738552 0.111635 0
0.770855 0.115938 0
0.802487 0.12015 0
0.833463 0.124269 0
0.863859 0.128313 0
0.893721 0.132265 0
0.923064 0.136156 0
0.951919 0.139971 0
0.980331 0.14374 0
1 0.147433 0
1 0.151064 0
1 0.154665 0
1 0.15819 0
1 0.161685 0
1 0.165133 0
0 0.0805524 0
0 0.117266 0
0 0.127718 0
0.0279545 0.120821 0
0.118349 0.118349 0
0.18262 0.121019 0
0.238132 0.124651 0
0.288426 0.128603 0
0.335073 0.132677 0
0.378958 0.136782 0
0.420645 0.140871 0
0.460517 0.144915 0
0.498848 0.148913 0
0.535851 0.15285 0
0.571694 0.156741 0
0.606516 0.160571 0
0.640421 0.164355 0
0.673487 0.168078 0
0.705806 0.17174 0
0.737423 0.175372 0
0.768399 0.178943 0
0.798795 0.182467 0
0.828641 0.185962 0
0.857984 0.189395 0
0.886839 0.192798 0
0.915251 0.19617 0
0.943236 0.199496 0
0.970825 0.202792 0
0.998032 0.206043 0
1 0.209262 0
1 0.212451 0
1 0.21561 0
1 0.218738 0
0 0.196384 0
0 0.201724 0
0 0.203372 0
0.0366979 0.19118 0
0.123369 0.184985 0
0.184787 0.184787 0
0.23801 0.18613 0
0.286412 0.188205 0
0.331472 0.190677 0
0.373968 0.193393 0
0.414435 0.196262 0
0.453223 0.199237 0
0.490593 0.202258 0
0.526726 0.205341 0
0.561776 0.208423 0
0.59588 0.211536 0
0.629099 0.214633 0
0.661555 0.217746 0
0.693278 0.220829 0
0.724361 0.223926 0
0.754849 0.226993 0
0.784772 0.230045 0
0.81416 0.233082 0
0.843076 0.236118 0
0.871534 0.239109 0
0.899565 0.2421 0
0.927199 0.245075 0
0.954452 0.24802 0
0.981338 0.25095 0
1 0.253864 0
1 0.256748 0
1 0.259632 0
1 0.262486 0
0 0.26247 0
0 0.264454 0
0 0.263493 0
0.0428168 0.249165 0
0.127718 0.241199 0
0.18761 0.23949 0
0.239521 0.239521 0
0.286763 0.240421 0
0.33077 0.241871 0
0.372335 0.243656 0
0.411963 0.24567 0
0.449989 0.247883 0
0.486656 0.250202 0
0.522133 0.252613 0
0.556588 0.2551 0
0.590112 0.257649 0
0.622812 0.260227 0
0.654765 0.262837 0
0.686046 0.265476 0
0.716686 0.268116 0
0.746761 0.270787 0
0.776287 0.273442 0
0.80531 0.276112 0
0.833875 0.278782 0
0.861997 0.281453 0
0.889708 0.284123 0
0.917037 0.286778 0
0.943984 0.289448 0
0.970596 0.292088 0
0.996872 0.294728 0
1 0.297368 0
1 0.299992 0
1 0.302602 0
0 0.318212 0
0 0.318517 0
0 0.316106 0
0.0478523 0.300542 0
0.131624 0.291447 0
0.190539 0.288746 0
0.24155 0.287877 0
0.287968 0.287968 0
0.331243 0.28867 0
0.372122 0.289769 0
0.411124 0.291157 0
0.448554 0.292775 0
0.484657 0.294545 0
0.519631 0.296452 0
0.553597 0.298451 0
0.586679 0.300542 0
0.618952 0.302708 0
0.650507 0.304906 0
0.681392 0.307164 0
0.711681 0.309438 0
0.741405 0.311757 0
0.770596 0.314092 0
0.799313 0.316442 0
0.827573 0.318822 0
0.855406 0.321202 0
0.882841 0.323583 0
0.909895 0.325978 0
0.936599 0.328389 0
0.962951 0.330785 0
0.988998 0.333196 0
1 0.335592 0
1 0.338003 0
1 0.340398 0
0 0.368078 0
0 0.36733 0
0 0.363958 0
0.0522621 0.347524 0
0.135256 0.337636 0
0.193439 0.334218 0
0.243778 0.332692 0
0.289586 0.332158 0
0.33228 0.33228 0
0.372625 0.332845 0
0.411124 0.333745 0
0.448081 0.334874 0
0.483757 0.336217 0
0.518303 0.337697 0
0.551888 0.339315 0
0.584588 0.341024 0
0.616495 0.342824 0
0.647715 0.344686 0
0.678279 0.346624 0
0.708247 0.348592 0
0.737682 0.350607 0
0.766598 0.352667 0
0.795041 0.354742 0
0.823041 0.356847 0
0.850614 0.358984 0
0.877806 0.36112 0
0.904631 0.363287 0
0.931105 0.365469 0
0.957244 0.367651 0
0.983063 0.369848 0
1 0.372045 0
1 0.374243 0
1 0.376455 0
0 0.413977 0
0 0.412451 0
0 0.408392 0
0.05626 0.391302 0
0.138643 0.380835 0
0.196277 0.376852 0
0.246098 0.374792 0
0.291417 0.37377 0
0.333654 0.373434 0
0.373571 0.373571 0
0.411658 0.374044 0
0.448218 0.374807 0
0.483528 0.375769 0
0.517723 0.376898 0
0.550958 0.37818 0
0.583352 0.379568 0
0.614954 0.381064 0
0.645884 0.382635 0
0.676173 0.384283 0
0.705867 0.385992 0
0.735042 0.387747 0
0.763699 0.389563 0
0.791913 0.391394 0
0.819669 0.393271 0
0.847044 0.395178 0
0.874006 0.397116 0
0.900633 0.399069 0
0.926894 0.401038 0
0.95285 0.403037 0
0.978485 0.405035 0
1 0.40705 0
1 0.409079 0
1 0.411124 0
0 0.456916 0
0 0.45481 0
0 0.450187 0
0.0599527 0.432609 0
0.141863 0.421653 0
0.199039 0.417212 0
0.248447 0.41474 0
0.293355 0.413321 0
0.33521 0.412604 0
0.374762 0.412375 0
0.412512 0.412512 0
0.448753 0.412924 0
0.483742 0.413581 0
0.517647 0.41442 0
0.550591 0.415412 0
0.582696 0.416526 0
0.614054 0.417746 0
0.644709 0.419074 0
0.674754 0.420478 0
0.704219 0.421942 0
0.733166 0.423484 0
0.761608 0.425055 0
0.789593 0.426688 0
0.817166 0.428367 0
0.844327 0.43006 0
0.871107 0.4318 0
0.897536 0.43357 0
0.923629 0.43537 0
0.949386 0.437186 0
0.974853 0.439017 0
1 0.440864 0
1 0.442741 0
1 0.444617 0
0 0.49752 0
0 0.494957 0
0 0.489906 0
0.0634165 0.471885 0
0.144945 0.460548 0
0.20174 0.455741 0
0.250782 0.452903 0
0.295369 0.451148 0
0.336889 0.450111 0
0.376135 0.449561 0
0.413581 0.449409 0
0.449546 0.449546 0
0.48426 0.449928 0
0.517906 0.450507 0
0.550607 0.45124 0
0.582467 0.452125 0
0.613581 0.453117 0
0.644022 0.454215 0
0.673854 0.45539 0
0.703105 0.456657 0
0.731838 0.457984 0
0.760098 0.459373 0
0.787884 0.460807 0
0.815274 0.462287 0
0.842252 0.463828 0
0.868864 0.465385 0
0.895125 0.466987 0
0.92105 0.468605 0
0.946654 0.470268 0
0.971969 0.471946 0
0.996979 0.47364 0
1 0.475364 0
1 0.477104 0
0 0.536248 0
0 0.533288 0
0 0.527871 0
0.0667124 0.509514 0
0.14789 0.497826 0
0.204379 0.492714 0
0.253117 0.48957 0
0.297398 0.487526 0
0.338659 0.486198 0
0.37763 0.48539 0
0.414816 0.484977 0
0.450538 0.484871 0
0.485008 0.485008 0
0.518425 0.485359 0
0.550896 0.485878 0
0.582544 0.486534 0
0.613458 0.487327 0
0.643702 0.488212 0
0.67332 0.489204 0
0.702388 0.490288 0
0.730953 0.491432 0
0.759014 0.492638 0
0.786648 0.493904 0
0.813855 0.495216 0
0.840681 0.49659 0
0.867124 0.497993 0
0.893233 0.499428 0
0.919005 0.500908 0
0.944472 0.502419 0
0.969635 0.50396 0
0.994522 0.505516 0
1 0.507103 0
1 0.508705 0
0 0.573373 0
0 0.570108 0
0 0.56437 0
0.0698405 0.545708 0
0.150744 0.533745 0
0.206943 0.528344 0
0.255421 0.524941 0
0.299458 0.522637 0
0.340459 0.521065 0
0.379202 0.520027 0
0.416159 0.519387 0
0.451667 0.519066 0
0.485924 0.51899 0
0.519127 0.519127 0
0.551415 0.519448 0
0.582864 0.519921 0
0.613596 0.520516 0
0.643656 0.521233 0
0.673106 0.522042 0
0.702007 0.522957 0
0.730388 0.523934 0
0.758297 0.524971 0
0.785779 0.526085 0
0.812833 0.52726 0
0.839506 0.528466 0
0.865812 0.529732 0
0.891768 0.531029 0
0.917403 0.532372 0
0.942733 0.533745 0
0.967773 0.535149 0
0.992523 0.536583 0
1 0.538048 0
1 0.539528 0
0 0.609155 0
0 0.6056 0
0 0.599588 0
0.0728313 0.580667 0
0.15349 0.568444 0
0.209461 0.562814 0
0.257694 0.559182 0
0.301518 0.556649 0
0.342306 0.554864 0
0.380835 0.553613 0
0.417594 0.552773 0
0.452888 0.552254 0
0.486961 0.551995 0
0.519982 0.551949 0
0.552087 0.552087 0
0.583368 0.552377 0
0.613931 0.552819 0
0.643824 0.553368 0
0.673121 0.554025 0
0.701854 0.554772 0
0.730098 0.555596 0
0.757855 0.556497 0
0.785183 0.557458 0
0.8121 0.558495 0
0.838636 0.559564 0
0.864805 0.560693 0
0.890639 0.561868 0
0.916152 0.563073 0
0.94136 0.564324 0
0.966262 0.565606 0
0.990906 0.566918 0
1 0.568261 0
1 0.569635 0
0 0.643748 0
0 0.639933 0
0 0.633692 0
0.0757305 0.614542 0
0.156161 0.602106 0
0.211917 0.596262 0
0.259953 0.592416 0
0.303563 0.589685 0
0.344152 0.587716 0
0.382498 0.586282 0
0.419074 0.585245 0
0.4542 0.584543 0
0.488106 0.584115 0
0.520958 0.583902 0
0.552895 0.583886 0
0.584024 0.584024 0
0.61442 0.584298 0
0.64416 0.584695 0
0.67332 0.585214 0
0.701915 0.585809 0
0.730007 0.586496 0
0.757641 0.587274 0
0.784833 0.588098 0
0.811627 0.588998 0
0.838041 0.589944 0
0.864088 0.590951 0
0.889799 0.592004 0
0.91519 0.593103 0
0.940276 0.594232 0
0.965072 0.595407 0
0.989593 0.596613 0
1 0.597833 0
1 0.5991 0
0 0.677302 0
0 0.673274 0
0 0.666819 0
0.0785229 0.647471 0
0.158755 0.634836 0
0.214313 0.628779 0
0.262165 0.62475 0
0.305608 0.621851 0
0.346029 0.619699 0
0.384192 0.618097 0
0.4206 0.616907 0
0.455573 0.616037 0
0.489311 0.615457 0
0.522011 0.615091 0
0.553811 0.614923 0
0.584787 0.614908 0
0.615045 0.615045 0
0.644648 0.615305 0
0.673671 0.615686 0
0.702144 0.616159 0
0.730114 0.616724 0
0.75761 0.617365 0
0.78468 0.618067 0
0.811353 0.618845 0
0.837644 0.619684 0
0.863584 0.620569 0
0.889174 0.621515 0
0.914458 0.622492 0
0.939437 0.623514 0
0.964126 0.624582 0
0.988556 0.625681 0
1 0.626825 0
1 0.627985 0
0 0.709926 0
0 0.705699 0
0 0.699046 0
0.081239 0.679515 0
0.161288 0.666712 0
0.216678 0.660487 0
0.264363 0.656291 0
0.307622 0.653223 0
0.34789 0.650919 0
0.385916 0.649149 0
0.422171 0.647807 0
0.456977 0.646799 0
0.490593 0.646067 0
0.523156 0.645563 0
0.554803 0.645258 0
0.585657 0.645121 0
0.615778 0.645121 0
0.645258 0.645258 0
0.674144 0.645502 0
0.702495 0.645853 0
0.730343 0.646296 0
0.757733 0.64683 0
0.784695 0.647425 0
0.811246 0.648096 0
0.83743 0.648814 0
0.863264 0.649607 0
0.888762 0.650431 0
0.913939 0.651316 0
0.938811 0.652247 0
0.963409 0.653208 0
0.987732 0.654215 0
1 0.655253 0
1 0.656321 0
0 0.741711 0
0 0.737316 0
0 0.730495 0
0.0838636 0.710796 0
0.16376 0.69781 0
0.218997 0.691447 0
0.266529 0.687099 0
0.309636 0.683879 0
0.349752 0.681422 0
0.38764 0.679515 0
0.423758 0.678035 0
0.458442 0.67689 0
0.491905 0.67602 0
0.524346 0.675395 0
0.555871 0.674952 0
0.586587 0.674693 0
0.616602 0.674586 0
0.64596 0.674601 0
0.674739 0.674739 0
0.702968 0.674968 0
0.730709 0.675303 0
0.757992 0.675715 0
0.784848 0.676219 0
0.811292 0.676768 0
0.837369 0.677394 0
0.863096 0.67808 0
0.888502 0.678813 0
0.913588 0.679606 0
0.938369 0.68043 0
0.962875 0.6813 0
0.987106 0.682216 0
1 0.683162 0
1 0.684153 0
0 0.772747 0
0 0.768185 0
0 0.761212 0
0.0864424 0.74136 0
0.166186 0.728237 0
0.221271 0.721706 0
0.26865 0.71722 0
0.311635 0.713863 0
0.351614 0.711284 0
0.389364 0.709239 0
0.425361 0.707637 0
0.459907 0.706371 0
0.493263 0.705379 0
0.525582 0.704631 0
0.556985 0.704082 0
0.587594 0.7037 0
0.617487 0.703471 0
0.646738 0.70338 0
0.67541 0.70341 0
0.703548 0.703548 0
0.731182 0.703777 0
0.758358 0.704082 0
0.785107 0.704479 0
0.81146 0.704936 0
0.837446 0.70547 0
0.863081 0.706065 0
0.88838 0.706706 0
0.913375 0.707393 0
0.938079 0.708141 0
0.962493 0.708919 0
0.986633 0.709743 0
1 0.710613 0
1 0.711513 0
0 0.803082 0
0 0.798383 0
0 0.791257 0
0.0889448 0.771267 0
0.168551 0.758007 0
0.223499 0.751354 0
0.270756 0.746731 0
0.313619 0.743252 0
0.353475 0.740536 0
0.391104 0.738384 0
0.426978 0.73666 0
0.461418 0.735271 0
0.494652 0.734173 0
0.526848 0.733303 0
0.558145 0.732647 0
0.588647 0.732158 0
0.618448 0.731838 0
0.647593 0.73164 0
0.676158 0.731563 0
0.704189 0.731594 0
0.731731 0.731731 0
0.758816 0.731945 0
0.785473 0.73225 0
0.811734 0.732616 0
0.837629 0.733059 0
0.863172 0.733562 0
0.888395 0.734127 0
0.913298 0.734722 0
0.937911 0.735393 0
0.962249 0.736095 0
0.986313 0.736828 0
1 0.737621 0
1 0.73843 0
0 0.832792 0
0 0.827955 0
0 0.820706 0
0.0913863 0.80058 0
0.170871 0.787198 0
0.225696 0.780423 0
0.272847 0.775677 0
0.315572 0.772076 0
0.355322 0.769253 0
0.392828 0.766979 0
0.428595 0.765133 0
0.462928 0.763653 0
0.496056 0.762448 0
0.528161 0.761471 0
0.55935 0.760708 0
0.589761 0.760128 0
0.619455 0.759701 0
0.648508 0.759411 0
0.676982 0.759243 0
0.704921 0.759182 0
0.732357 0.759228 0
0.75935 0.75935 0
0.785931 0.759564 0
0.8121 0.759854 0
0.837919 0.760204 0
0.863371 0.760632 0
0.888518 0.761105 0
0.913344 0.761624 0
0.937865 0.762203 0
0.962127 0.762829 0
0.986114 0.7635 0
1 0.764202 0
1 0.76495 0
0 0.861906 0
0 0.856947 0
0 0.849577 0
0.0937819 0.829343 0
0.173144 0.815839 0
0.227863 0.808942 0
0.274891 0.804089 0
0.317525 0.800381 0
0.357153 0.797452 0
0.394568 0.795071 0
0.430228 0.793133 0
0.464454 0.791531 0
0.49749 0.790234 0
0.529488 0.789166 0
0.560586 0.788312 0
0.59089 0.78764 0
0.620493 0.787106 0
0.64947 0.786725 0
0.677852 0.78648 0
0.705699 0.786328 0
0.733059 0.786282 0
0.759976 0.786328 0
0.786465 0.786465 0
0.812558 0.786664 0
0.838285 0.786938 0
0.863661 0.787274 0
0.888731 0.787671 0
0.913466 0.788128 0
0.937926 0.788632 0
0.962112 0.789181 0
0.986023 0.789776 0
1 0.790402 0
1 0.791089 0
0 0.890486 0
0 0.885405 0
0 0.877928 0
0.0961318 0.857572 0
0.175387 0.843961 0
0.229999 0.836973 0
0.276921 0.832013 0
0.319448 0.828199 0
0.358984 0.825162 0
0.396292 0.82269 0
0.431846 0.820645 0
0.46598 0.818967 0
0.498924 0.817563 0
0.530831 0.816403 0
0.561852 0.815457 0
0.592065 0.814694 0
0.621592 0.814084 0
0.650462 0.813626 0
0.678767 0.813291 0
0.706538 0.813062 0
0.733806 0.812924 0
0.760647 0.812894 0
0.78706 0.81294 0
0.813077 0.813077 0
0.838727 0.813275 0
0.864027 0.813535 0
0.889021 0.813855 0
0.913695 0.814237 0
0.938079 0.814664 0
0.962188 0.815152 0
0.986038 0.815671 0
1 0.816236 0
1 0.816846 0
0 0.918563 0
0 0.913375 0
0 0.905791 0
0.098436 0.885328 0
0.177584 0.871626 0
0.232105 0.86453 0
0.27892 0.859464 0
0.321355 0.855558 0
0.3608 0.85243 0
0.398016 0.849867 0
0.433478 0.84773 0
0.467536 0.84596 0
0.500374 0.84448 0
0.532204 0.843229 0
0.563134 0.842206 0
0.593271 0.841352 0
0.622705 0.840665 0
0.651499 0.840116 0
0.679713 0.839704 0
0.707408 0.839384 0
0.734615 0.839185 0
0.761364 0.839078 0
0.787701 0.839048 0
0.813657 0.839109 0
0.839231 0.839231 0
0.864469 0.839429 0
0.889387 0.839673 0
0.913985 0.839994 0
0.938308 0.840345 0
0.962356 0.840772 0
0.98613 0.84123 0
1 0.841718 0
1 0.842268 0
0 0.946166 0
0 0.940887 0
0 0.933196 0
0.100694 0.912642 0
0.179751 0.898833 0
0.23418 0.891646 0
0.280903 0.886503 0
0.323247 0.882506 0
0.3626 0.879286 0
0.399725 0.876631 0
0.435111 0.874418 0
0.469078 0.872557 0
0.501839 0.870985 0
0.533578 0.869657 0
0.564431 0.868544 0
0.594491 0.867613 0
0.62385 0.86685 0
0.652567 0.866224 0
0.68072 0.865736 0
0.708324 0.865354 0
0.735454 0.86508 0
0.762142 0.864897 0
0.788403 0.864805 0
0.814282 0.86479 0
0.839796 0.864836 0
0.864973 0.864973 0
0.889815 0.865156 0
0.914351 0.8654 0
0.938613 0.86569 0
0.962585 0.866041 0
0.986313 0.866438 0
1 0.86688 0
1 0.867369 0
0 0.973327 0
0 0.967956 0
0 0.960174 0
0.102922 0.939529 0
0.181888 0.925628 0
0.236225 0.918349 0
0.282872 0.913115 0
0.325124 0.909041 0
0.364385 0.90573 0
0.401434 0.902998 0
0.436744 0.900694 0
0.470619 0.898756 0
0.503304 0.897108 0
0.534981 0.895705 0
0.565744 0.89453 0
0.595728 0.893523 0
0.62501 0.892683 0
0.653666 0.891981 0
0.681743 0.891417 0
0.709285 0.890974 0
0.736339 0.890623 0
0.762966 0.890379 0
0.789151 0.890211 0
0.814969 0.890135 0
0.840421 0.89012 0
0.865522 0.890181 0
0.890303 0.890303 0
0.914778 0.890486 0
0.938979 0.890715 0
0.96289 0.891005 0
0.986542 0.89134 0
1 0.891722 0
1 0.892149 0
0 1 0
0 0.994614 0
0.00111391 0.98674 0
0.105104 0.966003 0
0.183993 0.952026 0
0.238239 0.944671 0
0.28481 0.939345 0
0.32697 0.935195 0
0.366171 0.931807 0
