LUT color transfer/LUTs/13.cube
TITLE "Generate by Resolve"
LUT_3D_SIZE 9
0 0 0
0.0887617 0 0
0.299901 0 0
0.484016 0 0
0.707057 0 0
0.860212 0 0
0.99292 0 0
1 0 0
1 0.00700389 0.00700389
0 0.0805524 0
0.118349 0.118349 0
0.335073 0.132677 0
0.498848 0.148913 0
0.640421 0.164355 0
0.768399 0.178943 0
0.886839 0.192798 0
0.998032 0.206043 0
1 0.218738 0
0 0.368078 0
0.135256 0.337636 0
0.33228 0.33228 0
0.483757 0.336217 0
0.616495 0.342824 0
0.737682 0.350607 0
0.850614 0.358984 0
0.957244 0.367651 0
1 0.376455 0
0 0.536248 0
0.14789 0.497826 0
0.338659 0.486198 0
0.485008 0.485008 0
0.613458 0.487327 0
0.730953 0.491432 0
0.840681 0.49659 0
0.944472 0.502419 0
1 0.508705 0
0 0.677302 0
0.158755 0.634836 0
0.346029 0.619699 0
0.489311 0.615457 0
0.615045 0.615045 0
0.730114 0.616724 0
0.837644 0.619684 0
0.939437 0.623514 0
1 0.627985 0
0 0.803082 0
0.168551 0.758007 0
0.353475 0.740536 0
0.494652 0.734173 0
0.618448 0.731838 0
0.731731 0.731731 0
0.837629 0.733059 0
0.937911 0.735393 0
1 0.73843 0
0 0.918563 0
0.177584 0.871626 0
0.3608 0.85243 0
0.500374 0.84448 0
0.622705 0.840665 0
0.734615 0.839185 0
0.839231 0.839231 0
0.938308 0.840345 0
1 0.842268 0
0 1 0
0.186069 0.978058 0
0.367926 0.957519 0
0.506264 0.948318 0
0.627405 0.943328 0
0.738216 0.940734 0
0.841779 0.939742 0
0.939864 0.939864 0
1 0.940841 0
0 1 0
0.194095 1 0
0.374868 1 0
0.512184 1 0
0.632349 1 0
0.742229 1 0
0.844923 1 0
0.942168 1 0
1 1 0
0 0 0.105699
0.0811322 0 0.0811322
0.295995 0 0.0935988
0.496437 0 0.146487
0.707103 0 0.231037
0.854093 0 0.264637
0.984192 0 0.290166
1 0 0.311696
1 0 0.330755
0 0.113848 0.113848
0.115282 0.115282 0.115282
0.32781 0.125429 0.125429
0.489479 0.139544 0.139544
0.629709 0.153643 0.153643
0.756725 0.167269 0.167269
0.874418 0.180377 0.180377
0.985016 0.193027 0.193027
1 0.205234 0.205234
0 0.35816 0.155779
0.124147 0.326543 0.124147
0.320302 0.320302 0.117922
0.471107 0.323552 0.121172
0.603296 0.32961 0.12723
0.72401 0.336934 0.134539
0.836561 0.344915 0.142519
0.94284 0.353246 0.150851
1 0.361761 0.159365
0 0.523384 0.173434
0.134508 0.484443 0.134508
0.324834 0.472374 0.122438
0.470817 0.470817 0.120882
0.598932 0.472801 0.122866
0.716136 0.476616 0.12668
0.82562 0.481514 0.131579
0.929183 0.487129 0.137194
1 0.493202 0.143267
0 0.662989 0.186908
0.144137 0.620203 0.144137
0.331121 0.604791 0.128725
0.474159 0.600305 0.124224
0.59968 0.59968 0.123598
0.714534 0.601144 0.125063
0.821881 0.603922 0.127855
0.923506 0.607584 0.131518
1 0.611887 0.135821
0 0.787854 0.198383
0.153094 0.742565 0.153094
0.337819 0.724895 0.135439
0.478813 0.718349 0.128878
0.602457 0.715846 0.126375
0.715587 0.715587 0.126131
0.821347 0.716777 0.127306
0.921492 0.718959 0.129503
1 0.721889 0.132433
0 0.902678 0.208652
0.161532 0.855573 0.161532
0.344594 0.836225 0.142199
0.484031 0.828138 0.134096
0.606226 0.824186 0.130159
0.718029 0.822599 0.128557
0.822522 0.822522 0.128496
0.921492 0.823529 0.129503
1 0.825345 0.131319
0 1 0.218067
0.169558 0.961547 0.169558
0.351293 0.940887 0.148898
0.489509 0.931563 0.139574
0.610559 0.926467 0.134478
0.721248 0.923781 0.131792
0.824735 0.922683 0.130694
0.922728 0.922728 0.130739
1 0.923613 0.131624
0 1 0.226841
0.177203 1 0.177203
0.357885 1 0.155489
0.495094 1 0.145159
0.615183 1 0.139101
0.724971 1 0.135515
0.827588 1 0.133562
0.924758 1 0.132769
1 1 0.132876
0 0 0.308644
0.0840467 0 0.286442
0.304006 0 0.304006
0.54078 0 0.393225
0.713771 0 0.440101
0.856489 0 0.469413
0.984451 0 0.492821
1 0 0.512993
1 0 0.531075
0 0.128252 0.330648
0.119936 0.119936 0.322332
0.329305 0.126909 0.329305
0.489189 0.139254 0.341634
0.628214 0.152148 0.354543
0.75436 0.164889 0.367285
0.871351 0.177325 0.379721
0.981399 0.18941 0.391806
1 0.20116 0.403555
0 0.357382 0.357382
0.122316 0.324712 0.324712
0.317678 0.317678 0.317678
0.467826 0.320287 0.320287
0.599512 0.325826 0.325826
0.719783 0.332708 0.332708
0.831952 0.340307 0.340307
0.937911 0.348318 0.348318
1 0.356542 0.356542
0 0.519905 0.372366
0.130556 0.480491 0.332937
0.32047 0.468009 0.32047
0.466087 0.466087 0.318547
0.593896 0.467765 0.320226
0.710826 0.471305 0.323766
0.82005 0.475959 0.32842
0.9234 0.481346 0.333791
1 0.487221 0.339666
0 0.658137 0.384466
0.138994 0.615061 0.341375
0.325704 0.59939 0.325704
0.468513 0.594659 0.320974
0.593805 0.593805 0.320134
0.708476 0.595087 0.321401
0.815641 0.597681 0.323995
0.917098 0.601175 0.327504
1 0.605325 0.331655
0 0.782116 0.395056
0.147158 0.736629 0.349554
0.331701 0.718761 0.331701
0.472526 0.712047 0.324971
0.595987 0.709377 0.322316
0.70898 0.70898 0.321904
0.814588 0.710018 0.322957
0.914611 0.712077 0.325017
1 0.714885 0.32781
0 0.896315 0.404685
0.155016 0.849058 0.357412
0.337926 0.829572 0.337926
0.477241 0.821332 0.329686
0.599298 0.817258 0.325628
0.710979 0.815549 0.323903
0.815366 0.815366 0.32372
0.914229 0.816266 0.324636
1 0.817975 0.326345
0 1 0.413611
0.162585 0.954574 0.364965
0.344198 0.933806 0.344198
0.482307 0.924361 0.334768
0.60325 0.919158 0.329564
0.713848 0.916381 0.326787
0.817227 0.91519 0.325597
0.915145 0.915145 0.325536
1 0.915938 0.326345
0 1 0.422004
0.169863 1 0.372259
0.350439 1 0.350439
0.487556 1 0.340017
0.607569 1 0.333883
0.717281 1 0.330205
0.819806 1 0.328161
0.916899 1 0.327306
1 1 0.327337
0 0 0.461387
0.0921492 0 0.442084
0.320012 0 0.467567
0.559731 0 0.559731
0.722499 0 0.596368
0.861982 0 0.622461
0.988159 0 0.644053
1 0 0.66302
1 0 0.680217
0 0.141375 0.49131
0.127214 0.127214 0.47715
0.334051 0.131655 0.48159
0.492393 0.142458 0.492393
0.630365 0.154284 0.504219
0.755688 0.166232 0.516167
0.872053 0.178027 0.527962
0.981582 0.189593 0.539528
1 0.2009 0.550835
0 0.360174 0.507713
0.124147 0.326528 0.474083
0.318761 0.318761 0.466316
0.46833 0.32079 0.46833
0.599512 0.325841 0.473381
0.719387 0.332311 0.47985
0.831189 0.339559 0.487098
0.936843 0.34725 0.494789
1 0.355184 0.502739
0 0.520226 0.520226
0.130404 0.480339 0.480339
0.319936 0.467475 0.467475
0.465217 0.465217 0.465217
0.592721 0.46659 0.46659
0.709392 0.469856 0.469856
0.818372 0.474281 0.474281
0.921492 0.479438 0.479438
1 0.485115 0.485115
0 0.657145 0.531014
0.137713 0.613779 0.487648
0.324178 0.597864 0.471717
0.466758 0.592889 0.466758
0.591836 0.591836 0.465705
0.70631 0.59292 0.466789
0.813306 0.595346 0.469215
0.914595 0.598688 0.472557
1 0.602686 0.476539
0 0.780285 0.540764
0.145129 0.734585 0.495064
0.329473 0.716533 0.477012
0.470115 0.709651 0.470115
0.593439 0.706828 0.467308
0.706264 0.706264 0.466743
0.811749 0.707179 0.467658
0.911635 0.709117 0.469596
1 0.711803 0.472267
0 0.893858 0.549767
0.152407 0.846448 0.502342
0.33518 0.82681 0.482719
0.474357 0.818448 0.474357
0.596292 0.814252 0.470161
0.707851 0.812421 0.46833
0.812131 0.812131 0.468025
0.910887 0.812924 0.468833
1 0.814542 0.470451
0 1 0.558221
0.159518 0.951507 0.509468
0.341039 0.930632 0.488579
0.479042 0.92108 0.479042
0.599863 0.915785 0.473732
0.710369 0.912902 0.470848
0.813657 0.91162 0.469566
0.911482 0.911482 0.469429
1 0.9122 0.470146
0 1 0.566232
0.166445 1 0.516381
0.346929 1 0.494484
0.483955 1 0.483955
0.603876 1 0.477745
0.713512 1 0.473976
0.815961 1 0.47187
0.912978 1 0.470924
1 1 0.470893
0 0 0.595026
0.103441 0 0.579507
0.348867 0 0.622538
0.574655 0 0.700786
0.731411 0 0.731411
0.868315 0 0.754925
0.992935 0 0.774975
1 0 0.792874
1 0 0.809262
0 0.153277 0.629343
0.134997 0.134997 0.611063
0.339742 0.137346 0.613413
0.496757 0.146822 0.622889
0.633753 0.157687 0.633753
0.758343 0.168887 0.644953
0.874128 0.180087 0.656168
0.983154 0.191165 0.667231
1 0.20206 0.678126
0 0.364141 0.637812
0.127245 0.329641 0.603311
0.321187 0.321187 0.594873
0.470207 0.322667 0.596338
0.600931 0.327245 0.600931
0.720394 0.333333 0.607004
0.831876 0.34023 0.613916
0.937224 0.347616 0.621302
1 0.355306 0.628977
0 0.52192 0.648051
0.13167 0.481605 0.607736
0.320821 0.46836 0.594491
0.465782 0.465782 0.591913
0.592996 0.466865 0.592996
0.709407 0.469886 0.596017
0.818158 0.474067 0.600198
0.92108 0.479026 0.605158
1 0.484504 0.610651
0 0.657603 0.657603
0.137896 0.613962 0.613962
0.324117 0.597787 0.597787
0.466468 0.592599 0.592599
0.591348 0.591348 0.591348
0.705638 0.592248 0.592248
0.812451 0.594491 0.594491
0.913588 0.597681 0.597681
1 0.601526 0.601526
0 0.779919 0.666529
0.144564 0.73402 0.62063
0.328725 0.715801 0.602411
0.469215 0.708736 0.595346
0.592371 0.70576 0.592371
0.705074 0.705074 0.591684
0.810422 0.705852 0.592462
0.910185 0.707652 0.594263
1 0.710216 0.596826
0 0.892897 0.674937
0.151293 0.845335 0.627375
0.333928 0.825559 0.607599
0.472969 0.81706 0.5991
0.594781 0.812741 0.594781
0.706233 0.810803 0.592844
0.810391 0.810391 0.592432
0.909056 0.811093 0.593133
1 0.812604 0.594644
0 0.99884 0.682918
0.157977 0.949966 0.634043
0.339376 0.928969 0.613046
0.477272 0.919326 0.603403
0.598001 0.913924 0.598001
0.708415 0.910948 0.595026
0.811612 0.909575 0.593652
0.909346 0.909346 0.593423
1 0.909987 0.594064
0 1 0.690562
0.164538 1 0.64062
0.344945 1 0.618616
0.48188 1 0.608011
0.601709 1 0.601709
0.711254 1 0.597864
0.813626 1 0.595666
0.910582 1 0.594659
1 1 0.594553
0 0 0.71783
0.118044 0 0.707515
0.39855 0 0.785626
0.587625 0 0.827146
0.740169 0 0.853559
0.874983 0 0.874983
0.998245 0 0.893675
1 0 0.910597
1 0.00166323 0.926238
0 0.164263 0.753735
0.142855 0.142855 0.732326
0.345846 0.14345 0.732906
0.501671 0.151736 0.741192
0.637797 0.16173 0.751186
0.7617 0.172244 0.7617
0.876921 0.182895 0.772351
0.985489 0.1935 0.782971
1 0.204013 0.793469
0 0.368704 0.755779
0.131014 0.33341 0.720485
0.324331 0.324331 0.711406
0.472831 0.325292 0.712352
0.603128 0.329442 0.716518
0.722225 0.335149 0.722225
0.833371 0.341726 0.728786
0.938415 0.348821 0.735897
1 0.356252 0.743313
0 0.524376 0.763897
0.133715 0.48365 0.723186
0.322515 0.470054 0.709575
0.46717 0.46717 0.706691
0.59411 0.467979 0.7075
0.710262 0.470741 0.710262
0.818799 0.474708 0.714229
0.921508 0.479454 0.718975
1 0.484764 0.724285
0 0.658885 0.772274
0.138903 0.614984 0.728374
0.324895 0.598566 0.711955
0.467033 0.593164 0.706554
0.591714 0.591714 0.705104
0.705821 0.592432 0.705821
0.812482 0.594522 0.707897
0.913466 0.597543 0.710933
1 0.601251 0.714641
0 0.780407 0.780407
0.144854 0.734325 0.734325
0.328847 0.715923 0.715923
0.469169 0.708705 0.708705
0.592187 0.705577 0.705577
0.704738 0.704738 0.704738
0.809964 0.705379 0.705379
0.909606 0.707073 0.707073
1 0.709514 0.709514
0 0.892805 0.788235
0.151064 0.84509 0.74052
0.333547 0.825193 0.720607
0.472465 0.816556 0.711986
0.594171 0.812131 0.707546
0.705486 0.810056 0.705486
0.809552 0.809552 0.704982
0.90811 0.810147 0.705577
1 0.811566 0.706996
0 0.998291 0.795758
0.157305 0.949294 0.746777
0.338598 0.928191 0.725673
0.476387 0.918441 0.715908
0.597025 0.912932 0.710414
0.707347 0.909865 0.707347
0.810452 0.9084 0.705882
0.908095 0.908095 0.705562
1 0.90866 0.706127
0 1 0.803021
0.163531 1 0.752987
0.343832 1 0.730907
0.48069 1 0.720211
0.600427 1 0.713817
0.709895 1 0.709895
0.812192 1 0.707622
0.909072 1 0.706538
1 1 0.706355
0 0 0.833677
0.137484 0 0.83151
0.420142 0 0.911788
0.599374 0 0.943465
0.74873 0 0.96669
0.881743 0 0.986328
1 0 1
1 0 1
1 0.00567636 1
0 0.174578 0.868605
0.150668 0.150668 0.844709
0.352132 0.149737 0.843778
0.506905 0.156954 0.850996
0.642222 0.166155 0.860182
0.765499 0.176043 0.870069
0.880201 0.186175 0.880201
0.988327 0.196338 0.890379
1 0.20647 0.900496
0 0.373617 0.865263
0.135195 0.337591 0.829236
0.327932 0.327932 0.819562
0.475944 0.328405 0.820035
0.605814 0.332143 0.823774
0.724559 0.337484 0.829129
0.835386 0.343755 0.835386
0.940169 0.350576 0.842222
1 0.357748 0.849393
0 0.527321 0.871427
0.136278 0.486213 0.830304
0.324727 0.472282 0.816373
0.469093 0.469093 0.813184
0.595773 0.469627 0.813733
0.711681 0.47216 0.816251
0.820005 0.475914 0.820005
0.922515 0.480461 0.824552
1 0.485588 0.829679
0 0.6607 0.87866
0.140475 0.616541 0.834501
0.326223 0.599908 0.817868
0.468162 0.594293 0.812253
0.59266 0.59266 0.81062
0.706584 0.593194 0.811154
0.813077 0.595117 0.813077
0.913909 0.597986 0.815961
1 0.601556 0.819516
0 0.78146 0.88603
0.145724 0.735195 0.839765
0.329549 0.716625 0.821195
0.469718 0.709239 0.813809
0.592584 0.705974 0.810544
0.704997 0.704997 0.809567
0.810086 0.705516 0.810086
0.909621 0.707088 0.811658
1 0.709422 0.813993
0 0.893294 0.893294
0.1514 0.845441 0.845441
0.333761 0.825406 0.825406
0.472557 0.816648 0.816648
0.594141 0.8121 0.8121
0.705348 0.809918 0.809918
0.809308 0.809308 0.809308
0.907759 0.809812 0.809812
1 0.811139 0.811139
0 0.998337 0.900374
0.157244 0.949233 0.85127
0.338415 0.928023 0.83006
0.476112 0.918166 0.820203
0.596643 0.912566 0.814603
0.706874 0.909407 0.811444
0.809888 0.907851 0.809888
0.907454 0.907454 0.809506
1 0.907942 0.809979
0 1 0.907286
0.163119 1 0.85716
0.343328 1 0.834974
0.480095 1 0.824186
0.599756 1 0.817716
0.709148 1 0.813718
0.811383 1 0.811383
0.908171 1 0.810224
1 1 0.809964
0 0 0.945068
0.170001 0 0.96199
0.436912 0 1
0.610239 0 1
0.757061 0 1
0.888548 0 1
1 0 1
1 0 1
1 0.00996414 1
0 0.184344 0.976333
0.158373 0.158373 0.950362
0.358495 0.156115 0.948104
0.512306 0.162371 0.95436
0.646906 0.170825 0.962814
0.769589 0.180133 0.972122
0.883803 0.189761 0.98175
0.991516 0.199527 0.991516
1 0.209293 1
0 0.378744 0.968338
0.139651 0.342046 0.93164
0.331823 0.331823 0.921416
0.479377 0.331838 0.921431
0.608865 0.33518 0.924788
0.72726 0.3402 0.929793
0.837797 0.346166 0.93576
0.942306 0.352712 0.942306
1 0.359655 0.949248
0 0.530617 0.972671
0.139193 0.489128 0.931182
0.327321 0.474876 0.91693
0.471397 0.471397 0.913451
0.597818 0.471687 0.913741
0.713512 0.473976 0.91603
0.821622 0.477516 0.91957
0.923934 0.48188 0.923934
1 0.486824 0.928878
0 0.662913 0.978836
0.142443 0.618509 0.934432
0.327962 0.601648 0.917571
0.469703 0.595834 0.911757
0.594003 0.594003 0.909926
0.707759 0.594369 0.910292
0.814099 0.596139 0.912062
0.914794 0.598871 0.914794
1 0.602304 0.918227
0 0.782925 0.985458
0.147021 0.736477 0.93901
0.330678 0.717754 0.920272
0.470695 0.710216 0.912749
0.593408 0.706798 0.909331
0.705699 0.705699 0.908232
0.810666 0.706096 0.908614
0.910063 0.70753 0.910063
1 0.709758 0.912291
0 0.894209 0.992172
0.152178 0.84622 0.944167
0.334417 0.826047 0.92401
0.473075 0.817182 0.915129
0.594553 0.812512 0.91046
0.705653 0.810224 0.908186
0.809506 0.809506 0.907469
0.907866 0.809918 0.907866
1 0.811154 0.909102
0 0.998825 0.998825
0.15761 0.949599 0.949599
0.338689 0.928283 0.928283
0.47628 0.918318 0.918318
0.596719 0.912627 0.912627
0.706859 0.909377 0.909377
0.809781 0.907744 0.907744
0.907271 0.907271 0.907271
1 0.907668 0.907668
0 1 1
0.163165 1 0.955154
0.343282 1 0.932876
0.479957 1 0.922011
0.599542 1 0.915465
0.708858 1 0.911391
0.811002 1 0.908965
0.907744 1 0.907744
1 1 0.907423
0 0 1
0.21973 0 1
0.45124 0 1
0.620447 0 1
0.765179 0 1
0.895323 0 1
1 0 1
1 0.000701915 1
1 0.014435 1
0 0.193668 1
0.165942 0.165942 1
0.364889 0.162493 1
0.51783 0.167895 1
0.651743 0.175662 1
0.773877 0.184421 1
0.887633 0.193591 1
0.994949 0.20296 1
1 0.21239 1
0 0.383993 1
0.144274 0.34667 1
0.335927 0.335927 1
0.483055 0.335515 1
0.612161 0.338491 1
0.730236 0.343175 1
0.840497 0.348852 1
0.944747 0.355154 1
1 0.361852 1
0 0.534157 1
0.142382 0.492317 1
0.33019 0.477745 1
0.473991 0.473991 1
0.600168 0.474037 1
0.715633 0.476112 1
0.823529 0.479438 1
0.925673 0.483619 1
1 0.488396 1
0 0.665415 1
0.144701 0.620768 1
0.330022 0.603693 1
0.47155 0.597681 1
0.595682 0.595682 1
0.70927 0.59588 1
0.815457 0.597498 1
0.915999 0.600076 1
1 0.603372 1
0 0.78471 1
0.148638 0.738094 1
0.332128 0.719203 1
0.471992 0.711513 1
0.594568 0.707958 1
0.706722 0.706722 1
0.811566 0.706996 1
0.910857 0.708324 1
1 0.710445 1
0 0.89546 1
0.153292 0.847333 1
0.335393 0.827039 1
0.473945 0.818036 1
0.5953 0.81326 1
0.706294 0.81088 1
0.810056 0.810056 1
0.908324 0.810361 1
1 0.811505 1
0 0.999649 1
0.158328 0.950317 1
0.3393 0.928893 1
0.476783 0.918837 1
0.597131 0.913054 1
0.707179 0.909712 1
0.810025 0.907988 1
0.907423 0.907423 1
1 0.907759 1
0 1 1
0.163546 1 1
0.343572 1 1
0.480171 1 1
0.59968 1 1
0.708919 1 1
0.810987 1 1
0.907652 1 1
1 1 1
