LUT color transfer/LUTs/13.cube
TITLE "Generate by Resolve"
LUT_3D_SIZE 5
0 0 0
0.299901 0 0
0.707057 0 0
0.99292 0 0
1 0.00700389 0.00700389
0 0.368078 0
0.33228 0.33228 0
0.616495 0.342824 0
0.850614 0.358984 0
1 0.376455 0
0 0.677302 0
0.346029 0.619699 0
0.615045 0.615045 0
0.837644 0.619684 0
1 0.627985 0
0 0.918563 0
0.3608 0.85243 0
0.622705 0.840665 0
0.839231 0.839231 0
1 0.842268 0
0 1 0
0.374868 1 0
0.632349 1 0
0.844923 1 0
1 1 0
0 0 0.308644
0.304006 0 0.304006
0.713771 0 0.440101
0.984451 0 0.492821
1 0 0.531075
0 0.357382 0.357382
0.317678 0.317678 0.317678
0.599512 0.325826 0.325826
0.831952 0.340307 0.340307
1 0.356542 0.356542
0 0.658137 0.384466
0.325704 0.59939 0.325704
0.593805 0.593805 0.320134
0.815641 0.597681 0.323995
1 0.605325 0.331655
0 0.896315 0.404685
0.337926 0.829572 0.337926
0.599298 0.817258 0.325628
0.815366 0.815366 0.32372
1 0.817975 0.326345
0 1 0.422004
0.350439 1 0.350439
0.607569 1 0.333883
0.819806 1 0.328161
1 1 0.327337
0 0 0.595026
0.348867 0 0.622538
0.731411 0 0.731411
0.992935 0 0.774975
1 0 0.809262
0 0.364141 0.637812
0.321187 0.321187 0.594873
0.600931 0.327245 0.600931
0.831876 0.34023 0.613916
1 0.355306 0.628977
0 0.657603 0.657603
0.324117 0.597787 0.597787
0.591348 0.591348 0.591348
0.812451 0.594491 0.594491
1 0.601526 0.601526
0 0.892897 0.674937
0.333928 0.825559 0.607599
0.594781 0.812741 0.594781
0.810391 0.810391 0.592432
1 0.812604 0.594644
0 1 0.690562
0.344945 1 0.618616
0.601709 1 0.601709
0.813626 1 0.595666
1 1 0.594553
0 0 0.833677
0.420142 0 0.911788
0.74873 0 0.96669
1 0 1
1 0.00567636 1
0 0.373617 0.865263
0.327932 0.327932 0.819562
0.605814 0.332143 0.823774
0.835386 0.343755 0.835386
1 0.357748 0.849393
0 0.6607 0.87866
0.326223 0.599908 0.817868
0.59266 0.59266 0.81062
0.813077 0.595117 0.813077
1 0.601556 0.819516
0 0.893294 0.893294
0.333761 0.825406 0.825406
0.594141 0.8121 0.8121
0.809308 0.809308 0.809308
1 0.811139 0.811139
0 1 0.907286
0.343328 1 0.834974
0.599756 1 0.817716
0.811383 1 0.811383
1 1 0.809964
0 0 1
0.45124 0 1
0.765179 0 1
1 0 1
1 0.014435 1
0 0.383993 1
0.335927 0.335927 1
0.612161 0.338491 1
0.840497 0.348852 1
1 0.361852 1
0 0.665415 1
0.330022 0.603693 1
0.595682 0.595682 1
0.815457 0.597498 1
1 0.603372 1
0 0.89546 1
0.335393 0.827039 1
0.5953 0.81326 1
0.810056 0.810056 1
1 0.811505 1
0 1 1
0.343572 1 1
0.59968 1 1
0.810987 1 1
1 1 1
