LUT color transfer/LUTs/16.cube
TITLE "Generate by Resolve"
LUT_3D_SIZE 5
0 0 0
0.30071 0 0
1 0 0
1 0 0
1 0 0
0 0.417548 0
0.362112 0.363348 0
1 0.326421 0
1 0.342779 0
1 0.395132 0
0 1 0
0.251209 0.931517 0
0.939071 0.870237 0
1 0.866789 0
1 0.899763 0
0 1 0
0.325521 1 0
0.951064 1 0
1 1 0
1 1 0
0 1 0
0.497475 1 0
1 1 0
1 1 0
1 1 0
0 0 0.327581
0.308812 0 0.299153
1 0 0.439109
1 0 0.536034
1 0 0.637613
0 0.411917 0.385748
0.355047 0.357961 0.3364
1 0.317891 0.299336
1 0.326238 0.305303
1 0.373632 0.346075
0 1 0.330251
0.236667 0.915831 0.24715
0.920256 0.854627 0.196109
1 0.844648 0.195331
1 0.875349 0.238117
0 1 0.414588
0.296208 1 0.294072
0.911665 1 0.24918
1 1 0.249744
1 1 0.277333
0 1 0.552438
0.458579 1 0.419394
0.975113 1 0.354009
1 1 0.333135
1 1 0.343084
0 0 0.76321
0.365591 0 0.776211
1 0 0.908751
1 0 1
1 0 1
0 0.416098 0.902541
0.353414 0.357305 0.878676
1 0.314092 0.863691
1 0.320272 0.880369
1 0.36524 0.922805
0 1 0.906172
0.227588 0.907744 0.819883
0.909072 0.845594 0.763409
1 0.833768 0.751751
1 0.862852 0.776577
0 1 0.960281
0.28893 1 0.822843
0.893721 1 0.752712
1 1 0.729793
1 1 0.73904
0 1 1
0.441123 1 0.877501
0.951492 1 0.797681
1 1 0.764126
1 1 0.764446
0 0 1
0.503182 0 1
1 0 1
1 0 1
1 0 1
0 0.436194 1
0.366629 0.369436 1
1 0.323919 1
1 0.329809 1
1 0.374624 1
0 1 1
0.234684 0.913863 1
0.913298 0.849836 1
1 0.837095 1
1 0.864622 1
0 1 1
0.299672 1 1
0.892363 1 1
1 1 1
1 1 1
0 1 1
0.440528 1 1
0.944076 1 1
1 1 1
1 1 1
0 0 1
0.574029 0 1
1 0 1
1 0 1
1 0 1
0 0.465248 1
0.392584 0.392584 1
1 0.344625 1
1 0.349584 1
1 0.394491 1
0 1 1
0.255192 0.93109 1
0.930449 0.865232 1
1 0.851469 1
1 0.876661 1
0 1 1
0.322118 1 1
0.90312 1 1
1 1 1
1 1 1
0 1 1
0.450217 1 1
0.948211 1 1
1 1 1
1 1 1
