LUT color transfer/LUTs/16.cube
TITLE "Generate by Resolve"
LUT_3D_SIZE 33
0 0 0
0 0 0
0 0 0
0 0 0
0.0443427 0 0
0.107851 0 0
0.168704 0 0
0.232303 0 0
0.30071 0 0
0.374853 0 0
0.454002 0 0
0.536583 0 0
0.621744 0 0
0.712932 0 0
0.855253 0 0
0.961013 0 0
1 0 0
1 0 0
1 0 0
1 0 0
1 0 0
1 0 0
1 0 0
1 0 0
1 0 0
1 0 0
1 0 0
1 0 0
1 0 0
1 0 0
1 0 0
1 0 0
1 0 0
0 0 0
0 0 0
0 0 0
0 0 0
0.0500191 0 0
0.116121 0 0
0.180926 0 0
0.250568 0 0
0.327947 0 0
0.415946 0 0
0.520363 0 0
0.670069 0 0
0.773861 0 0
0.866819 0 0
0.951629 0 0
1 0 0
1 0 0
1 0 0
1 0 0
1 0 0
1 0 0
1 0 0
1 0 0
1 0 0
1 0 0
1 0 0
1 0 0
1 0 0
1 0 0
1 0 0
1 0 0
1 0 0
1 0 0
0 0 0
0 0 0
0 0 0
0 0 0
0.057084 0 0
0.129213 0 0
0.205737 0 0
0.320089 0 0
0.444221 0 0
0.548104 0 0
0.64361 0 0
0.732372 0 0
0.819165 0 0
0.90222 0 0
0.980896 0 0
1 0 0
1 0 0
1 0 0
1 0 0
1 0 0
1 0 0
1 0 0
1 0 0
1 0 0
1 0 0
1 0 0
1 0 0
1 0 0
1 0 0
1 0 0
1 0 0
1 0 0
1 0 0
0 0 0
0 0 0
0 0.00103761 0
0 0 0
0.0730144 0.0227665 0
0.158663 0.0328832 0
0.239414 0.035996 0
0.322683 0.0350042 0
0.409598 0.0310826 0
0.498161 0.0254978 0
0.585763 0.0193484 0
0.670466 0.0134127 0
0.752026 0.00796521 0
0.833295 0.00236515 0
0.913176 0 0
0.990372 0 0
1 0 0
1 0 0
1 0 0
1 0 0
1 0 0
1 0 0
1 0 0
1 0 0
1 4.57771e-05 0
1 0.00411994 0
1 0.00825513 0
1 0.0125582 0
1 0.0170443 0
1 0.0217288 0
1 0.0266117 0
1 0.0317082 0
1 0.0370031 0
0 0.088014 0
0 0.122072 0
0 0.13077 0
0 0.120882 0
0.080354 0.115801 0
0.153658 0.115145 0
0.226078 0.113695 0
0.302022 0.110567 0
0.382361 0.10576 0
0.466163 0.0996719 0
0.550942 0.0931258 0
0.63476 0.0867323 0
0.716045 0.0809796 0
0.796033 0.0756542 0
0.876265 0.0703593 0
0.955398 0.065507 0
1 0.0614176 0
1 0.0583963 0
1 0.0567025 0
1 0.0563058 0
1 0.057145 0
1 0.0591287 0
1 0.0621042 0
1 0.0658427 0
1 0.0701762 0
1 0.0749676 0
1 0.0800488 0
1 0.0852827 0
1 0.090547 0
1 0.0962692 0
1 0.102037 0
1 0.107988 0
1 0.114107 0
0 0.202182 0
0 0.206561 0
0 0.206867 0
0 0.191226 0
0.0805982 0.182635 0
0.153216 0.179828 0
0.224887 0.177005 0
0.299977 0.173114 0
0.3794 0.167941 0
0.462531 0.161761 0
0.547173 0.155276 0
0.631449 0.149004 0
0.713787 0.143389 0
0.794308 0.13843 0
0.875319 0.133471 0
0.955627 0.128862 0
1 0.12491 0
1 0.121935 0
1 0.120211 0
1 0.11986 0
1 0.120836 0
1 0.123003 0
1 0.126329 0
1 0.130541 0
1 0.13547 0
1 0.140917 0
1 0.146731 0
1 0.152758 0
1 0.158831 0
1 0.165087 0
1 0.171481 0
1 0.177996 0
1 0.184634 0
0 0.27509 0
0 0.27686 0
0 0.275074 0
0 0.256626 0
0.0738689 0.246265 0
0.147906 0.242512 0
0.220752 0.23917 0
0.296818 0.23508 0
0.377142 0.229969 0
0.461173 0.224002 0
0.546792 0.217746 0
0.63212 0.211734 0
0.715724 0.206348 0
0.797238 0.201694 0
0.87921 0.197086 0
0.960601 0.192798 0
1 0.189166 0
1 0.186465 0
1 0.185016 0
1 0.185 0
1 0.186313 0
1 0.188876 0
1 0.192569 0
1 0.197223 0
1 0.202609 0
1 0.208515 0
1 0.214817 0
1 0.221332 0
1 0.227909 0
1 0.234409 0
1 0.24126 0
1 0.248066 0
1 0.254932 0
0 0.345434 0
0 0.346303 0
0 0.343633 0
0 0.323171 0
0.0603342 0.311681 0
0.136904 0.30753 0
0.211917 0.304006 0
0.289876 0.299901 0
0.371862 0.29485 0
0.457435 0.289006 0
0.544488 0.282948 0
0.631235 0.277134 0
0.716136 0.271992 0
0.798733 0.267643 0
0.88159 0.263401 0
0.963821 0.25948 0
1 0.256229 0
1 0.253895 0
1 0.252766 0
1 0.253025 0
1 0.254612 0
1 0.257435 0
1 0.261387 0
1 0.266285 0
1 0.271916 0
1 0.27808 0
1 0.284611 0
1 0.291356 0
1 0.298131 0
1 0.304814 0
1 0.311666 0
1 0.318502 0
1 0.325338 0
0 0.417548 0
0 0.418235 0
0 0.415274 0
0 0.393286 0
0.0407263 0.380835 0
0.120256 0.376303 0
0.197833 0.372595 0
0.278065 0.368399 0
0.362112 0.363348 0
0.449516 0.357595 0
0.538186 0.351659 0
0.626383 0.346044 0
0.712551 0.341131 0
0.796094 0.337057 0
0.87953 0.333104 0
0.962097 0.329458 0
1 0.326421 0
1 0.324269 0
1 0.323278 0
1 0.323659 0
1 0.325353 0
1 0.328237 0
1 0.332219 0
1 0.337148 0
1 0.342779 0
1 0.348928 0
1 0.355413 0
1 0.362066 0
1 0.368765 0
1 0.375357 0
1 0.381979 0
1 0.388571 0
1 0.395132 0
0 0.492393 0
0 0.493095 0
0 0.490028 0
0 0.466865 0
0.0162356 0.453635 0
0.0988327 0.448783 0
0.179156 0.444846 0
0.261875 0.440513 0
0.348196 0.435401 0
0.437568 0.429633 0
0.527886 0.423728 0
0.61735 0.418143 0
0.704417 0.41326 0
0.78851 0.409232 0
0.872206 0.405295 0
0.954742 0.401633 0
1 0.398581 0
1 0.396414 0
1 0.395346 0
1 0.395621 0
1 0.397177 0
1 0.399908 0
1 0.403693 0
1 0.408408 0
1 0.413794 0
1 0.419684 0
1 0.425879 0
1 0.432242 0
1 0.438605 0
1 0.444846 0
1 0.451041 0
1 0.457206 0
1 0.463371 0
0 0.569421 0
0 0.570199 0
0 0.56701 0
0 0.543023 0
0 0.529152 0
0.0753948 0.52398 0
0.158526 0.519753 0
0.243717 0.51516 0
0.332219 0.509773 0
0.423316 0.503731 0
0.514946 0.497597 0
0.605325 0.491783 0
0.692988 0.486702 0
0.777356 0.48246 0
0.861067 0.478309 0
0.94342 0.474464 0
1 0.471199 0
1 0.468788 0
1 0.46746 0
1 0.46743 0
1 0.468666 0
1 0.471046 0
1 0.474449 0
1 0.478737 0
1 0.483696 0
1 0.489113 0
1 0.49485 0
1 0.50071 0
1 0.506584 0
1 0.512444 0
1 0.518395 0
1 0.524453 0
1 0.530617 0
0 0.647654 0
0 0.648432 0
0 0.645151 0
0 0.620554 0
0 0.606088 0
0.0526741 0.600397 0
0.138277 0.595651 0
0.22565 0.590524 0
0.315953 0.584619 0
0.408453 0.578119 0
0.501045 0.571527 0
0.59205 0.565316 0
0.680003 0.559853 0
0.764431 0.55523 0
0.848035 0.550729 0
0.930098 0.546502 0
1 0.542855 0
1 0.540047 0
1 0.538308 0
1 0.53782 0
1 0.538582 0
1 0.540444 0
1 0.543313 0
1 0.547036 0
1 0.551415 0
1 0.556283 0
1 0.561593 0
1 0.567208 0
1 0.572992 0
1 0.57882 0
1 0.584558 0
1 0.590646 0
1 0.596689 0
0 0.726802 0
0 0.727153 0
0 0.723262 0
0 0.697612 0
0 0.682445 0
0.0327459 0.676097 0
0.120409 0.67068 0
0.209506 0.664881 0
0.301213 0.65832 0
0.394705 0.651209 0
0.487938 0.644068 0
0.579232 0.637339 0
0.667247 0.631388 0
0.751568 0.626276 0
0.834928 0.621271 0
0.916579 0.616556 0
0.995438 0.612406 0
1 0.609079 0
1 0.606806 0
1 0.605753 0
1 0.605905 0
1 0.607156 0
1 0.609445 0
1 0.612787 0
1 0.616922 0
1 0.621668 0
1 0.626871 0
1 0.632364 0
1 0.63801 0
1 0.643687 0
1 0.649271 0
1 0.655131 0
1 0.660945 0
0 0.805905 0
0 0.80557 0
0 0.800855 0
0 0.773831 0
0 0.757458 0
0.0157168 0.750164 0
0.105226 0.743862 0
0.195758 0.737255 0
0.288563 0.729931 0
0.382742 0.722133 0
0.476295 0.714351 0
0.56762 0.707042 0
0.655436 0.700511 0
0.739452 0.69482 0
0.82237 0.68925 0
0.903456 0.683955 0
0.981659 0.67924 0
1 0.675334 0
1 0.672465 0
1 0.670939 0
1 0.670817 0
1 0.671916 0
1 0.674128 0
1 0.677363 0
1 0.681376 0
1 0.685985 0
1 0.69102 0
1 0.696345 0
1 0.701808 0
1 0.707286 0
1 0.712673 0
1 0.718273 0
1 0.723842 0
0 0.88307 0
0 0.881926 0
0 0.876356 0
0 0.848325 0
0 0.830915 0
0 0.82266 0
0.0903029 0.815442 0
0.181903 0.807965 0
0.275471 0.799832 0
0.370031 0.791287 0
0.463645 0.782818 0
0.554788 0.774838 0
0.642176 0.767681 0
0.725719 0.761364 0
0.808087 0.755138 0
0.888533 0.749249 0
0.966217 0.744121 0
1 0.739986 0
1 0.737026 0
1 0.735439 0
1 0.73518 0
1 0.736141 0
1 0.738186 0
1 0.741222 0
1 0.745007 0
1 0.749371 0
1 0.754147 0
1 0.759182 0
1 0.764355 0
1 0.769528 0
1 0.774594 0
1 0.779828 0
1 0.785046 0
0 0.956985 0
0 0.955032 0
0 0.948699 0
0 0.920027 0
0 0.901793 0
0 0.892653 0
0.0765698 0.884565 0
0.168795 0.876219 0
0.26273 0.867262 0
0.357321 0.857954 0
0.450721 0.848753 0
0.541421 0.840085 0
0.628351 0.832349 0
0.71162 0.825635 0
0.79382 0.819181 0
0.874189 0.813214 0
0.951675 0.80798 0
1 0.803708 0
1 0.800595 0
1 0.798825 0
1 0.798352 0
1 0.799069 0
1 0.800855 0
1 0.803586 0
1 0.80705 0
1 0.811063 0
1 0.815473 0
1 0.820142 0
1 0.824918 0
1 0.829694 0
1 0.834333 0
1 0.839139 0
1 0.843885 0
0 1 0
0 1 0
0 1 0
0 0.988144 0
0 0.969299 0
0 0.959365 0
0.0648661 0.950439 0
0.157259 0.941268 0
0.251209 0.931517 0
0.345739 0.921599 0
0.439048 0.912032 0
0.529732 0.903181 0
0.616602 0.895354 0
0.699794 0.888472 0
0.781857 0.881849 0
0.861952 0.875669 0
0.939071 0.870237 0
1 0.865736 0
1 0.862394 0
1 0.860349 0
1 0.859571 0
1 0.859953 0
1 0.861372 0
1 0.863722 0
1 0.866789 0
1 0.870375 0
1 0.874342 0
1 0.878538 0
1 0.882826 0
1 0.887114 0
1 0.891279 0
1 0.895537 0
1 0.899763 0
0 1 0
0 1 0
0 1 0
0 1 0
0 1 0
0 1 0
0.0561227 1 0
0.148806 1 0
0.243107 0.99324 0
0.337804 0.983154 0
0.431128 0.973404 0
0.52166 0.96437 0
0.60824 0.956329 0
0.691173 0.949203 0
0.772915 0.942306 0
0.852552 0.935882 0
0.929122 0.930144 0
1 0.925353 0
1 0.921675 0
1 0.91928 0
1 0.918151 0
1 0.91812 0
1 0.919112 0
1 0.921004 0
1 0.923583 0
1 0.926665 0
1 0.930098 0
1 0.933761 0
1 0.937514 0
1 0.941222 0
1 0.944808 0
1 0.948486 0
1 0.952087 0
0 1 0
0 1 0
0 1 0
0 1 0
0 1 0
0 1 0
0.0527199 1 0
0.145617 1 0
0.240024 1 0
0.334676 1 0
0.427756 1 0
0.517906 1 0
0.603998 1 0
0.686488 1 0
0.767681 0.999878 0
0.846662 0.993103 0
0.922484 0.98703 0
0.994324 0.981872 0
1 0.977813 0
1 0.975006 0
1 0.973434 0
1 0.972961 0
1 0.973449 0
1 0.974823 0
1 0.976852 0
1 0.97937 0
1 0.982223 0
1 0.98529 0
1 0.988418 0
1 0.991516 0
1 0.994461 0
1 0.997467 0
1 1 0
0 1 0
0 1 0
0 1 0
0 1 0
0 1 0
0 1 0
0.0553597 1 0
0.148257 1 0
0.242573 1 0
0.336904 1 0
0.429526 1 0
0.519081 1 0
0.604471 1 0
0.686305 1 0
0.766751 1 0
0.844862 1 0
0.919738 1 0
0.990555 1 0
1 1 0
1 1 0
1 1 0
1 1 0
1 1 0
1 1 0
1 1 0
1 1 0
1 1 0
1 1 0
1 1 0
1 1 0
1 1 0
1 1 0
1 1 0
0 1 0
0 1 0
0 1 0
0 1 0
0 1 0
0 1 0
0.0636912 1 0
0.15642 1 0
0.250446 1 0
0.344289 1 0
0.436255 1 0
0.525017 1 0
0.609506 1 0
0.690471 1 0
0.76997 1 0
0.847028 1 0
0.920729 1 0
0.990326 1 0
1 1 0
1 1 0
1 1 0
1 1 0
1 1 0
1 1 0
1 1 0
1 1 0
1 1 0
1 1 0
1 1 0
1 1 0
1 1 0
1 1 0
1 1 0
0 1 0
0 1 0
0 1 0
0 1 0
0 1 0
0 1 0
0.0773022 1 0
0.169711 1 0
0.263249 1 0
0.356405 1 0
0.447501 1 0
0.535241 1 0
0.618601 1 0
0.698512 1 0
0.776837 1 0
0.852613 1 0
0.924956 1 0
0.993149 1 0
1 1 0
1 1 0
1 1 0
1 1 0
1 1 0
1 1 0
1 1 0
1 1 0
1 1 0
1 1 0
1 1 0
1 1 0
1 1 0
1 1 0
1 1 0
0 1 0
0 1 0
0 1 0
0 1 0
0 1 0
0.00433356 1 0
0.0958724 1 0
0.187732 1 0
0.280583 1 0
0.372793 1 0
0.462776 1 0
0.549279 1 0
0.631266 1 0
0.709895 1 0
0.786831 1 0
0.861097 1 0
0.931884 1 0
0.998474 1 0
1 1 0
1 1 0
1 1 0
1 1 0
1 1 0
1 1 0
1 1 0
1 1 0
1 1 0
1 1 0
1 1 0
1 1 0
1 1 0
1 1 0
1 1 0
0 1 0
0 1 0
0 1 0
0 1 0
0 1 0
0.0276646 1 0
0.118639 1 0
0.209796 1 0
0.301732 1 0
0.392782 1 0
0.481392 1 0
0.5664 1 0
0.646769 1 0
0.723873 1 0
0.799191 1 0
0.871778 1 0
0.940856 1 0
1 1 0
1 1 0
1 1 0
1 1 0
1 1 0
1 1 0
1 1 0
1 1 0
1 1 0
1 1 0
1 1 0
1 1 0
1 1 0
1 1 0
1 1 0
1 1 0
0 1 0
0 1 0
0 1 0
0 1 0
0 1 0
0.0543984 1 0
0.144564 1 0
0.234791 1 0
0.325521 1 0
0.415076 1 0
0.502068 1 0
0.585321 1 0
0.66389 1 0
0.73933 1 0
0.812894 1 0
0.883726 1 0
0.951064 1 0
1 1 0
1 1 0
1 1 0
1 1 0
1 1 0
1 1 0
1 1 0
1 1 0
1 1 0
1 1 0
1 1 0
1 1 0
1 1 0
1 1 0
1 1 0
1 1 0
0 1 0
0 1 0
0 1 0
0 1 0
0 1 0
0.0834363 1 0
0.172457 1 0
0.261448 1 0
0.350698 1 0
0.43859 1 0
0.52372 1 0
0.605051 1 0
0.681697 1 0
0.755398 1 0
0.827192 1 0
0.896239 1 0
0.961837 1 0
1 1 0
1 1 0
1 1 0
1 1 0
1 1 0
1 1 0
1 1 0
1 1 0
1 1 0
1 1 0
1 1 0
1 1 0
1 1 0
1 1 0
1 1 0
1 1 0
0 1 0
0 1 0
0 1 0
0 1 0
0.0224918 1 0
0.11339 1 0
0.201144 1 0
0.288624 1 0
0.37615 1 0
0.462196 1 0
0.545357 1 0
0.624735 1 0
0.699443 1 0
0.771374 1 0
0.841398 1 0
0.90869 1 0
0.97261 1 0
1 1 0
1 1 0
1 1 0
1 1 0
1 1 0
1 1 0
1 1 0
1 1 0
1 1 0
1 1 0
1 1 0
1 1 0
1 1 0
1 1 0
1 1 0
1 1 0
0 1 0
0 1 0
0 1 0
0 1 0
0.0536355 1 0
0.143114 1 0
0.229343 1 0
0.31519 1 0
0.400931 1 0
