LUT color transfer/LUTs/16.cube
TITLE "Generate by Resolve"
LUT_3D_SIZE 9
0 0 0
0.0443427 0 0
0.30071 0 0
0.621744 0 0
1 0 0
1 0 0
1 0 0
1 0 0
1 0 0
0 0.088014 0
0.080354 0.115801 0
0.382361 0.10576 0
0.716045 0.0809796 0
1 0.0614176 0
1 0.057145 0
1 0.0701762 0
1 0.090547 0
1 0.114107 0
0 0.417548 0
0.0407263 0.380835 0
0.362112 0.363348 0
0.712551 0.341131 0
1 0.326421 0
1 0.325353 0
1 0.342779 0
1 0.368765 0
1 0.395132 0
0 0.726802 0
0 0.682445 0
0.301213 0.65832 0
0.667247 0.631388 0
0.995438 0.612406 0
1 0.605905 0
1 0.616922 0
1 0.63801 0
1 0.660945 0
0 1 0
0 0.969299 0
0.251209 0.931517 0
0.616602 0.895354 0
0.939071 0.870237 0
1 0.859571 0
1 0.866789 0
1 0.882826 0
1 0.899763 0
0 1 0
0 1 0
0.250446 1 0
0.609506 1 0
0.920729 1 0
1 1 0
1 1 0
1 1 0
1 1 0
0 1 0
0 1 0
0.325521 1 0
0.66389 1 0
0.951064 1 0
1 1 0
1 1 0
1 1 0
1 1 0
0 1 0
0.0835126 1 0
0.424216 1 0
0.732082 1 0
0.992172 1 0
1 1 0
1 1 0
1 1 0
1 1 0
0 1 0
0.183185 1 0
0.497475 1 0
0.779568 1 0
1 1 0
1 1 0
1 1 0
1 1 0
1 1 0
0 0 0.119875
0.0395972 0 0.0923629
0.297902 0 0.0886549
0.647242 0 0.0945296
1 0 0.1364
1 0 0.163272
1 0 0.195544
1 0 0.229038
1 0 0.264652
0 0.123552 0.132128
0.0794232 0.115373 0.12398
0.375753 0.102693 0.112032
0.708736 0.0768139 0.088365
1 0.0561379 0.069337
1 0.0494545 0.0627146
1 0.0608682 0.0721294
1 0.0809186 0.0892195
1 0.103975 0.10898
0 0.412131 0.114763
0.03888 0.374426 0.0936141
0.35552 0.358007 0.0735332
0.705913 0.33547 0.0420691
1 0.319707 0.0158846
1 0.316045 0.00112917
1 0.33106 0.00393683
1 0.355764 0.0162814
1 0.38114 0.0299992
0 0.719753 0.0407111
0 0.673747 0.0205234
0.293919 0.650645 0.00215152
0.657359 0.623224 0
0.985031 0.603098 0
1 0.593759 0
1 0.602853 0
1 0.62327 0
1 0.646082 0
0 1 0
0 0.956512 0
0.241077 0.920638 0
0.603967 0.884901 0
0.926177 0.859419 0
1 0.846571 0
1 0.851698 0
1 0.866911 0
1 0.883711 0
0 1 0.00488289
0 1 0
0.233997 1 0
0.590402 1 0
0.900557 1 0
1 1 0
1 1 0
1 1 0
1 1 0
0 1 0.0740826
0 1 0.0305638
0.304341 1 0.0104829
0.639353 1 0
0.924758 1 0
1 1 0
1 1 0.00030518
1 1 0.0190585
1 1 0.0369879
0 1 0.166995
0.074464 1 0.124269
0.400961 1 0.10071
0.705348 1 0.0790723
0.96379 1 0.0643168
1 1 0.0579843
1 1 0.0628977
1 1 0.0736248
1 1 0.0848859
0 1 0.247257
0.170916 1 0.198642
0.472313 1 0.167544
0.752102 1 0.139757
0.991485 1 0.119417
1 1 0.108415
1 1 0.109056
1 1 0.116121
1 1 0.124681
0 0 0.327581
0.0418555 0 0.291661
0.308812 0 0.299153
0.735195 0 0.387274
1 0 0.439109
1 0 0.486259
1 0 0.536034
1 0 0.585977
1 0 0.637613
0 0.135164 0.37052
0.0813764 0.117433 0.35671
0.378622 0.101503 0.35375
0.712551 0.0740063 0.34519
1 0.0519265 0.343435
1 0.0437324 0.355077
1 0.0541085 0.383017
1 0.0735637 0.417426
1 0.0959945 0.45214
0 0.411917 0.385748
0.0362097 0.374548 0.351858
0.355047 0.357961 0.3364
0.706981 0.334691 0.314992
1 0.317891 0.299336
1 0.312779 0.294057
1 0.326238 0.305303
1 0.349584 0.325353
1 0.373632 0.346075
0 0.717906 0.353902
0 0.672129 0.310796
0.291646 0.649027 0.288579
0.654231 0.620859 0.26099
0.981048 0.599619 0.239689
1 0.588739 0.227955
1 0.596826 0.233539
1 0.616556 0.250233
1 0.638895 0.270268
0 1 0.330251
0 0.9505 0.276066
0.236667 0.915831 0.24715
0.59855 0.880385 0.217029
0.920256 0.854627 0.196109
1 0.840742 0.186969
1 0.844648 0.195331
1 0.859068 0.214984
1 0.875349 0.238117
0 1 0.34847
0 1 0.275105
0.227726 1 0.240955
0.582391 1 0.212436
0.891188 1 0.195758
1 1 0.191638
1 1 0.203571
1 1 0.224308
1 1 0.246113
0 1 0.414588
0 1 0.332021
0.296208 1 0.294072
0.62829 1 0.265934
0.911665 1 0.24918
1 1 0.242969
1 1 0.249744
1 1 0.263294
1 1 0.277333
0 1 0.491417
0.0700236 1 0.40911
0.390036 1 0.366476
0.691493 1 0.333318
0.948241 1 0.310231
1 1 0.297047
1 1 0.296544
1 1 0.303304
1 1 0.311727
0 1 0.552438
0.162844 1 0.46772
0.458579 1 0.419394
0.736599 1 0.38146
0.975113 1 0.354009
1 1 0.337118
1 1 0.333135
1 1 0.336889
1 1 0.343084
0 0 0.555901
0.0430915 0 0.518227
0.326101 0 0.540978
0.771115 0 0.654307
1 0 0.700511
1 0 0.751431
1 0 0.807019
1 0 0.863645
1 0 0.920821
0 0.140108 0.628901
0.0804303 0.116945 0.612222
0.381918 0.098146 0.614359
0.718471 0.0695354 0.614694
1 0.0466773 0.622568
1 0.0383001 0.644007
1 0.0488746 0.680613
1 0.068513 0.721477
1 0.0910506 0.760418
0 0.412589 0.659251
0.0296483 0.374151 0.629664
0.352987 0.356558 0.620661
0.70724 0.332357 0.606851
1 0.314809 0.597726
1 0.309026 0.597345
1 0.321752 0.611765
1 0.344289 0.633509
1 0.367681 0.654917
0 0.717845 0.655024
0 0.670512 0.612222
0.287053 0.646357 0.590021
0.649546 0.617166 0.563378
0.975464 0.594888 0.542916
1 0.583383 0.532052
1 0.591119 0.538277
1 0.610529 0.554925
1 0.632654 0.573968
0 1 0.640803
0 0.944945 0.583307
0.230686 0.91043 0.551736
0.592172 0.874891 0.520088
0.913222 0.848859 0.497704
1 0.834455 0.486549
1 0.837751 0.492134
1 0.851713 0.508156
1 0.867597 0.526726
0 1 0.657496
0 1 0.580011
0.22211 1 0.54107
0.57528 1 0.507774
0.882429 1 0.486
1 1 0.476051
1 1 0.481682
1 1 0.496178
1 1 0.512078
0 1 0.712627
0 1 0.623255
0.290532 1 0.577966
0.619684 1 0.542367
0.900786 1 0.518517
1 1 0.505516
1 1 0.506065
1 1 0.51429
1 1 0.523903
0 1 0.768536
0.0668193 1 0.678706
0.381888 1 0.629114
0.680461 1 0.58938
0.935317 1 0.560479
1 1 0.542077
1 1 0.537011
1 1 0.540017
1 1 0.545296
0 1 0.809079
0.15639 1 0.718822
0.447959 1 0.665721
0.724041 1 0.623117
0.96141 1 0.59144
1 1 0.570611
1 1 0.563134
1 1 0.563989
1 1 0.567803
0 0 0.76321
0.047364 0 0.731533
0.365591 0 0.776211
0.800458 0 0.874403
1 0 0.908751
1 0 0.954009
1 0 1
1 0 1
1 0 1
0 0.144747 0.859373
0.0810101 0.117784 0.843793
0.388312 0.0965286 0.84979
0.72813 0.0670329 0.856611
1 0.0436561 0.871595
1 0.0356298 0.899672
1 0.0468147 0.940612
1 0.0669566 0.983017
1 0.0898756 1
0 0.416098 0.902541
0.0247501 0.376242 0.8813
0.353414 0.357305 0.878676
0.71017 0.332189 0.869596
1 0.314092 0.863691
1 0.307988 0.865232
1 0.320272 0.880369
1 0.342138 0.901854
1 0.36524 0.922805
0 0.720851 0.917586
0 0.671641 0.879088
0.284871 0.646006 0.858259
0.647456 0.615702 0.832059
0.972442 0.592462 0.811322
1 0.58088 0.800381
1 0.58851 0.805875
1 0.607752 0.820951
1 0.629725 0.837568
0 1 0.906172
0 0.942596 0.851499
0.227588 0.907744 0.819883
0.588846 0.871916 0.787411
0.909072 0.845594 0.763409
1 0.830854 0.749722
1 0.833768 0.751751
1 0.847349 0.763287
1 0.862852 0.776577
0 1 0.918547
0 1 0.843946
0.220233 1 0.802579
0.571893 1 0.765774
0.877134 1 0.739513
1 1 0.724239
1 1 0.724025
1 1 0.732662
1 1 0.742931
0 1 0.960281
0 1 0.872847
0.28893 1 0.822843
0.615122 1 0.781964
0.893721 1 0.752712
1 1 0.73431
1 1 0.729793
1 1 0.73344
1 1 0.73904
0 1 0.995224
0.0666819 1 0.908629
0.377661 1 0.854963
0.67335 1 0.810925
0.926268 1 0.778027
1 1 0.755825
1 1 0.74725
1 1 0.747112
1 1 0.749645
0 1 1
0.15288 1 0.932769
0.441123 1 0.877501
0.715312 1 0.832059
0.951492 1 0.797681
1 1 0.774151
1 1 0.764126
1 1 0.762692
1 1 0.764446
0 0 0.937057
0.0569162 0 0.916579
0.457008 0 0.992981
0.830961 0 1
1 0 1
1 0 1
1 0 1
1 0 1
1 0 1
0 0.15172 1
0.0847791 0.12137 1
0.398947 0.0979629 1
0.742519 0.0679484 1
1 0.0445716 1
1 0.0375677 1
1 0.049897 1
1 0.0708324 1
1 0.0943313 1
0 0.423926 1
0.0231022 0.381674 1
0.357351 0.361059 1
0.716594 0.335103 1
1 0.31664 1
1 0.310506 1
1 0.322652 1
1 0.344076 1
1 0.367453 1
0 0.728527 1
0 0.676295 1
0.286122 0.648707 1
0.648768 0.617182 1
0.973053 0.593256 1
1 0.581827 1
1 0.589548 1
1 0.608804 1
1 0.630732 1
0 1 1
0 0.944289 1
0.228351 0.908415 1
0.589258 0.872053 1
0.908507 0.845411 0.985336
1 0.830427 0.968765
1 0.833112 0.966598
1 0.846372 0.972793
1 0.861509 0.97998
0 1 1
0 1 1
0.222705 1 1
0.57258 1 0.978805
0.875593 1 0.949477
1 1 0.929808
1 1 0.924468
1 1 0.927703
1 1 0.932601
0 1 1
0 1 1
0.291676 1 1
0.614618 1 0.977874
0.890517 1 0.945754
1 1 0.923735
1 1 0.915343
1 1 0.91519
1 1 0.917174
0 1 1
0.0708476 1 1
0.377554 1 1
0.670207 1 0.991135
0.92105 1 0.956924
1 1 0.932723
1 1 0.921828
1 1 0.91931
1 1 0.919448
0 1 1
0.153658 1 1
0.438514 1 1
0.710597 1 1
0.945403 1 0.966552
1 1 0.942153
1 1 0.9308
1 1 0.927855
1 1 0.927993
0 0 1
0.076112 0 1
0.503182 0 1
0.862089 0 1
1 0 1
1 0 1
1 0 1
1 0 1
1 0 1
0 0.16199 1
0.0931716 0.128939 1
0.414893 0.103548 1
0.762356 0.0730755 1
1 0.0498817 1
1 0.0440833 1
1 0.0574807 1
1 0.0790417 1
1 0.102861 1
0 0.436194 1
0.0265049 0.391806 1
0.366629 0.369436 1
0.728237 0.342687 1
1 0.323919 1
1 0.317815 1
1 0.329809 1
1 0.350958 1
1 0.374624 1
0 0.740459 1
0 0.685618 1
0.292729 0.656001 1
0.655375 0.623209 1
0.979232 0.598932 1
1 0.587686 1
1 0.595529 1
1 0.614771 1
1 0.636622 1
0 1 1
0 0.950912 1
0.234684 0.913863 1
0.595239 0.876875 1
0.913298 0.849836 1
1 0.834653 1
1 0.837095 1
1 0.849958 1
1 0.864622 1
0 1 1
0 1 1
0.230838 1 1
0.57879 1 1
0.879316 1 1
1 1 1
1 1 1
1 1 1
1 1 1
0 1 1
0 1 1
0.299672 1 1
0.619303 1 1
0.892363 1 1
1 1 1
1 1 1
1 1 1
1 1 1
0 1 1
0.0791485 1 1
0.382239 1 1
0.671962 1 1
0.920729 1 1
1 1 1
1 1 1
1 1 1
1 1 1
0 1 1
0.158495 1 1
0.440528 1 1
0.710658 1 1
0.944076 1 1
1 1 1
1 1 1
1 1 1
1 1 1
0 0 1
0.113115 0 1
0.54081 0 1
0.892164 0 1
1 0 1
1 0 1
1 0 1
1 0 1
1 0 1
0 0.173465 1
0.103975 0.138582 1
0.433707 0.111284 1
0.784955 0.0803082 1
1 0.0573281 1
1 0.0526284 1
1 0.0669108 1
1 0.0887922 1
1 0.112673 1
0 0.450462 1
0.0328679 0.404685 1
0.379187 0.380652 1
0.742885 0.353124 1
1 0.333959 1
1 0.327764 1
1 0.339467 1
1 0.360494 1
1 0.384253 1
0 0.754009 1
0 0.697444 1
0.302571 0.666041 1
0.665202 0.632029 1
0.988861 0.607645 1
1 0.596551 1
1 0.604471 1
1 0.623575 1
1 0.645182 1
0 1 1
0 0.960143 1
0.244434 0.922133 1
0.6047 0.884581 1
0.921447 0.85716 1
1 0.841764 1
1 0.843915 1
1 0.856275 1
1 0.870344 1
0 1 1
0 1 1
0.242405 1 1
0.588403 1 1
0.88632 1 1
1 1 1
1 1 1
1 1 1
1 1 1
0 1 1
0 1 1
0.310567 1 1
0.627054 1 1
0.897292 1 1
1 1 1
1 1 1
1 1 1
1 1 1
0 1 1
0.0893416 1 1
0.389456 1 1
0.6766 1 1
0.923415 1 1
1 1 1
1 1 1
1 1 1
1 1 1
0 1 1
0.165087 1 1
0.44506 1 1
0.713481 1 1
0.945647 1 1
1 1 1
1 1 1
1 1 1
1 1 1
0 0 1
0.177478 0 1
0.574029 0 1
0.921492 0 1
1 0 1
1 0 1
1 0 1
1 0 1
1 0 1
0 0.184985 1
0.115267 0.148669 1
0.453315 0.119463 1
0.808255 0.0880293 1
1 0.0653544 1
1 0.061799 1
1 0.0769055 1
1 0.0990158 1
1 0.122835 1
0 0.465248 1
0.0400244 0.41825 1
0.392584 0.392584 1
0.758083 0.364263 1
1 0.344625 1
1 0.338277 1
1 0.349584 1
1 0.370718 1
1 0.394491 1
0 0.767712 1
0 0.709697 1
0.313146 0.6766 1
0.676005 0.641672 1
0.99939 0.617243 1
1 0.606271 1
1 0.614221 1
1 0.633127 1
1 0.654429 1
0 1 1
0 0.96994 1
0.255192 0.93109 1
0.615152 0.893004 1
0.930449 0.865232 1
1 0.849638 1
1 0.851469 1
1 0.863249 1
1 0.876661 1
0 1 1
0 1 1
0.254978 1 1
0.598932 1 1
0.894194 1 1
1 1 1
1 1 1
1 1 1
1 1 1
0 1 1
0 1 1
0.322118 1 1
0.635599 1 1
0.90312 1 1
1 1 1
1 1 1
1 1 1
1 1 1
0 1 1
0.0995956 1 1
0.397208 1 1
0.682078 1 1
0.927062 1 1
1 1 1
1 1 1
1 1 1
1 1 1
0 1 1
0.171862 1 1
0.450217 1 1
0.717174 1 1
0.948211 1 1
1 1 1
1 1 1
1 1 1
1 1 1
