LUT color transfer/LUTs/20.cube
LUT_3D_SIZE 6
-0.138154 -0.138154 -0.138154
0.017646 -0.132317 -0.132317
0.313731 0.007528 0.004963
0.642318 0.166086 0.122292
0.828788 0.246865 0.184032
0.970389 0.305654 0.228482
-0.116845 0.048850 -0.116845
0.032354 0.055231 -0.109350
0.322463 0.177046 0.041124
0.648015 0.289629 0.147075
0.832347 0.329009 0.198808
0.972793 0.362815 0.238274
0.104954 0.432172 0.110604
0.178632 0.434934 0.116682
0.357396 0.446551 0.140007
0.671680 0.560890 0.224453
0.847272 0.549473 0.251931
0.983149 0.537538 0.275777
0.298963 0.836903 0.283188
0.348040 0.838713 0.286566
0.504595 0.846301 0.300523
0.716905 0.861315 0.326755
0.876708 0.815427 0.332526
1.003606 0.766492 0.337891
0.404294 0.995682 0.374174
0.435623 0.995924 0.376228
0.548244 0.996680 0.384862
0.719529 0.998063 0.401702
0.921566 0.999390 0.426920
1.035217 0.980869 0.415591
0.484070 1.100626 0.442244
0.505382 1.101221 0.443615
0.586901 1.103819 0.449383
0.721253 1.109053 0.460818
0.889360 1.117385 0.478451
1.077901 1.129031 0.502075
-0.136210 -0.136210 0.019033
0.019189 -0.130254 0.024304
0.314612 0.014478 0.113486
0.642890 0.169604 0.202007
0.829152 0.248906 0.235653
0.970643 0.307029 0.263836
-0.114375 0.051048 0.035782
0.033785 0.057347 0.040345
0.338154 0.088631 0.063233
0.654134 0.205272 0.152365
0.837477 0.275112 0.205427
0.971739 0.336792 0.251899
0.107240 0.433116 0.174547
0.134000 0.436404 0.137074
0.358194 0.447465 0.159858
0.672487 0.539401 0.231080
0.849591 0.527377 0.258127
0.982179 0.522863 0.287756
0.300246 0.837561 0.323815
0.311852 0.838910 0.294412
0.489382 0.846424 0.308617
0.717248 0.861716 0.335405
0.877279 0.807817 0.338653
1.002904 0.759080 0.347989
0.405114 0.995791 0.399777
0.413986 0.995944 0.382457
0.534569 0.996736 0.391076
0.713646 0.998101 0.407981
0.921800 0.999416 0.433316
1.034875 0.979575 0.424202
0.484629 1.100831 0.459469
0.495343 1.101042 0.451813
0.579233 1.103656 0.457542
0.716586 1.108951 0.468871
0.887260 1.117363 0.486234
1.078036 1.129174 0.509717
-0.114945 -0.114945 0.287955
0.088065 -0.098508 0.290278
0.318388 0.037625 0.300087
0.645298 0.183918 0.382469
0.830683 0.257465 0.379240
0.971685 0.312655 0.375610
0.001833 0.151015 0.295753
0.032535 0.055502 0.341051
0.336227 0.105649 0.315530
0.655555 0.218021 0.373217
0.838629 0.283000 0.367887
0.972787 0.341963 0.368829
0.116642 0.437073 0.326805
0.142971 0.440089 0.329038
0.361494 0.451305 0.337366
0.761084 0.424258 0.317260
0.852925 0.514014 0.383826
0.984844 0.547250 0.408352
0.305828 0.840222 0.453007
0.317523 0.841397 0.440952
0.368336 0.867922 0.343271
0.722647 0.867881 0.365597
0.883229 0.802843 0.431394
1.005199 0.772089 0.449641
0.408592 0.996036 0.491542
0.417433 0.996239 0.480681
0.499853 0.997874 0.455661
0.695188 0.998858 0.455174
0.926094 0.999642 0.450665
1.036622 0.982091 0.507240
0.486962 1.101710 0.525332
0.497693 1.101928 0.519611
0.592485 1.105070 0.533864
0.725145 1.110233 0.543024
0.891723 1.118513 0.557399
1.079080 1.130120 0.576931
0.017385 0.032209 0.562303
0.152556 0.051653 0.563804
0.397621 0.119159 0.569973
0.650292 0.210266 0.582398
0.833769 0.273957 0.554630
0.973745 0.323796 0.525085
0.057494 0.226463 0.567178
0.069224 0.106903 0.592223
0.389723 0.162513 0.584205
0.658685 0.241878 0.589387
0.840972 0.298345 0.553684
0.974966 0.352205 0.522012
0.180434 0.533421 0.587654
0.191141 0.512969 0.590936
0.355218 0.443997 0.673621
0.756950 0.415596 0.671329
0.855987 0.521376 0.566450
0.986912 0.553201 0.546723
0.316894 0.845285 0.626424
0.328725 0.846677 0.627420
0.377072 0.867169 0.642284
0.723931 0.869339 0.643841
0.897525 0.882614 0.653479
1.022991 0.900305 0.666326
0.415528 0.996590 0.630447
0.424355 0.996772 0.626082
0.500869 0.998286 0.617974
0.749995 0.999482 0.665556
0.931315 0.999836 0.627712
1.048036 0.997600 0.695983
0.491648 1.103483 0.633726
0.502305 1.103724 0.630275
0.596140 1.106817 0.640025
0.810517 1.117040 0.715749
0.933838 1.123662 0.723879
1.082234 1.133086 0.735428
0.055840 0.088709 0.714488
0.160079 0.101543 0.715373
0.373158 0.148955 0.719221
0.603275 0.218516 0.726930
0.838752 0.298358 0.739066
0.977137 0.340747 0.688372
0.086837 0.231761 0.717514
0.113196 0.160717 0.722173
0.360140 0.194560 0.726091
0.602982 0.249730 0.733797
0.844838 0.321365 0.744079
0.978358 0.367918 0.687607
0.182941 0.501045 0.730296
0.195434 0.479240 0.735142
0.381022 0.473989 0.737571
0.618119 0.497876 0.745254
0.861005 0.532719 0.757436
0.990261 0.562608 0.703104
0.300922 0.786364 0.755253
0.310127 0.779706 0.756848
0.444872 0.780941 0.763198
0.727968 0.874044 0.781573
0.901177 0.886755 0.790563
1.025555 0.904511 0.771883
0.426371 0.997431 0.793083
0.435188 0.997567 0.793767
0.500003 0.998765 0.801780
0.745985 0.999671 0.810795
0.930289 0.999848 0.814544
1.056625 0.999980 0.821435
0.499061 1.106314 0.768765
0.509592 1.106613 0.767307
0.602080 1.109651 0.773001
0.813867 1.119269 0.812844
0.962391 1.127927 0.849774
1.085150 1.135805 0.861375
0.090000 0.133201 0.831629
0.166886 0.141625 0.832551
0.346977 0.173686 0.836348
0.552239 0.226155 0.844096
0.765275 0.291241 0.856198
0.981952 0.363455 0.872977
0.112635 0.236540 0.834662
0.142774 0.195667 0.833640
0.336875 0.220796 0.837500
0.547966 0.264675 0.845258
0.764203 0.322385 0.857460
0.983226 0.389070 0.874426
0.185241 0.466434 0.847404
0.207031 0.449907 0.846514
0.391718 0.486384 0.852636
0.579518 0.506266 0.860115
0.783439 0.536209 0.871851
0.994919 0.575602 0.888199
0.284307 0.722353 0.872492
0.300055 0.714740 0.871892
0.446575 0.733397 0.877433
0.733341 0.880144 0.906714
0.869965 0.892822 0.915646
1.029190 0.910218 0.928081
0.394270 0.966046 0.910623
0.406612 0.964443 0.910451
0.521365 0.969693 0.915091
0.769905 0.994792 0.936244
0.933756 0.999918 0.953086
1.059559 1.003127 0.963006
0.509324 1.110366 0.961234
0.519733 1.110683 0.961590
0.610472 1.113663 0.965192
0.818669 1.122513 0.976016
0.965731 1.130630 0.985881
1.087968 1.138445 0.995276
