LUT color transfer/LUTs/20.cube
LUT_3D_SIZE 16
-0.138154 -0.138154 -0.138154
-0.126684 -0.137356 -0.137356
-0.065363 -0.134560 -0.134560
0.017646 -0.132317 -0.132317
0.085630 -0.124522 -0.124522
0.195254 -0.102169 -0.102169
0.313731 0.007528 0.004963
0.428511 0.063947 0.045147
0.538559 0.117362 0.084555
0.642318 0.166086 0.122292
0.731647 0.205486 0.152518
0.795277 0.232768 0.173315
0.828788 0.246865 0.184032
0.837857 0.250663 0.186899
0.897673 0.275504 0.205720
0.970389 0.305654 0.228482
-0.135441 -0.124530 -0.135441
-0.123605 -0.123605 -0.134622
-0.058443 -0.122768 -0.132197
0.018744 -0.125168 -0.130859
0.086639 -0.115667 -0.122735
0.196009 -0.085019 -0.098903
0.314323 0.028022 0.008432
0.429058 0.079901 0.047665
0.539053 0.131624 0.086935
0.642662 0.177675 0.124218
0.731915 0.215175 0.154116
0.795645 0.240919 0.174657
0.829063 0.253643 0.185121
0.838026 0.256322 0.187813
0.897885 0.280512 0.206526
0.970540 0.310156 0.229181
-0.125481 -0.027630 -0.125481
-0.114391 -0.019758 -0.124713
0.002655 0.006301 -0.121350
0.023334 -0.084550 -0.124333
0.090957 -0.055471 -0.114622
0.199204 0.039053 -0.082786
0.317014 0.089510 0.020663
0.431362 0.138607 0.058075
0.541049 0.182021 0.096821
0.644477 0.220839 0.132151
0.733374 0.252504 0.160708
0.796946 0.272984 0.180196
0.830149 0.280854 0.189761
0.838999 0.279246 0.191679
0.898704 0.300823 0.209894
0.971287 0.328527 0.232269
-0.116845 0.048850 -0.116845
-0.109549 0.049318 -0.116332
-0.064881 0.051291 -0.114089
0.032354 0.055231 -0.109350
0.099379 0.074492 -0.095021
0.205594 0.124605 0.002723
0.322463 0.177046 0.041124
0.435994 0.219992 0.077931
0.545095 0.257076 0.114716
0.648015 0.289629 0.147075
0.736474 0.314806 0.173397
0.799539 0.328308 0.190937
0.832347 0.329009 0.198808
0.840764 0.320592 0.199289
0.900285 0.338163 0.216586
0.972793 0.362815 0.238274
-0.078545 0.150478 -0.078545
-0.062694 0.150794 -0.077532
0.016336 0.152156 -0.072968
0.056219 0.154913 -0.062193
0.111907 0.159196 -0.035084
0.215438 0.212399 0.032184
0.330920 0.266553 0.069281
0.443365 0.309245 0.106299
0.551474 0.344227 0.139168
0.653512 0.373212 0.168318
0.741296 0.393270 0.191904
0.803720 0.400117 0.206929
0.835854 0.393080 0.212488
0.843695 0.376827 0.210831
0.902862 0.389954 0.226865
0.975210 0.411063 0.247525
0.035055 0.285568 0.041701
0.041248 0.285799 0.042187
0.066666 0.286807 0.044265
0.113420 0.288854 0.048426
0.169276 0.292113 0.054878
0.228762 0.296657 0.063734
0.342589 0.356392 0.104148
0.453609 0.401956 0.138463
0.560421 0.437309 0.168227
0.661360 0.464805 0.194536
0.748100 0.481339 0.215364
0.809584 0.482385 0.227631
0.840787 0.467883 0.230387
0.847877 0.443484 0.226163
0.906623 0.452466 0.240639
0.978625 0.470376 0.260126
0.104954 0.432172 0.110604
0.111416 0.432363 0.111047
0.136493 0.433204 0.112931
0.178632 0.434934 0.116682
0.232257 0.437657 0.122467
0.292733 0.441502 0.130266
0.357396 0.446551 0.140007
0.466710 0.496339 0.172568
0.572064 0.533536 0.200308
0.671680 0.560890 0.224453
0.757189 0.574965 0.242791
0.817329 0.571013 0.252175
0.847272 0.549473 0.251931
0.853314 0.517144 0.244872
0.911369 0.522371 0.257616
0.983149 0.537538 0.275777
0.175139 0.573934 0.174083
0.180349 0.574128 0.174429
0.201324 0.574819 0.175893
0.238782 0.576231 0.178835
0.289197 0.578637 0.183494
0.348499 0.581959 0.189871
0.413631 0.586278 0.197979
0.482736 0.591708 0.207770
0.586341 0.631552 0.234457
0.684375 0.659611 0.256960
0.768238 0.672017 0.273106
0.826881 0.663744 0.279885
0.855456 0.635546 0.276580
0.860147 0.595461 0.266474
0.917527 0.597474 0.277420
0.988712 0.610316 0.294162
0.239496 0.709432 0.231157
0.243905 0.709618 0.231438
0.261945 0.710276 0.232706
0.295317 0.711594 0.235141
0.341883 0.713498 0.239033
0.398472 0.716514 0.244431
0.462216 0.720202 0.251364
0.531037 0.725038 0.259872
0.603268 0.730740 0.269809
0.699520 0.759818 0.291208
0.781550 0.771204 0.305636
0.838476 0.758962 0.309861
0.865234 0.724444 0.303609
0.868258 0.676872 0.290352
0.924887 0.675967 0.299627
0.995549 0.687003 0.314997
0.298963 0.836903 0.283188
0.302725 0.837105 0.283395
0.318386 0.837601 0.284457
0.348040 0.838713 0.286566
0.390539 0.840518 0.289885
0.443548 0.842909 0.294485
0.504595 0.846301 0.300523
0.571421 0.850365 0.307925
0.642581 0.855362 0.316682
0.716905 0.861315 0.326755
0.797150 0.871853 0.339722
0.851956 0.856024 0.341717
0.876708 0.815427 0.332526
0.877977 0.760420 0.316162
0.933615 0.757046 0.323754
1.003606 0.766492 0.337891
0.349562 0.940686 0.327072
0.352799 0.940811 0.327263
0.366391 0.941125 0.328172
0.392469 0.941840 0.329936
0.430709 0.942966 0.332798
0.479370 0.944533 0.336773
0.536329 0.946618 0.341967
0.599826 0.949129 0.348397
0.668048 0.952115 0.356078
0.740082 0.955524 0.364915
0.814854 0.959265 0.375018
0.867451 0.946588 0.374908
0.890027 0.907745 0.362944
0.889224 0.845629 0.343532
0.942093 0.839433 0.349542
1.012898 0.848149 0.362483
0.385513 0.984400 0.358052
0.388292 0.984475 0.358228
0.399903 0.984624 0.358961
0.422518 0.984913 0.360520
0.456116 0.985333 0.362898
0.499631 0.986028 0.366292
0.551360 0.986803 0.370720
0.609792 0.987844 0.376258
0.673376 0.988986 0.382876
0.740927 0.990337 0.390566
0.811715 0.991723 0.399342
0.884838 0.993181 0.409094
0.904992 0.974541 0.394486
0.901879 0.929250 0.372003
0.953757 0.921996 0.376626
1.023435 0.928627 0.388469
0.404294 0.995682 0.374174
0.406620 0.995703 0.374315
0.416464 0.995802 0.374940
0.435623 0.995924 0.376228
0.464563 0.996095 0.378241
0.502511 0.996332 0.381134
0.548244 0.996680 0.384862
0.600511 0.997107 0.389522
0.657961 0.997612 0.395131
0.719529 0.998063 0.401702
0.784442 0.998507 0.409144
0.851952 0.998993 0.417592
0.921566 0.999390 0.426920
0.915883 0.982305 0.401518
0.966737 0.977872 0.404718
1.035217 0.980869 0.415591
0.409362 0.997516 0.378536
0.411316 0.997536 0.378658
0.419518 0.997597 0.379158
0.435646 0.997652 0.380219
0.460158 0.997787 0.381932
0.492748 0.997923 0.384300
0.532472 0.998122 0.387446
0.578336 0.998374 0.391324
0.629147 0.998624 0.396050
0.684093 0.998890 0.401578
0.742452 0.999218 0.407923
0.803397 0.999463 0.415068
0.866541 0.999697 0.423044
0.931497 0.999843 0.431730
0.981042 0.999322 0.433685
1.048230 0.999687 0.443679
0.442933 1.026800 0.407215
0.444649 1.026849 0.407318
0.451924 1.027051 0.407784
0.466350 1.027469 0.408745
0.488357 1.028137 0.410210
0.517881 1.029079 0.412329
0.554319 1.030319 0.415087
0.596701 1.031893 0.418582
0.644209 1.033808 0.422762
0.695956 1.036099 0.427693
0.751234 1.038753 0.433373
0.809320 1.041789 0.439794
0.869836 1.045223 0.446945
0.932157 1.049055 0.454822
0.996625 1.053322 0.463404
1.062498 1.058001 0.472619
0.484070 1.100626 0.442244
0.485643 1.100645 0.442352
0.492259 1.100856 0.442778
0.505382 1.101221 0.443615
0.525622 1.101853 0.444975
0.552910 1.102689 0.446893
0.586901 1.103819 0.449383
0.626785 1.105265 0.452526
0.671888 1.106977 0.456359
0.721253 1.109053 0.460818
0.774442 1.111496 0.466025
0.830636 1.114230 0.471867
0.889360 1.117385 0.478451
0.949674 1.120860 0.485651
1.013500 1.124736 0.493556
1.077901 1.129031 0.502075
-0.137883 -0.137883 -0.127268
-0.126374 -0.137086 -0.126374
-0.064710 -0.134324 -0.125122
0.017759 -0.132173 -0.126569
0.085739 -0.124347 -0.117419
0.195323 -0.101845 -0.088631
0.313778 0.008078 0.016854
0.428569 0.064292 0.054652
0.538581 0.117653 0.093600
0.642369 0.166344 0.129550
0.731594 0.205708 0.158539
0.795340 0.232955 0.178351
0.828821 0.247002 0.188195
0.837853 0.250772 0.190386
0.897672 0.275613 0.208762
0.970415 0.305736 0.231192
-0.135164 -0.124222 -0.124222
-0.123296 -0.123296 -0.123296
-0.056060 -0.120026 -0.120026
0.020000 -0.117385 -0.117385
0.087576 -0.108033 -0.108033
0.196307 -0.078761 -0.078761
0.314367 0.027836 0.019137
0.429009 0.077286 0.054899
0.538922 0.128124 0.092902
0.642586 0.174254 0.128577
0.731872 0.212258 0.157686
0.795532 0.238796 0.177894
0.829004 0.252525 0.188329
0.838057 0.256243 0.191137
0.897910 0.280594 0.209558
0.970565 0.310250 0.231937
-0.125217 -0.025337 -0.114967
-0.111761 -0.011406 -0.111761
0.002928 0.006861 -0.107994
0.024223 -0.074981 -0.110298
0.091749 -0.031217 -0.098441
0.199493 0.042390 -0.053956
0.317081 0.089403 0.029804
0.431285 0.136706 0.064998
0.540954 0.179462 0.102320
0.644373 0.218159 0.136307
0.733330 0.250064 0.164165
0.796918 0.271145 0.183348
0.830142 0.279880 0.192895
0.838964 0.279150 0.194899
0.898664 0.300944 0.212896
0.971312 0.328603 0.234918
-0.116672 0.049017 -0.109923
-0.101432 0.050070 -0.101432
-0.052184 0.051895 -0.098911
0.032557 0.055536 -0.093496
0.099891 0.077581 -0.073283
0.205835 0.126437 0.015391
0.322522 0.177023 0.049023
0.435955 0.218890 0.084417
0.545043 0.255350 0.119560
0.647890 0.287681 0.150865
0.736350 0.312937 0.176614
0.799461 0.326840 0.193914
0.832292 0.328243 0.201810
0.840796 0.320557 0.202428
0.900310 0.338237 0.219490
0.972818 0.362871 0.240858
-0.078205 0.150586 -0.063594
-0.044321 0.151219 -0.044321
0.019663 0.152538 -0.033086
0.058076 0.155221 0.003654
0.112064 0.159377 0.011240
0.215601 0.213148 0.040767
0.330968 0.266565 0.076298
0.443339 0.308594 0.111699
0.551402 0.343159 0.143281
0.653398 0.371869 0.171680
0.741203 0.391891 0.194815
0.803662 0.398982 0.209685
0.835802 0.392388 0.215252
0.843686 0.376743 0.213765
0.902898 0.390022 0.229633
0.975235 0.411147 0.250022
0.035216 0.285630 0.047942
0.043132 0.285951 0.050217
0.068294 0.286950 0.052198
0.114519 0.288982 0.056165
0.169773 0.292224 0.062368
0.228839 0.296722 0.070896
0.342642 0.356454 0.109870
0.453585 0.401593 0.142815
0.560373 0.436608 0.171719
0.661380 0.463908 0.197480
0.748038 0.480311 0.217983
0.809537 0.481558 0.230155
0.840740 0.467362 0.232943
0.847853 0.443429 0.228894
0.906609 0.452525 0.243229
0.978601 0.470434 0.262482
0.105108 0.432222 0.116232
0.111375 0.432426 0.116484
0.136463 0.433284 0.118301
0.178621 0.434988 0.121886
0.232259 0.437710 0.127455
0.292756 0.441562 0.135008
0.357457 0.446609 0.144454
0.466737 0.496223 0.176152
0.571948 0.533091 0.203311
0.671613 0.560307 0.227023
0.757131 0.574287 0.245129
0.817260 0.570449 0.254472
0.847232 0.549108 0.254290
0.853350 0.517107 0.247380
0.911424 0.522444 0.260004
0.983123 0.537619 0.277976
0.175274 0.573964 0.178517
0.179484 0.574112 0.177965
0.200594 0.574818 0.179411
0.238238 0.576263 0.182337
0.288807 0.578676 0.186890
0.348288 0.581965 0.193174
0.413563 0.586326 0.201182
0.482799 0.591766 0.210837
0.586341 0.631384 0.237040
0.684332 0.659284 0.259209
0.768211 0.671565 0.275201
0.826902 0.663319 0.281922
0.855425 0.635272 0.278719
0.860136 0.595447 0.268761
0.917572 0.597496 0.279614
0.988737 0.610371 0.296231
0.239593 0.709531 0.234859
0.242777 0.709647 0.234037
0.260929 0.710196 0.235300
0.294462 0.711595 0.237713
0.341242 0.713507 0.241569
0.398031 0.716533 0.246882
0.461941 0.720235 0.253772
0.530920 0.725049 0.262210
0.603284 0.730771 0.272105
0.699523 0.759723 0.293237
0.781509 0.770870 0.307491
0.838478 0.758635 0.311729
0.865214 0.724261 0.305527
0.868284 0.676873 0.292466
0.924907 0.676071 0.301609
0.995574 0.687059 0.316890
0.299033 0.836970 0.286310
0.301618 0.837086 0.285502
0.317367 0.837584 0.286544
0.347089 0.838700 0.288582
0.389805 0.840522 0.291914
0.443000 0.842944 0.296509
0.504227 0.846310 0.302500
0.571216 0.850386 0.309838
0.642435 0.855388 0.318563
0.716912 0.861321 0.328604
0.797148 0.871740 0.341431
0.851933 0.855860 0.343374
0.876702 0.815257 0.334274
0.878017 0.760439 0.318061
0.933670 0.757095 0.325593
1.003623 0.766549 0.339621
0.349653 0.940721 0.329715
0.351826 0.940794 0.329037
0.365474 0.941147 0.329884
0.391678 0.941890 0.331681
0.429989 0.942994 0.334533
0.478791 0.944527 0.338482
0.535946 0.946619 0.343665
0.599525 0.949138 0.350067
0.667886 0.952133 0.357679
0.739944 0.955500 0.366539
0.814849 0.959252 0.376572
0.867443 0.946512 0.376409
0.890037 0.907636 0.364502
0.889267 0.845649 0.345229
0.942119 0.839486 0.351238
1.012911 0.848193 0.364057
0.385590 0.984410 0.360327
0.387565 0.984472 0.359815
0.399226 0.984621 0.360572
0.421882 0.984911 0.362074
0.455570 0.985332 0.364463
0.499192 0.986029 0.367865
0.551040 0.986807 0.372282
0.609606 0.987849 0.377758
0.673111 0.988993 0.384355
0.740773 0.990348 0.392016
0.811648 0.991718 0.400741
0.884865 0.993197 0.410561
0.904996 0.974523 0.395937
0.901925 0.929279 0.373615
0.953741 0.922018 0.378172
1.023451 0.928668 0.389956
0.404347 0.995695 0.376081
0.406263 0.995707 0.375833
0.416076 0.995806 0.376449
0.435315 0.995929 0.377773
0.464240 0.996100 0.379764
0.502247 0.996335 0.382608
0.548058 0.996685 0.386313
0.600325 0.997111 0.390947
0.657780 0.997618 0.396558
0.719472 0.998069 0.403085
0.784391 0.998512 0.410566
0.851939 0.998991 0.418948
0.921545 0.999389 0.428217
0.915936 0.982326 0.402931
0.966762 0.977891 0.406143
1.035234 0.980866 0.416965
0.409412 0.997529 0.380122
0.411277 0.997542 0.380167
0.419536 0.997605 0.380681
0.435640 0.997649 0.381745
0.460148 0.997795 0.383439
0.492753 0.997930 0.385828
0.532477 0.998128 0.388915
0.578334 0.998379 0.392836
0.629165 0.998633 0.397490
0.684069 0.998885 0.402994
0.742436 0.999223 0.409325
0.803430 0.999461 0.416461
0.866553 0.999700 0.424333
0.931556 0.999845 0.433010
0.981067 0.999325 0.434947
1.048247 0.999689 0.444953
0.442963 1.026817 0.408602
0.444711 1.026865 0.408737
0.451962 1.027068 0.409153
0.466387 1.027485 0.410112
0.488390 1.028154 0.411592
0.517948 1.029099 0.413725
0.554347 1.030336 0.416470
0.596733 1.031909 0.419957
0.644226 1.033825 0.424115
0.695987 1.036115 0.429001
0.751264 1.038770 0.434645
0.809360 1.041806 0.441050
0.869830 1.045239 0.448182
0.932194 1.049071 0.456033
0.996650 1.053318 0.464563
1.062515 1.058017 0.473803
0.484132 1.100642 0.443519
0.485690 1.100661 0.443613
0.492294 1.100872 0.444029
0.505407 1.101237 0.444888
0.525631 1.101869 0.446212
0.552934 1.102705 0.448127
0.586932 1.103835 0.450645
0.626822 1.105267 0.453748
0.671854 1.106992 0.457557
0.721310 1.109069 0.462056
0.774468 1.111512 0.467197
0.830641 1.114246 0.473044
0.889394 1.117384 0.479576
0.949700 1.120875 0.486784
1.013517 1.124751 0.494701
1.077918 1.129047 0.503173
-0.136950 -0.136950 -0.071587
-0.127266 -0.136268 -0.069878
-0.061812 -0.133308 -0.061812
0.018232 -0.131537 -0.096267
0.086180 -0.123571 -0.076007
0.195657 -0.100447 0.017966
0.314041 0.010316 0.054443
0.428821 0.065796 0.091578
0.538799 0.118986 0.126382
0.642462 0.167408 0.157122
0.731779 0.206599 0.182081
0.795462 0.233726 0.198418
0.828946 0.247637 0.205151
0.837951 0.251296 0.204631
0.897742 0.276081 0.221374
0.970476 0.306169 0.242521
-0.134644 -0.125474 -0.065594
-0.122199 -0.122199 -0.061996
-0.052633 -0.118887 -0.052633
0.020432 -0.116694 -0.085384
0.087997 -0.107120 -0.058622
0.196634 -0.076749 0.022412
0.314663 0.029440 0.056171
0.429225 0.078702 0.091854
0.539141 0.129375 0.125911
0.642726 0.175301 0.156348
0.731933 0.213139 0.181379
0.795700 0.239524 0.198015
0.829106 0.253165 0.205260
0.838135 0.256760 0.205324
0.897965 0.281020 0.222079
0.970627 0.310690 0.243211
-0.124099 -0.003907 -0.003907
-0.110501 0.002731 0.001743
0.003845 0.008692 0.005757
0.033099 0.009164 0.006080
0.099158 0.020260 0.013787
0.202787 0.042489 0.029608
0.318505 0.076031 0.053975
0.431905 0.117056 0.084328
0.541194 0.159292 0.117045
0.644416 0.199046 0.147596
0.733381 0.233285 0.173728
0.796871 0.257724 0.192273
0.830234 0.270524 0.201951
0.838893 0.274586 0.205018
0.898592 0.297421 0.222252
0.971236 0.325446 0.243359
-0.115917 0.049683 -0.068787
-0.100588 0.050689 -0.056121
0.008476 0.055138 0.011688
0.033373 0.056739 0.013943
0.102904 0.086158 0.025151
0.207543 0.127327 0.044307
0.323295 0.170129 0.071276
0.436270 0.207818 0.102358
0.545085 0.242414 0.132785
0.647899 0.274331 0.161336
0.736299 0.300380 0.185632
0.799454 0.316267 0.202442
0.832370 0.320561 0.210530
0.840703 0.316698 0.212162
0.900220 0.335160 0.228549
0.972744 0.360033 0.249061
-0.076711 0.151059 0.019539
-0.040990 0.151690 0.023714
0.027546 0.154374 0.033603
0.062776 0.156563 0.036513
0.112676 0.160102 0.041043
0.216448 0.213818 0.065542
0.331321 0.263258 0.096739
0.443416 0.302267 0.126774
0.551294 0.334863 0.154920
0.653258 0.362757 0.181174
0.741067 0.382830 0.203139
0.803583 0.391076 0.217649
0.835863 0.386494 0.223455
0.843592 0.373633 0.222992
0.902828 0.387525 0.238299
0.975166 0.408746 0.257938
0.035878 0.285961 0.072707
0.043782 0.286293 0.074617
0.068287 0.287659 0.075790
0.114699 0.289636 0.079411
0.170055 0.292759 0.085097
0.229182 0.297140 0.092946
0.342828 0.355330 0.126481
0.453566 0.398148 0.155541
0.560205 0.431481 0.181919
0.661089 0.457740 0.206059
0.747855 0.473913 0.225642
0.809403 0.475680 0.237505
0.840743 0.462811 0.240567
0.847749 0.440949 0.237524
0.906616 0.450460 0.251374
0.978541 0.468459 0.270020
0.105822 0.432523 0.138042
0.112051 0.432714 0.138246
0.130721 0.433488 0.134102
0.174742 0.435201 0.137376
0.229989 0.437933 0.142462
0.291874 0.441789 0.149414
0.357662 0.446864 0.158160
0.466763 0.494840 0.187101
0.571841 0.530212 0.212368
0.671477 0.556312 0.234768
0.756827 0.569776 0.252069
0.817053 0.566165 0.261238
0.847243 0.545706 0.261351
0.853250 0.515181 0.255375
0.911388 0.520821 0.267636
0.983073 0.535960 0.285013
0.175817 0.574221 0.196350
0.180044 0.574401 0.195884
0.193247 0.574858 0.190235
0.232572 0.576295 0.193011
0.284910 0.578694 0.197411
0.345898 0.582086 0.203423
0.412550 0.586425 0.211152
0.482939 0.591938 0.220465
0.586301 0.630197 0.245185
0.684110 0.656900 0.266227
0.768036 0.668635 0.281595
0.826707 0.660263 0.288108
0.855325 0.632716 0.285243
0.859990 0.593956 0.276062
0.917463 0.596197 0.286673
0.988698 0.609083 0.302830
0.240084 0.709751 0.249932
0.243289 0.709879 0.249241
0.253507 0.710154 0.243469
0.288306 0.711518 0.245872
0.336518 0.713516 0.249581
0.394785 0.716514 0.254840
0.459934 0.720211 0.261580
0.530073 0.725161 0.269832
0.603445 0.730858 0.279505
0.699408 0.758696 0.299728
0.781404 0.769109 0.313419
0.838251 0.756651 0.317470
0.865177 0.722462 0.311516
0.868197 0.675755 0.299126
0.924869 0.675073 0.308144
0.995497 0.685960 0.323033
0.299474 0.837184 0.299312
0.302016 0.837182 0.298557
0.310383 0.837507 0.293141
0.341053 0.838627 0.295193
0.384901 0.840410 0.298425
0.439321 0.842889 0.302996
0.501608 0.846253 0.308848
0.569624 0.850394 0.316127
0.641761 0.855413 0.324759
0.717032 0.861437 0.334693
0.797074 0.870928 0.346975
0.851893 0.854630 0.348762
0.876672 0.814036 0.339829
0.877973 0.759631 0.324203
0.933677 0.756400 0.331597
1.003581 0.765707 0.345322
0.350003 0.940839 0.340909
0.352174 0.940942 0.340258
0.359417 0.941024 0.335597
0.386244 0.941777 0.337339
0.425399 0.942902 0.340145
0.475123 0.944510 0.344072
0.533132 0.946608 0.349209
0.597528 0.949087 0.355495
0.666746 0.952135 0.363083
0.739391 0.955563 0.371856
0.814927 0.959325 0.381817
0.867428 0.946104 0.381496
0.889957 0.906991 0.369691
0.889204 0.845146 0.350889
0.942088 0.838927 0.356740
1.012885 0.847563 0.369352
0.385874 0.984477 0.369840
0.387848 0.984524 0.369347
0.394487 0.984554 0.365767
0.417557 0.984859 0.367248
0.451755 0.985282 0.369624
0.495997 0.986028 0.372965
0.548449 0.986810 0.377369
0.607613 0.987821 0.382829
0.671867 0.988991 0.389321
0.739969 0.990339 0.396937
0.811242 0.991724 0.405590
0.884902 0.993208 0.415264
0.904997 0.974414 0.400731
0.901933 0.929019 0.378792
0.953734 0.921705 0.383233
1.023435 0.928318 0.394835
0.404582 0.995723 0.384081
0.406489 0.995756 0.383862
0.412850 0.995782 0.381506
0.432360 0.995907 0.382779
0.461595 0.996101 0.384727
0.499955 0.996340 0.387578
0.546143 0.996675 0.391243
0.598830 0.997107 0.395845
0.656639 0.997618 0.401362
0.718587 0.998075 0.407833
0.783819 0.998514 0.415255
0.851746 0.998993 0.423536
0.921591 0.999395 0.432749
0.915923 0.982281 0.407721
0.966784 0.977807 0.410865
1.035233 0.980696 0.421503
0.409624 0.997539 0.386803
0.411483 0.997554 0.386867
0.417872 0.997594 0.385785
0.434078 0.997651 0.386826
0.458774 0.997790 0.388500
0.491489 0.997937 0.390810
0.531420 0.998135 0.393898
0.577435 0.998378 0.397718
0.628503 0.998633 0.402393
0.683562 0.998894 0.407797
0.742053 0.999233 0.414056
0.803247 0.999471 0.421076
0.866512 0.999704 0.428890
0.931592 0.999847 0.437440
0.981121 0.999322 0.439353
1.048263 0.999676 0.449174
0.443153 1.026888 0.414539
0.444875 1.026936 0.414636
0.450741 1.027084 0.413884
0.465163 1.027502 0.414777
0.487322 1.028171 0.416256
0.516949 1.029115 0.418317
0.553487 1.030357 0.421078
0.596024 1.031933 0.424455
0.643646 1.033851 0.428574
0.695535 1.036136 0.433485
0.750866 1.038804 0.439049
0.809099 1.041844 0.445376
0.869694 1.045283 0.452408
0.932117 1.049121 0.460141
0.996736 1.053388 0.468638
1.062550 1.057974 0.477705
0.484291 1.100682 0.448879
0.485856 1.100729 0.448973
0.491147 1.100888 0.448253
0.504315 1.101253 0.449106
0.524625 1.101886 0.450419
0.551992 1.102723 0.452292
0.586081 1.103840 0.454816
0.626111 1.105288 0.457896
0.671221 1.107001 0.461641
0.720771 1.109095 0.466090
0.774088 1.111542 0.471182
0.830369 1.114280 0.477019
0.889202 1.117422 0.483476
0.949577 1.120918 0.490603
1.013488 1.124830 0.498406
1.077993 1.129101 0.506852
-0.136210 -0.136210 0.019033
-0.130412 -0.135796 0.019419
-0.100017 -0.134003 0.021060
0.019189 -0.130254 0.024304
0.087067 -0.121984 0.038000
0.196299 -0.097519 0.072688
0.314612 0.014478 0.113486
0.429273 0.068803 0.147192
0.539239 0.121704 0.176312
0.642890 0.169604 0.202007
0.732047 0.208408 0.222151
0.795768 0.235233 0.233666
0.829152 0.248906 0.235653
0.838122 0.252323 0.230706
0.897916 0.276998 0.244783
0.970643 0.307029 0.263836
-0.134810 -0.129371 0.020332
-0.121334 -0.121334 0.022298
-0.089475 -0.119381 0.023766
0.021307 -0.115279 0.026695
0.088857 -0.105224 0.041937
0.197288 -0.072418 0.075605
0.315246 0.032613 0.114756
0.429697 0.081557 0.147436
0.539569 0.131921 0.176036
0.643097 0.177390 0.201490
0.732344 0.214894 0.221616
0.795970 0.241014 0.233359
0.829387 0.254394 0.235756
0.838358 0.257791 0.231326
0.898140 0.281986 0.245446
0.970802 0.311453 0.264427
-0.128572 -0.091570 0.025683
-0.114588 -0.082072 0.027160
0.003330 0.007671 0.045633
0.032149 0.010322 0.038593
0.099193 0.022006 0.054962
0.203188 0.044654 0.082203
0.318945 0.078495 0.114486
0.432379 0.119546 0.143538
0.541570 0.161437 0.170438
0.644709 0.200946 0.195327
0.733680 0.234913 0.215852
0.797145 0.259111 0.228815
0.830505 0.271662 0.233060
0.839017 0.275542 0.231103
0.898730 0.298235 0.245615
0.971364 0.326193 0.264606
-0.114375 0.051048 0.035782
-0.098839 0.051948 0.036432
0.009107 0.055635 0.039107
0.033785 0.057347 0.040345
0.126030 0.050807 0.035608
0.229154 0.059940 0.042232
0.338154 0.088631 0.063233
0.446821 0.127096 0.092106
0.552966 0.166953 0.122955
0.654134 0.205272 0.152365
0.741669 0.238601 0.177738
0.804557 0.262513 0.195893
0.837477 0.275112 0.205427
0.839495 0.288075 0.215231
0.899132 0.309854 0.231654
0.971739 0.336792 0.251899
-0.073555 0.151995 0.060686
-0.032669 0.152575 0.062862
0.028463 0.155107 0.068734
0.035355 0.161506 0.042023
0.113978 0.161651 0.046636
0.221764 0.195811 0.064944
0.336906 0.232017 0.091579
0.448527 0.263791 0.119859
0.555895 0.293132 0.147519
0.657405 0.320209 0.173948
0.745000 0.341642 0.196529
0.807494 0.352922 0.211964
0.840096 0.352586 0.218894
0.842402 0.350806 0.226079
0.901796 0.366676 0.241318
0.974198 0.389171 0.260726
0.037232 0.286687 0.115379
0.045093 0.286983 0.116628
0.069534 0.288338 0.117729
0.073172 0.292127 0.080629
0.154633 0.294413 0.087072
0.229962 0.298038 0.095910
0.344481 0.343947 0.125047
0.455619 0.378827 0.151690
0.562455 0.407243 0.176921
0.663443 0.430753 0.200656
0.750390 0.446045 0.220327
0.812226 0.448628 0.232763
0.844095 0.437900 0.236663
0.846628 0.423063 0.240559
0.905500 0.433696 0.254370
0.977628 0.452333 0.272730
0.107240 0.433116 0.174547
0.113408 0.433306 0.174737
0.131949 0.434062 0.171995
0.134000 0.436404 0.137074
0.207494 0.438902 0.142671
0.282503 0.442557 0.150300
0.358194 0.447465 0.159858
0.467373 0.487049 0.185953
0.572742 0.516897 0.209548
0.672487 0.539401 0.231080
0.758255 0.551067 0.248165
0.818956 0.547030 0.257477
0.849591 0.527377 0.258127
0.852154 0.501263 0.258374
0.910404 0.507472 0.270584
0.982179 0.522863 0.287756
0.176954 0.574720 0.228142
