LUT color transfer/LUTs/22.cube
# (C) 2014 VisionColor & Patchflyer [www.vision-color.com]
# Generator: VC Patchmatch v.2.1.1 [64/53]
# All work and no play makes Jack a dull boy.
# LUT generated from: Cineon to Film Contrast 02
LUT_3D_SIZE 5
DOMAIN_MIN 0.000000 0.000000 0.000000
DOMAIN_MAX 0.903226 0.903226 0.903226
0.000000 0.000000 0.000000
0.078630 0.000809 0.000809
0.289998 0.019532 0.019532
0.703929 0.067597 0.067597
0.842237 0.070405 0.070405
0.005417 0.083284 0.005417
0.085252 0.085252 0.007675
0.296483 0.103517 0.027695
0.714015 0.149981 0.076753
0.852689 0.152667 0.079500
0.068452 0.336767 0.068452
0.146120 0.338689 0.071687
0.356329 0.356329 0.096437
0.797848 0.399725 0.147356
0.940261 0.402228 0.150057
0.224323 0.913603 0.224323
0.296101 0.916655 0.227543
0.508492 0.942260 0.250477
0.987320 0.987320 0.290883
1.000000 0.989517 0.292592
0.232914 1.000000 0.232914
0.305150 1.000000 0.236332
0.526528 1.000000 0.260456
0.995331 1.000000 0.298955
1.000000 1.000000 0.299992
0.000000 0.000000 0.077287
0.079118 0.001495 0.079118
0.289815 0.020569 0.096544
0.703899 0.068772 0.142275
0.842237 0.071519 0.144945
0.006332 0.083909 0.083909
0.085939 0.085939 0.085939
0.365576 0.113130 0.113130
0.727825 0.150820 0.150820
0.852872 0.153536 0.153536
0.070130 0.337209 0.144640
0.156542 0.384268 0.156542
0.364706 0.364706 0.168856
0.804181 0.396811 0.215595
0.941146 0.403067 0.221149
0.225910 0.914382 0.294530
0.290379 0.931609 0.290379
0.476768 0.943740 0.310399
0.988434 0.988434 0.358770
1.000000 0.989883 0.361563
0.234699 1.000000 0.303578
0.294697 1.000000 0.294697
0.493080 1.000000 0.320958
0.994492 1.000000 0.370642
1.000000 1.000000 0.369421
0.005753 0.005753 0.277165
0.084382 0.008194 0.278294
0.291066 0.028962 0.291066
0.707820 0.077012 0.329900
0.846662 0.079667 0.332341
0.013809 0.089845 0.283467
0.097475 0.097475 0.387427
0.352697 0.121828 0.352697
0.731548 0.159487 0.350134
0.858213 0.161349 0.340978
0.081895 0.341924 0.341924
0.163836 0.373465 0.373465
0.363836 0.363836 0.363836
0.811643 0.405417 0.405417
0.950576 0.410224 0.410224
0.236042 0.921843 0.491615
0.299718 0.934676 0.462837
0.500252 0.953277 0.500252
0.990433 0.990433 0.571008
1.000000 0.992477 0.565606
0.245975 1.000000 0.513527
0.308919 1.000000 0.475959
0.558572 1.000000 0.558572
1.000000 1.000000 0.630625
1.000000 1.000000 0.579721
0.022110 0.022110 0.646952
0.099413 0.024887 0.648920
0.300587 0.046326 0.669032
0.729168 0.091859 0.729168
0.870604 0.094347 0.733486
0.031189 0.105577 0.656687
0.107118 0.107118 0.674662
0.338460 0.132540 0.699168
0.750668 0.173816 0.750668
0.883238 0.175509 0.745830
0.102190 0.355154 0.738979
0.177142 0.369574 0.761181
0.378027 0.378027 0.775845
0.837324 0.425818 0.837324
0.979507 0.425956 0.838956
0.249332 0.942412 0.942412
0.319661 0.954726 0.954726
0.553414 0.977615 0.977615
0.996826 0.996826 0.996826
1.000000 0.998764 0.998764
0.259937 1.000000 0.958419
0.342443 1.000000 0.962783
0.661402 1.000000 0.994339
1.000000 1.000000 1.000000
1.000000 1.000000 1.000000
0.023102 0.023102 0.780941
0.100313 0.025834 0.783062
0.296269 0.046448 0.803281
0.728435 0.092592 0.867857
0.872435 0.095003 0.872435
0.032166 0.106493 0.791089
0.107546 0.107546 0.792737
0.315801 0.130571 0.816678
0.742580 0.174899 0.881270
0.885115 0.176226 0.885115
0.102831 0.354009 0.875456
0.177020 0.360037 0.880354
0.385077 0.385077 0.910185
0.839246 0.436210 0.981079
0.981659 0.427314 0.981659
0.251026 0.941863 1.000000
0.328954 0.949584 1.000000
0.597147 0.980743 1.000000
0.998535 0.998535 1.000000
1.000000 1.000000 1.000000
0.268147 1.000000 1.000000
0.389838 1.000000 1.000000
0.747295 1.000000 1.000000
1.000000 1.000000 1.000000
1.000000 1.000000 1.000000
