LUT color transfer/LUTs/22.cube
# (C) 2014 VisionColor & Patchflyer [www.vision-color.com]
# Generator: VC Patchmatch v.2.1.1 [64/53]
# All work and no play makes Jack a dull boy.
# LUT generated from: Cineon to Film Contrast 02
LUT_3D_SIZE 8
DOMAIN_MIN 0.000000 0.000000 0.000000
DOMAIN_MAX 0.903226 0.903226 0.903226
0.000000 0.000000 0.000000
0.025986 0.000015 0.000015
0.097383 0.001434 0.001434
0.198199 0.008804 0.008804
0.413245 0.035843 0.035843
0.659464 0.064256 0.064256
0.783413 0.070237 0.070237
0.842237 0.070405 0.070405
0.000504 0.027161 0.000504
0.027634 0.027634 0.001053
0.099001 0.029633 0.003159
0.199741 0.037003 0.010681
0.415030 0.063828 0.038010
0.661906 0.092042 0.066575
0.786007 0.097978 0.072557
0.844831 0.098085 0.072694
0.007843 0.103685 0.007843
0.034913 0.104173 0.008408
0.106325 0.106325 0.010971
0.206760 0.113375 0.019135
0.423026 0.139254 0.047562
0.672679 0.166400 0.076555
0.797330 0.172076 0.082551
0.856367 0.172213 0.082673
0.032624 0.220371 0.032624
0.059571 0.220829 0.033371
0.130129 0.222889 0.036484
0.229541 0.229541 0.046113
0.449073 0.253819 0.076555
0.705745 0.279454 0.106050
0.832074 0.284825 0.112047
0.891875 0.284932 0.112215
0.122332 0.503441 0.122332
0.148257 0.504005 0.123186
0.215213 0.506432 0.126879
0.311894 0.514336 0.137514
0.542168 0.542168 0.168521
0.818082 0.570733 0.196704
0.950835 0.576699 0.202182
0.995727 0.576867 0.202304
0.213855 0.854810 0.213855
0.238575 0.855619 0.214710
0.302785 0.858808 0.218250
0.398672 0.868788 0.228214
0.642451 0.903365 0.256138
0.939742 0.939742 0.279500
1.000000 0.947814 0.283787
1.000000 0.948028 0.283772
0.232532 0.997726 0.232532
0.257053 0.997879 0.233356
0.321263 0.998550 0.236881
0.419135 1.000000 0.247044
0.669673 1.000000 0.274418
0.966857 1.000000 0.295933
1.000000 1.000000 0.299702
1.000000 1.000000 0.299565
0.232914 1.000000 0.232914
0.257435 1.000000 0.233799
0.322347 1.000000 0.237522
0.422827 1.000000 0.248219
0.676402 1.000000 0.275822
0.970230 1.000000 0.296910
1.000000 1.000000 0.300359
1.000000 1.000000 0.299992
0.000000 0.000000 0.025650
0.026123 0.000061 0.026123
0.097475 0.001633 0.028092
0.198215 0.009018 0.035340
0.413153 0.036133 0.061982
0.659449 0.064576 0.090074
0.783413 0.070542 0.095979
0.842237 0.070680 0.096117
0.000702 0.027268 0.027268
0.027771 0.027771 0.027771
0.110903 0.030198 0.030198
0.268467 0.045975 0.045975
0.497887 0.075731 0.075731
0.686152 0.094026 0.094026
0.786023 0.097459 0.097459
0.844770 0.098177 0.098177
0.008042 0.103822 0.034577
0.033570 0.109285 0.033570
0.107393 0.107393 0.035401
0.231098 0.116289 0.046723
0.467735 0.145037 0.078508
0.688762 0.167315 0.102556
0.797314 0.171664 0.107362
0.856443 0.172427 0.108217
0.033005 0.220508 0.059220
0.066209 0.249531 0.066209
0.131365 0.234546 0.063539
0.233951 0.233951 0.071565
0.469352 0.256474 0.103258
0.714778 0.278874 0.130465
0.831891 0.284062 0.136370
0.892027 0.285161 0.137362
0.122805 0.503563 0.147845
0.160845 0.551507 0.160845
0.219974 0.533410 0.157671
0.310262 0.528283 0.163714
0.549645 0.549645 0.193790
0.823423 0.571283 0.219928
0.951003 0.576562 0.225589
0.995834 0.577127 0.226261
0.214267 0.855024 0.238178
0.239429 0.873014 0.239429
0.300389 0.869703 0.241306
0.387472 0.873915 0.249226
0.633219 0.905806 0.277546
0.941070 0.941070 0.302174
1.000000 0.948119 0.306981
1.000000 0.948302 0.307240
0.232914 0.997757 0.256657
0.253071 0.997833 0.253071
0.315022 0.998413 0.256580
0.401923 0.999908 0.265461
0.648814 1.000000 0.293812
0.964767 1.000000 0.318578
1.000000 1.000000 0.323232
1.000000 1.000000 0.323110
0.233356 1.000000 0.257069
0.253330 1.000000 0.253330
0.315587 1.000000 0.257099
0.403738 1.000000 0.266453
0.652979 1.000000 0.295262
0.966674 1.000000 0.319921
1.000000 1.000000 0.324407
1.000000 1.000000 0.323644
0.000046 0.000046 0.095598
0.026764 0.000336 0.096040
0.097978 0.002457 0.097978
0.198306 0.010056 0.104540
0.412909 0.037400 0.129427
0.659419 0.065827 0.156161
0.783459 0.071794 0.161822
0.842283 0.071916 0.161929
0.001450 0.027939 0.097230
0.028931 0.028931 0.116732
0.109636 0.031022 0.109636
0.261067 0.046113 0.119463
0.491615 0.076143 0.145098
0.685023 0.095247 0.161501
0.786160 0.098878 0.163836
0.844953 0.099550 0.164096
0.009125 0.104509 0.104509
0.034257 0.108202 0.108202
0.107256 0.107256 0.107256
0.236759 0.116976 0.116976
0.487419 0.148226 0.148226
0.698207 0.168734 0.168734
0.797559 0.172442 0.172442
0.856733 0.173495 0.173495
0.034516 0.221012 0.128191
0.065766 0.244480 0.133974
0.131350 0.238911 0.131350
0.234318 0.234318 0.137163
0.482109 0.256886 0.168307
0.723201 0.278447 0.193713
0.832197 0.284169 0.199725
0.892714 0.286137 0.201419
0.124712 0.504082 0.213123
0.160372 0.545296 0.222568
0.225513 0.559106 0.225513
0.308034 0.539055 0.226307
0.552056 0.552056 0.254307
0.829694 0.571206 0.280308
0.951461 0.575936 0.286549
0.996353 0.578180 0.288060
0.216037 0.855802 0.300649
0.240452 0.871778 0.299275
0.300145 0.887327 0.300145
0.380926 0.884062 0.306844
0.622370 0.910109 0.335271
0.944106 0.944106 0.362921
1.000000 0.949493 0.368673
1.000000 0.949660 0.368780
0.234668 0.997925 0.319127
0.254566 0.997955 0.312657
0.309667 0.998322 0.309667
0.394003 0.999649 0.320668
0.635019 1.000000 0.351644
0.964096 1.000000 0.381170
1.000000 1.000000 0.386496
1.000000 1.000000 0.384985
0.235309 1.000000 0.320226
0.255100 1.000000 0.313191
0.311009 1.000000 0.311009
0.401175 1.000000 0.324239
0.651286 1.000000 0.357153
0.969726 1.000000 0.385946
1.000000 1.000000 0.389487
1.000000 1.000000 0.385840
0.002121 0.002121 0.192004
0.029007 0.002686 0.192309
0.099809 0.005188 0.193805
0.198978 0.013291 0.198978
0.412970 0.041001 0.220615
0.660227 0.069383 0.245060
0.784604 0.075273 0.250309
0.843473 0.075425 0.250416
0.003967 0.030304 0.193530
0.036942 0.036942 0.309422
0.113130 0.037598 0.273579
0.255283 0.051316 0.255283
0.486503 0.080522 0.259876
0.685283 0.099428 0.261128
0.787503 0.102571 0.255177
0.846250 0.103044 0.252567
0.012329 0.106722 0.200427
0.040528 0.112291 0.256535
0.111467 0.111467 0.244785
0.232151 0.120272 0.232151
0.479500 0.150912 0.248417
0.697108 0.172183 0.261250
0.799344 0.175998 0.261555
0.858503 0.176776 0.261677
0.038956 0.222873 0.222873
0.069718 0.241581 0.241581
0.134325 0.236225 0.236225
0.232990 0.232990 0.232990
0.477317 0.258350 0.258350
0.722789 0.281727 0.281727
0.835416 0.288029 0.288029
0.895659 0.289143 0.289143
0.129976 0.506035 0.304463
0.164157 0.542977 0.313039
0.226780 0.550286 0.309804
0.310369 0.533669 0.310369
0.547890 0.547890 0.338064
0.830335 0.573617 0.367407
0.956039 0.580194 0.375891
0.997909 0.581460 0.376211
0.220737 0.858503 0.390799
0.244282 0.873152 0.380880
0.303700 0.885527 0.376974
0.388556 0.884565 0.388556
0.630121 0.911757 0.422370
0.946151 0.946151 0.455695
1.000000 0.953658 0.463249
1.000000 0.953597 0.459785
0.239490 0.998444 0.411795
0.258503 0.998337 0.391897
0.315724 0.998718 0.387778
0.410193 1.000000 0.410193
0.658671 1.000000 0.451759
0.972381 1.000000 0.488197
1.000000 1.000000 0.489052
1.000000 1.000000 0.478050
0.240726 1.000000 0.416968
0.259480 1.000000 0.393805
0.319249 1.000000 0.395193
0.427008 1.000000 0.427008
0.688228 1.000000 0.474937
0.983429 1.000000 0.510002
1.000000 1.000000 0.501900
1.000000 1.000000 0.480430
0.011292 0.011292 0.389212
0.037888 0.011963 0.389502
0.107485 0.014817 0.390799
0.204318 0.023545 0.395834
0.417166 0.051850 0.417166
0.668299 0.079545 0.440955
0.794110 0.085191 0.446433
0.853223 0.085359 0.446815
0.013428 0.039384 0.390936
0.046418 0.046418 0.511406
0.121340 0.048493 0.492699
0.254383 0.062272 0.482673
0.484703 0.091173 0.484703
0.693980 0.110063 0.474876
0.797803 0.112764 0.456718
0.856275 0.112810 0.449470
0.022797 0.115251 0.398566
0.052979 0.122362 0.489418
0.123018 0.123018 0.493416
0.235447 0.131823 0.474388
0.477333 0.161715 0.477333
0.704189 0.182315 0.473457
0.810346 0.185733 0.462577
0.869413 0.186007 0.459495
0.051484 0.230320 0.423606
0.083574 0.247364 0.480201
0.147478 0.242649 0.485954
0.242969 0.242969 0.468910
0.476707 0.267597 0.476707
0.731273 0.292073 0.490349
0.848508 0.297841 0.490822
0.908522 0.297765 0.490669
0.143664 0.514015 0.514015
0.177081 0.546319 0.546319
0.239002 0.549889 0.549889
0.323095 0.537301 0.537301
0.556756 0.556756 0.556756
0.841260 0.584222 0.584222
0.970443 0.590723 0.590723
1.000000 0.591318 0.591318
0.231861 0.869215 0.611749
0.255634 0.882460 0.609400
0.315831 0.892546 0.601907
0.405600 0.893065 0.611246
0.648447 0.922805 0.648447
0.957595 0.957595 0.689067
1.000000 0.965728 0.699611
1.000000 0.965591 0.694102
0.250156 1.000000 0.638941
0.269947 1.000000 0.613657
0.330510 1.000000 0.604654
0.437415 1.000000 0.638926
0.691844 1.000000 0.691844
0.985397 1.000000 0.737118
1.000000 1.000000 0.738827
1.000000 1.000000 0.719463
0.251713 1.000000 0.650050
0.271504 1.000000 0.618387
0.337102 1.000000 0.622766
0.465400 1.000000 0.672465
0.733486 1.000000 0.733486
0.992004 1.000000 0.773465
1.000000 1.000000 0.762142
1.000000 1.000000 0.723796
0.020966 0.020966 0.606989
0.047425 0.021668 0.607401
0.116289 0.024689 0.609445
0.211536 0.033616 0.616632
0.422919 0.061601 0.646006
0.680507 0.088045 0.680507
0.808942 0.093355 0.687465
0.868437 0.093523 0.689158
0.023224 0.048981 0.609308
0.049561 0.049561 0.637598
0.124041 0.052964 0.639353
0.247349 0.066575 0.650187
0.475792 0.096345 0.680720
0.702388 0.117281 0.702388
0.812665 0.120867 0.695994
0.871626 0.120974 0.692409
0.033127 0.124483 0.619547
0.058335 0.126589 0.647532
0.127855 0.127855 0.655787
0.234653 0.137713 0.661006
0.468177 0.167514 0.690227
0.712551 0.189960 0.712551
0.826108 0.194034 0.707515
0.885359 0.193912 0.705242
0.062608 0.238682 0.651621
0.090562 0.249516 0.678950
0.154406 0.245167 0.685496
0.249470 0.249470 0.686076
0.477226 0.276509 0.713680
0.742031 0.302052 0.742031
0.866484 0.308095 0.743877
0.925872 0.306081 0.743038
0.154467 0.522210 0.761959
0.184909 0.547265 0.789441
0.245899 0.545327 0.797528
0.334737 0.540078 0.793301
0.566430 0.566430 0.820951
0.854200 0.596796 0.854200
0.984054 0.606577 0.862135
1.000000 0.601404 0.860899
0.239231 0.880949 0.880949
0.263539 0.893858 0.893858
0.326802 0.901289 0.901289
0.427619 0.905074 0.905074
0.673487 0.936477 0.936477
0.969116 0.969116 0.969116
1.000000 0.976333 0.976333
1.000000 0.976501 0.976501
0.257008 1.000000 0.909361
0.279011 1.000000 0.908141
0.348074 1.000000 0.911482
0.475731 1.000000 0.932250
0.732158 1.000000 0.971649
0.991379 1.000000 0.991379
1.000000 1.000000 0.993820
1.000000 1.000000 0.991226
0.258946 1.000000 0.914855
0.281926 1.000000 0.909682
0.361227 1.000000 0.919829
0.520699 1.000000 0.952239
0.783581 1.000000 0.987961
0.998184 1.000000 0.998184
1.000000 1.000000 0.998062
1.000000 1.000000 0.992538
0.023011 0.023011 0.722759
0.049439 0.023713 0.723247
0.118166 0.026749 0.725551
0.212284 0.035492 0.733349
0.420554 0.062974 0.764965
0.681041 0.089509 0.803601
0.812894 0.094835 0.812894
0.872343 0.094972 0.813214
0.025299 0.050996 0.725246
0.049760 0.049760 0.725689
0.122759 0.053391 0.728496
0.234821 0.065461 0.739681
0.455314 0.094682 0.774701
0.695415 0.117922 0.808957
0.816190 0.122484 0.816190
0.875563 0.122499 0.816373
0.035248 0.126421 0.736385
0.058854 0.126360 0.737179
0.128069 0.128069 0.739345
0.229191 0.137896 0.748959
0.450401 0.166674 0.784588
0.705165 0.191287 0.822065
0.830091 0.196063 0.830091
0.889418 0.195438 0.829923
0.064820 0.240345 0.770321
0.090227 0.245945 0.773831
0.155535 0.243549 0.774411
0.251270 0.251270 0.783948
0.470558 0.279896 0.821042
0.739605 0.307195 0.862577
0.871519 0.311315 0.871519
0.930297 0.307958 0.869993
0.155871 0.521431 0.885756
0.183703 0.538750 0.894392
0.246036 0.534447 0.895048
0.342229 0.539040 0.904555
0.570809 0.570809 0.943023
0.856107 0.604730 0.981491
0.986938 0.610681 0.986938
1.000000 0.606134 0.986130
0.240467 0.881422 0.996765
0.264881 0.891157 0.997909
0.332311 0.895201 0.998734
0.446815 0.905913 1.000000
0.692531 0.940780 1.000000
0.971771 0.971771 1.000000
1.000000 0.981704 1.000000
1.000000 0.980575 1.000000
0.259739 1.000000 1.000000
0.284474 1.000000 1.000000
0.366339 1.000000 1.000000
0.518502 1.000000 1.000000
0.770169 1.000000 1.000000
0.995575 1.000000 1.000000
1.000000 1.000000 1.000000
1.000000 1.000000 1.000000
0.263050 1.000000 1.000000
0.291173 1.000000 1.000000
0.393515 1.000000 1.000000
0.584802 1.000000 1.000000
0.829038 1.000000 1.000000
1.000000 1.000000 1.000000
1.000000 1.000000 1.000000
1.000000 1.000000 1.000000
0.023102 0.023102 0.780941
0.049470 0.023758 0.781476
0.118181 0.026810 0.783795
0.210971 0.035355 0.791485
0.416327 0.062425 0.822828
0.678569 0.089403 0.862455
0.812985 0.095094 0.872236
0.872435 0.095003 0.872435
0.025360 0.051026 0.783520
0.049790 0.049790 0.783246
0.121813 0.053529 0.786099
0.225925 0.064424 0.796094
0.438880 0.092790 0.829908
0.687373 0.117617 0.866728
0.816342 0.122896 0.875639
0.875624 0.122530 0.875624
0.035309 0.126467 0.794659
0.059068 0.126055 0.794720
0.128649 0.128649 0.797269
0.226276 0.138293 0.806668
0.438132 0.165988 0.841031
0.697276 0.191516 0.880430
0.830365 0.196704 0.889967
0.889525 0.195499 0.889525
0.064988 0.240223 0.828962
0.089738 0.243534 0.830854
0.156985 0.243412 0.832654
0.254124 0.254124 0.844114
0.467704 0.282826 0.881437
0.735851 0.309560 0.923598
0.872908 0.313939 0.933349
0.930449 0.308064 0.930449
0.155398 0.518929 0.945235
0.181994 0.530922 0.951080
0.247166 0.529427 0.953140
0.348837 0.540383 0.966232
0.576791 0.576791 0.990875
0.857130 0.611399 1.000000
0.988540 0.617517 1.000000
1.000000 0.606363 1.000000
0.240833 0.879545 1.000000
0.265782 0.886503 1.000000
0.336919 0.890043 1.000000
0.461967 0.906645 1.000000
0.707240 0.943313 1.000000
0.975631 0.975631 1.000000
1.000000 0.982513 1.000000
1.000000 0.981125 1.000000
0.261738 1.000000 1.000000
0.289250 1.000000 1.000000
0.380728 1.000000 1.000000
0.549996 1.000000 1.000000
0.796124 1.000000 1.000000
0.997665 1.000000 1.000000
1.000000 1.000000 1.000000
1.000000 1.000000 1.000000
0.268147 1.000000 1.000000
0.300908 1.000000 1.000000
0.427039 1.000000 1.000000
0.634485 1.000000 1.000000
0.856870 1.000000 1.000000
1.000000 1.000000 1.000000
1.000000 1.000000 1.000000
1.000000 1.000000 1.000000
