LUT color transfer/LUTs/22.cube
# (C) 2014 VisionColor & Patchflyer [www.vision-color.com]
# Generator: VC Patchmatch v.2.1.1 [64/53]
# All work and no play makes Jack a dull boy.
# LUT generated from: Cineon to Film Contrast 02
LUT_3D_SIZE 32
0.000000 0.000000 0.000000
0.000473 0.000000 0.000000
0.001678 0.000000 0.000000
0.013535 0.000000 0.000000
0.025986 0.000015 0.000015
0.043000 0.000137 0.000137
0.060273 0.000336 0.000336
0.078630 0.000809 0.000809
0.097383 0.001434 0.001434
0.117372 0.002411 0.002411
0.139391 0.003723 0.003723
0.165911 0.005768 0.005768
0.198199 0.008804 0.008804
0.240192 0.013458 0.013458
0.289998 0.019532 0.019532
0.349737 0.027405 0.027405
0.413245 0.035843 0.035843
0.481178 0.044862 0.044862
0.545525 0.052674 0.052674
0.608362 0.059586 0.059586
0.659464 0.064256 0.064256
0.703929 0.067597 0.067597
0.735912 0.069169 0.069169
0.762509 0.069993 0.069993
0.783413 0.070237 0.070237
0.802808 0.070329 0.070329
0.818280 0.070344 0.070344
0.833082 0.070375 0.070375
0.842237 0.070405 0.070405
0.850614 0.070436 0.070436
0.854353 0.070436 0.070436
0.857816 0.070466 0.070466
0.000000 0.000504 0.000000
0.000504 0.000504 0.000000
0.001724 0.000504 0.000000
0.013565 0.000534 0.000031
0.026017 0.000549 0.000046
0.043030 0.000641 0.000168
0.060304 0.000839 0.000336
0.078660 0.001343 0.000839
0.097414 0.001938 0.001465
0.117403 0.002914 0.002441
0.139422 0.004227 0.003754
0.165942 0.006287 0.005798
0.198245 0.009339 0.008835
0.240238 0.013977 0.013474
0.290028 0.020035 0.019547
0.349767 0.027909 0.027436
0.413275 0.036362 0.035874
0.481209 0.045380 0.044892
0.545556 0.053208 0.052705
0.608438 0.060121 0.059617
0.659525 0.064790 0.064286
0.703960 0.068101 0.067628
0.735958 0.069703 0.069230
0.762539 0.070527 0.070024
0.783444 0.070771 0.070298
0.802838 0.070832 0.070359
0.818311 0.070878 0.070405
0.833158 0.070878 0.070405
0.842268 0.070909 0.070436
0.850645 0.070970 0.070466
0.854414 0.070970 0.070497
0.857847 0.070970 0.070497
0.000015 0.001755 0.000015
0.000519 0.001755 0.000015
0.001785 0.001785 0.000031
0.013642 0.001785 0.000061
0.026093 0.001831 0.000107
0.043107 0.001938 0.000214
0.060380 0.002121 0.000412
0.078737 0.002625 0.000916
0.097475 0.003250 0.001541
0.117449 0.004227 0.002518
0.139498 0.005539 0.003830
0.166003 0.007584 0.005875
0.198306 0.010605 0.008911
0.240299 0.015274 0.013565
0.290105 0.021332 0.019623
0.349844 0.029206 0.027512
0.413367 0.037644 0.035966
0.481285 0.046662 0.044984
0.545663 0.054475 0.052811
0.608545 0.061402 0.059724
0.659617 0.066056 0.064408
0.704082 0.069383 0.067750
0.736065 0.071000 0.069337
0.762631 0.071794 0.070146
0.783566 0.072038 0.070390
0.802945 0.072129 0.070451
0.818418 0.072145 0.070497
0.833265 0.072160 0.070527
0.842374 0.072190 0.070558
0.850767 0.072221 0.070588
0.854520 0.072236 0.070588
0.857984 0.072267 0.070588
0.000168 0.014099 0.000168
0.000702 0.014099 0.000198
0.001953 0.014145 0.000214
0.014359 0.014359 0.000443
0.026825 0.014405 0.000519
0.043839 0.014771 0.000870
0.061097 0.014939 0.001083
0.079454 0.015473 0.001678
0.098207 0.016098 0.002304
0.118166 0.017075 0.003281
0.140185 0.018402 0.004608
0.166674 0.020462 0.006699
0.198978 0.023484 0.009766
0.240970 0.028122 0.014481
0.290791 0.034165 0.020554
0.350576 0.041993 0.028473
0.414160 0.050416 0.036942
0.482170 0.059388 0.045975
0.546639 0.067185 0.053819
0.609598 0.074098 0.060746
0.660716 0.078737 0.065415
0.705196 0.082033 0.068757
0.737209 0.083635 0.070359
0.763775 0.084428 0.071153
0.784695 0.084672 0.071397
0.804089 0.084764 0.071473
0.819562 0.084779 0.071504
0.834394 0.084810 0.071534
0.843534 0.084810 0.071565
0.851942 0.084840 0.071595
0.855711 0.084871 0.071595
0.859174 0.084871 0.071626
0.000504 0.027161 0.000504
0.001007 0.027161 0.000504
0.002258 0.027161 0.000549
0.014664 0.027390 0.000763
0.027634 0.027634 0.001053
0.044648 0.027985 0.001419
0.061906 0.028397 0.001846
0.080262 0.028962 0.002457
0.099001 0.029633 0.003159
0.118975 0.030625 0.004135
0.140978 0.031952 0.005493
0.167437 0.033997 0.007584
0.199741 0.037003 0.010681
0.241718 0.041642 0.015412
0.291554 0.047669 0.021546
0.351370 0.055467 0.029496
0.415030 0.063828 0.038010
0.483131 0.072786 0.047059
0.547692 0.080552 0.054932
0.610727 0.087404 0.061875
0.661906 0.092042 0.066575
0.706432 0.095354 0.069917
0.738460 0.096925 0.071489
0.765072 0.097734 0.072313
0.786007 0.097978 0.072557
0.805371 0.098039 0.072618
0.820844 0.098054 0.072633
0.835721 0.098085 0.072663
0.844831 0.098085 0.072694
0.853254 0.098116 0.072724
0.857008 0.098116 0.072755
0.860502 0.098116 0.072755
0.001831 0.045167 0.001831
0.002335 0.045167 0.001862
0.003571 0.045182 0.001877
0.015961 0.045411 0.002121
0.028946 0.045655 0.002365
0.046067 0.046067 0.002838
0.063310 0.046464 0.003281
0.081651 0.047089 0.003937
0.100389 0.047745 0.004639
0.120333 0.048707 0.005676
0.142336 0.050034 0.007050
0.168795 0.052049 0.009201
0.201068 0.055055 0.012299
0.243076 0.059663 0.017090
0.292958 0.065644 0.023301
0.352834 0.073381 0.031327
0.416571 0.081697 0.039857
0.484840 0.090562 0.048966
0.549523 0.098299 0.056840
0.612711 0.105119 0.063813
0.663966 0.109712 0.068513
0.708583 0.112993 0.071870
0.740597 0.114549 0.073442
0.767239 0.115343 0.074266
0.788190 0.115587 0.074510
0.807568 0.115663 0.074571
0.823041 0.115694 0.074586
0.837949 0.115724 0.074617
0.847074 0.115724 0.074647
0.855467 0.115724 0.074678
0.859251 0.115724 0.074678
0.862745 0.115724 0.074708
0.003296 0.063523 0.003296
0.003799 0.063523 0.003326
0.005051 0.063539 0.003372
0.017426 0.063752 0.003586
0.030426 0.063966 0.003876
0.047501 0.064408 0.004318
0.064851 0.064851 0.004837
0.083162 0.065476 0.005493
0.101900 0.066178 0.006256
0.121843 0.067140 0.007309
0.143801 0.068437 0.008728
0.170260 0.070451 0.010880
0.202533 0.073426 0.014084
0.244541 0.078019 0.018906
0.294469 0.083940 0.025177
0.354376 0.091646 0.033249
0.418235 0.099886 0.041871
0.486595 0.108705 0.050996
0.551461 0.116350 0.058915
0.614832 0.123110 0.065888
0.666239 0.127672 0.070603
0.710918 0.130922 0.073960
0.742977 0.132464 0.075563
0.769619 0.133242 0.076356
0.790555 0.133471 0.076616
0.809964 0.133562 0.076677
0.825467 0.133577 0.076692
0.840345 0.133608 0.076722
0.849485 0.133608 0.076738
0.857893 0.133608 0.076753
0.861692 0.133608 0.076783
0.865156 0.133608 0.076783
0.005417 0.083284 0.005417
0.005936 0.083314 0.005432
0.007187 0.083330 0.005478
0.019532 0.083543 0.005707
0.032502 0.083757 0.005982
0.049607 0.084169 0.006455
0.066941 0.084611 0.006989
0.085252 0.085252 0.007675
0.103960 0.085924 0.008453
0.123873 0.086900 0.009552
0.145830 0.088167 0.010971
0.172213 0.090150 0.013214
0.204501 0.093095 0.016419
0.246509 0.097627 0.021393
0.296483 0.103517 0.027695
0.356512 0.111116 0.035889
0.420447 0.119295 0.044541
0.489113 0.127977 0.053758
0.554147 0.135561 0.061707
0.617746 0.142245 0.068681
0.669245 0.146761 0.073396
0.714015 0.149981 0.076753
0.746105 0.151507 0.078340
0.772778 0.152285 0.079118
0.793713 0.152529 0.079393
0.813107 0.152590 0.079454
0.828641 0.152621 0.079484
0.843565 0.152651 0.079500
0.852689 0.152667 0.079500
0.861143 0.152667 0.079530
0.864927 0.152667 0.079530
0.868437 0.152667 0.079561
0.007843 0.103685 0.007843
0.008362 0.103685 0.007858
0.009598 0.103731 0.007904
0.021958 0.103929 0.008133
0.034913 0.104173 0.008408
0.051987 0.104570 0.008896
0.069337 0.105013 0.009445
0.087602 0.105608 0.010163
0.106325 0.106325 0.010971
0.126207 0.107271 0.012085
0.148119 0.108522 0.013565
0.174517 0.110506 0.015793
0.206760 0.113375 0.019135
0.248768 0.117876 0.024140
0.298802 0.123659 0.030610
0.358877 0.131212 0.038788
0.423026 0.139254 0.047562
0.491814 0.147875 0.056809
0.557153 0.155337 0.064820
0.620981 0.161944 0.071839
0.672679 0.166400 0.076555
0.717586 0.169574 0.079896
0.749676 0.171084 0.081483
0.776379 0.171847 0.082292
0.797330 0.172076 0.082551
0.816754 0.172137 0.082628
0.832303 0.172183 0.082658
0.847227 0.172213 0.082673
0.856367 0.172213 0.082673
0.864836 0.172213 0.082689
0.868620 0.172213 0.082704
0.872129 0.172213 0.082719
0.011170 0.125841 0.011170
0.011688 0.125856 0.011185
0.012924 0.125872 0.011231
0.025284 0.126085 0.011490
0.038239 0.126329 0.011749
0.055299 0.126741 0.012268
0.072602 0.127169 0.012802
0.090852 0.127764 0.013581
0.109545 0.128435 0.014405
0.129381 0.129381 0.015579
0.151293 0.130663 0.017075
0.177615 0.132555 0.019440
0.209842 0.135424 0.022812
0.251850 0.139803 0.027985
0.301946 0.145525 0.034501
0.362203 0.152880 0.042878
0.426474 0.160861 0.051652
0.495674 0.169299 0.061006
0.561257 0.176699 0.069017
0.625467 0.183185 0.076066
0.677302 0.187594 0.080797
0.722347 0.190723 0.084138
0.754513 0.192233 0.085725
0.781231 0.192981 0.086519
0.802197 0.193225 0.086778
0.821637 0.193286 0.086870
0.837186 0.193317 0.086900
0.852155 0.193347 0.086915
0.861326 0.193347 0.086915
0.869810 0.193347 0.086915
0.873610 0.193347 0.086946
0.877104 0.193347 0.086946
0.015595 0.150713 0.015595
0.016098 0.150713 0.015610
0.017350 0.150744 0.015656
0.029694 0.150942 0.015915
0.042649 0.151186 0.016236
0.059678 0.151598 0.016739
0.076951 0.152041 0.017334
0.095186 0.152605 0.018097
0.113802 0.153262 0.018982
0.133639 0.154208 0.020188
0.155444 0.155444 0.021836
0.181750 0.157366 0.024186
0.213962 0.160113 0.027726
0.255970 0.164462 0.032944
0.306249 0.170047 0.039643
0.366552 0.177371 0.048081
0.431189 0.185122 0.057023
0.500633 0.193500 0.066392
0.566705 0.200732 0.074479
0.631296 0.207172 0.081529
0.683375 0.211505 0.086275
0.728603 0.214588 0.089631
0.760815 0.216052 0.091218
0.787625 0.216800 0.092012
0.808576 0.217029 0.092271
0.828107 0.217105 0.092348
0.843656 0.217121 0.092393
0.858671 0.217151 0.092424
0.867842 0.217151 0.092424
0.876356 0.217151 0.092424
0.880156 0.217151 0.092439
0.883665 0.217151 0.092454
0.022446 0.181537 0.022446
0.022950 0.181552 0.022477
0.024216 0.181582 0.022522
0.036561 0.181765 0.022843
0.049500 0.182010 0.023148
0.066468 0.182422 0.023713
0.083711 0.182849 0.024323
0.101854 0.183429 0.025177
0.120455 0.184070 0.026078
0.140124 0.184955 0.027359
0.161898 0.186160 0.029007
0.188022 0.188022 0.031632
0.220249 0.190799 0.035187
0.262287 0.194965 0.040681
0.312673 0.200504 0.047440
0.373510 0.207599 0.056123
0.438315 0.215335 0.065110
0.508568 0.223484 0.074601
0.575021 0.230655 0.082689
0.640253 0.236973 0.089769
0.692653 0.241260 0.094530
0.738033 0.244297 0.097902
0.770382 0.245747 0.099474
0.797208 0.246479 0.100267
0.818280 0.246708 0.100511
0.837858 0.246769 0.100603
0.853452 0.246799 0.100649
0.868528 0.246830 0.100679
0.877760 0.246830 0.100679
0.886259 0.246830 0.100679
0.890135 0.246830 0.100679
0.893690 0.246830 0.100710
0.032624 0.220371 0.032624
0.033127 0.220371 0.032639
0.034379 0.220417 0.032685
0.046677 0.220600 0.033005
0.059571 0.220829 0.033371
0.076478 0.221225 0.033951
0.093629 0.221668 0.034623
0.111711 0.222232 0.035477
0.130129 0.222889 0.036484
0.149737 0.223774 0.037812
0.171298 0.224964 0.039597
0.197375 0.226795 0.042237
0.229541 0.229541 0.046113
0.271595 0.233722 0.051637
0.322515 0.239155 0.058640
0.383413 0.246235 0.067384
0.449073 0.253819 0.076555
0.519814 0.261921 0.086091
0.587091 0.268986 0.094224
0.653086 0.275227 0.101305
0.705745 0.279454 0.106050
0.751629 0.282445 0.109438
0.783932 0.283864 0.111040
0.811078 0.284596 0.111803
0.832074 0.284825 0.112047
0.851865 0.284886 0.112123
0.867445 0.284901 0.112169
0.882689 0.284932 0.112200
0.891875 0.284932 0.112215
0.900481 0.284932 0.112215
0.904356 0.284932 0.112215
0.907973 0.284932 0.112230
0.048249 0.272496 0.048249
0.048753 0.272511 0.048280
0.050004 0.272541 0.048325
0.062257 0.272740 0.048676
0.075105 0.272969 0.049058
0.091798 0.273350 0.049714
0.108888 0.273793 0.050385
0.126711 0.274372 0.051331
0.145068 0.275029 0.052354
0.164324 0.275914 0.053834
0.185824 0.277104 0.055634
0.211551 0.278996 0.058518
0.243702 0.281712 0.062409
0.285939 0.285939 0.068360
0.336904 0.291356 0.075395
0.399145 0.298436 0.084398
0.465095 0.306004 0.093584
0.537408 0.314092 0.103197
0.605509 0.321126 0.111330
0.672419 0.327367 0.118395
0.725750 0.331563 0.123125
0.771786 0.334554 0.126452
0.804578 0.335958 0.128054
0.831769 0.336675 0.128832
0.853071 0.336904 0.129061
0.872892 0.336965 0.129122
0.888670 0.337011 0.129152
0.903990 0.337041 0.129183
0.913222 0.337041 0.129213
0.921859 0.337041 0.129229
0.925780 0.337041 0.129229
0.929458 0.337041 0.129229
0.068452 0.336767 0.068452
0.068956 0.336797 0.068482
0.070176 0.336812 0.068498
0.082353 0.337026 0.068894
0.095079 0.337255 0.069291
0.111620 0.337652 0.069978
0.128435 0.338109 0.070710
0.146120 0.338689 0.071687
0.164187 0.339391 0.072786
0.183337 0.340307 0.074281
0.204486 0.341558 0.076234
0.230182 0.343450 0.079133
0.262226 0.346380 0.083207
0.304463 0.350607 0.089158
0.356329 0.356329 0.096437
0.418708 0.363363 0.105455
0.486183 0.371099 0.114717
0.559579 0.379156 0.124315
0.628885 0.386282 0.132387
0.697200 0.392508 0.139437
0.750713 0.396750 0.144060
0.797848 0.399725 0.147356
0.830549 0.401160 0.148928
0.858503 0.401877 0.149706
0.879698 0.402106 0.149950
0.899992 0.402167 0.149996
0.915648 0.402197 0.150027
0.931151 0.402228 0.150057
0.940261 0.402228 0.150057
0.948882 0.402243 0.150088
0.952743 0.402243 0.150088
0.956436 0.402243 0.150088
0.094560 0.416464 0.094560
0.095048 0.416495 0.094575
0.096269 0.416510 0.094606
0.108263 0.416739 0.095003
0.120912 0.416999 0.095415
0.137102 0.417426 0.096132
0.153765 0.417868 0.096880
0.171008 0.418540 0.097917
0.188937 0.419242 0.099031
0.207691 0.420249 0.100618
0.228748 0.421561 0.102586
0.254063 0.423667 0.105592
0.286076 0.426642 0.109682
0.328603 0.431357 0.115724
0.380407 0.437171 0.123033
0.444907 0.444907 0.132036
0.513085 0.452720 0.141253
0.588602 0.461265 0.150713
0.659464 0.468528 0.158709
0.728801 0.475090 0.165530
0.783703 0.479438 0.170092
0.830930 0.482612 0.173236
0.864713 0.484047 0.174777
0.892592 0.484794 0.175540
0.914397 0.485023 0.175784
0.934478 0.485084 0.175845
0.950301 0.485115 0.175860
0.965469 0.485145 0.175891
0.974517 0.485161 0.175891
0.982605 0.485176 0.175921
0.984771 0.485191 0.175921
0.986740 0.485191 0.175921
0.122332 0.503441 0.122332
0.122805 0.503471 0.122332
0.123995 0.503502 0.122362
0.135821 0.503731 0.122759
0.148257 0.504005 0.123186
0.164248 0.504448 0.123903
0.180560 0.504967 0.124681
0.197665 0.505653 0.125704
0.215213 0.506432 0.126879
0.233860 0.507485 0.128450
0.254597 0.508904 0.130434
0.279881 0.511101 0.133440
0.311894 0.514336 0.137514
0.354421 0.519234 0.143526
0.406928 0.525505 0.150683
0.471763 0.533578 0.159655
0.542168 0.542168 0.168521
0.619394 0.551141 0.177951
0.691508 0.559014 0.185626
0.763073 0.565972 0.192370
0.818082 0.570733 0.196704
0.867247 0.574090 0.199786
0.900801 0.575708 0.201236
0.929580 0.576471 0.201968
0.950835 0.576699 0.202182
0.970993 0.576791 0.202258
0.983398 0.576806 0.202274
0.990814 0.576837 0.202304
0.995727 0.576867 0.202304
0.999527 0.576883 0.202319
1.000000 0.576898 0.202319
1.000000 0.576898 0.202335
0.151705 0.601022 0.151705
0.152178 0.601038 0.151705
0.153353 0.601068 0.151736
0.164950 0.601343 0.152132
0.177218 0.601648 0.152575
0.192905 0.602152 0.153277
0.209003 0.602716 0.154040
0.225757 0.603479 0.155093
0.243153 0.604334 0.156252
0.261494 0.605509 0.157809
0.282124 0.607050 0.159808
0.307225 0.609430 0.162737
0.339132 0.612909 0.166812
0.382162 0.618173 0.172625
0.434806 0.624964 0.179767
0.501335 0.633600 0.188342
0.573068 0.642908 0.197162
0.652766 0.652766 0.205890
0.727016 0.661311 0.213519
0.799496 0.669001 0.219776
0.856809 0.674205 0.224033
0.905516 0.678019 0.226902
0.940291 0.679744 0.228290
0.967987 0.680629 0.228946
0.983551 0.680873 0.229175
0.992660 0.680964 0.229221
0.998749 0.680995 0.229252
1.000000 0.681010 0.229282
1.000000 0.681041 0.229282
1.000000 0.681071 0.229282
1.000000 0.681071 0.229282
1.000000 0.681071 0.229297
0.176959 0.693523 0.176959
0.177432 0.693553 0.176974
0.178592 0.693584 0.177005
0.190051 0.693874 0.177401
0.202121 0.694224 0.177813
0.217670 0.694759 0.178515
0.233478 0.695354 0.179278
0.250141 0.696162 0.180301
0.267262 0.697078 0.181460
0.285557 0.698314 0.183001
0.306004 0.699962 0.184955
0.331090 0.702495 0.187869
0.363119 0.706035 0.191791
0.406226 0.711635 0.197574
0.459709 0.718563 0.204379
0.526986 0.727855 0.212909
0.600443 0.737377 0.221210
0.682002 0.748074 0.229908
0.756863 0.756863 0.236805
0.832059 0.765393 0.243000
0.889387 0.770825 0.246906
0.939727 0.775067 0.249683
0.973404 0.776959 0.250965
0.989944 0.777951 0.251591
0.998306 0.778241 0.251789
1.000000 0.778302 0.251835
1.000000 0.778347 0.251850
1.000000 0.778378 0.251865
1.000000 0.778393 0.251881
1.000000 0.778424 0.251881
1.000000 0.778424 0.251881
1.000000 0.778424 0.251881
0.199054 0.784665 0.199054
0.199512 0.784726 0.199069
0.200656 0.784756 0.199100
0.211978 0.785092 0.199481
0.223926 0.785458 0.199893
0.239292 0.786007 0.200595
0.254978 0.786664 0.201358
0.271458 0.787503 0.202335
0.288472 0.788510 0.203479
0.306630 0.789822 0.204974
0.327016 0.791592 0.206897
0.352102 0.794232 0.209720
0.384085 0.798138 0.213626
0.427771 0.803845 0.219165
0.481712 0.811490 0.225925
0.550546 0.820981 0.233997
0.625437 0.831525 0.242252
0.708705 0.842420 0.250324
0.785885 0.852277 0.257176
0.860670 0.860670 0.262669
0.920134 0.866743 0.266514
0.968551 0.871015 0.269001
0.989776 0.873106 0.270253
0.997986 0.874098 0.270832
1.000000 0.874434 0.271015
1.000000 0.874525 0.271046
1.000000 0.874571 0.271046
1.000000 0.874586 0.271046
1.000000 0.874632 0.271046
1.000000 0.874647 0.271077
1.000000 0.874647 0.271077
1.000000 0.874647 0.271077
0.213855 0.854810 0.213855
0.214313 0.854826 0.213886
0.215442 0.854887 0.213916
0.226719 0.855222 0.214298
0.238575 0.855619 0.214710
0.253880 0.856199 0.215381
0.269444 0.856855 0.216129
0.285893 0.857755 0.217121
0.302785 0.858808 0.218250
0.320943 0.860212 0.219715
0.341299 0.862013 0.221607
0.366430 0.864820 0.224414
0.398672 0.868788 0.228214
0.442527 0.874952 0.233753
0.497154 0.882582 0.240269
0.566644 0.892836 0.248280
0.642451 0.903365 0.256138
0.726955 0.915114 0.264164
0.804501 0.924834 0.270573
0.881163 0.933974 0.276036
0.939742 0.939742 0.279500
0.983093 0.944335 0.281926
0.998810 0.946426 0.283055
1.000000 0.947494 0.283619
1.000000 0.947814 0.283787
1.000000 0.947906 0.283818
1.000000 0.947982 0.283787
1.000000 0.947997 0.283772
1.000000 0.948028 0.283772
1.000000 0.948028 0.283772
1.000000 0.948028 0.283772
1.000000 0.948028 0.283772
0.224323 0.913603 0.224323
0.224781 0.913649 0.224338
0.225910 0.913680 0.224384
0.237156 0.914031 0.224750
0.248920 0.914443 0.225162
0.264179 0.915053 0.225834
0.279683 0.915740 0.226566
0.296101 0.916655 0.227543
0.312978 0.917739 0.228656
0.331121 0.919142 0.230106
0.351476 0.921080 0.231983
0.376715 0.923919 0.234760
0.409003 0.928100 0.238560
0.453452 0.934249 0.243977
0.508492 0.942260 0.250477
0.578805 0.952117 0.258244
0.655482 0.962997 0.266056
0.740429 0.973983 0.273701
0.819257 0.980407 0.280079
0.895445 0.983169 0.285206
0.954894 0.986114 0.288655
0.987320 0.987320 0.290883
1.000000 0.988830 0.291966
1.000000 0.989166 0.292485
1.000000 0.989441 0.292638
1.000000 0.989471 0.292699
1.000000 0.989502 0.292653
1.000000 0.989517 0.292622
1.000000 0.989517 0.292592
1.000000 0.989517 0.292592
1.000000 0.989517 0.292592
1.000000 0.989517 0.292592
0.229297 0.952743 0.229297
0.229755 0.952773 0.229313
0.230884 0.952789 0.229343
0.242130 0.953140 0.229725
0.253834 0.953536 0.230106
0.269078 0.954162 0.230777
0.284566 0.954849 0.231525
0.300999 0.955779 0.232502
0.317876 0.956832 0.233600
0.336065 0.958282 0.235065
0.356527 0.960189 0.236942
0.381888 0.963088 0.239734
0.414466 0.967193 0.243534
0.459144 0.973419 0.248981
0.514748 0.981140 0.255421
0.585458 0.989059 0.263203
0.662226 0.993149 0.270832
0.747585 0.996292 0.278477
0.825971 0.999405 0.284596
0.902739 1.000000 0.289693
0.961822 1.000000 0.292958
0.992248 1.000000 0.295186
1.000000 1.000000 0.296239
1.000000 1.000000 0.296727
1.000000 1.000000 0.296880
1.000000 1.000000 0.296910
1.000000 1.000000 0.296895
1.000000 1.000000 0.296834
1.000000 1.000000 0.296803
1.000000 1.000000 0.296803
1.000000 1.000000 0.296788
1.000000 1.000000 0.296788
0.231754 0.982452 0.231754
0.232227 0.982452 0.231785
0.233356 0.982467 0.231830
0.244587 0.982818 0.232181
0.256306 0.983215 0.232563
0.271534 0.983856 0.233234
0.287022 0.984527 0.233982
0.303456 0.985443 0.234958
0.320333 0.986496 0.236057
0.338598 0.987915 0.237537
0.359106 0.989807 0.239429
0.384680 0.991989 0.242267
0.417395 0.993072 0.246067
0.462531 0.994598 0.251545
0.518410 0.996170 0.258000
0.589700 0.998566 0.265766
0.666896 1.000000 0.273396
0.751904 1.000000 0.280888
0.830594 1.000000 0.286992
0.906416 1.000000 0.291920
0.965499 1.000000 0.295171
0.993393 1.000000 0.297353
1.000000 1.000000 0.298375
1.000000 1.000000 0.298878
1.000000 1.000000 0.299001
1.000000 1.000000 0.299016
1.000000 1.000000 0.298985
1.000000 1.000000 0.298955
1.000000 1.000000 0.298894
1.000000 1.000000 0.298863
1.000000 1.000000 0.298863
1.000000 1.000000 0.298863
0.232532 0.997726 0.232532
0.232975 0.997726 0.232532
0.234119 0.997726 0.232593
0.245335 0.997803 0.232959
0.257053 0.997879 0.233356
0.272328 0.998016 0.234028
0.287816 0.998154 0.234760
0.304326 0.998352 0.235752
0.321263 0.998550 0.236881
0.339635 0.998871 0.238392
0.360327 0.999176 0.240314
0.386114 0.999786 0.243168
0.419135 1.000000 0.247044
0.464515 1.000000 0.252552
0.520760 1.000000 0.259037
0.592294 1.000000 0.266804
0.669673 1.000000 0.274418
0.754894 1.000000 0.281895
0.832898 1.000000 0.287907
0.908736 1.000000 0.292805
0.966857 1.000000 0.295933
0.994354 1.000000 0.298116
1.000000 1.000000 0.299123
1.000000 1.000000 0.299596
1.000000 1.000000 0.299702
1.000000 1.000000 0.299702
1.000000 1.000000 0.299657
1.000000 1.000000 0.299626
1.000000 1.000000 0.299565
1.000000 1.000000 0.299519
1.000000 1.000000 0.299504
1.000000 1.000000 0.299504
0.232731 1.000000 0.232731
0.233188 1.000000 0.232746
0.234318 1.000000 0.232776
0.245533 1.000000 0.233158
0.257252 1.000000 0.233570
0.272526 1.000000 0.234257
0.288060 1.000000 0.234989
0.304631 1.000000 0.235996
0.321630 1.000000 0.237125
0.340093 1.000000 0.238666
0.360891 1.000000 0.240620
0.386938 1.000000 0.243519
0.420172 1.000000 0.247410
0.465934 1.000000 0.253010
0.522438 1.000000 0.259541
0.594293 1.000000 0.267338
0.671992 1.000000 0.274952
0.757244 1.000000 0.282399
0.835462 1.000000 0.288411
0.910445 1.000000 0.293233
0.968414 1.000000 0.296361
0.994644 1.000000 0.298421
1.000000 1.000000 0.299413
1.000000 1.000000 0.299855
1.000000 1.000000 0.299947
1.000000 1.000000 0.299947
1.000000 1.000000 0.299870
1.000000 1.000000 0.299809
1.000000 1.000000 0.299748
1.000000 1.000000 0.299687
1.000000 1.000000 0.299687
1.000000 1.000000 0.299687
0.232807 1.000000 0.232807
0.233280 1.000000 0.232837
0.234394 1.000000 0.232868
0.245594 1.000000 0.233265
0.257328 1.000000 0.233692
0.272663 1.000000 0.234379
0.288212 1.000000 0.235111
0.304860 1.000000 0.236133
0.321904 1.000000 0.237293
0.340444 1.000000 0.238849
0.361379 1.000000 0.240864
0.387594 1.000000 0.243793
0.421073 1.000000 0.247700
0.467033 1.000000 0.253300
0.523720 1.000000 0.259861
0.595666 1.000000 0.267659
0.673304 1.000000 0.275257
0.758572 1.000000 0.282704
0.836591 1.000000 0.288670
0.911559 1.000000 0.293492
0.969070 1.000000 0.296590
0.994995 1.000000 0.298650
1.000000 1.000000 0.299596
1.000000 1.000000 0.300038
1.000000 1.000000 0.300130
1.000000 1.000000 0.300099
1.000000 1.000000 0.299992
1.000000 1.000000 0.299931
1.000000 1.000000 0.299840
1.000000 1.000000 0.299794
1.000000 1.000000 0.299763
1.000000 1.000000 0.299763
0.232898 1.000000 0.232898
0.233341 1.000000 0.232898
0.234485 1.000000 0.232929
0.245640 1.000000 0.233341
0.257359 1.000000 0.233753
0.272725 1.000000 0.234455
0.288334 1.000000 0.235203
0.304997 1.000000 0.236255
0.322133 1.000000 0.237446
0.340734 1.000000 0.239017
0.361730 1.000000 0.241047
0.388098 1.000000 0.244007
0.421744 1.000000 0.247959
0.467964 1.000000 0.253574
0.524849 1.000000 0.260151
0.596933 1.000000 0.267948
0.674678 1.000000 0.275547
