LUT color transfer/LUTs/23.cube
LUT_3D_SIZE 16
0.054718 0.056632 0.103822
0.070841 0.056632 0.103822
0.101723 0.056632 0.103822
0.143399 0.056632 0.103822
0.194523 0.056632 0.103822
0.254321 0.056632 0.103822
0.322222 0.056632 0.103822
0.397863 0.056632 0.103822
0.479284 0.056632 0.103822
0.557432 0.056632 0.103822
0.630087 0.056632 0.103822
0.696210 0.056632 0.103822
0.754737 0.056632 0.103822
0.804173 0.056632 0.103822
0.842261 0.056632 0.103822
0.862464 0.056632 0.103822
0.054718 0.077299 0.103822
0.070841 0.077299 0.103822
0.101723 0.086234 0.103822
0.143399 0.093163 0.103822
0.194523 0.099054 0.103822
0.254321 0.104264 0.103822
0.322222 0.109005 0.103822
0.397863 0.113387 0.103822
0.479284 0.117268 0.103822
0.557432 0.119752 0.103822
0.630087 0.121044 0.103822
0.696210 0.121416 0.103822
0.754737 0.121017 0.103822
0.804173 0.119936 0.103822
0.842261 0.118146 0.103822
0.862464 0.115391 0.103822
0.054718 0.116142 0.103822
0.077886 0.116142 0.103822
0.101723 0.116142 0.103822
0.143399 0.130149 0.103822
0.194523 0.142040 0.103822
0.254321 0.152580 0.103822
0.322222 0.162178 0.103822
0.397863 0.171036 0.103822
0.479284 0.178886 0.103822
0.557432 0.183922 0.103822
0.630087 0.186533 0.103822
0.696210 0.187281 0.103822
0.754737 0.186491 0.103822
0.804173 0.184300 0.103822
0.842261 0.180678 0.103822
0.862464 0.175108 0.103822
0.054718 0.167438 0.103822
0.083375 0.167438 0.103822
0.113006 0.167438 0.103822
0.143399 0.167438 0.103822
0.194523 0.185420 0.103822
0.254321 0.201380 0.103822
0.322222 0.215882 0.103822
0.397863 0.229284 0.103822
0.479284 0.241177 0.103822
0.557432 0.248790 0.103822
0.630087 0.252754 0.103822
0.696210 0.253875 0.103822
0.754737 0.252680 0.103822
0.804173 0.249355 0.103822
0.842261 0.243875 0.103822
0.862464 0.235439 0.103822
0.054718 0.229111 0.103822
0.088053 0.229111 0.103822
0.122651 0.229111 0.103822
0.158201 0.229111 0.103822
0.194523 0.229111 0.103822
0.254321 0.250508 0.103822
0.322222 0.269973 0.103822
0.397863 0.287961 0.103822
0.479284 0.303949 0.103822
0.557432 0.314175 0.103822
0.630087 0.319470 0.103822
0.696210 0.320997 0.103822
0.754737 0.319365 0.103822
0.804173 0.314899 0.103822
0.842261 0.307584 0.103822
0.862464 0.296214 0.103822
0.054718 0.299956 0.103822
0.092213 0.299956 0.103822
0.131243 0.299956 0.103822
0.171429 0.299956 0.103822
0.212481 0.299956 0.103822
0.254321 0.299956 0.103822
0.322222 0.324408 0.103822
0.397863 0.347029 0.103822
0.479284 0.367119 0.103822
0.557432 0.379937 0.103822
0.630087 0.386633 0.103822
0.696210 0.388516 0.103822
0.754737 0.386525 0.103822
0.804173 0.380899 0.103822
0.842261 0.371638 0.103822
0.862464 0.357393 0.103822
0.054718 0.379135 0.103822
0.096004 0.379135 0.103822
0.139078 0.379135 0.103822
0.183469 0.379135 0.103822
0.228894 0.379135 0.103822
0.275205 0.379135 0.103822
0.322222 0.379135 0.103822
0.397863 0.406358 0.103822
0.479284 0.430569 0.103822
0.557432 0.446048 0.103822
0.630087 0.454116 0.103822
0.696210 0.456412 0.103822
0.754737 0.453966 0.103822
0.804173 0.447204 0.103822
0.842261 0.436060 0.103822
0.862464 0.418886 0.103822
0.054718 0.465993 0.103822
0.099510 0.465993 0.103822
0.146350 0.465993 0.103822
0.194675 0.465993 0.103822
0.244139 0.465993 0.103822
0.294577 0.465993 0.103822
0.345868 0.465993 0.103822
0.397863 0.465993 0.103822
0.479284 0.494366 0.103822
0.557432 0.512493 0.103822
0.630087 0.521954 0.103822
0.696210 0.524659 0.103822
0.754737 0.521786 0.103822
0.804173 0.513861 0.103822
0.842261 0.500807 0.103822
0.862464 0.480625 0.103822
0.054718 0.558351 0.103822
0.102630 0.558351 0.103822
0.152819 0.558351 0.103822
0.204638 0.558351 0.103822
0.257727 0.558351 0.103822
0.311890 0.558351 0.103822
0.366904 0.558351 0.103822
0.422758 0.558351 0.103822
0.479284 0.558351 0.103822
0.557432 0.579127 0.103822
0.630087 0.589960 0.103822
0.696210 0.593061 0.103822
0.754737 0.589753 0.103822
0.804173 0.580659 0.103822
0.842261 0.565702 0.103822
0.862464 0.542583 0.103822
0.054718 0.646061 0.103822
0.104620 0.646061 0.103822
0.156973 0.646061 0.103822
0.211037 0.646061 0.103822
0.266441 0.646061 0.103822
0.322954 0.646061 0.103822
0.380405 0.646061 0.103822
0.438737 0.646061 0.103822
0.497771 0.646061 0.103822
0.557432 0.646061 0.103822
0.630087 0.658265 0.103822
0.696210 0.661745 0.103822
0.754737 0.658045 0.103822
0.804173 0.647779 0.103822
0.842261 0.630852 0.103822
0.862464 0.604817 0.103822
0.054718 0.726820 0.103822
0.105665 0.726820 0.103822
0.159122 0.726820 0.103822
0.214358 0.726820 0.103822
0.270978 0.726820 0.103822
0.328752 0.726820 0.103822
0.387461 0.726820 0.103822
0.447052 0.726820 0.103822
0.507383 0.726820 0.103822
0.568407 0.726820 0.103822
0.630087 0.726820 0.103822
0.696210 0.730698 0.103822
0.754737 0.726599 0.103822
0.804173 0.715109 0.103822
0.842261 0.696332 0.103822
0.862464 0.667275 0.103822
0.054718 0.799769 0.103822
0.105958 0.799769 0.103822
0.159743 0.799769 0.103822
0.215310 0.799769 0.103822
0.272270 0.799769 0.103822
0.330386 0.799769 0.103822
0.389489 0.799769 0.103822
0.449439 0.799769 0.103822
0.510110 0.799769 0.103822
0.571502 0.799769 0.103822
0.633530 0.799769 0.103822
0.696210 0.799769 0.103822
0.754737 0.795141 0.103822
0.804173 0.782624 0.103822
0.842261 0.761822 0.103822
0.862464 0.729680 0.103822
0.054718 0.864015 0.103822
0.105646 0.864015 0.103822
0.159082 0.864015 0.103822
0.214296 0.864015 0.103822
0.270899 0.864015 0.103822
0.328659 0.864015 0.103822
0.387309 0.864015 0.103822
0.446916 0.864015 0.103822
0.507217 0.864015 0.103822
0.568199 0.864015 0.103822
0.629858 0.864015 0.103822
0.692002 0.864015 0.103822
0.754737 0.864015 0.103822
0.804173 0.850245 0.103822
0.842261 0.827585 0.103822
0.862464 0.792509 0.103822
0.054718 0.918045 0.103822
0.104771 0.918045 0.103822
0.157280 0.918045 0.103822
0.211520 0.918045 0.103822
0.267093 0.918045 0.103822
0.323779 0.918045 0.103822
0.381410 0.918045 0.103822
0.439910 0.918045 0.103822
0.499120 0.918045 0.103822
0.559008 0.918045 0.103822
0.619510 0.918045 0.103822
0.680617 0.918045 0.103822
0.742149 0.918045 0.103822
0.804173 0.918045 0.103822
0.842261 0.893353 0.103822
0.862464 0.855329 0.103822
0.054718 0.959526 0.103822
0.103334 0.959526 0.103822
0.154297 0.959526 0.103822
0.206909 0.959526 0.103822
0.260811 0.959526 0.103822
0.315803 0.959526 0.103822
0.371689 0.959526 0.103822
0.428427 0.959526 0.103822
0.485815 0.959526 0.103822
0.543899 0.959526 0.103822
0.602560 0.959526 0.103822
0.661786 0.959526 0.103822
0.721412 0.959526 0.103822
0.781550 0.959526 0.103822
0.842261 0.959526 0.103822
0.862464 0.918381 0.103822
0.054718 0.981428 0.103822
0.101116 0.981428 0.103822
0.149685 0.981428 0.103822
0.199795 0.981428 0.103822
0.251142 0.981428 0.103822
0.303507 0.981428 0.103822
0.356694 0.981428 0.103822
0.410696 0.981428 0.103822
0.465323 0.981428 0.103822
0.520595 0.981428 0.103822
0.576427 0.981428 0.103822
0.632717 0.981428 0.103822
0.689534 0.981428 0.103822
0.746778 0.981428 0.103822
0.804474 0.981428 0.103822
0.862464 0.981428 0.103822
0.054718 0.056632 0.141561
0.070841 0.056632 0.141561
0.101723 0.056632 0.156854
0.143399 0.056632 0.168391
0.194523 0.056632 0.177989
0.254321 0.056632 0.186354
0.322222 0.056632 0.193848
0.397863 0.056632 0.200695
0.479284 0.056632 0.206685
0.557432 0.056632 0.210498
0.630087 0.056632 0.212475
0.696210 0.056632 0.213032
0.754737 0.056632 0.212434
0.804173 0.056632 0.210788
0.842261 0.056632 0.208046
0.862464 0.056632 0.203787
0.054718 0.077299 0.141561
0.070841 0.077299 0.141561
0.101723 0.077299 0.141561
0.143399 0.077299 0.141561
0.194523 0.077299 0.141561
0.254321 0.077299 0.141561
0.322222 0.077299 0.141561
0.397863 0.077299 0.141561
0.479284 0.077299 0.141561
0.557432 0.077299 0.141561
0.630087 0.077299 0.141561
0.696210 0.077299 0.141561
0.754737 0.077299 0.141561
0.804173 0.077299 0.141561
0.842261 0.077299 0.141561
0.862464 0.077299 0.141561
0.054718 0.116142 0.156854
0.070841 0.116142 0.141561
0.101723 0.116142 0.141561
0.143399 0.127136 0.141561
0.194523 0.137149 0.141561
0.254321 0.146296 0.141561
0.322222 0.154738 0.141561
0.397863 0.162626 0.141561
0.479284 0.169661 0.141561
0.557432 0.174154 0.141561
0.630087 0.176472 0.141561
0.696210 0.177095 0.141561
0.754737 0.176371 0.141561
0.804173 0.174359 0.141561
0.842261 0.171054 0.141561
0.862464 0.165971 0.141561
0.054718 0.167438 0.168391
0.070841 0.167438 0.141561
0.110578 0.167438 0.141561
0.143399 0.167438 0.141561
0.194523 0.183759 0.141561
0.254321 0.198603 0.141561
0.322222 0.212291 0.141561
0.397863 0.225033 0.141561
0.479284 0.236388 0.141561
0.557432 0.243643 0.141561
0.630087 0.247389 0.141561
0.696210 0.248413 0.141561
0.754737 0.247210 0.141561
0.804173 0.243967 0.141561
0.842261 0.238634 0.141561
0.862464 0.230456 0.141561
0.054718 0.229111 0.177989
0.070841 0.229111 0.141561
0.118677 0.229111 0.141561
0.156821 0.229111 0.141561
0.194523 0.229111 0.141561
0.254321 0.249430 0.141561
0.322222 0.268135 0.141561
0.397863 0.285552 0.141561
0.479284 0.301096 0.141561
0.557432 0.310996 0.141561
0.630087 0.316107 0.141561
0.696210 0.317515 0.141561
0.754737 0.315860 0.141561
0.804173 0.311435 0.141561
0.842261 0.304178 0.141561
0.862464 0.292985 0.141561
0.054718 0.299956 0.186354
0.070841 0.299956 0.141561
0.126109 0.299956 0.141561
0.169117 0.299956 0.141561
0.211561 0.299956 0.141561
0.254321 0.299956 0.141561
0.322222 0.323642 0.141561
0.397863 0.345698 0.141561
0.479284 0.365389 0.141561
0.557432 0.377904 0.141561
0.630087 0.384379 0.141561
0.696210 0.386166 0.141561
0.754737 0.384075 0.141561
0.804173 0.378466 0.141561
0.842261 0.369250 0.141561
0.862464 0.355062 0.141561
0.054718 0.379135 0.193848
0.070841 0.379135 0.141561
0.133001 0.379135 0.141561
0.180480 0.379135 0.141561
0.227341 0.379135 0.141561
0.274550 0.379135 0.141561
0.322222 0.379135 0.141561
0.397863 0.405809 0.141561
0.479284 0.429581 0.141561
0.557432 0.444753 0.141561
0.630087 0.452599 0.141561
0.696210 0.454735 0.141561
0.754737 0.452220 0.141561
0.804173 0.445429 0.141561
0.842261 0.434305 0.141561
0.862464 0.417130 0.141561
0.054718 0.465993 0.200695
0.070841 0.465993 0.141561
0.139447 0.465993 0.141561
0.191123 0.465993 0.141561
0.242097 0.465993 0.141561
0.293460 0.465993 0.141561
0.345376 0.465993 0.141561
0.397863 0.465993 0.141561
0.479284 0.493909 0.141561
0.557432 0.511747 0.141561
0.630087 0.520943 0.141561
0.696210 0.523485 0.141561
0.754737 0.520511 0.141561
0.804173 0.512502 0.141561
0.842261 0.499455 0.141561
0.862464 0.479337 0.141561
0.054718 0.558351 0.206685
0.070841 0.558351 0.141561
0.145218 0.558351 0.141561
0.200622 0.558351 0.141561
0.255292 0.558351 0.141561
0.310366 0.558351 0.141561
0.366046 0.558351 0.141561
0.422349 0.558351 0.141561
0.479284 0.558351 0.141561
0.557432 0.578789 0.141561
0.630087 0.589339 0.141561
0.696210 0.592257 0.141561
0.754737 0.588847 0.141561
0.804173 0.579687 0.141561
0.842261 0.564705 0.141561
0.862464 0.541581 0.141561
0.054718 0.646061 0.210498
0.070841 0.646061 0.141561
0.148911 0.646061 0.141561
0.206693 0.646061 0.141561
0.263729 0.646061 0.141561
0.321193 0.646061 0.141561
0.379282 0.646061 0.141561
0.438057 0.646061 0.141561
0.497448 0.646061 0.141561
0.557432 0.646061 0.141561
0.630087 0.658021 0.141561
0.696210 0.661245 0.141561
0.754737 0.657432 0.141561
0.804173 0.647078 0.141561
0.842261 0.630104 0.141561
0.862464 0.604037 0.141561
0.054718 0.726820 0.212475
0.070841 0.726820 0.141561
0.150822 0.726820 0.141561
0.209854 0.726820 0.141561
0.268105 0.726820 0.141561
0.326794 0.726820 0.141561
0.386149 0.726820 0.141561
0.446189 0.726820 0.141561
0.506845 0.726820 0.141561
0.568155 0.726820 0.141561
0.630087 0.726820 0.141561
0.696210 0.730400 0.141561
0.754737 0.726167 0.141561
0.804173 0.714619 0.141561
0.842261 0.695763 0.141561
0.862464 0.666624 0.141561
0.054718 0.799769 0.213032
0.070841 0.799769 0.141561
0.151345 0.799769 0.141561
0.210717 0.799769 0.141561
0.269302 0.799769 0.141561
0.328344 0.799769 0.141561
0.388039 0.799769 0.141561
0.448402 0.799769 0.141561
0.509417 0.799769 0.141561
0.571099 0.799769 0.141561
0.633343 0.799769 0.141561
0.696210 0.799769 0.141561
0.754737 0.795012 0.141561
0.804173 0.782336 0.141561
0.842261 0.761420 0.141561
0.862464 0.729310 0.141561
0.054718 0.864015 0.212434
0.070841 0.864015 0.141561
0.150734 0.864015 0.141561
0.209708 0.864015 0.141561
0.267897 0.864015 0.141561
0.326542 0.864015 0.141561
0.385800 0.864015 0.141561
0.445819 0.864015 0.141561
0.506396 0.864015 0.141561
0.567661 0.864015 0.141561
0.629547 0.864015 0.141561
0.691779 0.864015 0.141561
0.754737 0.864015 0.141561
0.804173 0.850136 0.141561
0.842261 0.827316 0.141561
0.862464 0.792198 0.141561
0.054718 0.918045 0.210788
0.070841 0.918045 0.141561
0.149076 0.918045 0.141561
0.206976 0.918045 0.141561
0.264109 0.918045 0.141561
0.321663 0.918045 0.141561
0.379870 0.918045 0.141561
0.438758 0.918045 0.141561
0.498235 0.918045 0.141561
0.558391 0.918045 0.141561
0.619085 0.918045 0.141561
0.680373 0.918045 0.141561
0.741987 0.918045 0.141561
0.804173 0.918045 0.141561
0.842261 0.893263 0.141561
0.862464 0.855110 0.141561
0.054718 0.959526 0.208046
0.070841 0.959526 0.141561
0.146367 0.959526 0.141561
0.202521 0.959526 0.141561
0.257913 0.959526 0.141561
0.313762 0.959526 0.141561
0.370142 0.959526 0.141561
0.427242 0.959526 0.141561
0.484904 0.959526 0.141561
0.543187 0.959526 0.141561
0.602082 0.959526 0.141561
0.661371 0.959526 0.141561
0.721181 0.959526 0.141561
0.781523 0.959526 0.141561
0.842261 0.959526 0.141561
0.862464 0.918288 0.141561
0.054718 0.981428 0.203787
0.070841 0.981428 0.141561
0.142198 0.981428 0.141561
0.195627 0.981428 0.141561
0.248384 0.981428 0.141561
0.301524 0.981428 0.141561
0.355226 0.981428 0.141561
0.409556 0.981428 0.141561
0.464438 0.981428 0.141561
0.519883 0.981428 0.141561
0.575898 0.981428 0.141561
0.632359 0.981428 0.141561
0.689235 0.981428 0.141561
0.746549 0.981428 0.141561
0.804435 0.981428 0.141561
0.862464 0.981428 0.141561
0.054718 0.056632 0.204955
0.077886 0.056632 0.204955
0.101723 0.056632 0.204955
0.143399 0.056632 0.226204
0.194523 0.056632 0.243749
0.254321 0.056632 0.258967
0.322222 0.056632 0.272549
0.397863 0.056632 0.284911
0.479284 0.056632 0.295719
0.557432 0.056632 0.302564
0.630087 0.056632 0.306120
0.696210 0.056632 0.307115
0.754737 0.056632 0.306035
0.804173 0.056632 0.303076
0.842261 0.056632 0.298140
0.862464 0.056632 0.290492
0.054718 0.086234 0.204955
0.070841 0.077299 0.204955
0.101723 0.077299 0.204955
0.143399 0.077299 0.221681
0.194523 0.077299 0.236585
0.254321 0.077299 0.249922
0.322222 0.077299 0.262040
0.397863 0.077299 0.273183
0.479284 0.077299 0.282994
0.557432 0.077299 0.289198
0.630087 0.077299 0.292397
0.696210 0.077299 0.293280
0.754737 0.077299 0.292249
0.804173 0.077299 0.289475
0.842261 0.077299 0.284942
0.862464 0.077299 0.277881
0.054718 0.116142 0.204955
0.070841 0.116142 0.204955
0.101723 0.116142 0.204955
0.143399 0.116142 0.204955
0.194523 0.116142 0.204955
0.254321 0.116142 0.204955
0.322222 0.116142 0.204955
0.397863 0.116142 0.204955
0.479284 0.116142 0.204955
0.557432 0.116142 0.204955
0.630087 0.116142 0.204955
0.696210 0.116142 0.204955
0.754737 0.116142 0.204955
0.804173 0.116142 0.204955
0.842261 0.116142 0.204955
0.862464 0.116142 0.204955
0.054718 0.167438 0.226204
0.070841 0.167438 0.221681
0.101723 0.167438 0.204955
0.143399 0.167438 0.204955
0.194523 0.177825 0.204955
0.254321 0.188094 0.204955
0.322222 0.198011 0.204955
0.397863 0.207555 0.204955
0.479284 0.216220 0.204955
0.557432 0.221726 0.204955
0.630087 0.224513 0.204955
0.696210 0.225141 0.204955
0.754737 0.224039 0.204955
0.804173 0.221318 0.204955
0.842261 0.216958 0.204955
0.862464 0.210358 0.204955
0.054718 0.229111 0.243749
0.070841 0.229111 0.236585
0.101723 0.229111 0.204955
0.151940 0.229111 0.204955
0.194523 0.229111 0.204955
0.254321 0.245501 0.204955
0.322222 0.261189 0.204955
0.397863 0.276179 0.204955
0.479284 0.289708 0.204955
0.557432 0.298263 0.204955
0.630087 0.302568 0.204955
0.696210 0.303550 0.204955
0.754737 0.301824 0.204955
0.804173 0.297614 0.204955
0.842261 0.290851 0.204955
0.862464 0.280564 0.204955
0.054718 0.299956 0.258967
0.070841 0.299956 0.249922
0.101723 0.299956 0.204955
0.160399 0.299956 0.204955
0.208267 0.299956 0.204955
0.254321 0.299956 0.204955
0.322222 0.320794 0.204955
0.397863 0.340647 0.204955
0.479284 0.358538 0.204955
0.557432 0.369863 0.204955
0.630087 0.375480 0.204955
0.696210 0.376838 0.204955
0.754737 0.374557 0.204955
0.804173 0.369017 0.204955
0.842261 0.360037 0.204955
0.862464 0.346457 0.204955
0.054718 0.379135 0.272549
0.070841 0.379135 0.262040
0.101723 0.379135 0.204955
0.168611 0.379135 0.204955
0.221476 0.379135 0.204955
0.272110 0.379135 0.204955
0.322222 0.379135 0.204955
0.397863 0.403631 0.204955
0.479284 0.425704 0.204955
0.557432 0.439652 0.204955
0.630087 0.446660 0.204955
0.696210 0.448264 0.204955
0.754737 0.445471 0.204955
0.804173 0.438590 0.204955
0.842261 0.427574 0.204955
0.862464 0.410744 0.204955
0.054718 0.465993 0.284911
0.070841 0.465993 0.273183
0.101723 0.465993 0.204955
0.176525 0.465993 0.204955
0.234136 0.465993 0.204955
0.289106 0.465993 0.204955
0.343487 0.465993 0.204955
0.397863 0.465993 0.204955
0.479284 0.492221 0.204955
0.557432 0.508750 0.204955
0.630087 0.517046 0.204955
0.696210 0.518983 0.204955
0.754737 0.515669 0.204955
0.804173 0.507502 0.204955
0.842261 0.494424 0.204955
0.862464 0.474489 0.204955
0.054718 0.558351 0.295719
0.070841 0.558351 0.282994
0.101723 0.558351 0.204955
0.183767 0.558351 0.204955
0.245625 0.558351 0.204955
0.304518 0.558351 0.204955
0.362702 0.558351 0.204955
0.420870 0.558351 0.204955
0.479284 0.558351 0.204955
0.557432 0.577428 0.204955
0.630087 0.587028 0.204955
0.696210 0.589249 0.204955
0.754737 0.585408 0.204955
0.804173 0.575968 0.204955
0.842261 0.560891 0.204955
0.862464 0.537885 0.204955
0.054718 0.646061 0.302564
0.070841 0.646061 0.289198
0.101723 0.646061 0.204955
0.188353 0.646061 0.204955
0.252884 0.646061 0.204955
0.314269 0.646061 0.204955
0.374847 0.646061 0.204955
0.435430 0.646061 0.204955
0.496229 0.646061 0.204955
0.557432 0.646061 0.204955
0.630087 0.656931 0.204955
0.696210 0.659414 0.204955
0.754737 0.655068 0.204955
0.804173 0.644389 0.204955
0.842261 0.627281 0.204955
0.862464 0.601149 0.204955
0.054718 0.726820 0.306120
0.070841 0.726820 0.292397
0.101723 0.726820 0.204955
0.190667 0.726820 0.204955
0.256547 0.726820 0.204955
0.319143 0.726820 0.204955
0.380918 0.726820 0.204955
0.442772 0.726820 0.204955
0.504796 0.726820 0.204955
0.567193 0.726820 0.204955
0.630087 0.726820 0.204955
0.696210 0.729572 0.204955
0.754737 0.724674 0.204955
0.804173 0.712700 0.204955
0.842261 0.693711 0.204955
0.862464 0.664410 0.204955
0.054718 0.799769 0.307115
0.070841 0.799769 0.293280
0.101723 0.799769 0.204955
0.191204 0.799769 0.204955
0.257397 0.799769 0.204955
0.320286 0.799769 0.204955
0.382348 0.799769 0.204955
0.444443 0.799769 0.204955
0.506759 0.799769 0.204955
0.569446 0.799769 0.204955
0.632616 0.799769 0.204955
0.696210 0.799769 0.204955
0.754737 0.794376 0.204955
0.804173 0.781142 0.204955
0.842261 0.759964 0.204955
0.862464 0.727733 0.204955
0.054718 0.864015 0.306035
0.070841 0.864015 0.292249
0.101723 0.864015 0.204955
0.190277 0.864015 0.204955
0.255925 0.864015 0.204955
0.318300 0.864015 0.204955
0.379882 0.864015 0.204955
0.441505 0.864015 0.204955
0.503330 0.864015 0.204955
0.565534 0.864015 0.204955
0.628234 0.864015 0.204955
0.691327 0.864015 0.204955
0.754737 0.864015 0.204955
0.804173 0.849593 0.204955
0.842261 0.826398 0.204955
0.862464 0.791035 0.204955
0.054718 0.918045 0.303076
0.070841 0.918045 0.289475
0.101723 0.918045 0.204955
0.188010 0.918045 0.204955
0.252328 0.918045 0.204955
0.313495 0.918045 0.204955
0.373895 0.918045 0.204955
0.434309 0.918045 0.204955
0.494940 0.918045 0.204955
0.555965 0.918045 0.204955
0.617428 0.918045 0.204955
0.679284 0.918045 0.204955
0.741535 0.918045 0.204955
0.804173 0.918045 0.204955
0.842261 0.892828 0.204955
0.862464 0.854422 0.204955
0.054718 0.959526 0.298140
0.070841 0.959526 0.284942
0.101723 0.959526 0.204955
0.184373 0.959526 0.204955
0.246589 0.959526 0.204955
0.305792 0.959526 0.204955
0.364287 0.959526 0.204955
0.422817 0.959526 0.204955
0.481530 0.959526 0.204955
0.540615 0.959526 0.204955
0.600184 0.959526 0.204955
0.660116 0.959526 0.204955
0.720375 0.959526 0.204955
0.781086 0.959526 0.204955
0.842261 0.959526 0.204955
0.862464 0.917931 0.204955
0.054718 0.981428 0.290492
0.070841 0.981428 0.277881
0.101723 0.981428 0.204955
0.178871 0.981428 0.204955
0.237853 0.981428 0.204955
0.294109 0.981428 0.204955
0.349703 0.981428 0.204955
0.405301 0.981428 0.204955
0.461133 0.981428 0.204955
0.517356 0.981428 0.204955
0.573929 0.981428 0.204955
0.630908 0.981428 0.204955
0.688179 0.981428 0.204955
0.745902 0.981428 0.204955
0.804153 0.981428 0.204955
0.862464 0.981428 0.204955
0.054718 0.056632 0.279914
0.083375 0.056632 0.279914
0.113006 0.056632 0.279914
0.143399 0.056632 0.279914
0.194523 0.056632 0.304615
0.254321 0.056632 0.325941
0.322222 0.056632 0.344968
0.397863 0.056632 0.362214
0.479284 0.056632 0.377361
0.557432 0.056632 0.386932
0.630087 0.056632 0.391842
0.696210 0.056632 0.393269
0.754737 0.056632 0.391759
0.804173 0.056632 0.387612
0.842261 0.056632 0.380749
0.862464 0.056632 0.370079
0.054718 0.093163 0.279914
0.070841 0.077299 0.279914
0.110578 0.077299 0.279914
0.143399 0.077299 0.279914
0.194523 0.077299 0.302337
0.254321 0.077299 0.322282
0.322222 0.077299 0.340305
0.397863 0.077299 0.356780
0.479284 0.077299 0.371282
0.557432 0.077299 0.380445
0.630087 0.077299 0.385172
0.696210 0.077299 0.386451
0.754737 0.077299 0.384932
0.804173 0.077299 0.380843
0.842261 0.077299 0.374151
0.862464 0.077299 0.363738
0.054718 0.130149 0.279914
0.070841 0.127136 0.279914
0.101723 0.116142 0.279914
0.143399 0.116142 0.279914
0.194523 0.116142 0.294271
0.254321 0.116142 0.308198
0.322222 0.116142 0.321483
0.397863 0.116142 0.334091
0.479284 0.116142 0.345426
0.557432 0.116142 0.352536
0.630087 0.116142 0.356101
0.696210 0.116142 0.356936
0.754737 0.116142 0.355485
0.804173 0.116142 0.352005
0.842261 0.116142 0.346365
0.862464 0.116142 0.337778
0.054718 0.167438 0.279914
0.070841 0.167438 0.279914
0.101723 0.167438 0.279914
0.143399 0.167438 0.279914
0.194523 0.167438 0.279914
0.254321 0.167438 0.279914
0.322222 0.167438 0.279914
0.397863 0.167438 0.279914
0.479284 0.167438 0.279914
0.557432 0.167438 0.279914
0.630087 0.167438 0.279914
0.696210 0.167438 0.279914
0.754737 0.167438 0.279914
0.804173 0.167438 0.279914
0.842261 0.167438 0.279914
0.862464 0.167438 0.279914
0.054718 0.229111 0.304615
0.070841 0.229111 0.302337
0.101723 0.229111 0.294271
0.143399 0.229111 0.279914
0.194523 0.229111 0.279914
0.254321 0.238688 0.279914
0.322222 0.248467 0.279914
0.397863 0.258239 0.279914
0.479284 0.267326 0.279914
0.557432 0.272967 0.279914
0.630087 0.275618 0.279914
0.696210 0.275961 0.279914
0.754737 0.274413 0.279914
0.804173 0.271099 0.279914
0.842261 0.266021 0.279914
0.862464 0.258491 0.279914
0.054718 0.299956 0.325941
0.070841 0.299956 0.322282
0.101723 0.299956 0.308198
0.143399 0.299956 0.279914
0.202552 0.299956 0.279914
0.254321 0.299956 0.279914
0.322222 0.315826 0.279914
0.397863 0.331472 0.279914
0.479284 0.345855 0.279914
0.557432 0.354742 0.279914
0.630087 0.358887 0.279914
0.696210 0.359444 0.279914
0.754737 0.357006 0.279914
0.804173 0.351804 0.279914
0.842261 0.343783 0.279914
0.862464 0.331854 0.279914
0.054718 0.379135 0.344968
0.070841 0.379135 0.340305
0.101723 0.379135 0.321483
0.143399 0.379135 0.279914
0.210776 0.379135 0.279914
0.267865 0.379135 0.279914
0.322222 0.379135 0.279914
0.397863 0.399782 0.279914
0.479284 0.418713 0.279914
0.557432 0.430306 0.279914
0.630087 0.435784 0.279914
0.696210 0.436503 0.279914
0.754737 0.433313 0.279914
0.804173 0.426495 0.279914
0.842261 0.416018 0.279914
0.862464 0.400220 0.279914
0.054718 0.465993 0.362214
0.070841 0.465993 0.356780
0.101723 0.465993 0.334091
0.143399 0.465993 0.279914
0.218993 0.465993 0.279914
0.281245 0.465993 0.279914
0.340105 0.465993 0.279914
0.397863 0.465993 0.279914
