LUT color transfer/LUTs/23.cube
LUT_3D_SIZE 6
0.054718 0.056632 0.103822
0.143399 0.056632 0.103822
0.322222 0.056632 0.103822
0.557432 0.056632 0.103822
0.754737 0.056632 0.103822
0.862464 0.056632 0.103822
0.054718 0.167438 0.103822
0.143399 0.167438 0.103822
0.322222 0.215882 0.103822
0.557432 0.248790 0.103822
0.754737 0.252680 0.103822
0.862464 0.235439 0.103822
0.054718 0.379135 0.103822
0.183469 0.379135 0.103822
0.322222 0.379135 0.103822
0.557432 0.446048 0.103822
0.754737 0.453966 0.103822
0.862464 0.418886 0.103822
0.054718 0.646061 0.103822
0.211037 0.646061 0.103822
0.380405 0.646061 0.103822
0.557432 0.646061 0.103822
0.754737 0.658045 0.103822
0.862464 0.604817 0.103822
0.054718 0.864015 0.103822
0.214296 0.864015 0.103822
0.387309 0.864015 0.103822
0.568199 0.864015 0.103822
0.754737 0.864015 0.103822
0.862464 0.792509 0.103822
0.054718 0.981428 0.103822
0.199795 0.981428 0.103822
0.356694 0.981428 0.103822
0.520595 0.981428 0.103822
0.689534 0.981428 0.103822
0.862464 0.981428 0.103822
0.054718 0.056632 0.279914
0.143399 0.056632 0.279914
0.322222 0.056632 0.344968
0.557432 0.056632 0.386932
0.754737 0.056632 0.391759
0.862464 0.056632 0.370079
0.054718 0.167438 0.279914
0.143399 0.167438 0.279914
0.322222 0.167438 0.279914
0.557432 0.167438 0.279914
0.754737 0.167438 0.279914
0.862464 0.167438 0.279914
0.054718 0.379135 0.344968
0.143399 0.379135 0.279914
0.322222 0.379135 0.279914
0.557432 0.430306 0.279914
0.754737 0.433313 0.279914
0.862464 0.400220 0.279914
0.054718 0.646061 0.386932
0.143399 0.646061 0.279914
0.366692 0.646061 0.279914
0.557432 0.646061 0.279914
0.754737 0.650990 0.279914
0.862464 0.596525 0.279914
0.054718 0.864015 0.391759
0.143399 0.864015 0.279914
0.369286 0.864015 0.279914
0.561857 0.864015 0.279914
0.754737 0.864015 0.279914
0.862464 0.789222 0.279914
0.054718 0.981428 0.370079
0.143399 0.981428 0.279914
0.340537 0.981428 0.279914
0.513225 0.981428 0.279914
0.686616 0.981428 0.279914
0.862464 0.981428 0.279914
0.054718 0.056632 0.540590
0.183469 0.056632 0.540590
0.322222 0.056632 0.540590
0.557432 0.056632 0.613934
0.754737 0.056632 0.622416
0.862464 0.056632 0.584496
0.054718 0.215882 0.540590
0.143399 0.167438 0.540590
0.322222 0.167438 0.540590
0.557432 0.167438 0.596949
0.754737 0.167438 0.600211
0.862464 0.167438 0.564107
0.054718 0.379135 0.540590
0.143399 0.379135 0.540590
0.322222 0.379135 0.540590
0.557432 0.379135 0.540590
0.754737 0.379135 0.540590
0.862464 0.379135 0.540590
0.054718 0.646061 0.613934
0.143399 0.646061 0.596949
0.322222 0.646061 0.540590
0.557432 0.646061 0.540590
0.754737 0.634275 0.540590
0.862464 0.587639 0.540590
0.054718 0.864015 0.622416
0.143399 0.864015 0.600211
0.322222 0.864015 0.540590
0.546927 0.864015 0.540590
0.754737 0.864015 0.540590
0.862464 0.785719 0.540590
0.054718 0.981428 0.584496
0.143399 0.981428 0.564107
0.322222 0.981428 0.540590
0.505315 0.981428 0.540590
0.683497 0.981428 0.540590
0.862464 0.981428 0.540590
0.054718 0.056632 0.817988
0.211037 0.056632 0.817988
0.380405 0.056632 0.817988
0.557432 0.056632 0.817988
0.754737 0.056632 0.829678
0.862464 0.056632 0.777358
0.054718 0.248790 0.817988
0.143399 0.167438 0.817988
0.366692 0.167438 0.817988
0.557432 0.167438 0.817988
0.754737 0.167438 0.822782
0.862464 0.167438 0.769162
0.054718 0.446048 0.817988
0.143399 0.430306 0.817988
0.322222 0.379135 0.817988
0.557432 0.379135 0.817988
0.754737 0.379135 0.806489
0.862464 0.379135 0.760358
0.054718 0.646061 0.817988
0.143399 0.646061 0.817988
0.322222 0.646061 0.817988
0.557432 0.646061 0.817988
0.754737 0.646061 0.817988
0.862464 0.646061 0.817988
0.054718 0.864015 0.829678
0.143399 0.864015 0.822782
0.322222 0.864015 0.806489
0.557432 0.864015 0.817988
0.754737 0.864015 0.817988
0.862464 0.809325 0.817988
0.054718 0.981428 0.777358
0.143399 0.981428 0.769162
0.322222 0.981428 0.760358
0.557432 0.981428 0.817988
0.704916 0.981428 0.817988
0.862464 0.981428 0.817988
0.054718 0.056632 1.040160
0.214296 0.056632 1.040160
0.387309 0.056632 1.040160
0.568199 0.056632 1.040160
0.754737 0.056632 1.040160
0.862464 0.056632 0.957035
0.054718 0.252680 1.040160
0.143399 0.167438 1.040160
0.369286 0.167438 1.040160
0.561857 0.167438 1.040160
0.754737 0.167438 1.040160
0.862464 0.167438 0.954027
0.054718 0.453966 1.040160
0.143399 0.433313 1.040160
0.322222 0.379135 1.040160
0.546927 0.379135 1.040160
0.754737 0.379135 1.040160
0.862464 0.379135 0.950898
0.054718 0.658045 1.040160
0.143399 0.650990 1.040160
0.322222 0.634275 1.040160
0.557432 0.646061 1.040160
0.754737 0.646061 1.040160
0.862464 0.646061 0.972631
0.054718 0.864015 1.040160
0.143399 0.864015 1.040160
0.322222 0.864015 1.040160
0.557432 0.864015 1.040160
0.754737 0.864015 1.040160
0.862464 0.864015 1.040160
0.054718 0.981428 0.957035
0.143399 0.981428 0.954027
0.322222 0.981428 0.950898
0.557432 0.981428 0.972631
0.754737 0.981428 1.040160
0.862464 0.981428 1.040160
0.054718 0.056632 1.193053
0.199795 0.056632 1.193053
0.356694 0.056632 1.193053
0.520595 0.056632 1.193053
0.689534 0.056632 1.193053
0.862464 0.056632 1.193053
0.054718 0.235439 1.193053
0.143399 0.167438 1.193053
0.340537 0.167438 1.193053
0.513225 0.167438 1.193053
0.686616 0.167438 1.193053
0.862464 0.167438 1.193053
0.054718 0.418886 1.193053
0.143399 0.400220 1.193053
0.322222 0.379135 1.193053
0.505315 0.379135 1.193053
0.683497 0.379135 1.193053
0.862464 0.379135 1.193053
0.054718 0.604817 1.193053
0.143399 0.596525 1.193053
0.322222 0.587639 1.193053
0.557432 0.646061 1.193053
0.704916 0.646061 1.193053
0.862464 0.646061 1.193053
0.054718 0.792509 1.193053
0.143399 0.789222 1.193053
0.322222 0.785719 1.193053
0.557432 0.809325 1.193053
0.754737 0.864015 1.193053
0.862464 0.864015 1.193053
0.054718 0.981428 1.193053
0.143399 0.981428 1.193053
0.322222 0.981428 1.193053
0.557432 0.981428 1.193053
0.754737 0.981428 1.193053
0.862464 0.981428 1.193053
