LUT color transfer/LUTs/24.cube
TITLE "Generate by Resolve"
LUT_3D_SIZE 33
0.0454261 0.0465705 0.0466926
0.0429999 0.0436103 0.0435798
0.0434424 0.0434882 0.0433051
0.0437781 0.0436866 0.0434272
0.0436866 0.0432898 0.0430457
0.0424659 0.0415961 0.0414435
0.0442054 0.0427863 0.0423133
0.0485389 0.0452888 0.0446174
0.0601968 0.0504768 0.0508431
0.0852522 0.0659495 0.0664988
0.121126 0.0864729 0.0866255
0.162417 0.106691 0.106691
0.199115 0.122255 0.122255
0.2327 0.134905 0.134905
0.264607 0.145754 0.145754
0.291081 0.154025 0.154025
0.311406 0.159991 0.159991
0.329046 0.16492 0.16492
0.345266 0.169268 0.169268
0.36022 0.173129 0.173129
0.373175 0.176364 0.176364
0.384573 0.179141 0.179156
0.393408 0.181262 0.181262
0.399451 0.182681 0.182681
0.404227 0.18378 0.183795
0.407919 0.184634 0.184634
0.410407 0.185214 0.185214
0.412421 0.185672 0.185672
0.413977 0.186023 0.186023
0.415198 0.186297 0.186297
0.416114 0.186496 0.186496
0.41677 0.186648 0.186648
0.417365 0.186786 0.186786
0.046128 0.0474098 0.0473335
0.0442359 0.0450904 0.0449073
0.0441901 0.0445411 0.0442054
0.0449989 0.0451209 0.0446937
0.0456855 0.0454719 0.0449989
0.0448768 0.0441596 0.0437629
0.0443122 0.0429236 0.0424964
0.0481117 0.0451362 0.04448
0.0596323 0.0502022 0.0505226
0.085832 0.0663157 0.0668498
0.121706 0.0867781 0.0869306
0.162844 0.106889 0.106889
0.199435 0.122377 0.122377
0.233219 0.135088 0.135088
0.265003 0.145876 0.145876
0.291218 0.15407 0.15407
0.311467 0.160006 0.160006
0.329046 0.16492 0.16492
0.345266 0.169268 0.169268
0.360357 0.173159 0.173159
0.373175 0.176364 0.176364
0.384543 0.179141 0.179141
0.393362 0.181247 0.181247
0.399405 0.182666 0.182666
0.404196 0.18378 0.18378
0.407874 0.184634 0.184634
0.410376 0.185199 0.185199
0.412406 0.185657 0.185672
0.413962 0.186023 0.186023
0.415198 0.186297 0.186297
0.416114 0.186511 0.186511
0.41677 0.186648 0.186648
0.41738 0.186786 0.186786
0.0473335 0.0487984 0.0482948
0.0459449 0.0471046 0.04654
0.0449989 0.0458534 0.045243
0.0461128 0.0466621 0.0459754
0.047837 0.0479286 0.0471046
0.0487678 0.0483101 0.0474098
0.0485542 0.0473335 0.0464332
0.0479286 0.0452735 0.0445411
0.0563821 0.0485084 0.0486305
0.0852827 0.06598 0.0665141
0.122942 0.0874342 0.0875715
0.163943 0.107378 0.107378
0.200656 0.122866 0.122866
0.23418 0.135424 0.135424
0.265797 0.146136 0.146136
0.291829 0.154253 0.154253
0.312001 0.160159 0.160159
0.329519 0.165042 0.165042
0.345846 0.169406 0.169421
0.360616 0.17322 0.173236
0.373419 0.176425 0.176425
0.38471 0.179187 0.179187
0.393484 0.181277 0.181277
0.399542 0.182696 0.182696
0.404288 0.183795 0.183795
0.40795 0.184649 0.184649
0.410452 0.185214 0.185214
0.412467 0.185672 0.185672
0.414038 0.186038 0.186038
0.415274 0.186313 0.186313
0.416175 0.186511 0.186526
0.416831 0.186664 0.186664
0.417426 0.186801 0.186801
0.048127 0.0497597 0.0484474
0.0475319 0.0488441 0.0474861
0.0462043 0.0472267 0.0459449
0.0462959 0.0472877 0.0461433
0.0494087 0.0499275 0.0485695
0.0529641 0.0527199 0.0510262
0.0548562 0.0537118 0.0518349
0.0562905 0.0534829 0.0515755
0.0589609 0.0517891 0.0511635
0.0757458 0.0600443 0.0606546
0.118273 0.084947 0.0851301
0.165301 0.107988 0.107988
0.201617 0.123247 0.123247
0.235233 0.135805 0.135805
0.266667 0.146426 0.146426
0.2925 0.154452 0.154452
0.312718 0.160357 0.160357
0.330205 0.16524 0.16524
0.346273 0.169528 0.169528
0.360983 0.173312 0.173327
0.373739 0.176501 0.176501
0.38497 0.179248 0.179248
0.393713 0.181323 0.181323
0.39968 0.182727 0.182727
0.40441 0.183825 0.183825
0.408072 0.18468 0.18468
0.410544 0.185245 0.185245
0.412543 0.185687 0.185702
0.41413 0.186053 0.186053
0.415366 0.186328 0.186343
0.416251 0.186542 0.186542
0.416892 0.186679 0.186679
0.417517 0.186816 0.186816
0.0500801 0.0516213 0.0492256
0.0496529 0.0511025 0.0488136
0.0491188 0.0504463 0.048249
0.0483864 0.0496071 0.0475776
0.0505989 0.0517128 0.049546
0.0563668 0.0566567 0.0540169
0.0609751 0.0600748 0.0570077
0.0652781 0.0624399 0.059205
0.0728161 0.0653086 0.0624857
0.082887 0.0664225 0.0654459
0.105074 0.0776532 0.0777752
0.153903 0.10277 0.1028
0.202502 0.123583 0.123598
0.236027 0.13608 0.13608
0.26746 0.14667 0.14667
0.293309 0.154696 0.154696
0.313313 0.160525 0.16054
0.330739 0.165377 0.165377
0.346746 0.16965 0.16965
0.361379 0.173419 0.173419
0.37406 0.176593 0.176593
0.385336 0.179324 0.179339
0.393896 0.181369 0.181369
0.399863 0.182773 0.182773
0.404547 0.183856 0.183856
0.408194 0.184695 0.184695
0.410666 0.18526 0.185275
0.412665 0.185718 0.185718
0.414221 0.186084 0.186084
0.415457 0.186358 0.186358
0.416327 0.186557 0.186557
0.416983 0.186694 0.186694
0.417609 0.186847 0.186847
0.0567178 0.0608377 0.0565957
0.0559243 0.0596475 0.0556802
0.055314 0.0587625 0.0549783
0.0538186 0.0565652 0.053254
0.052903 0.0553292 0.0522621
0.0598001 0.0611734 0.0572824
0.0667277 0.0669261 0.0622721
0.0767224 0.0744335 0.0687877
0.0876326 0.0801709 0.0742809
0.105058 0.0864424 0.0817731
0.116472 0.0855726 0.0846571
0.147829 0.0999008 0.0999008
0.184619 0.11635 0.11635
0.233585 0.13521 0.135225
0.268162 0.146899 0.146899
0.293782 0.154833 0.154833
0.31368 0.160632 0.160632
0.331151 0.165484 0.165484
0.347127 0.169741 0.169757
0.361791 0.173526 0.173526
0.374411 0.176669 0.176669
0.385595 0.179385 0.1794
0.394064 0.181415 0.181415
0.4 0.182803 0.182803
0.404669 0.183886 0.183886
0.408316 0.184726 0.184726
0.410773 0.18529 0.18529
0.412757 0.185748 0.185748
0.414313 0.186099 0.186099
0.415534 0.186374 0.186374
0.416403 0.186572 0.186572
0.417075 0.186725 0.186725
0.41767 0.186862 0.186862
0.0734874 0.0834058 0.0738994
0.072282 0.0818341 0.0727245
0.0726329 0.0822766 0.0730602
0.0713359 0.0805829 0.071809
0.0661784 0.0737926 0.0666361
0.0655222 0.0718395 0.0646372
0.076997 0.0811933 0.0724956
0.0897536 0.0905318 0.0805219
0.103517 0.0982528 0.087541
0.127794 0.10956 0.0986801
0.154147 0.117357 0.108568
0.166873 0.111376 0.109667
0.194812 0.120531 0.120531
0.21384 0.127962 0.127962
0.258656 0.143801 0.143801
0.294286 0.154986 0.154986
0.314061 0.160739 0.160739
0.331487 0.165576 0.165576
0.347601 0.169879 0.169879
0.362112 0.173602 0.173602
0.374701 0.176745 0.176745
0.38584 0.179461 0.179461
0.394247 0.181445 0.18146
0.400153 0.182834 0.182849
0.404852 0.183932 0.183932
0.408423 0.184756 0.184756
0.410864 0.185306 0.185306
0.412848 0.185763 0.185763
0.414405 0.186114 0.186114
0.415656 0.186404 0.186404
0.41651 0.186587 0.186587
0.417151 0.18674 0.18674
0.417746 0.186877 0.186877
0.0934462 0.110674 0.0934768
0.0926223 0.109499 0.0926528
0.0934005 0.110597 0.0934157
0.095079 0.113039 0.0951095
0.0949721 0.112871 0.0950027
0.0861524 0.10042 0.0862898
0.0908827 0.106386 0.0904707
0.106722 0.11931 0.100206
0.129717 0.132692 0.11075
0.154269 0.142306 0.119463
0.186633 0.151446 0.129442
0.220737 0.15729 0.138643
0.249989 0.155703 0.144747
0.24979 0.141787 0.141085
0.257298 0.143359 0.143359
0.279347 0.150439 0.150439
0.313985 0.160723 0.160723
0.332052 0.165728 0.165728
0.347936 0.16997 0.16997
0.362371 0.173678 0.173678
0.374975 0.176806 0.176822
0.386099 0.179522 0.179522
0.394446 0.181506 0.181506
0.400366 0.182895 0.182895
0.40499 0.183963 0.183963
0.40853 0.184771 0.184787
0.410971 0.185336 0.185336
0.412955 0.185794 0.185794
0.414527 0.186145 0.186145
0.415763 0.186419 0.186419
0.416587 0.186618 0.186618
0.417243 0.186755 0.186755
0.417853 0.186892 0.186892
0.116335 0.145785 0.116335
0.11606 0.145342 0.11606
0.117052 0.146975 0.117052
0.118944 0.150118 0.118944
0.121981 0.155261 0.121965
0.118807 0.149889 0.118807
0.114885 0.14342 0.114885
0.120729 0.15256 0.120424
0.152102 0.174197 0.134234
0.184024 0.18822 0.143832
0.225986 0.202365 0.154482
0.268864 0.210956 0.163333
0.31339 0.213748 0.171206
0.332845 0.196826 0.171344
0.327688 0.174594 0.166339
0.313497 0.160922 0.160647
0.3028 0.157504 0.157504
0.326665 0.164263 0.164263
0.348272 0.170047 0.170047
0.362722 0.173754 0.17377
0.375219 0.176867 0.176867
0.386358 0.179583 0.179583
0.394614 0.181537 0.181537
0.400504 0.182925 0.182925
0.405127 0.183993 0.183993
0.408652 0.184802 0.184802
0.411093 0.185367 0.185367
0.413077 0.185809 0.185809
0.414633 0.186175 0.186175
0.415854 0.18645 0.18645
0.416678 0.186633 0.186633
0.417319 0.18677 0.186786
0.417945 0.186923 0.186923
0.13846 0.185382 0.138445
0.138552 0.18558 0.138552
0.139651 0.187716 0.139635
0.14136 0.191135 0.14136
0.143679 0.195834 0.143679
0.145541 0.199664 0.145541
0.139544 0.187533 0.139544
0.146746 0.202213 0.146746
0.164569 0.221073 0.15581
0.208148 0.241733 0.166293
0.255985 0.258869 0.175402
0.309041 0.272328 0.183856
0.365225 0.281147 0.19176
0.411475 0.273594 0.196246
0.428168 0.249119 0.195453
0.414405 0.214099 0.189136
0.387503 0.185351 0.180545
0.354681 0.17171 0.17171
0.336065 0.166812 0.166812
0.362997 0.173831 0.173831
0.37554 0.176959 0.176959
0.386633 0.179644 0.179644
0.394797 0.181582 0.181582
0.400656 0.182956 0.182956
0.405249 0.184024 0.184024
0.408759 0.184833 0.184833
0.411215 0.185397 0.185397
0.413184 0.18584 0.18584
0.41474 0.186191 0.186191
0.415961 0.186465 0.186465
0.41677 0.186648 0.186648
0.417426 0.186801 0.186801
0.418036 0.186938 0.186938
0.155322 0.220996 0.155306
0.155688 0.221866 0.155688
0.156527 0.223804 0.156527
0.15761 0.226322 0.15761
0.159152 0.229984 0.159152
0.16051 0.233234 0.16051
0.158022 0.227268 0.158007
0.164019 0.241871 0.164019
0.176791 0.27071 0.174853
0.223377 0.299077 0.185229
0.275792 0.322316 0.193622
0.33904 0.342641 0.201724
0.402655 0.356649 0.20885
0.464576 0.35613 0.214069
0.506432 0.338598 0.216037
0.521263 0.307744 0.214633
0.512963 0.268223 0.210132
0.475959 0.223087 0.200992
0.424292 0.190875 0.188586
0.371466 0.175952 0.175952
0.372961 0.176318 0.176318
0.386831 0.17969 0.17969
0.394949 0.181613 0.181628
0.400793 0.182986 0.182986
0.405386 0.184054 0.184054
0.408865 0.184848 0.184863
0.411307 0.185412 0.185412
0.413275 0.185855 0.185855
0.414832 0.186221 0.186221
0.416037 0.186496 0.186496
0.416876 0.186679 0.186679
0.417517 0.186816 0.186816
0.418112 0.186954 0.186954
0.16759 0.251026 0.167575
0.167956 0.251987 0.167956
0.168688 0.253925 0.168688
0.169604 0.256367 0.169604
0.170871 0.25977 0.170855
0.172061 0.26302 0.172045
0.172564 0.264424 0.172564
0.17261 0.264546 0.17261
0.18407 0.29839 0.183993
0.224842 0.339742 0.196506
0.281331 0.372869 0.205875
0.35169 0.401556 0.214481
0.421317 0.421042 0.221653
0.492226 0.430747 0.227924
0.555077 0.429145 0.23267
0.592157 0.408347 0.233402
0.609171 0.374228 0.231373
0.606378 0.330999 0.227527
0.574899 0.279622 0.220096
0.505516 0.222827 0.20621
0.422629 0.188113 0.187991
0.38146 0.178393 0.178393
0.395132 0.181659 0.181659
0.401022 0.183047 0.183047
0.40557 0.1841 0.1841
0.409003 0.184894 0.184894
0.411444 0.185443 0.185443
0.413397 0.185885 0.185885
0.414954 0.186236 0.186236
0.416175 0.186511 0.186526
0.416968 0.186694 0.186694
0.417624 0.186847 0.186847
0.418204 0.186984 0.186984
0.177432 0.278294 0.177417
0.177798 0.279377 0.177783
0.178424 0.281224 0.178408
0.179126 0.28333 0.17911
0.180117 0.286305 0.180102
0.181018 0.289082 0.181018
0.18172 0.291234 0.18172
0.179019 0.282994 0.179004
0.190799 0.320729 0.190799
0.219135 0.367041 0.203464
0.277256 0.407065 0.213565
0.351156 0.4421 0.222751
0.425498 0.468025 0.230701
0.500832 0.486198 0.238041
0.573953 0.496178 0.244617
0.628656 0.493187 0.248478
0.665522 0.475349 0.249195
0.687449 0.445274 0.247593
0.689189 0.401404 0.243214
0.660853 0.341421 0.235386
0.586557 0.264057 0.221302
0.475212 0.200183 0.199237
0.394171 0.18143 0.181445
0.401205 0.183078 0.183093
0.405722 0.184131 0.184131
0.40914 0.184909 0.184924
0.411582 0.185473 0.185473
0.41352 0.185916 0.185916
0.415091 0.186267 0.186282
0.416281 0.186542 0.186542
0.417075 0.186725 0.186725
0.417716 0.186862 0.186862
0.418326 0.186999 0.186999
0.184909 0.301274 0.184894
0.185168 0.302129 0.185168
0.185565 0.303426 0.185565
0.186084 0.304967 0.186069
0.18674 0.307118 0.18674
0.18735 0.309102 0.187335
0.187854 0.310765 0.187839
0.187167 0.308537 0.187167
0.194507 0.333669 0.194491
0.212787 0.385977 0.208148
0.270436 0.433677 0.219425
0.34403 0.474418 0.229267
0.423194 0.506905 0.238224
0.500496 0.530922 0.246387
0.579034 0.547509 0.254108
0.644038 0.554437 0.260014
0.69099 0.548699 0.262791
0.72607 0.533425 0.263447
0.749554 0.508782 0.262119
0.754742 0.467247 0.25745
0.731197 0.400717 0.248188
0.659327 0.308309 0.233661
0.534905 0.220554 0.211292
0.419135 0.187182 0.187182
0.405158 0.183993 0.184009
0.409262 0.184939 0.184955
0.411734 0.185504 0.185504
0.413657 0.185946 0.185946
0.415213 0.186297 0.186297
0.416388 0.186572 0.186572
0.417182 0.18674 0.186755
0.417838 0.186892 0.186892
0.418448 0.18703 0.18703
0.189792 0.317281 0.189792
0.190021 0.318059 0.190021
0.190402 0.319341 0.190387
0.190753 0.320531 0.190738
0.191241 0.322225 0.191241
0.191699 0.323827 0.191699
0.192111 0.325246 0.192111
0.192462 0.326436 0.192447
0.195224 0.336233 0.195209
0.209918 0.392432 0.209735
0.261509 0.448844 0.222751
0.333059 0.495171 0.233417
0.416297 0.534539 0.243626
0.496437 0.564569 0.252857
0.578347 0.587198 0.261723
0.650065 0.601526 0.268818
0.704082 0.605997 0.273335
0.746395 0.599619 0.275517
0.779324 0.585367 0.276097
0.800778 0.560891 0.274495
0.804791 0.518532 0.269276
0.785519 0.451667 0.259251
0.723644 0.355016 0.244541
0.610727 0.256779 0.225055
0.488716 0.202228 0.201907
0.409339 0.184955 0.18497
0.411322 0.185412 0.185412
0.413825 0.185977 0.185992
0.415381 0.186343 0.186343
0.416526 0.186603 0.186603
0.417319 0.18677 0.186786
0.41799 0.186923 0.186923
0.418585 0.18706 0.18706
0.19353 0.330205 0.193515
0.193774 0.331075 0.193774
0.194064 0.332113 0.194064
0.194354 0.33315 0.194354
0.194766 0.3346 0.194751
0.195163 0.336019 0.195148
0.195499 0.337255 0.195499
0.195804 0.338338 0.195789
0.194507 0.333654 0.194491
0.209644 0.391989 0.209613
0.249928 0.455497 0.224216
0.320363 0.505669 0.235492
0.406012 0.549828 0.246509
0.487617 0.583642 0.256443
0.570962 0.610895 0.265965
0.646876 0.630869 0.273945
0.70721 0.643275 0.279973
0.756359 0.649149 0.284413
0.796323 0.645335 0.286854
0.826154 0.631327 0.287083
0.843626 0.603265 0.284459
0.84593 0.559167 0.278721
0.831266 0.498054 0.269657
0.787381 0.413291 0.256352
0.70663 0.320272 0.240681
0.604898 0.248295 0.223987
0.518624 0.209369 0.207858
0.455222 0.195026 0.195026
0.426474 0.18883 0.18883
0.419242 0.187213 0.187213
0.42002 0.187381 0.187381
0.428168 0.189197 0.189197
0.438285 0.191409 0.191409
0.196658 0.341436 0.196643
0.196857 0.342168 0.196841
0.197116 0.34313 0.197116
0.197375 0.34406 0.19736
0.197711 0.345342 0.197711
0.198093 0.346731 0.198077
0.198367 0.347784 0.198367
0.198627 0.348714 0.198611
0.198459 0.348089 0.198444
0.208621 0.387839 0.208606
0.23711 0.45594 0.224353
0.305379 0.509987 0.236286
0.392706 0.558083 0.247959
0.476844 0.59585 0.25864
0.560662 0.626444 0.268544
0.639689 0.650111 0.277104
0.704692 0.666758 0.284031
0.756817 0.677775 0.289494
0.800824 0.682795 0.293645
0.837934 0.679469 0.296025
0.865599 0.665415 0.295979
0.880522 0.638636 0.293034
0.882887 0.59762 0.287404
0.87245 0.545129 0.279759
0.846906 0.483604 0.269902
0.802655 0.413169 0.258381
0.750271 0.3505 0.247807
0.693202 0.300557 0.238392
0.652415 0.27158 0.231754
0.629999 0.257679 0.228046
0.631662 0.257343 0.228473
0.652369 0.27068 0.232136
0.677485 0.2869 0.236133
0.199313 0.351293 0.199313
0.199496 0.351995 0.199496
0.199741 0.352895 0.199725
0.199969 0.353735 0.199954
0.20029 0.354971 0.200275
0.200595 0.356115 0.20058
0.200855 0.357137 0.200855
0.201083 0.358007 0.201083
0.201282 0.358785 0.201282
0.206958 0.381109 0.206958
0.226001 0.451164 0.223346
0.292241 0.511803 0.236606
0.378225 0.562768 0.248661
0.465568 0.604212 0.26006
0.550088 0.637583 0.270298
0.632105 0.66424 0.279362
0.700526 0.68368 0.286915
0.754589 0.697002 0.292927
0.800748 0.706264 0.298039
0.841398 0.709331 0.301839
0.874662 0.704677 0.303777
0.897978 0.691585 0.303426
0.911955 0.668925 0.300771
0.915953 0.635279 0.295888
0.910079 0.594415 0.289723
0.897444 0.554253 0.283467
0.881529 0.517098 0.277562
0.861265 0.48043 0.271443
0.84715 0.455985 0.267338
0.839216 0.443503 0.265339
0.845029 0.449607 0.266438
0.855268 0.462409 0.268849
0.867643 0.479088 0.272099
0.201663 0.36022 0.201648
0.201846 0.360922 0.201831
0.20206 0.361761 0.20206
0.202289 0.362646 0.202274
0.202564 0.363699 0.202548
0.202838 0.364736 0.202823
0.203082 0.365682 0.203067
0.203296 0.366522 0.203281
0.203494 0.36733 0.203494
0.203052 0.365621 0.203052
0.221714 0.443229 0.221576
0.279118 0.511437 0.2365
0.362509 0.564538 0.248753
0.453346 0.609583 0.260822
0.539544 0.645792 0.271504
0.623804 0.675013 0.28101
0.695552 0.696773 0.289128
0.751904 0.711971 0.295659
0.799695 0.7234 0.30135
0.842786 0.731289 0.306386
0.878569 0.731548 0.309499
0.905882 0.724971 0.310597
0.925399 0.712581 0.309957
0.938521 0.695308 0.307927
0.944808 0.673121 0.304662
0.943832 0.647196 0.300435
0.939757 0.623377 0.296574
0.934142 0.603052 0.293294
0.931151 0.590341 0.291356
0.92987 0.584527 0.290547
0.93373 0.588968 0.291524
0.940932 0.599832 0.293599
0.949096 0.612467 0.29601
0.203769 0.368383 0.203754
0.203967 0.369146 0.203952
0.204166 0.369955 0.20415
0.204349 0.370703 0.204349
0.204608 0.371679 0.204593
0.204852 0.372656 0.204837
0.205081 0.373556 0.205066
0.205295 0.374411 0.20528
0.205463 0.375067 0.205447
0.205097 0.373648 0.205097
0.219593 0.434379 0.219577
0.266331 0.509194 0.236027
0.347951 0.564492 0.248554
0.441749 0.612909 0.261189
0.528939 0.651118 0.272175
0.614969 0.682689 0.282094
0.689952 0.706783 0.290761
0.748928 0.723796 0.297841
0.798184 0.736706 0.304006
0.842527 0.746944 0.309712
0.881224 0.752071 0.314153
0.91107 0.749737 0.31635
0.932616 0.742351 0.316777
0.948638 0.731701 0.316091
0.960296 0.720256 0.3149
0.966903 0.707088 0.312993
0.970138 0.694118 0.310903
0.970855 0.682857 0.308965
0.972274 0.676127 0.307942
0.973892 0.674006 0.307759
0.978317 0.679606 0.309148
0.982177 0.686854 0.310903
0.984039 0.693385 0.312535
0.205676 0.375921 0.205661
0.205829 0.376577 0.205829
0.206012 0.37731 0.206012
0.206195 0.377997 0.20618
0.206409 0.378851 0.206394
0.206638 0.379767 0.206622
0.206851 0.380652 0.206836
0.207034 0.381415 0.207034
0.207187 0.38201 0.207172
0.207309 0.382528 0.207309
0.217899 0.427039 0.217884
0.25539 0.506127 0.235401
0.335271 0.563714 0.248234
0.430884 0.614527 0.26125
0.519661 0.654856 0.272602
0.606989 0.68835 0.282856
0.684245 0.714168 0.29192
0.746242 0.733059 0.29958
0.79649 0.74696 0.306096
0.84152 0.758267 0.312154
0.882811 0.767071 0.317693
0.914641 0.768734 0.320989
0.937469 0.764782 0.32224
0.955245 0.758297 0.322515
0.968566 0.750744 0.322179
0.978103 0.743206 0.321508
0.984039 0.73611 0.320668
0.986374 0.730327 0.319844
0.988281 0.727184 0.319554
0.988846 0.727275 0.319905
0.989181 0.729976 0.32079
0.989456 0.734066 0.321981
0.989746 0.738796 0.323323
0.20734 0.38265 0.20734
0.207492 0.383215 0.207477
0.20766 0.383902 0.207645
0.207797 0.384497 0.207797
0.207996 0.385306 0.207996
0.208194 0.386084 0.208179
0.208377 0.386816 0.208362
0.20853 0.387472 0.20853
0.208682 0.388083 0.208667
0.208804 0.388602 0.208789
0.216007 0.41886 0.215991
0.244648 0.500679 0.234257
0.323964 0.56231 0.247837
0.420432 0.615091 0.261128
0.511284 0.657359 0.272847
0.599359 0.692317 0.283314
0.679225 0.719829 0.29279
0.743191 0.739895 0.300832
0.794232 0.754498 0.307591
0.840085 0.766613 0.313939
0.88275 0.776883 0.319982
0.916075 0.78201 0.324239
0.940703 0.781415 0.326421
0.959594 0.778088 0.327489
0.974411 0.773846 0.327993
0.985183 0.769299 0.328054
0.990478 0.765072 0.327901
0.990784 0.761746 0.327703
0.990951 0.75993 0.327718
0.990951 0.75993 0.328069
0.991073 0.762036 0.328847
0.991241 0.765454 0.329931
0.99144 0.769192 0.33106
0.208804 0.388571 0.208789
0.208942 0.38912 0.208927
0.209079 0.389715 0.209064
0.209201 0.390249 0.209201
0.209369 0.390936 0.209369
0.209537 0.391562 0.209522
0.209689 0.392203 0.209674
0.209827 0.392767 0.209812
0.209949 0.393301 0.209934
0.210071 0.393805 0.210056
0.213016 0.406104 0.213001
0.235721 0.493278 0.232685
0.314336 0.560983 0.247471
0.411124 0.615228 0.260929
0.504479 0.659327 0.27303
0.593057 0.695277 0.283635
0.674403 0.723873 0.293355
0.74049 0.745098 0.301762
0.792294 0.760235 0.308736
0.838819 0.772869 0.315297
0.88217 0.783841 0.321599
0.916762 0.791379 0.326543
0.942657 0.793515 0.329488
0.962432 0.792615 0.331197
0.97818 0.790906 0.332357
0.988464 0.788876 0.333074
0.992279 0.786831 0.333486
0.992203 0.785122 0.333761
0.992157 0.784009 0.333974
0.992157 0.784146 0.334356
0.992248 0.78584 0.335058
0.99237 0.788418 0.335927
0.992493 0.791318 0.336843
0.210025 0.393637 0.210025
0.210163 0.394186 0.210163
0.210315 0.394797 0.2103
0.210437 0.395315 0.210422
0.210575 0.39588 0.210559
0.210712 0.39646 0.210712
0.210849 0.39704 0.210834
0.210986 0.397574 0.210971
0.211093 0.398077 0.211093
0.2112 0.398474 0.211185
0.21088 0.397147 0.210864
0.231434 0.485542 0.231006
0.306462 0.559075 0.247013
0.403098 0.614725 0.260624
0.498314 0.660243 0.27303
0.587427 0.697154 0.283787
0.670268 0.726787 0.293736
0.737713 0.74876 0.302388
0.790478 0.764462 0.309575
0.837751 0.777615 0.316335
0.880934 0.788754 0.322667
0.916579 0.797406 0.327993
0.943587 0.802243 0.331685
0.96408 0.803418 0.333944
0.979965 0.803296 0.335485
0.990433 0.802823 0.336629
0.99295 0.80177 0.337331
0.992935 0.80119 0.337942
0.99292 0.800961 0.338399
0.99295 0.801587 0.338918
0.993027 0.803143 0.33959
0.993103 0.805188 0.340307
0.993194 0.807279 0.340978
0.211154 0.398291 0.211139
0.211276 0.39881 0.211261
0.211398 0.399329 0.211383
0.211521 0.399802 0.211505
0.211643 0.400366 0.211643
0.21178 0.4009 0.211765
0.211917 0.401465 0.211902
0.212039 0.401984 0.212024
0.212146 0.402441 0.212131
0.212238 0.402853 0.212238
0.212329 0.403204 0.212314
0.229267 0.47718 0.22916
0.29955 0.55726 0.246601
0.395178 0.613626 0.260227
0.49221 0.660471 0.272892
0.581659 0.6981 0.283742
0.666087 0.728634 0.293904
0.73492 0.751293 0.30277
0.788815 0.767636 0.31017
0.836316 0.781048 0.317037
0.879606 0.792432 0.323445
0.91577 0.801511 0.328908
0.943481 0.807996 0.333074
0.964553 0.811231 0.335866
0.980774 0.812497 0.337789
0.991958 0.812985 0.339178
0.993439 0.812985 0.340185
0.993454 0.813291 0.341085
0.993454 0.813397 0.341588
0.9935 0.814374 0.342214
0.993561 0.815747 0.342809
0.993606 0.81709 0.343313
0.993683 0.81857 0.343832
0.212192 0.402625 0.212177
0.212299 0.403113 0.212299
0.212421 0.403616 0.212421
0.212528 0.404059 0.212512
0.21265 0.404578 0.21265
0.212787 0.405142 0.212772
0.212909 0.405646 0.212894
0.213016 0.406134 0.213016
0.213123 0.406561 0.213107
0.21323 0.406973 0.213214
0.213306 0.40734 0.213291
0.227771 0.470848 0.227756
0.292302 0.5552 0.246128
0.3879 0.612558 0.259846
0.4869 0.660594 0.272755
0.577081 0.698924 0.283726
0.662791 0.730159 0.294041
0.732677 0.753277 0.303059
0.787228 0.770031 0.310613
0.834928 0.783688 0.317556
0.878538 0.795361 0.324071
0.915221 0.804807 0.329671
0.943023 0.811856 0.333974
0.964294 0.816266 0.337072
0.980926 0.818418 0.339193
0.993652 0.81976 0.34081
0.993713 0.820432 0.342
0.993774 0.821073 0.342947
0.993805 0.821607 0.343587
0.993835 0.822553 0.344198
0.993896 0.823926 0.344793
0.993957 0.82533 0.345327
0.994003 0.82652 0.345769
0.213153 0.406699 0.213153
0.213275 0.407187 0.21326
0.213367 0.407599 0.213352
0.213443 0.407919 0.213428
0.213535 0.408331 0.213535
0.213626 0.408713 0.213626
0.213718 0.409094 0.213718
0.213809 0.409445 0.213794
0.213886 0.409781 0.21387
0.213947 0.410071 0.213947
0.214023 0.410376 0.214008
0.226505 0.46511 0.22649
0.284001 0.552407 0.245518
0.380362 0.611063 0.259373
0.481544 0.660365 0.272557
0.573068 0.699626 0.283711
0.659312 0.731197 0.294087
0.730083 0.754681 0.303197
0.785626 0.771923 0.310933
0.833631 0.785763 0.317952
0.877577 0.79765 0.324544
0.91458 0.807355 0.330236
0.942275 0.814633 0.334585
0.963928 0.819989 0.337926
0.980819 0.823163 0.340307
0.992752 0.824933 0.342016
0.993606 0.826001 0.343297
0.994018 0.826886 0.344274
0.994049 0.82768 0.344991
0.994095 0.828656 0.345632
0.994125 0.829709 0.346136
0.994186 0.830884 0.346609
