LUT color transfer/LUTs/24.cube
TITLE "Generate by Resolve"
LUT_3D_SIZE 9
0.0454261 0.0465705 0.0466926
0.0436866 0.0432898 0.0430457
0.0601968 0.0504768 0.0508431
0.199115 0.122255 0.122255
0.311406 0.159991 0.159991
0.373175 0.176364 0.176364
0.404227 0.18378 0.183795
0.413977 0.186023 0.186023
0.417365 0.186786 0.186786
0.0500801 0.0516213 0.0492256
0.0505989 0.0517128 0.049546
0.0728161 0.0653086 0.0624857
0.202502 0.123583 0.123598
0.313313 0.160525 0.16054
0.37406 0.176593 0.176593
0.404547 0.183856 0.183856
0.414221 0.186084 0.186084
0.417609 0.186847 0.186847
0.116335 0.145785 0.116335
0.121981 0.155261 0.121965
0.152102 0.174197 0.134234
0.31339 0.213748 0.171206
0.3028 0.157504 0.157504
0.375219 0.176867 0.176867
0.405127 0.183993 0.183993
0.414633 0.186175 0.186175
0.417945 0.186923 0.186923
0.177432 0.278294 0.177417
0.180117 0.286305 0.180102
0.190799 0.320729 0.190799
0.425498 0.468025 0.230701
0.665522 0.475349 0.249195
0.586557 0.264057 0.221302
0.405722 0.184131 0.184131
0.415091 0.186267 0.186282
0.418326 0.186999 0.186999
0.196658 0.341436 0.196643
0.197711 0.345342 0.197711
0.198459 0.348089 0.198444
0.392706 0.558083 0.247959
0.704692 0.666758 0.284031
0.865599 0.665415 0.295979
0.846906 0.483604 0.269902
0.652415 0.27158 0.231754
0.677485 0.2869 0.236133
0.205676 0.375921 0.205661
0.206409 0.378851 0.206394
0.207187 0.38201 0.207172
0.335271 0.563714 0.248234
0.684245 0.714168 0.29192
0.882811 0.767071 0.317693
0.968566 0.750744 0.322179
0.988281 0.727184 0.319554
0.989746 0.738796 0.323323
0.211154 0.398291 0.211139
0.211643 0.400366 0.211643
0.212146 0.402441 0.212131
0.29955 0.55726 0.246601
0.666087 0.728634 0.293904
0.879606 0.792432 0.323445
0.980774 0.812497 0.337789
0.993454 0.813397 0.341588
0.993683 0.81857 0.343832
0.214572 0.41268 0.214557
0.214893 0.414054 0.214878
0.215198 0.415381 0.215183
0.266896 0.544442 0.243793
0.653101 0.733028 0.294148
0.876387 0.801297 0.325353
0.980438 0.829343 0.341756
0.994385 0.836088 0.346944
0.994537 0.83975 0.348837
0.219623 0.434577 0.219608
0.22118 0.441382 0.221164
0.222736 0.44831 0.222721
0.237552 0.514733 0.237415
0.636927 0.73312 0.29337
0.872908 0.805585 0.326116
0.979248 0.834638 0.342916
0.994751 0.845304 0.34905
0.994904 0.849195 0.350973
0.0434577 0.0452735 0.0527962
0.0428473 0.0428168 0.047013
0.0649119 0.054139 0.0576944
0.199924 0.122576 0.122576
0.312184 0.160204 0.160204
0.373648 0.176486 0.176486
0.404456 0.183841 0.183841
0.414145 0.186053 0.186069
0.417502 0.186816 0.186816
0.0539101 0.0577096 0.0598459
0.0540932 0.0568246 0.0583505
0.0718853 0.0641642 0.065568
0.206424 0.125124 0.125124
0.31487 0.160967 0.160967
0.374899 0.176791 0.176791
0.404898 0.183932 0.183948
0.41445 0.18613 0.18613
0.417777 0.186877 0.186877
0.103319 0.125216 0.103319
0.107927 0.132265 0.108736
0.145998 0.162615 0.128023
0.28098 0.190326 0.160052
0.317845 0.161807 0.161807
0.376425 0.177172 0.177172
0.40557 0.1841 0.1841
0.414923 0.186236 0.186236
0.418173 0.186969 0.186969
0.179004 0.282979 0.179004
0.18172 0.291234 0.18172
0.185885 0.304204 0.185824
0.420813 0.427802 0.222858
0.66154 0.461357 0.246891
0.62829 0.294011 0.228717
0.406302 0.184268 0.184268
0.415457 0.186358 0.186358
0.418631 0.187076 0.187076
0.197253 0.343633 0.197253
0.198352 0.347707 0.198352
0.198062 0.346609 0.198047
0.412482 0.563622 0.249638
0.711666 0.659159 0.283085
0.873579 0.678355 0.298863
0.868055 0.515496 0.275883
0.714443 0.31516 0.241962
0.740383 0.334173 0.246036
0.206058 0.377462 0.206043
0.206821 0.38056 0.206821
0.207584 0.383581 0.207568
0.363455 0.581415 0.252476
0.699931 0.721248 0.294255
0.889311 0.771405 0.31928
0.972564 0.757473 0.324086
0.989609 0.73666 0.321981
0.990295 0.74786 0.325673
0.211398 0.399298 0.211383
0.211902 0.40145 0.211902
0.212406 0.403525 0.21239
0.328161 0.57702 0.251118
0.686137 0.736233 0.29659
0.886488 0.795239 0.324742
0.982986 0.814679 0.338552
0.993576 0.816297 0.342443
0.993774 0.821088 0.344549
0.214725 0.413336 0.21471
0.215045 0.414725 0.21503
0.215351 0.416068 0.215351
0.302998 0.57023 0.249485
0.675792 0.741115 0.297063
0.884016 0.803723 0.326619
0.983032 0.830701 0.342321
0.99443 0.837293 0.347402
0.994583 0.840818 0.349218
0.220356 0.437751 0.22034
0.221927 0.444724 0.221912
0.22359 0.452094 0.223575
0.256229 0.553689 0.245914
0.66244 0.742092 0.296559
0.881376 0.808103 0.327474
0.981979 0.835752 0.34345
0.994781 0.846021 0.349371
0.994934 0.849836 0.351247
0.071519 0.0675059 0.105196
0.0667582 0.0633555 0.0965286
0.103395 0.084947 0.131228
0.231754 0.136263 0.170764
0.312428 0.160281 0.160281
0.373648 0.176486 0.176486
0.404532 0.183856 0.183856
0.414206 0.186069 0.186069
0.417548 0.186831 0.186831
0.0670787 0.0694133 0.100069
0.06421 0.0669566 0.092607
0.0743725 0.0644694 0.0902876
0.251057 0.143893 0.19765
0.321553 0.162844 0.162951
0.375311 0.176898 0.176898
0.405066 0.183978 0.183978
0.414588 0.18616 0.18616
0.417884 0.186908 0.186908
0.120378 0.14873 0.163851
0.128939 0.163073 0.180652
0.142306 0.173129 0.183261
0.283055 0.185046 0.188907
0.306844 0.158694 0.159762
0.377234 0.177371 0.177371
0.405875 0.184161 0.184161
0.415122 0.186282 0.186282
0.418341 0.187015 0.187015
0.171206 0.2607 0.171206
0.178805 0.282017 0.19234
0.190875 0.320638 0.211093
0.410666 0.417227 0.220676
0.606973 0.393637 0.233204
0.620188 0.293538 0.227344
0.406714 0.18436 0.18436
0.415717 0.186419 0.186419
0.41886 0.187121 0.187121
0.19762 0.344961 0.197604
0.194461 0.333547 0.194461
0.202579 0.36376 0.202564
0.403693 0.555108 0.247608
0.696818 0.617914 0.274846
0.835248 0.607217 0.28423
0.884077 0.540673 0.280507
0.760723 0.355428 0.249531
0.78645 0.378393 0.254261
0.206332 0.378561 0.206317
0.207141 0.381811 0.207126
0.205509 0.37528 0.205493
0.368994 0.584192 0.253193
0.699031 0.702892 0.290517
0.874388 0.72546 0.307866
0.974456 0.759426 0.324712
0.990066 0.744213 0.323949
0.990707 0.755306 0.327642
0.211582 0.400107 0.211582
0.212116 0.402304 0.2121
0.212619 0.404425 0.212604
0.350286 0.585351 0.253193
0.695521 0.735256 0.296895
0.886549 0.775326 0.319951
0.982544 0.802686 0.335576
0.993652 0.818189 0.343008
0.993881 0.823362 0.345205
0.214847 0.413855 0.214832
0.215167 0.415274 0.215167
0.215488 0.416617 0.215473
0.332219 0.589334 0.253895
0.693111 0.745037 0.298863
0.889876 0.797314 0.325551
0.984405 0.81944 0.339757
0.994278 0.833402 0.346578
0.994385 0.835889 0.348135
0.22092 0.440284 0.22092
0.222644 0.447898 0.222629
0.224277 0.455161 0.224262
0.292988 0.580011 0.251667
0.684138 0.749645 0.299351
0.888701 0.807218 0.327886
0.983581 0.829557 0.342184
0.994492 0.838926 0.347799
0.994583 0.840818 0.349203
0.0906081 0.0866712 0.153323
0.0935836 0.0870832 0.15201
0.133928 0.108949 0.20058
0.289296 0.162081 0.308248
0.383352 0.182208 0.299794
0.381506 0.178408 0.178485
0.404425 0.183825 0.183841
0.414176 0.186069 0.186069
0.417533 0.186816 0.186831
0.0891737 0.082948 0.141085
0.085771 0.0809033 0.137041
0.116258 0.0971389 0.167758
0.303929 0.16643 0.322026
0.396933 0.186114 0.325872
0.408988 0.185397 0.219318
0.405112 0.183993 0.183993
0.414618 0.18616 0.18616
0.417929 0.186908 0.186923
0.136019 0.163851 0.254246
0.143465 0.178149 0.270954
0.152651 0.185809 0.281147
0.28983 0.179126 0.303258
0.355734 0.175357 0.280766
0.432532 0.19176 0.2804
0.406043 0.184207 0.184207
0.415229 0.186297 0.186297
0.418433 0.18703 0.18703
0.191409 0.31281 0.347234
0.196658 0.330404 0.371069
0.203922 0.359335 0.3841
0.400885 0.432914 0.41387
0.610834 0.387427 0.3664
0.552483 0.23415 0.259739
0.412604 0.185702 0.185702
0.4159 0.18645 0.18645
0.419013 0.187152 0.187152
0.207843 0.383871 0.271992
0.214298 0.409354 0.328664
0.22031 0.435004 0.355108
0.364675 0.601251 0.376898
0.692927 0.649073 0.330922
0.823255 0.596521 0.282612
0.810452 0.441718 0.261234
0.775692 0.372595 0.252232
0.794827 0.388739 0.255528
0.207431 0.382971 0.207416
0.215244 0.415641 0.250156
0.222446 0.446311 0.317067
0.309209 0.650797 0.328756
0.695033 0.760983 0.308263
0.874281 0.765667 0.316625
0.943313 0.706828 0.310567
0.966445 0.679149 0.307851
0.978088 0.691569 0.311315
0.211719 0.400641 0.211704
0.217563 0.425574 0.217716
0.224826 0.457649 0.284901
0.281529 0.657557 0.30454
0.68632 0.801709 0.312093
0.885374 0.831952 0.333883
0.974166 0.808667 0.336187
0.991821 0.789425 0.334066
0.99295 0.801678 0.338033
0.214939 0.414237 0.214923
0.216388 0.420523 0.216388
0.227756 0.471015 0.266773
0.273732 0.662608 0.292653
0.680659 0.821546 0.316503
0.886976 0.864591 0.342306
0.983795 0.857328 0.34873
0.994827 0.847181 0.348928
0.99527 0.85861 0.352468
0.221408 0.442374 0.221393
0.223194 0.450355 0.223194
0.232746 0.49337 0.23389
0.270756 0.659861 0.282353
0.67248 0.832746 0.31899
0.883741 0.883375 0.346792
0.983459 0.886183 0.355428
0.996155 0.882689 0.357504
0.996521 0.892866 0.360494
0.0991989 0.0991836 0.192905
0.0969406 0.09691 0.186038
0.138415 0.117952 0.238773
0.332753 0.178714 0.401923
0.437232 0.198642 0.430228
0.46923 0.202518 0.395468
0.430991 0.190051 0.209934
0.414054 0.186038 0.186038
0.417441 0.186801 0.186801
0.0935531 0.0935378 0.176043
0.0888991 0.088777 0.162417
0.138552 0.114977 0.224308
0.351247 0.183078 0.415732
0.449439 0.201373 0.443
0.480369 0.205325 0.417609
0.458457 0.197208 0.291951
0.419455 0.187259 0.187259
0.426062 0.188739 0.189014
0.138811 0.160723 0.287404
0.147005 0.176059 0.310048
0.154314 0.179644 0.323964
0.285298 0.169406 0.360815
0.396124 0.188876 0.383551
0.491783 0.208042 0.43743
0.479805 0.202945 0.354742
0.456001 0.195987 0.25539
0.464363 0.197986 0.274205
0.197665 0.317052 0.463905
0.20267 0.336507 0.481437
0.208972 0.362387 0.504036
0.395499 0.427146 0.58024
0.608087 0.374548 0.564218
0.563714 0.227619 0.445106
0.495949 0.207233 0.39884
0.481987 0.202884 0.338903
0.489723 0.204761 0.355596
0.223865 0.438361 0.49836
0.226886 0.450935 0.516793
0.231189 0.471 0.528313
0.328527 0.622095 0.593088
0.68188 0.658808 0.592432
0.814908 0.596689 0.536339
0.789593 0.415045 0.414725
0.680751 0.284535 0.33666
0.706096 0.301671 0.360815
0.231006 0.479286 0.442908
0.234745 0.493645 0.484047
0.237613 0.504494 0.514916
0.283101 0.70106 0.563943
0.679805 0.796368 0.563516
0.858412 0.795819 0.521813
0.933547 0.736584 0.412467
0.948104 0.693599 0.347753
0.959548 0.712535 0.370703
0.231434 0.48542 0.376745
0.237247 0.508721 0.445975
0.241215 0.523903 0.494713
0.28571 0.723644 0.543343
0.673259 0.851347 0.54818
0.871489 0.876814 0.518776
0.962905 0.860288 0.436576
0.989837 0.84538 0.389044
0.994339 0.857572 0.411048
0.231449 0.48719 0.325872
0.239643 0.521447 0.423682
0.244511 0.5402 0.486244
0.287724 0.732784 0.545251
0.669703 0.875608 0.554742
0.876738 0.913756 0.532219
0.972732 0.911208 0.467353
0.997101 0.906584 0.432334
0.997604 0.916182 0.45832
0.233783 0.498375 0.272358
0.244984 0.547189 0.403662
0.252384 0.576944 0.486671
0.288304 0.735073 0.552499
0.664408 0.888273 0.569177
0.874418 0.931823 0.555856
0.973312 0.937697 0.503792
0.99794 0.937728 0.478096
0.998566 0.945068 0.509575
0.116442 0.120073 0.241047
0.110018 0.111208 0.224643
0.113924 0.113283 0.238575
0.38117 0.194202 0.494881
0.527565 0.219135 0.558099
0.544442 0.219928 0.52491
0.517937 0.212924 0.454017
0.50164 0.20827 0.40058
0.508797 0.209903 0.413123
0.111894 0.113771 0.229389
0.10724 0.10753 0.2177
0.141161 0.125948 0.274449
0.410773 0.200046 0.51574
0.539147 0.22118 0.566995
0.559991 0.222934 0.54229
0.531075 0.215869 0.476463
0.517082 0.212177 0.438148
0.525277 0.213962 0.450767
0.143526 0.165209 0.31162
0.155825 0.1897 0.348028
0.15024 0.174731 0.334661
0.284672 0.1691 0.38883
0.450645 0.20322 0.473091
0.575692 0.225925 0.559869
0.546807 0.219226 0.500267
0.533257 0.21593 0.469368
0.542077 0.217777 0.481987
0.197238 0.305409 0.497444
0.202518 0.325734 0.518059
0.208408 0.348226 0.546868
0.385977 0.40766 0.655711
0.599954 0.355444 0.659144
0.573419 0.22678 0.540475
0.56408 0.222766 0.5243
0.55053 0.219669 0.497337
0.561395 0.221836 0.51136
0.22771 0.442069 0.592767
0.230488 0.455085 0.602762
0.233936 0.471672 0.612634
0.298894 0.616419 0.714809
0.672816 0.647379 0.745052
0.805386 0.578454 0.716701
0.78143 0.395727 0.62536
0.68365 0.272038 0.542992
0.703243 0.282628 0.565621
0.240925 0.510521 0.597864
0.242649 0.517372 0.610559
0.244144 0.5234 0.621363
0.288716 0.718196 0.712169
0.670497 0.805005 0.739101
0.847913 0.798016 0.719738
0.919753 0.733623 0.662211
0.932128 0.689876 0.632197
0.943008 0.707485 0.651713
0.245441 0.536049 0.575357
0.247578 0.543618 0.598749
0.249287 0.549737 0.616526
0.294697 0.75465 0.700648
0.665812 0.873121 0.730419
0.860807 0.895155 0.716686
0.949706 0.877745 0.667384
0.976638 0.864851 0.637705
0.985336 0.876173 0.657221
0.248386 0.552285 0.557626
0.251148 0.561868 0.591165
0.253391 0.569772 0.616144
0.297627 0.768261 0.698161
0.663661 0.902358 0.730175
0.867475 0.937194 0.721309
0.962219 0.937407 0.682414
0.990524 0.93434 0.661112
0.99704 0.941817 0.680308
0.254627 0.582528 0.54873
0.259281 0.599496 0.599084
0.262806 0.612161 0.632609
0.298665 0.772732 0.700862
0.660319 0.91664 0.736446
0.86714 0.957427 0.732448
0.964706 0.96463 0.700145
0.995651 0.965972 0.686946
0.998398 0.971725 0.707774
0.152438 0.18146 0.341039
0.152117 0.180774 0.340017
0.149844 0.175418 0.335027
0.399084 0.233066 0.56434
0.588922 0.241154 0.641688
0.63122 0.236728 0.634806
0.616724 0.233036 0.593805
0.586572 0.227054 0.550042
0.600961 0.229709 0.565682
0.152438 0.18146 0.341039
0.150866 0.178241 0.336217
0.155581 0.183154 0.361791
0.441688 0.240375 0.590387
0.599405 0.242924 0.647044
0.639231 0.238117 0.642329
0.630121 0.235508 0.609842
0.608988 0.231312 0.577508
0.624063 0.234058 0.594156
0.137453 0.151247 0.301732
0.167376 0.212436 0.394491
0.157794 0.187991 0.368292
0.294057 0.174289 0.423285
0.52723 0.219944 0.574411
0.647196 0.240009 0.649699
0.644541 0.238148 0.62707
0.631113 0.235431 0.604425
0.64622 0.238148 0.621286
0.201328 0.316564 0.527199
0.205219 0.33193 0.543709
0.208728 0.344976 0.562844
0.376364 0.401312 0.687114
0.597925 0.350942 0.703838
0.584756 0.229435 0.589151
0.654917 0.24004 0.639414
0.649989 0.238895 0.627359
0.661433 0.240909 0.639887
0.228305 0.437369 0.628763
0.231159 0.451225 0.638071
0.232609 0.458549 0.641169
0.298802 0.604074 0.771115
0.665461 0.630442 0.819471
0.79733 0.559304 0.801312
0.777249 0.382422 0.717296
0.689723 0.26775 0.62884
0.708446 0.277562 0.648585
0.244083 0.516518 0.661173
0.245533 0.52311 0.666636
0.246769 0.528634 0.671839
0.290135 0.717296 0.788022
0.66453 0.799542 0.834958
0.843107 0.791379 0.832654
0.912001 0.7205 0.801251
0.923461 0.675273 0.785229
0.934585 0.693797 0.799954
0.250553 0.549661 0.661418
0.251698 0.554177 0.669245
0.252766 0.558419 0.676478
0.298695 0.764721 0.78616
0.661479 0.879347 0.833997
0.855756 0.898772 0.834363
0.943999 0.880339 0.808759
0.969543 0.866148 0.794705
0.978408 0.877256 0.807492
0.254795 0.57116 0.657664
0.256229 0.576318 0.671031
0.257877 0.58262 0.682994
0.302754 0.78352 0.783886
0.659724 0.913252 0.83331
0.862394 0.947082 0.835737
0.955596 0.946609 0.814954
0.983627 0.94374 0.802274
0.992035 0.950805 0.815137
0.262928 0.608743 0.667048
0.26566 0.618753 0.688823
0.267872 0.627039 0.704936
0.304433 0.79089 0.785321
0.658732 0.930388 0.8365
0.862806 0.968765 0.841123
0.959319 0.976883 0.823026
0.989639 0.978225 0.815457
0.996674 0.982803 0.829084
0.152438 0.18146 0.341039
0.152438 0.18146 0.341039
0.152438 0.18146 0.341039
0.37322 0.263142 0.584146
0.618173 0.271778 0.682445
0.685771 0.269642 0.700404
0.685527 0.24979 0.67921
0.677943 0.244388 0.664164
0.688136 0.246372 0.674784
0.152438 0.18146 0.341039
0.152438 0.18146 0.341039
0.154467 0.184939 0.34902
0.426688 0.268345 0.611917
0.628214 0.27126 0.684932
0.689815 0.270268 0.70219
0.695872 0.256611 0.690272
0.687266 0.246632 0.675349
0.700771 0.253971 0.688838
0.174029 0.229023 0.41886
0.173861 0.227314 0.420813
0.167727 0.209781 0.403708
0.312367 0.188556 0.471275
0.583749 0.246311 0.647318
0.693797 0.271183 0.704234
0.70724 0.26424 0.702464
0.700938 0.255116 0.690318
0.713161 0.261357 0.702739
0.207004 0.337453 0.556588
0.210391 0.351644 0.571054
0.212192 0.358541 0.581491
0.369604 0.424247 0.71722
0.613703 0.380301 0.747326
0.618402 0.24831 0.642176
0.716304 0.271275 0.71191
0.713817 0.263264 0.704509
0.730983 0.277516 0.721752
0.230015 0.442527 0.64741
0.232715 0.45565 0.656474
0.232868 0.456703 0.655772
0.29662 0.598733 0.79501
0.662226 0.623896 0.854871
0.794507 0.552483 0.842725
0.781155 0.384192 0.764355
0.707347 0.276967 0.680827
0.728893 0.291844 0.702266
0.245441 0.518364 0.689845
0.247013 0.525887 0.693919
0.248356 0.53228 0.697765
0.289967 0.713664 0.823529
0.661524 0.793027 0.884276
0.839658 0.780789 0.890898
0.907256 0.708019 0.870314
0.917922 0.661616 0.857252
0.929458 0.681453 0.867628
0.252583 0.553918 0.698436
0.253559 0.558206 0.702403
0.254505 0.562341 0.706157
0.300175 0.766781 0.829389
0.659983 0.878035 0.88986
0.853895 0.897169 0.900191
0.940459 0.873793 0.887587
0.965026 0.859983 0.880476
0.973724 0.870619 0.889769
0.257298 0.576974 0.701976
0.258473 0.58172 0.708446
0.260044 0.588403 0.715648
0.305348 0.790158 0.830137
0.659419 0.917632 0.891035
0.86009 0.949294 0.902358
0.953185 0.948882 0.893904
0.980087 0.944671 0.886564
0.98854 0.950896 0.894255
0.266804 0.619806 0.721325
0.268757 0.627543 0.731807
0.270436 0.634348 0.740261
0.307515 0.79968 0.829938
0.659754 0.935866 0.892409
0.86125 0.973358 0.903685
0.956451 0.980987 0.896071
0.986099 0.982376 0.891844
0.993744 0.986633 0.900404
0.152438 0.18146 0.341039
0.152438 0.18146 0.341039
0.152438 0.18146 0.341039
0.314565 0.254688 0.548043
0.604623 0.272465 0.679026
0.684535 0.269841 0.700191
0.727962 0.285466 0.726833
0.743038 0.293828 0.738003
0.748272 0.296834 0.741863
0.152438 0.18146 0.341039
0.152438 0.18146 0.341039
0.152438 0.18146 0.341039
0.372976 0.263157 0.58407
0.619486 0.271733 0.682811
0.689235 0.270634 0.702327
0.729839 0.286488 0.728237
0.744289 0.294545 0.738918
0.749218 0.297383 0.74255
0.1626 0.202396 0.375692
0.177722 0.238865 0.432837
0.183215 0.254078 0.45539
0.362158 0.270527 0.590707
0.611505 0.272129 0.680781
0.693721 0.271672 0.704616
0.731914 0.287633 0.729778
0.745754 0.295384 0.740001
0.750301 0.298009 0.743343
0.20972 0.347616 0.57171
0.213016 0.361913 0.585702
0.213825 0.365667 0.588418
0.357015 0.451835 0.741436
0.63389 0.426673 0.790829
0.651194 0.266148 0.688792
0.733761 0.28864 0.731151
0.747311 0.296269 0.741146
0.751415 0.298665 0.744167
0.23125 0.447379 0.656291
0.233997 0.460685 0.665599
0.236469 0.472709 0.673793
0.291112 0.605158 0.809262
0.661402 0.631891 0.876356
0.797559 0.564202 0.869169
0.799939 0.413138 0.804578
0.754376 0.320333 0.744579
0.778302 0.345403 0.767681
0.246555 0.521889 0.702266
0.248264 0.530083 0.706767
0.249653 0.53669 0.710475
0.288823 0.710491 0.839261
0.658808 0.789334 0.909728
0.837537 0.77583 0.921645
0.904814 0.702235 0.906477
0.915938 0.657053 0.895766
0.927794 0.67834 0.904295
0.254154 0.55848 0.718502
0.255085 0.562753 0.720928
0.25594 0.566735 0.723323
0.300389 0.765393 0.849515
0.658961 0.8757 0.920104
0.852735 0.893095 0.936858
0.938125 0.869108 0.931502
0.961776 0.853483 0.927611
0.970581 0.864683 0.934356
0.258793 0.580728 0.725124
0.259998 0.585977 0.729488
0.261784 0.593729 0.735714
0.306462 0.792416 0.854078
0.660533 0.918395 0.924361
0.860212 0.949813 0.942367
0.951583 0.94728 0.939986
0.977951 0.942458 0.936843
0.986389 0.949294 0.941848
0.268894 0.62591 0.748119
0.270665 0.633326 0.755199
0.272206 0.639979 0.761532
0.309178 0.804074 0.855238
0.662135 0.938781 0.926436
0.861921 0.975631 0.943481
0.955642 0.982925 0.942016
0.984756 0.983993 0.940261
0.992187 0.987579 0.945693
