LUT color transfer/LUTs/24.cube
TITLE "Generate by Resolve"
LUT_3D_SIZE 5
0.0454261 0.0465705 0.0466926
0.0601968 0.0504768 0.0508431
0.311406 0.159991 0.159991
0.404227 0.18378 0.183795
0.417365 0.186786 0.186786
0.116335 0.145785 0.116335
0.152102 0.174197 0.134234
0.3028 0.157504 0.157504
0.405127 0.183993 0.183993
0.417945 0.186923 0.186923
0.196658 0.341436 0.196643
0.198459 0.348089 0.198444
0.704692 0.666758 0.284031
0.846906 0.483604 0.269902
0.677485 0.2869 0.236133
0.211154 0.398291 0.211139
0.212146 0.402441 0.212131
0.666087 0.728634 0.293904
0.980774 0.812497 0.337789
0.993683 0.81857 0.343832
0.219623 0.434577 0.219608
0.222736 0.44831 0.222721
0.636927 0.73312 0.29337
0.979248 0.834638 0.342916
0.994904 0.849195 0.350973
0.071519 0.0675059 0.105196
0.103395 0.084947 0.131228
0.312428 0.160281 0.160281
0.404532 0.183856 0.183856
0.417548 0.186831 0.186831
0.120378 0.14873 0.163851
0.142306 0.173129 0.183261
0.306844 0.158694 0.159762
0.405875 0.184161 0.184161
0.418341 0.187015 0.187015
0.19762 0.344961 0.197604
0.202579 0.36376 0.202564
0.696818 0.617914 0.274846
0.884077 0.540673 0.280507
0.78645 0.378393 0.254261
0.211582 0.400107 0.211582
0.212619 0.404425 0.212604
0.695521 0.735256 0.296895
0.982544 0.802686 0.335576
0.993881 0.823362 0.345205
0.22092 0.440284 0.22092
0.224277 0.455161 0.224262
0.684138 0.749645 0.299351
0.983581 0.829557 0.342184
0.994583 0.840818 0.349203
0.0991989 0.0991836 0.192905
0.138415 0.117952 0.238773
0.437232 0.198642 0.430228
0.430991 0.190051 0.209934
0.417441 0.186801 0.186801
0.138811 0.160723 0.287404
0.154314 0.179644 0.323964
0.396124 0.188876 0.383551
0.479805 0.202945 0.354742
0.464363 0.197986 0.274205
0.223865 0.438361 0.49836
0.231189 0.471 0.528313
0.68188 0.658808 0.592432
0.789593 0.415045 0.414725
0.706096 0.301671 0.360815
0.231434 0.48542 0.376745
0.241215 0.523903 0.494713
0.673259 0.851347 0.54818
0.962905 0.860288 0.436576
0.994339 0.857572 0.411048
0.233783 0.498375 0.272358
0.252384 0.576944 0.486671
0.664408 0.888273 0.569177
0.973312 0.937697 0.503792
0.998566 0.945068 0.509575
0.152438 0.18146 0.341039
0.149844 0.175418 0.335027
0.588922 0.241154 0.641688
0.616724 0.233036 0.593805
0.600961 0.229709 0.565682
0.137453 0.151247 0.301732
0.157794 0.187991 0.368292
0.52723 0.219944 0.574411
0.644541 0.238148 0.62707
0.64622 0.238148 0.621286
0.228305 0.437369 0.628763
0.232609 0.458549 0.641169
0.665461 0.630442 0.819471
0.777249 0.382422 0.717296
0.708446 0.277562 0.648585
0.250553 0.549661 0.661418
0.252766 0.558419 0.676478
0.661479 0.879347 0.833997
0.943999 0.880339 0.808759
0.978408 0.877256 0.807492
0.262928 0.608743 0.667048
0.267872 0.627039 0.704936
0.658732 0.930388 0.8365
0.959319 0.976883 0.823026
0.996674 0.982803 0.829084
0.152438 0.18146 0.341039
0.152438 0.18146 0.341039
0.604623 0.272465 0.679026
0.727962 0.285466 0.726833
0.748272 0.296834 0.741863
0.1626 0.202396 0.375692
0.183215 0.254078 0.45539
0.611505 0.272129 0.680781
0.731914 0.287633 0.729778
0.750301 0.298009 0.743343
0.23125 0.447379 0.656291
0.236469 0.472709 0.673793
0.661402 0.631891 0.876356
0.799939 0.413138 0.804578
0.778302 0.345403 0.767681
0.254154 0.55848 0.718502
0.25594 0.566735 0.723323
0.658961 0.8757 0.920104
0.938125 0.869108 0.931502
0.970581 0.864683 0.934356
0.268894 0.62591 0.748119
0.272206 0.639979 0.761532
0.662135 0.938781 0.926436
0.955642 0.982925 0.942016
0.992187 0.987579 0.945693
