LUT color transfer/LUTs/27.cube
# (C) 2014 VisionColor & Patchflyer [www.vision-color.com]
# Generator: VC Patchmatch v.2.1.1 [64/53]
# All work and no play makes Jack a dull boy.
# LUT generated from: Fuji Pro 400_VisionSpace
LUT_3D_SIZE 5
0.029999 0.029999 0.029999
0.275334 0.076143 0.078370
0.388556 0.113893 0.116121
0.464729 0.190707 0.162844
0.531304 0.227298 0.201511
0.207309 0.370275 0.164920
0.436713 0.455787 0.249699
0.595026 0.546258 0.322759
0.639155 0.530724 0.329625
0.644800 0.474128 0.311162
0.378882 0.592676 0.276280
0.587274 0.647852 0.356481
0.661555 0.668849 0.392309
0.706661 0.671717 0.409979
0.709316 0.646784 0.397650
0.470771 0.691798 0.333715
0.663844 0.717494 0.413275
0.709377 0.726528 0.435096
0.731746 0.733608 0.446021
0.738979 0.728389 0.447974
0.541527 0.738125 0.379187
0.699702 0.747189 0.444862
0.729580 0.750851 0.459968
0.744015 0.756313 0.467506
0.751003 0.766476 0.470375
0.036225 0.036225 0.125582
0.183688 0.062348 0.152010
0.333776 0.115053 0.204532
0.414893 0.145510 0.223728
0.475166 0.171603 0.246555
0.152010 0.266270 0.287327
0.332616 0.313146 0.322728
0.584985 0.258854 0.263706
0.598413 0.248234 0.233249
0.696773 0.327337 0.322026
0.265507 0.545617 0.400793
0.471443 0.653834 0.371893
0.672511 0.672877 0.442756
0.711727 0.632746 0.404639
0.725582 0.609277 0.452033
0.320897 0.685267 0.442603
0.533654 0.730220 0.392096
0.702358 0.742672 0.464179
0.749233 0.757198 0.502312
0.752438 0.732509 0.560815
0.355291 0.721981 0.485542
0.564416 0.748928 0.470069
0.684657 0.754452 0.509941
0.744961 0.771298 0.583337
0.763149 0.773800 0.605341
0.041810 0.042206 0.200839
0.152316 0.060578 0.186923
0.286168 0.105501 0.232853
0.373144 0.137392 0.263493
0.453864 0.169558 0.280430
0.153506 0.234195 0.366491
0.158480 0.169009 0.382727
0.408118 0.209018 0.384070
0.498787 0.205112 0.322148
0.646937 0.296483 0.400153
0.284611 0.507179 0.517174
0.355779 0.604242 0.597528
0.567437 0.576013 0.578027
0.675502 0.477195 0.488243
0.715419 0.550301 0.542763
0.380591 0.689235 0.610620
0.416266 0.723598 0.625055
0.604883 0.719203 0.591745
0.737942 0.744381 0.653223
0.753841 0.729152 0.675563
0.445991 0.742184 0.667262
0.440742 0.738552 0.627283
0.641230 0.751919 0.638972
0.744350 0.772824 0.688228
0.772915 0.782101 0.717189
0.046601 0.045747 0.240818
0.082063 0.048035 0.213077
0.199985 0.081239 0.241672
0.324742 0.126131 0.276616
0.448066 0.175387 0.316777
0.159976 0.237400 0.419959
0.088411 0.111910 0.329992
0.190753 0.124208 0.375341
0.435462 0.195132 0.389929
0.585840 0.278721 0.451789
0.295506 0.497673 0.576288
0.271672 0.433066 0.566430
0.298299 0.355673 0.596994
0.618952 0.444419 0.630884
0.701076 0.532937 0.630732
0.376928 0.662715 0.661128
0.410040 0.698238 0.700710
0.512001 0.709987 0.711543
0.700465 0.720882 0.717403
0.748959 0.723140 0.722530
0.438300 0.727321 0.707149
0.446967 0.735500 0.706783
0.597589 0.756374 0.722774
0.729519 0.768795 0.740719
0.783749 0.788357 0.767880
0.055512 0.061799 0.281407
0.062470 0.061402 0.286900
0.120241 0.071656 0.293278
0.250431 0.107881 0.307073
0.413092 0.165743 0.344244
0.167025 0.244694 0.450538
0.136629 0.184329 0.430488
0.196994 0.185519 0.523339
0.371191 0.232059 0.526940
0.553491 0.299199 0.548486
0.276005 0.438697 0.568780
0.250278 0.378622 0.561303
0.281712 0.369024 0.624903
0.509880 0.462165 0.678492
0.681239 0.513390 0.689784
0.353491 0.604425 0.653956
0.372900 0.622889 0.676875
0.485939 0.667384 0.719997
0.606500 0.664363 0.723659
0.740291 0.706020 0.741970
0.412940 0.702296 0.706691
0.451667 0.733394 0.728695
0.580926 0.757168 0.750332
0.710140 0.771634 0.765743
0.801816 0.801816 0.801816
