LUT color transfer/LUTs/27.cube
# (C) 2014 VisionColor & Patchflyer [www.vision-color.com]
# Generator: VC Patchmatch v.2.1.1 [64/53]
# All work and no play makes Jack a dull boy.
# LUT generated from: Fuji Pro 400_VisionSpace
LUT_3D_SIZE 17
0.029999 0.029999 0.029999
0.082002 0.034394 0.036194
0.141665 0.043458 0.046601
0.209628 0.058320 0.060731
0.275334 0.076143 0.078370
0.326635 0.090822 0.093843
0.355840 0.098726 0.103212
0.371679 0.103151 0.108553
0.388556 0.113893 0.116121
0.404028 0.125124 0.123537
0.424262 0.147158 0.136446
0.444862 0.169772 0.149844
0.464729 0.190707 0.162844
0.482582 0.206271 0.173556
0.498695 0.215366 0.182437
0.514733 0.223026 0.191531
0.531304 0.227298 0.201511
0.054414 0.101900 0.044862
0.110231 0.110750 0.058991
0.178378 0.128939 0.076051
0.240940 0.143587 0.093080
0.299168 0.164126 0.113893
0.350652 0.185367 0.134646
0.387060 0.199191 0.149416
0.412909 0.208865 0.160189
0.434089 0.219516 0.169741
0.455299 0.229984 0.178805
0.474800 0.244938 0.189456
0.491402 0.255039 0.197177
0.507744 0.268864 0.206699
0.521721 0.278996 0.214298
0.536492 0.288548 0.222202
0.551049 0.294957 0.228855
0.566491 0.298344 0.235233
0.107485 0.192233 0.084138
0.166018 0.206241 0.100649
0.229160 0.226413 0.121614
0.290227 0.248051 0.145357
0.347601 0.272892 0.168826
0.399390 0.299931 0.191653
0.442390 0.321477 0.210605
0.477974 0.339422 0.225437
0.499855 0.348638 0.234623
0.522210 0.359808 0.243534
0.536431 0.364141 0.248386
0.546532 0.359625 0.249912
0.556512 0.358526 0.251530
0.563592 0.353979 0.251835
0.573510 0.357305 0.255772
0.583520 0.359045 0.259281
0.594812 0.360388 0.263188
0.160403 0.283940 0.126101
0.227207 0.301671 0.148562
0.289097 0.326818 0.171878
0.341314 0.345830 0.191226
0.395850 0.372137 0.214511
0.449744 0.403296 0.238315
0.496773 0.432105 0.259464
0.535973 0.458167 0.277104
0.560449 0.468421 0.286229
0.583337 0.480476 0.295933
0.593317 0.475807 0.298009
0.601038 0.466651 0.297520
0.604334 0.449958 0.293614
0.606439 0.433753 0.288487
0.609766 0.423529 0.286168
0.614679 0.417517 0.285435
0.621149 0.414496 0.286198
0.207309 0.370275 0.164920
0.288548 0.391302 0.193454
0.353643 0.417884 0.217288
0.400061 0.439063 0.236301
0.436713 0.455787 0.249699
0.486397 0.484474 0.271733
0.532311 0.511162 0.292760
0.570092 0.534203 0.311925
0.595026 0.546258 0.322759
0.618616 0.557458 0.333410
0.628962 0.553887 0.335119
0.636622 0.545769 0.334447
0.639155 0.530724 0.329625
0.639490 0.511650 0.322850
0.639918 0.495796 0.317449
0.641352 0.481666 0.312963
0.644800 0.474128 0.311162
0.249424 0.445411 0.198337
0.341619 0.467811 0.230045
0.411536 0.495247 0.254673
0.455085 0.515343 0.272557
0.487434 0.532799 0.287022
0.515770 0.546532 0.298802
0.557519 0.565728 0.317723
0.592767 0.581994 0.334936
0.616938 0.590356 0.346502
0.640375 0.599329 0.357610
0.650965 0.596765 0.359625
0.658900 0.591363 0.359167
0.661768 0.579522 0.354650
0.662837 0.566491 0.348852
0.662959 0.552819 0.343755
0.663783 0.541344 0.340032
0.665400 0.530480 0.336370
0.292332 0.506157 0.227146
0.389227 0.531884 0.261021
0.459113 0.555535 0.285740
0.500267 0.571527 0.301701
0.529717 0.585779 0.316045
0.555138 0.597406 0.328466
0.578546 0.606653 0.338994
0.611719 0.617426 0.353552
0.633417 0.622187 0.363104
0.655299 0.629053 0.374426
0.666438 0.627192 0.377478
0.676081 0.625055 0.379522
0.679622 0.617121 0.376410
0.681361 0.608972 0.372473
0.681300 0.599176 0.367590
0.682338 0.590295 0.364111
0.684321 0.582300 0.360845
0.338842 0.555200 0.253117
0.432227 0.579736 0.286809
0.498695 0.598321 0.311254
0.534936 0.610529 0.325414
0.562768 0.621851 0.338354
0.585687 0.631067 0.349981
0.606409 0.638483 0.359747
0.627863 0.643275 0.370184
0.648524 0.647883 0.379278
0.668544 0.652674 0.388952
0.679988 0.652369 0.392950
0.689815 0.651850 0.395911
0.694881 0.647700 0.395239
0.696803 0.641047 0.391943
0.696223 0.631891 0.387060
0.696315 0.624537 0.383490
0.697505 0.616907 0.380316
0.378882 0.592676 0.276280
0.467903 0.615808 0.308293
0.530724 0.631006 0.330785
0.562158 0.639704 0.344610
0.587274 0.647852 0.356481
0.608576 0.655238 0.366949
0.626154 0.661097 0.375525
0.645777 0.665461 0.385077
0.661555 0.668849 0.392309
0.680812 0.673213 0.401495
0.691585 0.674525 0.406043
0.701503 0.675044 0.409949
0.706661 0.671717 0.409979
0.710140 0.668330 0.408911
0.709560 0.659846 0.404211
0.709773 0.653376 0.400854
0.709316 0.646784 0.397650
0.417884 0.628870 0.297642
0.501701 0.647730 0.328649
0.558495 0.658534 0.348882
0.586816 0.665309 0.361486
0.610681 0.671656 0.373297
0.631159 0.677668 0.383673
0.648585 0.682704 0.392401
0.663813 0.685908 0.400122
0.677791 0.688807 0.406561
0.691829 0.691341 0.412879
0.701869 0.692866 0.417334
0.711055 0.695064 0.421912
0.716091 0.693568 0.423316
0.719631 0.692073 0.423529
0.720272 0.685695 0.420142
0.719631 0.678035 0.415686
0.718532 0.670039 0.411292
0.440345 0.652827 0.312322
0.520958 0.669032 0.341588
0.578088 0.678553 0.363989
0.608087 0.684535 0.377539
0.629999 0.689693 0.388128
0.647669 0.693599 0.396796
0.663355 0.697932 0.404486
0.677058 0.701076 0.411200
0.689479 0.703456 0.417243
0.701503 0.705745 0.422827
0.709438 0.707454 0.426490
0.718624 0.710628 0.431556
0.723598 0.711421 0.434089
0.727016 0.710872 0.435157
0.727657 0.705318 0.432288
0.728420 0.700740 0.430091
0.726955 0.692042 0.424842
0.457862 0.674403 0.324437
0.537438 0.687037 0.353735
0.596277 0.695979 0.377569
0.627436 0.701289 0.391791
0.648371 0.705379 0.401831
0.664424 0.708705 0.409705
0.677180 0.711330 0.415991
0.689998 0.714382 0.422034
0.700893 0.716579 0.427161
0.710994 0.718593 0.432135
0.718868 0.720272 0.435828
0.723293 0.721950 0.437934
0.727901 0.723201 0.440497
0.731319 0.723751 0.442176
0.733242 0.722683 0.442298
0.734646 0.719875 0.441444
0.734401 0.713619 0.438941
0.470771 0.691798 0.333715
0.552392 0.700923 0.364324
0.609735 0.708858 0.388403
0.643427 0.714229 0.403388
0.663844 0.717494 0.413275
0.678126 0.720180 0.420294
0.689448 0.722316 0.425757
0.699489 0.724422 0.430549
0.709377 0.726528 0.435096
0.716976 0.728298 0.438941
0.724758 0.729885 0.442756
0.728420 0.731502 0.444770
0.731746 0.733608 0.446021
0.735409 0.734890 0.448188
0.736996 0.733913 0.448463
0.738766 0.733303 0.449012
0.738979 0.728389 0.447974
0.486122 0.708583 0.343847
0.571832 0.712764 0.376623
0.626398 0.719692 0.399542
0.659266 0.724727 0.414038
0.678767 0.727230 0.423560
0.690944 0.729152 0.430121
0.700435 0.731014 0.434730
0.709377 0.733150 0.438849
0.717586 0.734981 0.442237
0.723568 0.736599 0.445441
0.729976 0.738399 0.448493
0.732906 0.739528 0.450935
0.736141 0.741634 0.452186
0.738979 0.744381 0.452949
0.740261 0.743313 0.453223
0.741726 0.742245 0.453803
0.742275 0.739956 0.454536
0.505760 0.720577 0.356054
0.591546 0.722133 0.388739
0.643488 0.728389 0.410498
0.672023 0.733364 0.423621
0.689143 0.735286 0.431861
0.700099 0.736721 0.437842
0.708888 0.737881 0.442206
0.716213 0.739803 0.445502
0.723690 0.741543 0.448463
0.728420 0.743313 0.450690
0.733761 0.745022 0.453346
0.736477 0.745846 0.455787
0.739101 0.746792 0.458045
0.741482 0.748592 0.459571
0.744198 0.753262 0.458564
0.745083 0.751156 0.458564
0.744747 0.747372 0.458442
0.524804 0.731258 0.368078
0.609461 0.731014 0.400092
0.658137 0.736141 0.420691
0.682765 0.740688 0.432227
0.697719 0.742611 0.439857
0.707881 0.743496 0.445228
0.716182 0.744289 0.449348
0.722469 0.745571 0.452277
0.728725 0.747372 0.454475
0.733120 0.749386 0.456519
0.737057 0.750790 0.458320
0.739834 0.751675 0.460731
0.742336 0.752499 0.462989
0.744167 0.753628 0.465248
0.746212 0.757168 0.465339
0.748440 0.760891 0.464118
0.747677 0.756222 0.463722
0.541527 0.738125 0.379187
0.618708 0.737423 0.407568
0.664332 0.741604 0.427680
0.686671 0.745449 0.438178
0.699702 0.747189 0.444862
0.709895 0.748135 0.450141
0.718288 0.748623 0.454566
0.724269 0.749569 0.457465
0.729580 0.750851 0.459968
0.734157 0.753170 0.461982
0.738155 0.754940 0.463844
0.741695 0.755978 0.465736
0.744015 0.756313 0.467506
0.746242 0.756863 0.469642
0.747433 0.758419 0.471534
0.748989 0.761959 0.471901
0.751003 0.766476 0.470375
0.031067 0.031067 0.061952
0.061677 0.033631 0.067231
0.117250 0.041138 0.074556
0.175601 0.051850 0.084504
0.231083 0.065309 0.097810
0.282963 0.080049 0.112276
0.322759 0.091188 0.123384
0.354894 0.101167 0.130953
0.381140 0.111147 0.136812
0.408362 0.121828 0.142580
0.433845 0.135836 0.150301
0.456733 0.148775 0.158022
0.476844 0.163729 0.168154
0.491707 0.174289 0.177493
0.500237 0.179385 0.186740
0.509483 0.183413 0.196017
0.516747 0.186252 0.206760
0.043427 0.082582 0.074800
0.102907 0.098726 0.091646
0.204196 0.087617 0.082460
0.275364 0.095125 0.091920
0.337163 0.107210 0.105776
0.370336 0.112032 0.113008
0.388739 0.117098 0.118654
0.403357 0.125032 0.123964
0.421820 0.143191 0.134646
0.441230 0.163973 0.147005
0.461067 0.185733 0.160372
0.476997 0.199893 0.170138
0.493538 0.212741 0.180148
0.508537 0.220066 0.188479
0.524376 0.225315 0.197818
0.544488 0.229831 0.207889
0.573968 0.236851 0.220829
0.079255 0.178500 0.098512
0.147768 0.234928 0.109957
0.264958 0.259007 0.146059
0.335058 0.257237 0.162570
0.390478 0.260288 0.175509
0.428351 0.263828 0.186221
0.455024 0.266697 0.193881
0.471931 0.265965 0.197055
0.488685 0.271916 0.202823
0.500481 0.274052 0.206485
0.512779 0.280766 0.212650
0.523980 0.285618 0.217258
0.536858 0.293400 0.223728
0.549676 0.299748 0.229709
0.563928 0.304265 0.235721
0.579644 0.306889 0.241611
0.600641 0.310185 0.250248
0.126101 0.273625 0.126650
0.213107 0.359289 0.163851
0.327062 0.390692 0.202914
0.411688 0.426001 0.234836
0.468452 0.427771 0.250736
0.510521 0.434028 0.263432
0.542351 0.440040 0.273228
0.562188 0.438117 0.277867
0.570947 0.428077 0.277958
0.573144 0.409400 0.272984
0.575830 0.396460 0.269383
0.578027 0.383612 0.265812
0.582849 0.376135 0.264134
0.588251 0.372686 0.264622
0.594903 0.370642 0.265751
0.605493 0.370306 0.268650
0.622370 0.371069 0.274815
0.167910 0.362860 0.153597
0.268620 0.458839 0.207156
0.391241 0.495277 0.250248
0.466590 0.525292 0.278355
0.524376 0.552056 0.303655
0.564813 0.551141 0.315038
0.594965 0.555169 0.325139
0.615778 0.556725 0.332128
0.625666 0.547845 0.332036
0.628473 0.529595 0.326604
0.627314 0.506127 0.317937
0.625666 0.484993 0.310460
0.624292 0.462867 0.302312
0.624842 0.449561 0.298314
0.626734 0.436744 0.294591
0.631922 0.431983 0.294621
0.644251 0.431403 0.298924
0.212924 0.439277 0.187076
0.320623 0.531243 0.241611
0.441413 0.565057 0.284825
0.511193 0.587671 0.310735
0.560632 0.606836 0.332525
0.599390 0.619837 0.350988
0.625971 0.616846 0.358618
0.645380 0.614954 0.364904
0.655634 0.609308 0.366064
0.659297 0.595453 0.361547
0.660670 0.581628 0.354955
0.658289 0.559716 0.346166
0.657191 0.541161 0.337865
0.654505 0.521538 0.330419
0.654871 0.506249 0.324987
0.657221 0.494789 0.321477
0.664729 0.493019 0.324895
0.254124 0.503929 0.216434
0.368353 0.583398 0.269688
0.480629 0.611536 0.310094
0.544854 0.627985 0.334539
0.588281 0.642481 0.354223
0.621118 0.651942 0.369726
0.649714 0.658656 0.383307
0.667689 0.655512 0.389075
0.677821 0.651087 0.391180
0.682155 0.642267 0.388983
0.684260 0.632074 0.384710
0.682979 0.617945 0.377264
0.681941 0.602655 0.369512
0.679316 0.587549 0.362066
0.678584 0.572625 0.355261
0.680079 0.560632 0.350713
0.685817 0.556359 0.352239
0.290044 0.556420 0.241459
0.410346 0.622736 0.294591
0.515923 0.646326 0.331792
0.572595 0.658015 0.353826
0.609216 0.667536 0.372168
0.638849 0.676417 0.386755
0.664057 0.682399 0.398749
0.684901 0.685756 0.407752
0.695125 0.682368 0.410346
0.699702 0.675471 0.409155
0.701869 0.667414 0.406500
0.701167 0.655207 0.400214
0.700038 0.643091 0.393652
0.697230 0.629236 0.385931
0.695827 0.617273 0.379980
0.696712 0.608637 0.376959
0.701045 0.604761 0.379126
0.313329 0.596185 0.259098
0.438087 0.650233 0.311345
0.536980 0.669337 0.346288
0.593286 0.679042 0.369543
0.626764 0.686763 0.385931
0.651637 0.692561 0.398199
0.674220 0.698543 0.409339
0.693812 0.702205 0.418036
0.706722 0.704341 0.424353
0.711543 0.699428 0.424292
0.714595 0.695033 0.423682
0.715908 0.687007 0.419776
0.715999 0.677852 0.414954
0.713436 0.665888 0.407691
0.711788 0.655604 0.402502
0.711635 0.648280 0.400092
0.714839 0.646693 0.404791
0.332738 0.633509 0.276005
0.456336 0.670954 0.323095
0.552087 0.686580 0.357427
0.609827 0.695247 0.382574
0.640558 0.701442 0.397192
0.663355 0.706020 0.408240
0.681727 0.709957 0.417151
0.699031 0.714321 0.425422
0.711116 0.716670 0.431556
0.720943 0.718654 0.436347
0.723690 0.714839 0.435920
0.725460 0.711055 0.434394
0.726864 0.705379 0.431830
0.725277 0.695766 0.426276
0.722896 0.683558 0.419837
0.722072 0.675593 0.417456
0.724697 0.673396 0.422248
0.341131 0.659907 0.291264
0.467933 0.687861 0.331151
0.563409 0.700130 0.367285
0.622736 0.708339 0.393103
0.653346 0.713954 0.407416
0.673365 0.717250 0.416785
0.689693 0.720211 0.424781
0.703761 0.723171 0.431708
0.715602 0.726101 0.437842
0.724544 0.728359 0.442084
0.730190 0.730007 0.444739
0.732204 0.728054 0.444343
0.733913 0.725704 0.443854
0.734127 0.720027 0.441047
0.732509 0.709834 0.436255
0.731502 0.700557 0.433753
0.732754 0.696406 0.438972
0.350256 0.683223 0.303655
0.484657 0.703151 0.341161
0.580865 0.711086 0.378943
0.636469 0.718715 0.402930
0.665797 0.723690 0.416785
0.684993 0.726711 0.426062
0.698085 0.728725 0.432227
0.710170 0.731106 0.438025
0.720241 0.733639 0.442756
0.728023 0.735897 0.447547
0.733608 0.737667 0.450568
0.736721 0.740597 0.450752
0.738308 0.738949 0.450690
0.738643 0.734981 0.449165
0.739101 0.730282 0.449012
0.738735 0.722499 0.448157
0.739864 0.717250 0.454017
0.369818 0.700801 0.315435
0.500206 0.717006 0.351263
0.597253 0.721279 0.389899
0.647669 0.727749 0.411719
0.676234 0.731991 0.424964
0.694453 0.734585 0.434180
0.706722 0.736171 0.439918
0.716365 0.738247 0.444160
0.725277 0.740475 0.448127
0.731197 0.742367 0.451637
0.736721 0.744442 0.455482
0.739467 0.746914 0.456306
0.742306 0.749874 0.456428
0.742641 0.746914 0.455482
0.742550 0.742336 0.455726
0.743282 0.737758 0.458442
0.743893 0.731228 0.465461
0.401404 0.715816 0.330175
0.519432 0.727687 0.363622
0.614496 0.729030 0.400580
0.659083 0.734920 0.420294
0.684901 0.738888 0.432624
0.701473 0.741176 0.441199
0.713191 0.742184 0.446540
0.721859 0.744106 0.450202
0.729427 0.746242 0.453132
0.734462 0.748074 0.455879
0.738735 0.749691 0.458717
0.741360 0.750759 0.461707
0.743984 0.753597 0.462226
0.746517 0.757778 0.461189
0.746029 0.753231 0.461646
0.746059 0.748348 0.464515
0.747127 0.743618 0.475410
0.439033 0.725948 0.347936
0.533837 0.734249 0.373999
0.620386 0.734310 0.406378
0.663050 0.739620 0.425513
0.686244 0.743221 0.436927
0.702144 0.745296 0.445258
0.713649 0.746151 0.450996
0.722377 0.747738 0.454994
0.730159 0.749722 0.458228
0.735286 0.752255 0.461006
0.739254 0.753658 0.463416
0.742123 0.754360 0.465553
0.744747 0.755276 0.468025
0.747311 0.758022 0.468391
0.749508 0.763149 0.467414
0.748714 0.757229 0.469734
0.748867 0.751247 0.479896
0.474556 0.734585 0.365698
0.544060 0.738582 0.382910
0.619745 0.738216 0.409705
0.661219 0.742947 0.428473
0.684413 0.745846 0.439857
0.699458 0.747951 0.447974
0.710872 0.748806 0.453956
0.720394 0.750149 0.459266
0.728298 0.752010 0.463081
0.733913 0.754879 0.466743
0.738827 0.757229 0.469703
0.742153 0.758114 0.471839
0.745144 0.758450 0.473213
0.747677 0.759182 0.475471
0.749844 0.762203 0.475898
0.751858 0.767056 0.475319
0.751064 0.759579 0.484840
0.497230 0.739773 0.381292
0.547753 0.740536 0.391394
0.611627 0.740536 0.412421
0.652369 0.744595 0.430610
0.674983 0.746639 0.440986
0.691585 0.748135 0.449439
0.703120 0.749386 0.455940
0.713893 0.751034 0.462806
0.723903 0.752956 0.469795
0.730068 0.756191 0.474372
0.735988 0.759274 0.479774
0.740719 0.761379 0.483009
0.744442 0.762142 0.485359
0.747738 0.762234 0.486305
0.749874 0.762722 0.488411
0.751949 0.765042 0.489204
0.753933 0.768978 0.489509
0.032288 0.032258 0.086549
0.057160 0.035096 0.091432
0.103578 0.040284 0.098329
0.153292 0.049928 0.108644
0.200290 0.061158 0.119509
0.249851 0.074983 0.134157
0.293736 0.088991 0.147463
0.332525 0.103243 0.159243
0.362585 0.114046 0.165743
0.392309 0.124880 0.172915
0.415808 0.134432 0.177951
0.435798 0.142367 0.182376
0.453010 0.151461 0.188174
0.465492 0.158358 0.193545
0.474220 0.163577 0.201205
0.482765 0.168307 0.209598
0.493294 0.173342 0.220829
0.047059 0.077272 0.114321
0.060334 0.057282 0.134585
0.152621 0.070100 0.138491
0.217319 0.078248 0.131655
0.282689 0.091737 0.138308
0.332982 0.103914 0.144961
0.371496 0.115114 0.151186
0.400824 0.122988 0.153231
0.427100 0.133913 0.158083
0.449928 0.144869 0.162814
0.471321 0.157931 0.170199
0.483711 0.165957 0.176608
0.495308 0.174105 0.185031
0.502403 0.177951 0.193423
0.510124 0.182223 0.204196
0.521385 0.189059 0.216770
0.544518 0.203159 0.234440
0.078828 0.149844 0.152255
0.110872 0.188418 0.194461
0.191836 0.168704 0.173129
0.296757 0.155825 0.148623
0.369726 0.161837 0.150332
0.410773 0.168948 0.156466
0.433845 0.173709 0.160403
0.451698 0.176333 0.163333
0.467658 0.186496 0.169223
0.480934 0.197848 0.175357
0.495186 0.211307 0.183352
0.505058 0.217350 0.187991
0.517937 0.224002 0.195132
0.530663 0.227634 0.201877
0.555535 0.232364 0.212619
0.587457 0.241733 0.226291
0.622370 0.258488 0.246647
0.119142 0.246342 0.177768
0.155398 0.330236 0.190066
0.224094 0.312932 0.167727
0.344244 0.336034 0.197147
0.420020 0.329503 0.209232
0.471565 0.332128 0.222019
0.504936 0.332494 0.230869
0.523766 0.327245 0.234531
0.532403 0.317723 0.233066
0.537804 0.306920 0.230137
0.544488 0.305425 0.230869
0.550896 0.304784 0.232151
0.561608 0.308110 0.236088
0.572656 0.310704 0.240543
0.586450 0.310765 0.245060
0.612207 0.316075 0.255558
0.641474 0.329107 0.273564
0.152834 0.341436 0.197391
0.205631 0.447974 0.206577
0.282750 0.437049 0.205539
0.390814 0.464607 0.242985
0.484565 0.492042 0.275578
0.538994 0.489906 0.288762
0.574365 0.487282 0.297185
0.596674 0.481117 0.300847
0.602380 0.461769 0.296025
0.604028 0.440955 0.289342
0.601740 0.416815 0.281804
0.602380 0.402930 0.277073
0.602655 0.389258 0.273014
0.608667 0.385779 0.273747
0.616175 0.380041 0.274083
0.632837 0.382513 0.281071
0.656031 0.393622 0.297734
0.183932 0.426886 0.215244
0.253605 0.527337 0.237400
0.339330 0.527886 0.245640
0.447425 0.555901 0.285100
0.525567 0.576532 0.312688
0.582544 0.590509 0.335485
0.616938 0.583947 0.343481
0.636896 0.577234 0.347051
0.645258 0.564263 0.344060
0.647730 0.543450 0.337133
0.647303 0.522087 0.328466
0.644648 0.497383 0.318944
0.641657 0.476814 0.311254
0.641077 0.461738 0.306493
0.645167 0.452827 0.304936
0.654597 0.450568 0.308721
0.670863 0.460090 0.323919
0.218692 0.495399 0.241367
0.286015 0.586877 0.257389
0.388128 0.593652 0.279057
0.493904 0.617090 0.316747
0.559319 0.631373 0.341375
0.608637 0.642420 0.361975
0.647395 0.650019 0.378454
0.665858 0.642573 0.382635
0.674220 0.633356 0.381323
0.679866 0.622644 0.378027
0.680873 0.606867 0.371466
0.678706 0.588952 0.362066
0.674708 0.566522 0.352331
0.671473 0.545312 0.342687
0.672053 0.531121 0.338323
0.678981 0.525444 0.340276
0.689906 0.529107 0.352605
0.240818 0.554376 0.262333
0.308995 0.627649 0.275334
0.426276 0.638453 0.305577
0.530419 0.655940 0.340246
0.583276 0.663935 0.362341
0.627466 0.673793 0.382239
0.661616 0.680751 0.397528
0.687648 0.685573 0.409186
0.695888 0.677119 0.408362
0.701228 0.668513 0.406287
0.702815 0.657069 0.401770
0.701381 0.641627 0.393317
0.697383 0.624903 0.384100
0.693812 0.605615 0.374578
0.693843 0.594110 0.370855
0.697108 0.588159 0.373297
0.704860 0.589227 0.384741
0.256901 0.594751 0.280247
0.323033 0.656306 0.292699
0.448096 0.665766 0.320531
0.551629 0.679683 0.356542
0.605249 0.686915 0.379370
0.640436 0.692470 0.394842
0.670253 0.699580 0.408881
0.694148 0.704616 0.420020
0.710689 0.708766 0.428962
0.716487 0.702693 0.428199
0.719020 0.696254 0.426154
0.719753 0.685847 0.419837
0.717342 0.672419 0.412390
0.713497 0.657771 0.404364
0.713069 0.647944 0.401282
0.715236 0.642725 0.404700
0.719387 0.641321 0.415900
0.273381 0.632929 0.300267
0.334661 0.678767 0.303227
0.466102 0.687282 0.332860
0.568689 0.698238 0.370214
0.622614 0.704890 0.393347
0.656001 0.709621 0.407843
0.680110 0.714015 0.419287
0.699825 0.719265 0.429419
0.715480 0.723171 0.438056
0.727352 0.726650 0.444495
0.729763 0.721401 0.443061
0.730648 0.715602 0.438697
0.729671 0.705196 0.433112
0.726406 0.692073 0.426184
0.724880 0.680537 0.423133
0.726802 0.675990 0.427985
0.730709 0.675105 0.440436
0.285588 0.658442 0.316258
0.348913 0.697353 0.312993
0.480415 0.703578 0.341894
0.581598 0.711940 0.380743
0.636225 0.718379 0.403998
0.667994 0.722560 0.418067
0.689723 0.725612 0.428626
0.705501 0.728908 0.436896
0.719478 0.732631 0.444892
0.730129 0.736202 0.450874
0.736751 0.738674 0.454078
0.738094 0.735592 0.451148
0.738003 0.730129 0.448585
0.736782 0.720699 0.444221
0.735409 0.710048 0.442786
0.735744 0.702266 0.448066
0.738491 0.700252 0.461463
0.296971 0.681788 0.328618
0.380316 0.711452 0.326146
0.501610 0.716976 0.354101
0.598474 0.722194 0.391760
0.650477 0.728359 0.414252
0.680934 0.732876 0.428199
0.698817 0.735134 0.437476
0.712551 0.737819 0.444343
0.724514 0.740841 0.450660
0.732723 0.743343 0.455726
0.738827 0.745571 0.458869
0.742916 0.749386 0.460212
0.743099 0.745418 0.458442
0.742397 0.739040 0.455634
0.742428 0.732113 0.458320
0.742947 0.724819 0.464851
0.744869 0.720394 0.478431
0.313451 0.700710 0.338811
0.413489 0.723995 0.341100
0.520439 0.728023 0.365545
0.612757 0.730220 0.401556
0.659144 0.735683 0.421820
0.688045 0.739742 0.435431
0.705318 0.741756 0.444404
0.716884 0.743770 0.450111
0.727932 0.746548 0.455573
0.734890 0.749142 0.459724
0.740566 0.751064 0.463783
0.744533 0.753933 0.465614
0.747189 0.757961 0.465309
0.746609 0.752895 0.463569
0.746151 0.745876 0.467567
0.746822 0.739590 0.478737
0.747951 0.733181 0.493446
0.337285 0.717159 0.349920
0.453254 0.732387 0.358801
0.538933 0.736263 0.377569
0.624445 0.736934 0.410040
0.666896 0.741695 0.429023
0.692470 0.745480 0.441657
0.708736 0.747066 0.449958
0.720119 0.748867 0.455604
0.730007 0.750973 0.460487
0.736538 0.753841 0.464363
0.741787 0.755978 0.467689
0.745541 0.756924 0.470466
0.748135 0.760250 0.471107
0.750362 0.764981 0.470283
0.749508 0.757870 0.475013
0.749660 0.751217 0.487709
0.750759 0.745632 0.507774
0.376654 0.727108 0.369757
0.475929 0.737881 0.374273
0.545220 0.739040 0.385260
0.618891 0.740078 0.411841
0.660883 0.743374 0.430823
0.686458 0.746853 0.443519
0.702724 0.748470 0.451942
0.715572 0.750332 0.459144
0.726345 0.752499 0.465064
0.733913 0.756039 0.470710
0.739834 0.758511 0.474525
0.744625 0.760067 0.477821
0.747982 0.760678 0.479591
0.750607 0.763577 0.479805
0.752407 0.767514 0.480110
0.752041 0.760250 0.493812
0.752560 0.753994 0.515038
0.408515 0.735988 0.388495
0.489479 0.741817 0.390295
0.548699 0.741146 0.395178
0.614496 0.742245 0.417884
0.651881 0.744869 0.433295
0.677852 0.747494 0.445899
0.694270 0.749142 0.454475
0.708614 0.751217 0.463233
0.721126 0.753689 0.471626
0.729915 0.757565 0.479225
0.737209 0.761196 0.486824
0.742550 0.763302 0.491218
0.747036 0.764065 0.493904
0.750423 0.764401 0.495247
0.752895 0.766598 0.496254
0.754757 0.769345 0.497169
0.754757 0.762264 0.520684
0.432410 0.740536 0.409979
0.492927 0.743862 0.408270
0.551476 0.743374 0.410315
0.609277 0.744442 0.428840
0.641840 0.746548 0.440558
0.666621 0.748074 0.450629
0.684291 0.749844 0.460029
0.700099 0.751797 0.470192
0.714626 0.754452 0.480964
0.724544 0.758602 0.490394
0.733913 0.762722 0.501884
0.740200 0.766110 0.509697
0.745174 0.767300 0.515496
0.749508 0.767819 0.518425
0.752712 0.768032 0.520256
0.755184 0.769131 0.521508
0.757198 0.770748 0.523308
0.034119 0.034119 0.105348
0.055146 0.036500 0.109194
0.095491 0.040589 0.114870
0.143709 0.049653 0.124453
0.190158 0.062806 0.139406
0.234440 0.075837 0.153048
0.276585 0.089387 0.166690
0.314000 0.103090 0.179568
0.345922 0.115175 0.188174
0.375769 0.126833 0.197330
0.396887 0.134127 0.200870
0.415290 0.140810 0.204288
0.430518 0.146548 0.207279
0.443244 0.151919 0.210422
