LUT color transfer/LUTs/27.cube
# (C) 2014 VisionColor & Patchflyer [www.vision-color.com]
# Generator: VC Patchmatch v.2.1.1 [64/53]
# All work and no play makes Jack a dull boy.
# LUT generated from: Fuji Pro 400_VisionSpace
LUT_3D_SIZE 9
0.029999 0.029999 0.029999
0.141665 0.043458 0.046601
0.275334 0.076143 0.078370
0.355840 0.098726 0.103212
0.388556 0.113893 0.116121
0.424262 0.147158 0.136446
0.464729 0.190707 0.162844
0.498695 0.215366 0.182437
0.531304 0.227298 0.201511
0.107485 0.192233 0.084138
0.229160 0.226413 0.121614
0.347601 0.272892 0.168826
0.442390 0.321477 0.210605
0.499855 0.348638 0.234623
0.536431 0.364141 0.248386
0.556512 0.358526 0.251530
0.573510 0.357305 0.255772
0.594812 0.360388 0.263188
0.207309 0.370275 0.164920
0.353643 0.417884 0.217288
0.436713 0.455787 0.249699
0.532311 0.511162 0.292760
0.595026 0.546258 0.322759
0.628962 0.553887 0.335119
0.639155 0.530724 0.329625
0.639918 0.495796 0.317449
0.644800 0.474128 0.311162
0.292332 0.506157 0.227146
0.459113 0.555535 0.285740
0.529717 0.585779 0.316045
0.578546 0.606653 0.338994
0.633417 0.622187 0.363104
0.666438 0.627192 0.377478
0.679622 0.617121 0.376410
0.681300 0.599176 0.367590
0.684321 0.582300 0.360845
0.378882 0.592676 0.276280
0.530724 0.631006 0.330785
0.587274 0.647852 0.356481
0.626154 0.661097 0.375525
0.661555 0.668849 0.392309
0.691585 0.674525 0.406043
0.706661 0.671717 0.409979
0.709560 0.659846 0.404211
0.709316 0.646784 0.397650
0.440345 0.652827 0.312322
0.578088 0.678553 0.363989
0.629999 0.689693 0.388128
0.663355 0.697932 0.404486
0.689479 0.703456 0.417243
0.709438 0.707454 0.426490
0.723598 0.711421 0.434089
0.727657 0.705318 0.432288
0.726955 0.692042 0.424842
0.470771 0.691798 0.333715
0.609735 0.708858 0.388403
0.663844 0.717494 0.413275
0.689448 0.722316 0.425757
0.709377 0.726528 0.435096
0.724758 0.729885 0.442756
0.731746 0.733608 0.446021
0.736996 0.733913 0.448463
0.738979 0.728389 0.447974
0.505760 0.720577 0.356054
0.643488 0.728389 0.410498
0.689143 0.735286 0.431861
0.708888 0.737881 0.442206
0.723690 0.741543 0.448463
0.733761 0.745022 0.453346
0.739101 0.746792 0.458045
0.744198 0.753262 0.458564
0.744747 0.747372 0.458442
0.541527 0.738125 0.379187
0.664332 0.741604 0.427680
0.699702 0.747189 0.444862
0.718288 0.748623 0.454566
0.729580 0.750851 0.459968
0.738155 0.754940 0.463844
0.744015 0.756313 0.467506
0.747433 0.758419 0.471534
0.751003 0.766476 0.470375
0.032288 0.032258 0.086549
0.103578 0.040284 0.098329
0.200290 0.061158 0.119509
0.293736 0.088991 0.147463
0.362585 0.114046 0.165743
0.415808 0.134432 0.177951
0.453010 0.151461 0.188174
0.474220 0.163577 0.201205
0.493294 0.173342 0.220829
0.078828 0.149844 0.152255
0.191836 0.168704 0.173129
0.369726 0.161837 0.150332
0.433845 0.173709 0.160403
0.467658 0.186496 0.169223
0.495186 0.211307 0.183352
0.517937 0.224002 0.195132
0.555535 0.232364 0.212619
0.622370 0.258488 0.246647
0.152834 0.341436 0.197391
0.282750 0.437049 0.205539
0.484565 0.492042 0.275578
0.574365 0.487282 0.297185
0.602380 0.461769 0.296025
0.601740 0.416815 0.281804
0.602655 0.389258 0.273014
0.616175 0.380041 0.274083
0.656031 0.393622 0.297734
0.218692 0.495399 0.241367
0.388128 0.593652 0.279057
0.559319 0.631373 0.341375
0.647395 0.650019 0.378454
0.674220 0.633356 0.381323
0.680873 0.606867 0.371466
0.674708 0.566522 0.352331
0.672053 0.531121 0.338323
0.689906 0.529107 0.352605
0.256901 0.594751 0.280247
0.448096 0.665766 0.320531
0.605249 0.686915 0.379370
0.670253 0.699580 0.408881
0.710689 0.708766 0.428962
0.719020 0.696254 0.426154
0.717342 0.672419 0.412390
0.713069 0.647944 0.401282
0.719387 0.641321 0.415900
0.285588 0.658442 0.316258
0.480415 0.703578 0.341894
0.636225 0.718379 0.403998
0.689723 0.725612 0.428626
0.719478 0.732631 0.444892
0.736751 0.738674 0.454078
0.738003 0.730129 0.448585
0.735409 0.710048 0.442786
0.738491 0.700252 0.461463
0.313451 0.700710 0.338811
0.520439 0.728023 0.365545
0.659144 0.735683 0.421820
0.705318 0.741756 0.444404
0.727932 0.746548 0.455573
0.740566 0.751064 0.463783
0.747189 0.757961 0.465309
0.746151 0.745876 0.467567
0.747951 0.733181 0.493446
0.376654 0.727108 0.369757
0.545220 0.739040 0.385260
0.660883 0.743374 0.430823
0.702724 0.748470 0.451942
0.726345 0.752499 0.465064
0.739834 0.758511 0.474525
0.747982 0.760678 0.479591
0.752407 0.767514 0.480110
0.752560 0.753994 0.515038
0.432410 0.740536 0.409979
0.551476 0.743374 0.410315
0.641840 0.746548 0.440558
0.684291 0.749844 0.460029
0.714626 0.754452 0.480964
0.733913 0.762722 0.501884
0.745174 0.767300 0.515496
0.752712 0.768032 0.520256
0.757198 0.770748 0.523308
0.036225 0.036225 0.125582
0.090211 0.041230 0.127901
0.183688 0.062348 0.152010
0.268894 0.090364 0.182071
0.333776 0.115053 0.204532
0.382666 0.133730 0.218265
0.414893 0.145510 0.223728
0.442298 0.155886 0.229740
0.475166 0.171603 0.246555
0.084810 0.135775 0.216464
0.100343 0.087831 0.225254
0.266026 0.124514 0.232609
0.363104 0.142367 0.229801
0.424048 0.155459 0.228214
0.459785 0.163699 0.222507
0.481819 0.170504 0.222385
0.514366 0.187961 0.243259
0.572869 0.226749 0.288029
0.152010 0.266270 0.287327
0.202182 0.339269 0.361303
0.332616 0.313146 0.322728
0.498085 0.286778 0.290105
0.584985 0.258854 0.263706
0.597620 0.245487 0.244541
0.598413 0.248234 0.233249
0.636652 0.264225 0.251743
0.696773 0.327337 0.322026
0.216098 0.419287 0.350774
0.278691 0.558679 0.390997
0.402564 0.533288 0.345556
0.563684 0.555138 0.381231
0.631586 0.516686 0.362188
0.656794 0.474235 0.334356
0.658228 0.440314 0.309422
0.675441 0.429084 0.314885
0.706661 0.469703 0.380224
0.265507 0.545617 0.400793
0.326299 0.663691 0.402502
0.471443 0.653834 0.371893
0.599817 0.663691 0.414069
0.672511 0.672877 0.442756
0.701747 0.653010 0.426673
0.711727 0.632746 0.404639
0.714107 0.609552 0.401099
0.725582 0.609277 0.452033
0.300938 0.635157 0.428870
0.341344 0.707607 0.400397
0.511284 0.706691 0.386450
0.628962 0.712612 0.427924
0.688838 0.720058 0.457740
0.727413 0.730831 0.482246
0.738735 0.722286 0.471321
0.740963 0.705196 0.472511
0.744320 0.696071 0.516625
0.320897 0.685267 0.442603
0.372015 0.727779 0.412604
0.533654 0.730220 0.392096
0.648524 0.736202 0.434516
0.702358 0.742672 0.464179
0.733730 0.751522 0.489876
0.749233 0.757198 0.502312
0.751186 0.746548 0.516045
0.752438 0.732509 0.560815
0.335210 0.708095 0.458930
0.416907 0.736477 0.441077
0.552026 0.743526 0.414557
0.650202 0.747433 0.446296
0.700984 0.752132 0.475776
0.733669 0.762387 0.508659
0.750301 0.767880 0.526421
0.758785 0.770291 0.532891
0.756985 0.756558 0.592981
0.355291 0.721981 0.485542
0.445533 0.740780 0.479774
0.564416 0.748928 0.470069
0.630945 0.750881 0.478950
0.684657 0.754452 0.509941
0.723659 0.763149 0.548608
0.744961 0.771298 0.583337
0.756649 0.773556 0.597833
0.763149 0.773800 0.605341
0.039246 0.039338 0.167422
0.086000 0.043977 0.156069
0.170260 0.062654 0.171450
0.253788 0.089265 0.201389
0.311528 0.111025 0.225742
0.357824 0.128725 0.241794
0.395117 0.143404 0.249363
0.427314 0.154818 0.252293
0.461616 0.169345 0.264225
0.085542 0.126009 0.254307
0.067536 0.066590 0.230777
0.175051 0.086702 0.229984
0.304753 0.126650 0.264408
0.371557 0.143160 0.268132
0.418219 0.156222 0.263920
0.450446 0.164767 0.257725
0.489845 0.183413 0.272068
0.551049 0.222904 0.314366
0.153109 0.245243 0.336034
0.169558 0.254337 0.380774
0.230930 0.217685 0.381140
0.397009 0.237034 0.381292
0.478737 0.224887 0.340948
0.515862 0.216922 0.311315
0.535760 0.213107 0.290105
0.577630 0.233005 0.304417
0.669032 0.298833 0.366217
0.214572 0.373236 0.406622
0.285863 0.511803 0.513848
0.325567 0.483406 0.484382
0.463203 0.456764 0.463386
0.564324 0.409583 0.428138
0.641932 0.353048 0.378592
0.679072 0.315435 0.327138
0.695796 0.328801 0.322728
0.713619 0.431250 0.422248
0.273655 0.515572 0.466712
0.337743 0.641199 0.541283
0.389746 0.633509 0.502892
0.525902 0.613306 0.500694
0.625177 0.628473 0.524285
0.672267 0.596017 0.481315
0.701564 0.555550 0.429160
0.714199 0.534432 0.413626
0.723507 0.573190 0.500160
0.321294 0.626429 0.509667
0.366827 0.700862 0.545556
0.420386 0.703853 0.503624
0.551415 0.692073 0.493904
0.646632 0.700404 0.525444
0.704768 0.710842 0.554772
0.729610 0.698482 0.524193
0.740841 0.686305 0.511528
0.742977 0.681788 0.576898
0.354681 0.689784 0.534081
0.371710 0.718654 0.543572
0.418524 0.730037 0.493355
0.554498 0.729519 0.466590
0.653742 0.733974 0.500328
0.713405 0.743526 0.543755
0.744930 0.751461 0.577447
0.753872 0.743465 0.575952
0.754269 0.730770 0.625879
0.371923 0.714839 0.552300
0.376104 0.724086 0.542779
0.436927 0.739376 0.508202
0.562737 0.746761 0.472206
0.656306 0.750973 0.495308
0.718257 0.760861 0.547387
0.748531 0.770382 0.589776
0.762173 0.772396 0.606287
0.760769 0.757748 0.654047
0.379767 0.723598 0.568963
0.398444 0.729854 0.561761
0.484535 0.744930 0.556603
0.593103 0.749233 0.556329
0.658412 0.754055 0.564538
0.711971 0.762966 0.601709
0.745449 0.772793 0.641627
0.761044 0.777676 0.663447
0.768002 0.779049 0.671687
0.041810 0.042206 0.200839
0.076020 0.043946 0.179477
0.152316 0.060578 0.186923
0.225498 0.083528 0.210544
0.286168 0.105501 0.232853
0.329290 0.121462 0.252323
0.373144 0.137392 0.263493
0.415198 0.153353 0.270481
0.453864 0.169558 0.280430
0.082612 0.115969 0.276371
0.057221 0.059480 0.245975
0.114504 0.067964 0.236332
0.220493 0.097414 0.259586
0.324926 0.131502 0.283055
0.382574 0.146761 0.284611
0.432044 0.163302 0.283970
0.472633 0.181827 0.294316
0.533165 0.220829 0.332250
0.153506 0.234195 0.366491
0.144564 0.208438 0.377874
0.158480 0.169009 0.382727
0.272496 0.183505 0.390570
0.408118 0.209018 0.384070
0.463752 0.204288 0.345373
0.498787 0.205112 0.322148
0.547601 0.229831 0.335393
0.646937 0.296483 0.400153
0.225834 0.374441 0.450111
0.263096 0.435431 0.523980
0.258335 0.389166 0.508751
0.338994 0.357671 0.500786
0.505028 0.369543 0.508202
0.588190 0.322866 0.450797
0.626581 0.289189 0.395834
0.659144 0.298802 0.385992
0.704280 0.416327 0.474434
0.284611 0.507179 0.517174
0.347784 0.622797 0.614893
0.355779 0.604242 0.597528
0.441077 0.587213 0.584253
0.567437 0.576013 0.578027
0.618830 0.532265 0.542458
0.675502 0.477195 0.488243
0.705959 0.450004 0.447410
0.715419 0.550301 0.542763
0.334936 0.620813 0.569146
0.393439 0.694057 0.644129
0.398016 0.686885 0.615564
0.468818 0.679255 0.598199
0.601892 0.668025 0.605890
0.677424 0.688167 0.629816
0.710536 0.667659 0.595361
0.731350 0.650095 0.566888
0.738277 0.671382 0.625086
0.380591 0.689235 0.610620
0.435431 0.731594 0.667994
0.416266 0.723598 0.625055
0.461341 0.722499 0.590509
0.604883 0.719203 0.591745
0.688777 0.731594 0.620142
0.737942 0.744381 0.653223
0.752499 0.735866 0.641413
0.753841 0.729152 0.675563
0.422614 0.726223 0.644892
0.438117 0.739773 0.661921
0.416907 0.733028 0.618616
0.463264 0.741146 0.590265
0.599695 0.743221 0.574701
0.692348 0.754452 0.603204
0.744137 0.767605 0.652857
0.764797 0.774899 0.677852
0.764157 0.758053 0.698360
0.445991 0.742184 0.667262
0.421485 0.734401 0.641749
0.440742 0.738552 0.627283
0.539544 0.747677 0.629328
0.641230 0.751919 0.638972
0.703578 0.760678 0.653986
0.744350 0.772824 0.688228
0.763394 0.779477 0.708858
0.772915 0.782101 0.717189
0.044709 0.044587 0.225498
0.062440 0.042817 0.197177
0.119539 0.054231 0.197940
0.189029 0.074830 0.219150
0.250065 0.095338 0.236942
0.301122 0.114748 0.254734
0.347326 0.131044 0.270115
0.403479 0.151949 0.284031
0.449775 0.172000 0.297887
0.084688 0.115114 0.298528
0.052277 0.054505 0.254002
0.073426 0.057832 0.247227
0.142367 0.073457 0.257633
0.241077 0.102815 0.275914
0.347662 0.137819 0.299382
0.416693 0.162081 0.307317
0.464820 0.183780 0.317784
0.516838 0.217685 0.348699
0.155367 0.232761 0.394781
0.128634 0.183688 0.377813
0.113313 0.135134 0.346105
0.176379 0.141848 0.388617
0.288930 0.164431 0.382757
0.419501 0.197177 0.380621
0.468818 0.198367 0.351843
0.522271 0.223392 0.359106
0.621180 0.287877 0.424018
0.232792 0.374517 0.484321
0.237766 0.373434 0.513909
0.212528 0.314015 0.484520
0.230823 0.272175 0.511574
0.368917 0.283772 0.543053
0.536614 0.312123 0.524865
0.574609 0.278569 0.443519
0.618982 0.289250 0.425055
0.687312 0.411765 0.513848
0.294865 0.509926 0.557061
0.327153 0.560403 0.615015
0.312535 0.521828 0.598871
0.336751 0.494469 0.603815
0.436484 0.472679 0.592371
0.588769 0.504768 0.604364
0.652155 0.457511 0.558038
0.689540 0.433219 0.518120
0.711421 0.547555 0.594629
0.342199 0.613062 0.607996
0.384833 0.669917 0.670985
0.386908 0.663783 0.666041
0.427283 0.659998 0.662470
0.540505 0.657801 0.658351
0.642206 0.660578 0.659785
0.681117 0.640070 0.637354
0.705653 0.609384 0.605524
0.725521 0.660304 0.658778
0.384680 0.681086 0.647700
0.422278 0.715206 0.695338
0.418647 0.714443 0.685145
0.437873 0.712703 0.670375
0.541421 0.715358 0.665339
0.660029 0.714443 0.673609
0.725551 0.734493 0.698787
0.743709 0.724330 0.687861
0.753536 0.728481 0.706569
0.427649 0.719631 0.682857
0.454200 0.739162 0.710445
0.439155 0.735348 0.691859
0.445869 0.735439 0.672328
0.538064 0.741817 0.665736
0.661219 0.743374 0.670283
0.732235 0.759121 0.698970
0.762387 0.770169 0.722103
0.767117 0.758694 0.730068
0.464942 0.744198 0.709377
0.449195 0.740749 0.697078
0.445991 0.738216 0.679652
0.515801 0.746456 0.682368
0.612650 0.754971 0.689754
0.694270 0.758206 0.703212
0.740353 0.770474 0.720241
0.764035 0.779812 0.740383
0.778134 0.785153 0.750088
0.046601 0.045747 0.240818
0.053071 0.043915 0.218021
0.082063 0.048035 0.213077
0.137850 0.062623 0.225986
0.199985 0.081239 0.241672
0.258091 0.101595 0.257603
0.324742 0.126131 0.276616
0.389990 0.150179 0.296239
0.448066 0.175387 0.316777
0.087160 0.117403 0.316503
0.053437 0.057099 0.270634
0.057862 0.057191 0.267918
0.088808 0.062348 0.272251
0.164935 0.080751 0.281865
0.269963 0.113527 0.299474
0.389288 0.154177 0.327153
0.457069 0.185458 0.345037
0.503746 0.215641 0.371099
0.159976 0.237400 0.419959
0.118807 0.167880 0.377752
0.088411 0.111910 0.329992
0.112642 0.112032 0.360540
0.190753 0.124208 0.375341
0.311223 0.156039 0.377630
0.435462 0.195132 0.389929
0.500999 0.221042 0.397070
0.585840 0.278721 0.451789
0.233402 0.367163 0.505425
0.213657 0.324346 0.497993
0.176455 0.258549 0.455085
0.163119 0.208072 0.446616
0.239246 0.212116 0.530404
0.386633 0.242710 0.519295
0.534966 0.284886 0.518090
0.575280 0.283909 0.477150
0.663569 0.393317 0.550835
0.295506 0.497673 0.576288
0.297307 0.490532 0.591577
0.271672 0.433066 0.566430
0.259297 0.387717 0.565011
0.298299 0.355673 0.596994
0.467140 0.397055 0.632868
0.618952 0.444419 0.630884
0.661128 0.416892 0.585840
0.701076 0.532937 0.630732
0.343633 0.600244 0.629053
0.359411 0.620844 0.658106
0.351659 0.601038 0.651576
0.361608 0.591058 0.656977
0.429664 0.585657 0.670192
0.532982 0.575097 0.662776
0.662867 0.624567 0.678035
0.697780 0.597757 0.659754
0.723903 0.653010 0.685695
0.376928 0.662715 0.661128
0.405524 0.693202 0.697200
0.410040 0.698238 0.700710
0.428351 0.702510 0.704128
0.512001 0.709987 0.711543
0.626093 0.713252 0.712978
0.700465 0.720882 0.717403
0.729763 0.711055 0.709712
0.748959 0.723140 0.722530
0.408423 0.702083 0.685603
0.425879 0.720088 0.707851
0.430762 0.726436 0.710689
0.445899 0.731929 0.710140
0.517571 0.739895 0.714687
0.630762 0.746120 0.718257
0.711299 0.748592 0.723781
0.760525 0.766934 0.747402
0.770291 0.761715 0.748348
0.438300 0.727321 0.707149
0.439948 0.732326 0.711055
0.446967 0.735500 0.706783
0.507805 0.745205 0.713100
0.597589 0.756374 0.722774
0.681544 0.764279 0.729641
0.729519 0.768795 0.740719
0.767819 0.782559 0.759060
0.783749 0.788357 0.767880
0.048188 0.048890 0.256718
0.050965 0.048829 0.247288
0.062440 0.049561 0.243503
0.093507 0.056275 0.247776
0.148257 0.070314 0.257511
0.211551 0.088838 0.269474
0.284764 0.113893 0.284916
0.367742 0.143679 0.306493
0.439429 0.175143 0.334447
0.089937 0.121798 0.333623
0.065034 0.077485 0.298314
0.066926 0.074861 0.306706
0.086091 0.075471 0.317815
0.137819 0.084932 0.321416
0.222507 0.106783 0.326116
0.323339 0.139467 0.339696
0.427741 0.176608 0.365515
0.489723 0.216403 0.401038
0.160830 0.235935 0.433875
0.127657 0.181796 0.396307
0.096773 0.129305 0.358740
0.106233 0.121798 0.382269
0.159152 0.127596 0.414252
0.253849 0.150362 0.417060
0.365087 0.183505 0.420996
0.470497 0.222568 0.436500
0.566125 0.284337 0.500755
0.227604 0.350103 0.510918
0.203098 0.303105 0.492317
0.168307 0.245060 0.457771
0.139864 0.187381 0.432685
0.179995 0.187289 0.498283
0.283543 0.210727 0.530388
0.423682 0.250919 0.528099
0.552514 0.298955 0.546685
0.648341 0.391424 0.603113
0.286137 0.467201 0.574853
0.273838 0.433509 0.568689
0.246128 0.379477 0.545007
0.221530 0.325277 0.528222
0.218875 0.281910 0.549264
0.327611 0.316289 0.646174
0.507256 0.369955 0.644007
0.638178 0.417746 0.648402
0.693721 0.521218 0.667231
0.333379 0.570459 0.628138
0.328740 0.554589 0.630335
0.319371 0.529686 0.623774
0.316045 0.508354 0.625360
0.336828 0.494621 0.648096
0.382895 0.466575 0.668818
0.571801 0.544991 0.680659
0.683162 0.580514 0.696834
0.719692 0.636561 0.704402
0.369421 0.640070 0.664881
0.378668 0.647150 0.678309
0.381476 0.648371 0.682643
0.393957 0.653864 0.691859
0.449836 0.670527 0.711238
0.541314 0.674067 0.719265
0.623346 0.665156 0.710994
0.722560 0.701778 0.730312
0.743221 0.711177 0.732845
0.398413 0.684779 0.689479
0.416358 0.707362 0.709377
0.429114 0.720058 0.718532
0.451484 0.731167 0.727169
0.512566 0.739498 0.736507
0.610346 0.746487 0.743221
0.688106 0.752743 0.749722
0.749447 0.758267 0.756100
0.770840 0.763119 0.760861
0.419135 0.713130 0.704311
0.428229 0.723476 0.712398
0.444831 0.732662 0.719142
0.501305 0.744930 0.729274
0.585321 0.757015 0.738918
0.668421 0.766690 0.748226
0.720760 0.771603 0.754482
0.760342 0.778378 0.767086
0.786130 0.789425 0.776455
0.055512 0.061799 0.281407
0.055665 0.061616 0.281621
0.062470 0.061402 0.286900
0.081971 0.064118 0.290044
0.120241 0.071656 0.293278
0.179904 0.086397 0.297856
0.250431 0.107881 0.307073
0.330541 0.135500 0.320867
0.413092 0.165743 0.344244
0.100923 0.140475 0.359136
0.091524 0.120882 0.348119
0.095003 0.114199 0.364935
0.117311 0.114626 0.392859
0.162814 0.121614 0.402930
0.231205 0.138125 0.401434
0.308873 0.158999 0.401770
0.388373 0.185550 0.410071
0.467475 0.215030 0.427527
0.167025 0.244694 0.450538
0.150851 0.216831 0.434272
0.136629 0.184329 0.430488
0.153933 0.179232 0.469123
0.196994 0.185519 0.523339
0.275456 0.205295 0.528923
0.371191 0.232059 0.526940
0.466896 0.262089 0.529229
0.553491 0.299199 0.548486
0.224277 0.340215 0.515251
0.208255 0.308965 0.503288
0.189212 0.270573 0.492134
0.195499 0.255528 0.519097
0.235904 0.267796 0.590936
0.320409 0.294774 0.640894
0.441321 0.331182 0.636042
0.551598 0.364996 0.631159
0.633082 0.400061 0.642329
0.276005 0.438697 0.568780
0.262242 0.408698 0.563317
0.250278 0.378622 0.561303
0.256046 0.368307 0.582910
0.281712 0.369024 0.624903
0.375830 0.413214 0.679652
0.509880 0.462165 0.678492
0.611994 0.495018 0.681300
0.681239 0.513390 0.689784
0.316197 0.529168 0.615991
0.312169 0.514488 0.616358
0.316533 0.511864 0.629114
0.342840 0.523003 0.654658
0.376287 0.527596 0.678004
0.425483 0.532631 0.698878
0.566491 0.590799 0.701503
0.659480 0.621668 0.708675
0.713497 0.624872 0.717037
0.353491 0.604425 0.653956
0.356054 0.605554 0.660090
0.372900 0.622889 0.676875
0.420966 0.650446 0.703426
0.485939 0.667384 0.719997
0.548852 0.665370 0.724300
0.606500 0.664363 0.723659
0.694789 0.699001 0.732998
0.740291 0.706020 0.741970
0.386297 0.660609 0.684382
0.396490 0.672206 0.695460
0.416236 0.692256 0.709987
0.466133 0.710018 0.725185
0.538964 0.721614 0.736934
0.618311 0.729427 0.745144
0.675502 0.733059 0.748806
0.723720 0.742458 0.754269
0.766384 0.758785 0.768948
0.412940 0.702296 0.706691
0.427008 0.718196 0.716854
0.451667 0.733394 0.728695
0.507408 0.745724 0.740017
0.580926 0.757168 0.750332
0.654475 0.766018 0.759274
0.710140 0.771634 0.765743
0.756191 0.780056 0.777523
0.801816 0.801816 0.801816
