LUT color transfer/LUTs/28.cube
# (C) 2014 VisionColor & Patchflyer [www.vision-color.com]
# Generator: VC Patchmatch v.2.1.1 [64/53]
# All work and no play makes Jack a dull boy.
# LUT generated from: Fuji Superior 200_FC
LUT_3D_SIZE 17
0.025147 0.025147 0.025147
0.070314 0.025208 0.025177
0.144808 0.024994 0.024964
0.236515 0.025360 0.025360
0.329534 0.025788 0.025788
0.412757 0.026307 0.026307
0.477424 0.026490 0.026429
0.527031 0.026795 0.026581
0.570611 0.027405 0.026856
0.614038 0.027924 0.027253
0.656519 0.027985 0.027497
0.696132 0.028046 0.027741
0.733639 0.028534 0.028412
0.768612 0.029999 0.029603
0.801114 0.036530 0.035828
0.829465 0.046723 0.045380
0.849668 0.065492 0.063416
0.030457 0.059754 0.019532
0.074220 0.057404 0.019928
0.154635 0.060395 0.019837
0.250431 0.064973 0.020630
0.345739 0.074128 0.023041
0.432929 0.081147 0.024750
0.500938 0.085573 0.026123
0.555718 0.089082 0.027436
0.600031 0.091463 0.028321
0.642847 0.094697 0.029541
0.677089 0.098177 0.030365
0.712062 0.101656 0.031739
0.744198 0.101991 0.033295
0.775540 0.102724 0.036103
0.801968 0.110658 0.044221
0.828885 0.123293 0.055818
0.853819 0.148318 0.075715
0.041932 0.115724 0.015351
0.091859 0.121920 0.017029
0.176425 0.130617 0.022797
0.270756 0.141360 0.026612
0.364965 0.153994 0.030121
0.449653 0.166415 0.033143
0.516930 0.173098 0.035004
0.570672 0.177951 0.036652
0.615351 0.181216 0.038270
0.659510 0.189029 0.040375
0.698207 0.195224 0.042451
0.736385 0.200198 0.044678
0.768246 0.201694 0.046693
0.798489 0.202518 0.049439
0.824674 0.208774 0.056428
0.849821 0.219638 0.066529
0.872374 0.242039 0.084352
0.071443 0.189059 0.015747
0.133913 0.204715 0.022095
0.226932 0.220249 0.033204
0.316503 0.232547 0.040162
0.402075 0.248051 0.043977
0.482399 0.262119 0.047181
0.546014 0.271885 0.049104
0.598535 0.280583 0.050935
0.642176 0.285039 0.052674
0.686702 0.294469 0.055573
0.725399 0.301060 0.058320
0.761929 0.307073 0.061067
0.795590 0.309941 0.063752
0.825315 0.313085 0.066865
0.849607 0.317174 0.072663
0.872862 0.324559 0.080690
0.892393 0.339513 0.094667
0.116976 0.272862 0.021485
0.199954 0.293034 0.033051
0.298863 0.314733 0.048829
0.389395 0.330266 0.058656
0.459312 0.344335 0.063355
0.532387 0.360876 0.066590
0.591333 0.371862 0.068666
0.639826 0.382300 0.070222
0.681956 0.389258 0.072236
0.723842 0.398474 0.074830
0.757229 0.401984 0.076936
0.790280 0.408118 0.079438
0.819211 0.411627 0.081514
0.846860 0.416205 0.084199
0.866850 0.416907 0.088869
0.885313 0.419928 0.095613
0.900389 0.428443 0.107668
0.177401 0.360174 0.030884
0.272221 0.379797 0.047730
0.377493 0.406256 0.065309
0.465232 0.423560 0.078035
0.535592 0.437293 0.085389
0.588998 0.452155 0.088350
0.641840 0.463416 0.090517
0.683711 0.473182 0.091524
0.722118 0.479042 0.091615
0.761990 0.489784 0.093996
0.790829 0.491707 0.094331
0.819150 0.495003 0.095705
0.842741 0.495369 0.096559
0.865782 0.499184 0.098543
0.881498 0.500420 0.102815
0.896056 0.502770 0.108827
0.904753 0.506065 0.119570
0.248478 0.443305 0.043061
0.342840 0.463569 0.063722
0.446448 0.489021 0.082734
0.530785 0.506676 0.096345
0.598306 0.519249 0.105806
0.651606 0.531731 0.110536
0.693019 0.544823 0.112428
0.729061 0.551904 0.112337
0.757687 0.554086 0.110628
0.791318 0.562676 0.111269
0.819638 0.566155 0.111147
0.843687 0.571618 0.111269
0.861540 0.573358 0.111666
0.875914 0.577691 0.112673
0.887602 0.577966 0.115938
0.899351 0.579705 0.121401
0.907469 0.576837 0.130800
0.320836 0.515648 0.056703
0.404471 0.536736 0.080110
0.499352 0.559197 0.099519
0.579965 0.574701 0.112245
0.645991 0.588861 0.123842
0.698085 0.601709 0.129671
0.736477 0.613764 0.132265
0.767727 0.624140 0.133333
0.791287 0.625330 0.130709
0.820645 0.630549 0.130007
0.846586 0.634241 0.128298
0.866484 0.640925 0.127871
0.879118 0.643336 0.126253
0.889311 0.646296 0.126436
0.897215 0.645228 0.128695
0.904723 0.644923 0.133425
0.912077 0.640253 0.142550
0.388266 0.581643 0.070558
0.462608 0.601053 0.095735
0.547692 0.621027 0.115633
0.620508 0.634272 0.127138
0.680629 0.645167 0.136782
0.732998 0.657771 0.145052
0.769497 0.670542 0.148684
0.800778 0.681956 0.150484
0.817838 0.689097 0.151736
0.843229 0.692622 0.150423
0.860868 0.694575 0.146822
0.877470 0.700710 0.145052
0.887938 0.702998 0.142580
0.897765 0.705898 0.139986
0.905241 0.705898 0.141787
0.912688 0.706722 0.145510
0.917540 0.699947 0.153841
0.454963 0.646632 0.085298
0.516777 0.663600 0.111086
0.589715 0.678218 0.130434
0.658656 0.689540 0.141054
0.715877 0.699397 0.150057
0.767056 0.711727 0.158663
0.801541 0.723476 0.163485
0.832944 0.736904 0.166384
0.848020 0.744778 0.168002
0.864713 0.749599 0.168185
0.877409 0.750149 0.164462
0.889677 0.755093 0.162722
0.895842 0.756527 0.158297
0.902800 0.758053 0.153964
0.910124 0.756863 0.152041
0.917235 0.756222 0.155428
0.922118 0.748653 0.163973
0.511955 0.701289 0.097993
0.566339 0.717250 0.123934
0.631159 0.730098 0.144198
0.695247 0.739010 0.155001
0.750454 0.746914 0.163302
0.793179 0.758144 0.171267
0.825467 0.768643 0.175875
0.852934 0.779660 0.178866
0.866606 0.790127 0.181003
0.880186 0.795956 0.181582
0.887755 0.798276 0.181216
0.899931 0.803250 0.179507
0.906004 0.804715 0.175204
0.909209 0.804166 0.168978
0.914183 0.801358 0.165377
0.919799 0.800534 0.164706
0.924559 0.793027 0.172000
0.562554 0.748470 0.107057
0.612024 0.767361 0.136172
0.670680 0.779721 0.158236
0.731746 0.787045 0.168612
0.783841 0.793362 0.175845
0.822568 0.802548 0.182528
0.845609 0.811887 0.187503
0.869383 0.820951 0.190585
0.880980 0.828611 0.192569
0.892393 0.836088 0.193851
0.900420 0.839017 0.193698
0.906950 0.840604 0.192294
0.912200 0.840635 0.187808
0.914946 0.843381 0.182162
0.916014 0.840330 0.175998
0.920043 0.839445 0.174105
0.923735 0.834195 0.178408
0.601465 0.786038 0.110780
0.653071 0.809506 0.141878
0.711025 0.823117 0.168856
0.766812 0.828977 0.181064
0.813474 0.833249 0.187686
0.847684 0.840055 0.192905
0.864958 0.846860 0.197177
0.878691 0.853697 0.201144
0.888914 0.859525 0.203098
0.897368 0.864134 0.204685
0.906493 0.868467 0.205051
0.912383 0.870115 0.202609
0.917693 0.871855 0.199405
0.920287 0.875090 0.194247
0.920806 0.874418 0.188571
0.921233 0.869810 0.184665
0.923461 0.861936 0.186709
0.633906 0.820890 0.110842
0.691035 0.846403 0.144411
0.750240 0.861326 0.177676
0.802945 0.865476 0.191775
0.842039 0.867826 0.198672
0.869108 0.871366 0.202731
0.880003 0.873777 0.206516
0.890562 0.877989 0.210269
0.897826 0.880613 0.214054
0.904387 0.884520 0.216648
0.912200 0.887755 0.218082
0.916686 0.889403 0.214603
0.920989 0.891783 0.210147
0.924651 0.895354 0.204868
0.924773 0.897215 0.199557
0.925292 0.895994 0.195804
0.923949 0.885832 0.196292
0.654994 0.847013 0.110140
0.712367 0.868650 0.138918
0.774807 0.885588 0.175845
0.826169 0.890715 0.195529
0.859556 0.891630 0.205356
0.882109 0.893462 0.210513
0.893370 0.894774 0.215579
0.901152 0.896452 0.219333
0.907744 0.898375 0.223178
0.911284 0.899870 0.226658
0.917601 0.902434 0.228641
0.920348 0.904234 0.228458
0.923339 0.904967 0.223697
0.926116 0.906706 0.218265
0.926879 0.910307 0.211490
0.927306 0.912016 0.208133
0.926085 0.906798 0.208896
0.670039 0.873075 0.109224
0.728725 0.888365 0.132967
0.793149 0.903929 0.171603
0.845975 0.910185 0.196292
0.875334 0.911284 0.210666
0.893584 0.911742 0.218692
0.904631 0.912383 0.224613
0.911101 0.913054 0.228428
0.915862 0.914183 0.232090
0.919219 0.914885 0.235538
0.922545 0.916045 0.238926
0.924468 0.917418 0.239872
0.926421 0.918364 0.239078
0.927428 0.918212 0.232425
0.927550 0.920226 0.225376
0.927672 0.922484 0.218540
0.927459 0.921141 0.219699
0.669734 0.888426 0.109407
0.728664 0.900450 0.123507
0.792233 0.914427 0.158846
0.849851 0.922271 0.189151
0.877317 0.924071 0.208743
0.896300 0.924681 0.222049
0.909239 0.924651 0.232029
0.915465 0.924681 0.236454
0.920409 0.924804 0.240177
0.924285 0.924804 0.243717
0.926452 0.924926 0.246983
0.926909 0.924987 0.250156
0.927306 0.925658 0.251408
0.927550 0.926390 0.251194
0.927581 0.926482 0.244327
0.927642 0.926696 0.237400
0.927611 0.927214 0.230350
0.026368 0.026398 0.084382
0.053132 0.025208 0.073030
0.121523 0.024323 0.065736
0.206302 0.024628 0.064118
0.291966 0.025147 0.068452
0.374517 0.025818 0.072663
0.446479 0.026215 0.074861
0.503349 0.026459 0.076020
0.551080 0.026825 0.076143
0.596643 0.027253 0.076661
0.640528 0.027527 0.077913
0.682887 0.028016 0.079286
0.721309 0.028717 0.080293
0.758419 0.029999 0.081086
0.792355 0.035492 0.087678
0.824338 0.043915 0.097261
0.848814 0.059785 0.116152
0.024201 0.064088 0.058625
0.067842 0.067048 0.066133
0.192721 0.046326 0.043946
0.325933 0.037842 0.036072
0.433570 0.034974 0.032929
0.508629 0.033478 0.031159
0.562036 0.032746 0.030426
0.606928 0.030091 0.028870
0.647761 0.029358 0.028504
0.685786 0.028992 0.028412
0.722438 0.029725 0.029023
0.757900 0.030488 0.029999
0.791257 0.034211 0.033570
0.821469 0.042237 0.041230
0.841642 0.061097 0.058930
0.857939 0.088533 0.084169
0.870665 0.131014 0.121401
0.042664 0.140047 0.057984
0.085359 0.165591 0.038972
0.233494 0.182864 0.045991
0.356756 0.154849 0.040864
0.462318 0.141512 0.037415
0.537835 0.134829 0.036164
0.595178 0.130098 0.035706
0.640864 0.123354 0.034272
0.678950 0.124300 0.035035
0.711604 0.121004 0.035462
0.741695 0.119142 0.036408
0.769436 0.116762 0.038209
0.797299 0.119356 0.042481
0.821408 0.127413 0.050996
0.843442 0.148074 0.069459
0.865263 0.179049 0.094759
0.884642 0.223178 0.130465
0.077485 0.224369 0.065431
0.133059 0.273320 0.033448
0.276280 0.304265 0.053437
0.435370 0.328588 0.066407
0.515679 0.299718 0.060945
0.580865 0.281865 0.057130
0.631830 0.270481 0.054566
0.672786 0.258518 0.051331
0.710018 0.255039 0.051972
0.742428 0.247135 0.052308
0.774258 0.244785 0.054017
0.802518 0.239597 0.055451
0.827604 0.238651 0.059327
0.848630 0.241733 0.066499
0.866789 0.254398 0.080873
0.885863 0.277775 0.102907
0.902159 0.312200 0.135653
0.122408 0.305760 0.079896
0.206455 0.381079 0.042023
0.352972 0.419593 0.067445
0.493370 0.444556 0.087434
0.605920 0.469703 0.097383
0.649561 0.440620 0.088869
0.689387 0.424170 0.083742
0.721736 0.408789 0.078431
0.752560 0.398779 0.077180
0.779080 0.385275 0.075807
0.806668 0.377600 0.076539
0.830991 0.369238 0.076875
0.853300 0.363104 0.078798
0.871794 0.361181 0.084169
0.884764 0.362310 0.095613
0.896635 0.374060 0.113466
0.906676 0.397223 0.143191
0.174716 0.383581 0.095705
0.288151 0.477577 0.056397
0.421546 0.513359 0.084291
0.550072 0.538109 0.105470
0.650965 0.559106 0.119966
0.723415 0.579126 0.124239
0.749447 0.553918 0.115969
0.774624 0.535943 0.108217
0.797147 0.523674 0.102876
0.818387 0.509987 0.099855
0.836088 0.497093 0.097444
0.856504 0.485618 0.096590
0.874022 0.477134 0.097322
0.889006 0.469368 0.100618
0.898619 0.465187 0.110719
0.906249 0.463325 0.125673
0.910124 0.473213 0.152010
0.236362 0.457588 0.110597
0.368429 0.560586 0.071992
0.476295 0.588220 0.099733
0.593011 0.610101 0.120790
0.687434 0.628962 0.136995
0.755276 0.647761 0.144198
0.802731 0.662837 0.145785
0.820066 0.642359 0.136416
0.835081 0.628565 0.129366
0.848844 0.613962 0.123201
0.862852 0.602823 0.119814
0.871336 0.588418 0.115175
0.883879 0.579812 0.115206
0.893431 0.569268 0.117159
0.902464 0.556786 0.125368
0.909941 0.548699 0.138979
0.914244 0.544732 0.162631
0.297826 0.527794 0.127443
0.446265 0.636561 0.086763
0.527062 0.655940 0.115328
0.629755 0.673396 0.134920
0.716640 0.689967 0.149599
0.781552 0.707790 0.159091
0.826902 0.722316 0.162997
0.856718 0.734340 0.163943
0.867765 0.719051 0.155550
0.874601 0.700725 0.146578
0.884825 0.687816 0.140719
0.891051 0.673350 0.134218
0.896544 0.660594 0.130709
0.902434 0.648997 0.131838
0.907927 0.635477 0.139528
0.913970 0.620829 0.152895
0.917662 0.609461 0.175875
0.353582 0.592264 0.141878
0.506157 0.692653 0.098665
0.573785 0.710933 0.129335
0.664027 0.726101 0.148318
0.743008 0.739437 0.161166
0.800259 0.755062 0.170535
0.843320 0.769680 0.176699
0.872099 0.781735 0.178653
0.887205 0.791501 0.179934
0.890074 0.772686 0.170047
0.894987 0.758923 0.161807
0.901091 0.747295 0.152895
0.906249 0.736339 0.148257
0.910460 0.723095 0.146212
0.914794 0.709712 0.153658
0.918853 0.693385 0.166598
0.921660 0.672847 0.189670
0.406561 0.652430 0.157504
0.554284 0.738155 0.106569
0.616266 0.759701 0.140688
0.695430 0.772946 0.160555
0.767086 0.783291 0.171756
0.819547 0.796109 0.180362
0.852750 0.807492 0.186770
0.879606 0.819181 0.190707
0.893217 0.827390 0.192599
0.904784 0.835325 0.192142
0.906126 0.817838 0.182193
0.908629 0.808499 0.171633
0.912139 0.797482 0.164126
0.914885 0.784390 0.159670
0.919310 0.767208 0.165682
0.923064 0.748806 0.178897
0.925658 0.726497 0.202335
0.448188 0.704555 0.171359
0.593225 0.775113 0.111330
0.656275 0.803220 0.148592
0.728176 0.817563 0.172946
0.792172 0.824704 0.182589
0.838773 0.831815 0.189364
0.865019 0.840696 0.196048
0.884916 0.849454 0.200015
0.897856 0.855589 0.203372
0.908232 0.862425 0.202487
0.916625 0.866758 0.200534
0.918120 0.859342 0.189700
0.919646 0.851774 0.181338
0.919219 0.837034 0.173556
0.921996 0.819852 0.177432
0.925689 0.801144 0.189334
0.928283 0.776150 0.213199
0.482582 0.751308 0.181216
0.623316 0.810269 0.110231
0.690608 0.837552 0.150332
0.759579 0.850828 0.180728
0.816861 0.855924 0.191440
0.858915 0.861326 0.199069
0.877043 0.864927 0.204868
0.892760 0.872343 0.209171
0.902708 0.877592 0.213107
0.911162 0.880827 0.214633
0.919097 0.884459 0.213413
0.921996 0.887999 0.204196
0.922667 0.881529 0.195804
0.922637 0.874022 0.188418
0.922881 0.860960 0.187900
0.925750 0.844266 0.198306
0.928191 0.821805 0.221500
0.513298 0.792416 0.183688
0.647364 0.842100 0.110140
0.718746 0.868589 0.148989
0.786160 0.881376 0.183993
0.838224 0.884459 0.199496
0.874723 0.886992 0.206912
0.889738 0.889128 0.213718
0.900206 0.891905 0.217960
0.908568 0.895933 0.222141
0.914549 0.898100 0.224704
0.921599 0.900694 0.225162
0.923522 0.902922 0.217502
0.926360 0.905394 0.208408
0.925719 0.900542 0.201480
0.925322 0.891691 0.201724
0.925689 0.874846 0.207919
0.927977 0.853635 0.230442
0.535729 0.831571 0.179019
0.662165 0.866453 0.109071
0.735958 0.887236 0.142245
0.803250 0.899809 0.180056
0.852018 0.903166 0.200259
0.883940 0.905028 0.213169
0.899229 0.906004 0.221927
0.907713 0.907713 0.225956
0.913848 0.909178 0.229892
0.918517 0.911559 0.234043
0.922972 0.913848 0.236393
0.924681 0.913237 0.234592
0.926818 0.915251 0.225925
0.927337 0.918303 0.213931
0.926787 0.913024 0.214725
0.926726 0.900633 0.221592
0.927855 0.879057 0.240299
0.549462 0.858732 0.170901
0.663783 0.882200 0.108461
0.732723 0.896422 0.129335
0.801480 0.910094 0.167788
0.851682 0.915038 0.196139
0.883452 0.916930 0.213626
0.900603 0.917662 0.226841
0.910155 0.918090 0.232486
0.917205 0.918944 0.237156
0.921660 0.919249 0.241306
0.924926 0.921172 0.245060
0.925780 0.921813 0.247349
0.927153 0.921447 0.243900
0.927581 0.922850 0.235447
0.927611 0.924224 0.225834
0.927306 0.915953 0.232883
0.928252 0.899626 0.251865
0.559167 0.884398 0.160800
0.653773 0.894377 0.105959
0.717464 0.902525 0.114656
0.787533 0.915251 0.152102
0.843412 0.922118 0.186984
0.877806 0.924834 0.212863
0.896056 0.925505 0.228977
0.908080 0.925536 0.238224
0.916564 0.925444 0.244114
0.922728 0.925597 0.249210
0.926207 0.925811 0.253544
0.927123 0.926635 0.257328
0.927489 0.926848 0.260349
0.927642 0.925994 0.256718
0.927672 0.926665 0.250034
0.927764 0.927489 0.242618
0.928527 0.915923 0.261723
0.560754 0.899290 0.150942
0.629480 0.902129 0.100679
0.690608 0.905760 0.103670
0.760708 0.916442 0.139590
0.822934 0.923095 0.178927
0.864988 0.926818 0.210361
0.885222 0.927703 0.232395
0.898466 0.927764 0.244785
0.909575 0.927886 0.254337
0.917510 0.927916 0.260349
0.923461 0.928130 0.266911
0.925597 0.928222 0.271641
0.927001 0.928252 0.276555
0.927886 0.928283 0.280766
0.927977 0.928191 0.277501
0.928466 0.928374 0.273777
0.928862 0.928862 0.269932
0.027100 0.027161 0.172000
0.048157 0.026062 0.160678
0.112642 0.024292 0.142824
0.197940 0.024018 0.133059
0.278202 0.024537 0.135531
0.357031 0.025360 0.141756
0.428717 0.025971 0.145083
0.489662 0.026764 0.147280
0.540948 0.027070 0.147585
0.591516 0.027955 0.150607
0.637049 0.028443 0.151583
0.679133 0.029206 0.152010
0.717952 0.030426 0.151949
0.754696 0.031952 0.150546
0.787289 0.036744 0.153872
0.818448 0.044221 0.161013
0.842496 0.058137 0.177035
0.022217 0.067536 0.136599
0.039887 0.047486 0.189609
0.158145 0.044434 0.178958
0.280278 0.035401 0.138186
0.387854 0.033021 0.120577
0.469490 0.031739 0.111696
0.532891 0.031220 0.106294
0.585931 0.029236 0.100130
0.632258 0.028962 0.099336
0.673518 0.028870 0.096223
0.711482 0.029664 0.094514
0.748196 0.030243 0.092195
0.783322 0.033356 0.094148
0.815274 0.039734 0.100130
0.836973 0.054719 0.117464
0.856260 0.077577 0.141299
0.871061 0.114900 0.173831
0.036164 0.144381 0.122530
0.067781 0.186954 0.161166
0.144015 0.149020 0.132998
0.296452 0.118196 0.104677
0.430213 0.097841 0.087465
0.529076 0.085878 0.075380
0.601404 0.075441 0.065339
0.648493 0.068971 0.059968
0.689235 0.062562 0.055055
0.727657 0.056184 0.050355
0.765011 0.053315 0.048646
0.795560 0.050263 0.047303
0.822904 0.056550 0.053620
0.844175 0.068116 0.064851
0.860990 0.102968 0.096834
0.878080 0.148745 0.135988
0.891539 0.200717 0.179599
0.068757 0.235508 0.137057
0.120638 0.308141 0.145968
0.188205 0.278202 0.101717
0.359075 0.293217 0.112367
0.472511 0.255955 0.095064
0.563897 0.233860 0.084108
0.635309 0.215793 0.075074
0.688655 0.201480 0.070192
0.727535 0.187472 0.065339
0.760037 0.171969 0.060822
0.788968 0.163973 0.059174
0.813596 0.154818 0.058259
0.837674 0.159731 0.065736
0.859556 0.171725 0.078096
0.877623 0.204166 0.107210
0.894072 0.243565 0.143832
0.906004 0.287388 0.184756
0.111391 0.315801 0.152804
0.190158 0.413306 0.148013
0.254520 0.395789 0.088289
0.407874 0.421942 0.109926
0.550958 0.437110 0.124544
0.629450 0.410803 0.113100
0.692317 0.389624 0.102968
0.733059 0.365911 0.095094
0.766384 0.344366 0.088777
0.793423 0.324056 0.083131
0.821866 0.307149 0.080323
0.844236 0.292241 0.077516
0.864988 0.286381 0.082277
0.883696 0.292424 0.093141
0.892332 0.307958 0.116762
0.901213 0.336004 0.150179
0.908385 0.369757 0.189761
0.162081 0.393408 0.172732
0.263371 0.501366 0.159945
0.331640 0.500572 0.093965
0.471992 0.532006 0.118349
0.602167 0.548028 0.136385
0.698054 0.566888 0.147677
0.752102 0.542840 0.135988
0.789212 0.518761 0.127321
0.810971 0.496498 0.117586
0.833463 0.473533 0.109865
0.851591 0.453605 0.104189
0.872587 0.432029 0.099123
0.886870 0.418509 0.101442
0.900938 0.411200 0.108797
0.906096 0.414038 0.129030
0.908965 0.421820 0.158267
0.910643 0.441321 0.195987
0.217990 0.468360 0.192508
0.327184 0.574639 0.172641
0.406531 0.590509 0.104677
0.526452 0.619501 0.127932
0.644770 0.635767 0.145754
0.736873 0.653437 0.160006
0.801175 0.670069 0.168246
0.833768 0.644678 0.158633
0.849424 0.622858 0.147646
0.862852 0.602579 0.136385
0.875731 0.584817 0.128817
0.885618 0.563333 0.120790
0.896635 0.544656 0.121370
0.904845 0.525826 0.125399
0.909880 0.512398 0.141665
0.912688 0.509880 0.168826
0.914366 0.511315 0.204501
0.272709 0.538293 0.213535
0.385199 0.641413 0.185153
0.475898 0.667323 0.119539
0.573022 0.687099 0.140017
0.674220 0.702663 0.155306
0.764492 0.719203 0.172396
0.828183 0.734340 0.183597
0.866270 0.748745 0.188876
0.879088 0.726436 0.176547
0.886992 0.706004 0.163302
0.894713 0.687449 0.152773
0.901854 0.666606 0.142367
0.905730 0.643046 0.139162
0.911284 0.621988 0.142214
0.914000 0.601144 0.158328
0.915862 0.581979 0.181918
0.916747 0.575006 0.216220
0.323583 0.600885 0.231601
0.427863 0.693843 0.197818
0.530724 0.723842 0.126528
0.615167 0.744808 0.149691
0.706142 0.758633 0.165133
0.783047 0.772122 0.179019
0.841978 0.784634 0.192203
0.876982 0.797909 0.197940
0.893553 0.806363 0.201602
0.900572 0.788281 0.188388
0.905303 0.771984 0.176913
0.911192 0.755871 0.163394
0.914946 0.735210 0.158450
0.918639 0.711345 0.158724
0.919768 0.686488 0.174807
0.919982 0.660792 0.198367
0.919890 0.639460 0.229252
0.367468 0.659602 0.253574
0.462989 0.739406 0.200809
0.578454 0.773678 0.127932
0.654353 0.798337 0.156893
0.736782 0.809781 0.173373
0.808865 0.821164 0.187289
0.855131 0.829618 0.199008
0.884184 0.840116 0.205814
0.900236 0.846922 0.210330
0.912383 0.853788 0.211246
0.914702 0.834775 0.198581
0.917906 0.823880 0.183261
0.920134 0.804044 0.174960
0.922179 0.780026 0.173190
0.923858 0.749294 0.188418
0.924163 0.722347 0.212619
0.924102 0.699580 0.244022
0.403723 0.710719 0.269352
0.491371 0.780392 0.199741
0.616938 0.812772 0.125277
0.691585 0.842893 0.160006
0.769100 0.854551 0.182193
0.830839 0.859739 0.194583
0.869566 0.865080 0.206485
0.888823 0.870848 0.213993
0.904021 0.874113 0.220005
0.915221 0.879057 0.221195
0.923217 0.884215 0.217868
0.925414 0.876799 0.202121
0.925200 0.861967 0.192844
0.925200 0.838926 0.187564
0.926238 0.809628 0.201114
0.927306 0.779507 0.224887
0.928496 0.754910 0.256901
0.434699 0.759426 0.280125
0.512352 0.819669 0.189639
0.645045 0.846891 0.116670
0.719600 0.871183 0.153872
0.795682 0.881651 0.180758
0.856352 0.886839 0.197360
0.882628 0.889342 0.212314
0.897917 0.893675 0.220127
0.909819 0.896269 0.226719
0.918303 0.898131 0.230411
0.925414 0.902098 0.228489
0.926696 0.905699 0.219089
0.926513 0.894835 0.209201
0.926635 0.879911 0.202670
0.927092 0.857694 0.212680
0.928161 0.829709 0.235355
0.929961 0.805203 0.267033
0.457160 0.798672 0.277745
0.532616 0.853330 0.182376
0.659419 0.871916 0.112184
0.736019 0.891966 0.145754
0.810056 0.901335 0.180026
0.864805 0.905425 0.201114
0.891386 0.907652 0.218753
0.904387 0.909026 0.226780
0.914366 0.911437 0.234165
0.920470 0.912963 0.239048
0.925811 0.913542 0.240940
0.926818 0.915557 0.235019
0.927764 0.918303 0.224063
0.927581 0.907012 0.217441
0.927825 0.888975 0.227512
0.928649 0.865812 0.247593
0.930785 0.841886 0.278569
0.473793 0.837247 0.268101
0.546593 0.878935 0.171756
0.662318 0.888518 0.107576
0.738430 0.905821 0.133455
0.812192 0.914977 0.168948
0.865965 0.919524 0.198337
0.893919 0.921599 0.221622
0.907652 0.922362 0.232059
0.917723 0.922942 0.240208
0.923003 0.924132 0.245945
0.926696 0.924804 0.249943
0.927123 0.923644 0.251102
0.927611 0.924407 0.243809
0.927642 0.926299 0.231907
0.927977 0.911742 0.241978
0.929107 0.892699 0.262364
0.931090 0.871885 0.291539
0.483528 0.862608 0.250736
0.551415 0.895109 0.161227
0.644404 0.897459 0.102754
0.714168 0.906126 0.116579
0.791074 0.916747 0.156069
0.848753 0.922301 0.191531
0.883207 0.925170 0.221530
0.900328 0.925872 0.236454
0.912352 0.926299 0.246860
0.920043 0.926513 0.254032
0.924559 0.927123 0.260166
0.927001 0.926848 0.265538
0.927489 0.926513 0.266270
0.927733 0.927367 0.260105
0.927977 0.927733 0.252628
0.929076 0.911437 0.273838
0.931060 0.893767 0.304021
0.495064 0.888823 0.234867
0.551324 0.907530 0.151095
0.620661 0.903655 0.097047
0.688197 0.908598 0.108339
0.767666 0.917296 0.149020
0.831540 0.923735 0.190982
0.869688 0.926940 0.224552
0.889433 0.927459 0.244968
0.903929 0.927947 0.258518
0.913207 0.928313 0.267247
0.919921 0.928588 0.275334
0.923461 0.928588 0.282048
0.927123 0.928649 0.287541
0.928161 0.928649 0.288365
0.928618 0.928832 0.284733
0.929503 0.929503 0.283024
0.931365 0.913298 0.314977
0.505211 0.906126 0.218357
0.547631 0.915923 0.145022
0.602411 0.909117 0.101350
0.670039 0.911589 0.114443
0.751064 0.919829 0.159915
0.814389 0.925170 0.201572
0.858396 0.928435 0.239567
0.879728 0.928985 0.260227
0.894682 0.929442 0.278599
0.905425 0.929931 0.288762
0.913207 0.930571 0.299809
0.918639 0.930663 0.306889
0.923247 0.930755 0.314580
0.928283 0.930755 0.320226
0.928954 0.930816 0.320989
0.930541 0.931212 0.321965
0.932128 0.932128 0.323766
0.027710 0.027741 0.238529
0.044312 0.026886 0.247440
0.103243 0.025452 0.233494
0.188785 0.023743 0.209476
0.278294 0.024720 0.206302
0.357671 0.026215 0.211521
0.430732 0.027527 0.216495
0.492378 0.028840 0.219699
0.544854 0.029877 0.221225
0.594202 0.031006 0.224216
0.637873 0.031464 0.224338
0.677882 0.031983 0.224125
0.713741 0.032990 0.221897
0.747677 0.034424 0.219150
