LUT color transfer/LUTs/28.cube
# (C) 2014 VisionColor & Patchflyer [www.vision-color.com]
# Generator: VC Patchmatch v.2.1.1 [64/53]
# All work and no play makes Jack a dull boy.
# LUT generated from: Fuji Superior 200_FC
LUT_3D_SIZE 9
0.025147 0.025147 0.025147
0.144808 0.024994 0.024964
0.329534 0.025788 0.025788
0.477424 0.026490 0.026429
0.570611 0.027405 0.026856
0.656519 0.027985 0.027497
0.733639 0.028534 0.028412
0.801114 0.036530 0.035828
0.849668 0.065492 0.063416
0.041932 0.115724 0.015351
0.176425 0.130617 0.022797
0.364965 0.153994 0.030121
0.516930 0.173098 0.035004
0.615351 0.181216 0.038270
0.698207 0.195224 0.042451
0.768246 0.201694 0.046693
0.824674 0.208774 0.056428
0.872374 0.242039 0.084352
0.116976 0.272862 0.021485
0.298863 0.314733 0.048829
0.459312 0.344335 0.063355
0.591333 0.371862 0.068666
0.681956 0.389258 0.072236
0.757229 0.401984 0.076936
0.819211 0.411627 0.081514
0.866850 0.416907 0.088869
0.900389 0.428443 0.107668
0.248478 0.443305 0.043061
0.446448 0.489021 0.082734
0.598306 0.519249 0.105806
0.693019 0.544823 0.112428
0.757687 0.554086 0.110628
0.819638 0.566155 0.111147
0.861540 0.573358 0.111666
0.887602 0.577966 0.115938
0.907469 0.576837 0.130800
0.388266 0.581643 0.070558
0.547692 0.621027 0.115633
0.680629 0.645167 0.136782
0.769497 0.670542 0.148684
0.817838 0.689097 0.151736
0.860868 0.694575 0.146822
0.887938 0.702998 0.142580
0.905241 0.705898 0.141787
0.917540 0.699947 0.153841
0.511955 0.701289 0.097993
0.631159 0.730098 0.144198
0.750454 0.746914 0.163302
0.825467 0.768643 0.175875
0.866606 0.790127 0.181003
0.887755 0.798276 0.181216
0.906004 0.804715 0.175204
0.914183 0.801358 0.165377
0.924559 0.793027 0.172000
0.601465 0.786038 0.110780
0.711025 0.823117 0.168856
0.813474 0.833249 0.187686
0.864958 0.846860 0.197177
0.888914 0.859525 0.203098
0.906493 0.868467 0.205051
0.917693 0.871855 0.199405
0.920806 0.874418 0.188571
0.923461 0.861936 0.186709
0.654994 0.847013 0.110140
0.774807 0.885588 0.175845
0.859556 0.891630 0.205356
0.893370 0.894774 0.215579
0.907744 0.898375 0.223178
0.917601 0.902434 0.228641
0.923339 0.904967 0.223697
0.926879 0.910307 0.211490
0.926085 0.906798 0.208896
0.669734 0.888426 0.109407
0.792233 0.914427 0.158846
0.877317 0.924071 0.208743
0.909239 0.924651 0.232029
0.920409 0.924804 0.240177
0.926452 0.924926 0.246983
0.927306 0.925658 0.251408
0.927581 0.926482 0.244327
0.927611 0.927214 0.230350
0.027100 0.027161 0.172000
0.112642 0.024292 0.142824
0.278202 0.024537 0.135531
0.428717 0.025971 0.145083
0.540948 0.027070 0.147585
0.637049 0.028443 0.151583
0.717952 0.030426 0.151949
0.787289 0.036744 0.153872
0.842496 0.058137 0.177035
0.036164 0.144381 0.122530
0.144015 0.149020 0.132998
0.430213 0.097841 0.087465
0.601404 0.075441 0.065339
0.689235 0.062562 0.055055
0.765011 0.053315 0.048646
0.822904 0.056550 0.053620
0.860990 0.102968 0.096834
0.891539 0.200717 0.179599
0.111391 0.315801 0.152804
0.254520 0.395789 0.088289
0.550958 0.437110 0.124544
0.692317 0.389624 0.102968
0.766384 0.344366 0.088777
0.821866 0.307149 0.080323
0.864988 0.286381 0.082277
0.892332 0.307958 0.116762
0.908385 0.369757 0.189761
0.217990 0.468360 0.192508
0.406531 0.590509 0.104677
0.644770 0.635767 0.145754
0.801175 0.670069 0.168246
0.849424 0.622858 0.147646
0.875731 0.584817 0.128817
0.896635 0.544656 0.121370
0.909880 0.512398 0.141665
0.914366 0.511315 0.204501
0.323583 0.600885 0.231601
0.530724 0.723842 0.126528
0.706142 0.758633 0.165133
0.841978 0.784634 0.192203
0.893553 0.806363 0.201602
0.905303 0.771984 0.176913
0.914946 0.735210 0.158450
0.919768 0.686488 0.174807
0.919890 0.639460 0.229252
0.403723 0.710719 0.269352
0.616938 0.812772 0.125277
0.769100 0.854551 0.182193
0.869566 0.865080 0.206485
0.904021 0.874113 0.220005
0.923217 0.884215 0.217868
0.925200 0.861967 0.192844
0.926238 0.809628 0.201114
0.928496 0.754910 0.256901
0.457160 0.798672 0.277745
0.659419 0.871916 0.112184
0.810056 0.901335 0.180026
0.891386 0.907652 0.218753
0.914366 0.911437 0.234165
0.925811 0.913542 0.240940
0.927764 0.918303 0.224063
0.927825 0.888975 0.227512
0.930785 0.841886 0.278569
0.483528 0.862608 0.250736
0.644404 0.897459 0.102754
0.791074 0.916747 0.156069
0.883207 0.925170 0.221530
0.912352 0.926299 0.246860
0.924559 0.927123 0.260166
0.927489 0.926513 0.266270
0.927977 0.927733 0.252628
0.931060 0.893767 0.304021
0.505211 0.906126 0.218357
0.602411 0.909117 0.101350
0.751064 0.919829 0.159915
0.858396 0.928435 0.239567
0.894682 0.929442 0.278599
0.913207 0.930571 0.299809
0.923247 0.930755 0.314580
0.928954 0.930816 0.320989
0.932128 0.932128 0.323766
0.027649 0.027649 0.289647
0.092042 0.028077 0.332616
0.254612 0.023835 0.266636
0.419715 0.028260 0.271946
0.540002 0.031373 0.280064
0.632593 0.032959 0.282994
0.702174 0.033478 0.277684
0.759793 0.038392 0.269169
0.805844 0.055940 0.268070
0.035065 0.150912 0.258000
0.058595 0.085420 0.357305
0.313237 0.079896 0.316625
0.521294 0.065858 0.271946
0.646662 0.059083 0.243961
0.740658 0.051789 0.220127
0.807980 0.052155 0.200565
0.845762 0.084657 0.214694
0.868193 0.165164 0.265049
0.082856 0.301427 0.274235
0.146334 0.366308 0.340520
0.327642 0.313848 0.289281
0.530266 0.266606 0.244297
0.674617 0.227054 0.200137
0.785306 0.192142 0.168765
0.858000 0.171542 0.152956
0.895018 0.214847 0.190860
0.902220 0.317540 0.283513
0.156344 0.442237 0.320287
0.261479 0.575616 0.350134
0.424811 0.543023 0.252567
0.656947 0.564569 0.288731
0.768063 0.521324 0.243931
0.844602 0.473075 0.204166
0.894255 0.421653 0.176913
0.910185 0.416114 0.205997
0.908690 0.452705 0.295720
0.232395 0.572412 0.369757
0.371923 0.719356 0.355535
0.518669 0.702937 0.223423
0.723476 0.727169 0.266361
0.846067 0.743160 0.295811
0.885954 0.708721 0.253773
0.909422 0.654856 0.217441
0.917144 0.598398 0.232486
0.914733 0.583566 0.316350
0.307652 0.689784 0.412695
0.444312 0.825833 0.335943
0.590021 0.818845 0.187259
0.765286 0.842039 0.236789
0.871794 0.851194 0.278935
0.910369 0.856474 0.299779
0.921965 0.823819 0.260838
0.927306 0.762875 0.269566
0.927123 0.719936 0.347234
0.373327 0.793301 0.437598
0.488380 0.890806 0.287572
0.608515 0.884703 0.126131
0.787747 0.897856 0.194278
0.885527 0.903655 0.257603
0.915465 0.905760 0.289219
0.930419 0.910155 0.297887
0.932311 0.872007 0.304906
0.935973 0.833646 0.378790
0.428565 0.871397 0.425025
0.515435 0.916472 0.244938
0.597009 0.909483 0.099092
0.776333 0.918730 0.181857
0.880522 0.928557 0.267094
0.912413 0.930724 0.308141
0.927794 0.931762 0.328954
0.933898 0.933349 0.337743
0.939025 0.893309 0.414221
0.474342 0.917876 0.389441
0.526940 0.928862 0.243168
0.612238 0.922545 0.182559
0.768643 0.931304 0.272770
0.865873 0.934722 0.341100
0.897154 0.936919 0.386328
0.913146 0.938476 0.419226
0.930907 0.938872 0.436744
0.940246 0.940246 0.445716
0.028717 0.028717 0.387640
0.075257 0.031983 0.509300
0.201938 0.027802 0.406317
0.360967 0.025574 0.342382
0.490486 0.027924 0.342046
0.584405 0.029541 0.350408
0.657679 0.030030 0.349676
0.714412 0.034302 0.340337
0.765743 0.051484 0.332647
0.036896 0.153872 0.364355
0.033570 0.057923 0.542351
0.180362 0.057374 0.496986
0.426154 0.056123 0.413611
0.565911 0.051453 0.376898
0.670100 0.045838 0.353979
0.747921 0.046998 0.323003
0.800992 0.076692 0.311650
0.835233 0.149111 0.333776
0.083101 0.292149 0.372808
0.094850 0.290318 0.476661
0.172946 0.217838 0.425391
0.397528 0.215213 0.396735
0.558709 0.186831 0.360113
0.693767 0.158999 0.323583
0.807858 0.137789 0.288304
0.864134 0.174350 0.292760
0.873838 0.280400 0.352667
0.129885 0.423163 0.407324
0.175418 0.531945 0.530938
0.275975 0.475105 0.464027
0.468879 0.447883 0.429999
0.616693 0.409186 0.387671
0.743832 0.368185 0.336568
0.849424 0.317769 0.284474
0.901091 0.316686 0.282658
0.894713 0.418372 0.380072
0.179843 0.549615 0.457832
0.233433 0.685603 0.535454
0.350011 0.669215 0.452613
0.529381 0.633570 0.407050
0.734462 0.658045 0.442939
0.821286 0.622477 0.386709
0.885252 0.566384 0.324483
0.909941 0.516884 0.308171
0.907805 0.547051 0.406683
0.229007 0.669032 0.500084
0.309041 0.816648 0.541131
0.431739 0.812955 0.416648
0.597436 0.791592 0.352010
0.779812 0.803403 0.408469
0.881407 0.811826 0.438514
0.910613 0.778485 0.378973
0.926390 0.710338 0.348943
0.923888 0.691203 0.440101
0.287510 0.783505 0.539422
0.391577 0.899870 0.512184
0.486366 0.898528 0.337362
0.616602 0.882811 0.249042
0.807034 0.889677 0.339956
0.892515 0.894957 0.401526
0.929839 0.897063 0.423133
0.937316 0.857450 0.400061
0.938506 0.826444 0.486763
0.350835 0.874815 0.554650
0.453651 0.931701 0.457206
0.519585 0.933013 0.289113
0.618524 0.919280 0.189929
0.815671 0.930449 0.307759
0.892790 0.934722 0.385229
0.922606 0.936156 0.429603
0.940581 0.938415 0.444709
0.942443 0.895262 0.530999
0.408148 0.928496 0.539361
0.494636 0.940490 0.438453
0.557244 0.937835 0.362173
0.672419 0.936614 0.369589
0.790127 0.939239 0.440330
0.866484 0.941100 0.488716
0.896208 0.942351 0.526635
0.926818 0.942779 0.552728
0.944274 0.944274 0.567864
0.029572 0.029572 0.496284
0.061372 0.030274 0.607172
0.162081 0.028626 0.536614
0.296178 0.025849 0.437690
0.432044 0.025544 0.404303
0.521477 0.026520 0.398657
0.602228 0.027710 0.404120
0.669276 0.031678 0.399573
0.727749 0.049195 0.392248
0.039063 0.153536 0.477699
0.028138 0.047700 0.658412
0.110567 0.045106 0.643854
0.293889 0.044129 0.528161
0.485267 0.044739 0.490730
0.594186 0.041901 0.453361
0.683040 0.043793 0.419135
0.746975 0.071595 0.394659
0.791379 0.137240 0.394751
0.080873 0.289433 0.459907
0.070253 0.253758 0.605493
0.092103 0.162112 0.569574
0.263401 0.158450 0.501396
0.451270 0.160342 0.471595
0.594797 0.140414 0.439323
0.724926 0.122347 0.401404
0.803006 0.153292 0.382757
0.827298 0.252445 0.409766
0.121279 0.408606 0.494179
0.124666 0.462287 0.612985
0.169284 0.394446 0.563989
0.300603 0.343969 0.510124
0.496315 0.349248 0.501488
0.629404 0.310262 0.458244
0.756710 0.263035 0.402548
0.846494 0.267643 0.378759
0.864927 0.381567 0.442542
0.161593 0.539330 0.545632
0.187503 0.666041 0.683970
0.246677 0.617578 0.618189
0.399512 0.583062 0.573297
0.585168 0.562921 0.556939
0.704829 0.520638 0.504768
0.813046 0.472770 0.446952
0.884062 0.439109 0.402762
0.891447 0.514672 0.476875
0.197360 0.657252 0.591669
0.229007 0.796353 0.692958
0.280797 0.776440 0.617411
0.429450 0.757946 0.569070
0.620050 0.730663 0.536171
0.794537 0.745953 0.570367
0.874388 0.711803 0.508141
0.908721 0.653849 0.452613
0.914214 0.664652 0.524956
0.232303 0.770413 0.630884
0.279759 0.895171 0.702892
0.346273 0.895628 0.600290
0.473915 0.881407 0.523171
0.654719 0.865446 0.479912
0.820691 0.869535 0.539223
0.908904 0.872526 0.566812
0.935149 0.844022 0.522667
0.935973 0.807340 0.581445
0.276951 0.869261 0.668177
0.336217 0.932586 0.663584
0.424231 0.938720 0.564279
0.527825 0.936767 0.464897
0.677974 0.929931 0.417319
0.831983 0.930663 0.499153
0.900786 0.932769 0.554803
0.941711 0.934508 0.580606
0.945342 0.896178 0.640009
0.322698 0.927611 0.677058
0.397589 0.940887 0.626810
0.487831 0.941985 0.577066
0.591028 0.940978 0.550973
0.702144 0.942626 0.553536
0.798474 0.945159 0.594598
0.873777 0.945586 0.629084
0.918791 0.946014 0.656764
0.946593 0.946563 0.676753
0.029511 0.029511 0.600702
0.052186 0.028779 0.669642
0.132235 0.027802 0.632868
0.244862 0.025940 0.533242
0.363363 0.025513 0.482521
0.474586 0.025574 0.465492
0.558038 0.027192 0.464088
0.637446 0.031434 0.464698
0.698177 0.048798 0.458717
0.043153 0.155123 0.591791
0.027497 0.041321 0.738399
0.071290 0.036255 0.732570
0.204364 0.036378 0.632013
0.375265 0.036652 0.573510
0.543175 0.039277 0.564935
0.642451 0.042786 0.524865
0.701198 0.070802 0.484871
0.740200 0.131746 0.458686
0.081178 0.293675 0.561852
0.054597 0.229068 0.734554
0.049805 0.127169 0.727428
0.158892 0.114534 0.638651
0.329183 0.119265 0.576181
0.512444 0.125673 0.556817
0.648463 0.114046 0.516716
0.732601 0.141543 0.473152
0.772732 0.230686 0.469429
0.108248 0.409735 0.576654
0.087770 0.428885 0.708156
0.092775 0.335317 0.682048
0.163928 0.263142 0.604578
0.340291 0.265705 0.575219
0.515007 0.271015 0.556176
0.652064 0.231098 0.503410
0.767117 0.234684 0.469825
0.808469 0.347265 0.495338
0.143954 0.530556 0.621973
0.138796 0.621988 0.758846
0.151415 0.549538 0.706874
0.247242 0.492546 0.648310
0.403510 0.456413 0.605035
0.584405 0.466056 0.602533
0.708339 0.410788 0.544610
0.812192 0.379629 0.491981
0.856809 0.475639 0.541100
0.187106 0.657618 0.681361
0.178866 0.779568 0.809262
0.201450 0.734524 0.748898
0.311025 0.705196 0.706203
0.488701 0.685481 0.684596
0.675837 0.671107 0.669978
0.786435 0.623407 0.610285
0.872160 0.574975 0.546838
0.898344 0.618524 0.592371
0.216251 0.766964 0.722560
0.213016 0.877562 0.811490
0.233921 0.869047 0.767941
0.330129 0.859312 0.736996
0.500465 0.848203 0.692485
0.695125 0.826932 0.659144
0.855161 0.830869 0.679194
0.914122 0.798398 0.631006
0.927825 0.782528 0.661616
0.235233 0.862455 0.757900
0.249363 0.919707 0.796780
0.297917 0.928161 0.770596
0.397940 0.936156 0.731426
0.534493 0.931121 0.674449
0.701350 0.918853 0.628550
0.853391 0.919005 0.673243
0.932067 0.921080 0.704189
0.945373 0.888121 0.728511
0.261387 0.922393 0.777707
0.300877 0.932860 0.765072
0.394476 0.939422 0.756466
0.494682 0.942016 0.733410
0.597971 0.944579 0.709911
0.723445 0.946471 0.702693
0.831510 0.946868 0.724483
0.907958 0.946990 0.753140
0.947662 0.947265 0.769924
0.029450 0.029480 0.681392
0.041993 0.028992 0.709468
0.108370 0.028138 0.684993
0.202762 0.026795 0.608423
0.308766 0.026123 0.553246
0.413916 0.026184 0.533989
0.522606 0.026673 0.532341
0.611566 0.030945 0.533349
0.677394 0.048341 0.526574
0.042359 0.154299 0.705257
0.028290 0.038453 0.815183
0.051637 0.032380 0.795590
0.147768 0.032227 0.726375
0.287160 0.033600 0.649317
0.435248 0.035615 0.627497
0.603876 0.040375 0.623346
0.669886 0.068086 0.582757
0.696437 0.128054 0.530358
0.076448 0.305241 0.671656
0.040803 0.205264 0.827390
0.026734 0.098634 0.843229
0.091402 0.079896 0.786542
0.223194 0.084993 0.701183
0.391241 0.093172 0.657526
0.585595 0.104616 0.650507
0.676661 0.134310 0.581170
0.713375 0.213199 0.532372
0.091981 0.416754 0.670741
0.059419 0.398535 0.791257
0.043000 0.284535 0.802792
0.072816 0.197818 0.736553
0.190845 0.191028 0.683696
0.367041 0.200366 0.648219
0.552941 0.207324 0.633143
0.682857 0.209445 0.568353
0.747982 0.317937 0.556939
0.119692 0.538674 0.699702
0.089357 0.582406 0.814145
0.073793 0.493095 0.793423
0.115709 0.413504 0.737209
0.224537 0.355825 0.680354
0.416266 0.368063 0.668391
0.594415 0.370474 0.654719
0.716304 0.337423 0.585779
0.802976 0.441520 0.598901
0.160525 0.660243 0.754025
0.138674 0.745510 0.869139
0.127260 0.690044 0.836027
0.172671 0.626230 0.781918
0.316793 0.594186 0.745144
0.493080 0.569604 0.706783
0.684871 0.575158 0.711452
0.788479 0.517067 0.638209
0.865782 0.587640 0.657343
0.189181 0.761654 0.791226
0.135561 0.839261 0.870054
0.139651 0.813260 0.843320
0.200855 0.800656 0.819730
0.357931 0.800381 0.811734
0.558953 0.785550 0.787717
0.762783 0.780484 0.773678
0.872953 0.727901 0.709285
0.913481 0.741665 0.716548
0.202335 0.847745 0.814054
0.182040 0.889342 0.840909
0.207736 0.896757 0.841215
0.279377 0.910796 0.848569
0.407889 0.920531 0.841276
0.560204 0.912169 0.799313
0.751125 0.901762 0.769284
0.911864 0.905241 0.790677
0.943114 0.876219 0.784695
0.218448 0.905241 0.829099
0.245274 0.917021 0.831571
0.322332 0.929229 0.848234
0.418494 0.937865 0.846403
0.513680 0.941222 0.826596
0.627222 0.944457 0.803098
0.765713 0.947143 0.805234
0.894377 0.948089 0.819181
0.949859 0.949706 0.839567
0.029603 0.031067 0.767941
0.035431 0.029633 0.750729
0.089631 0.028748 0.738064
0.172366 0.028199 0.675044
0.269200 0.027802 0.621851
0.367254 0.027985 0.597406
0.465126 0.028565 0.596338
0.584772 0.030091 0.595270
0.657649 0.046143 0.594263
0.037842 0.151553 0.805814
0.025269 0.055238 0.872709
0.051453 0.043091 0.846525
0.122744 0.043061 0.806271
0.224430 0.047272 0.726009
0.339910 0.051057 0.685878
0.471046 0.056214 0.672755
0.631281 0.063600 0.667536
0.668208 0.122652 0.618067
0.063813 0.308019 0.771420
0.029297 0.203769 0.866117
0.022980 0.115450 0.873503
0.071931 0.094697 0.836881
0.164981 0.097719 0.781399
0.289464 0.105623 0.729671
0.441901 0.116091 0.713558
0.619623 0.124544 0.704524
0.662654 0.201114 0.615717
0.070283 0.424292 0.757748
0.039368 0.366888 0.833890
0.028626 0.266209 0.843229
0.042786 0.182376 0.830869
0.121126 0.169986 0.783169
0.251377 0.176486 0.743374
0.422858 0.190463 0.726192
0.608423 0.196750 0.716457
0.685359 0.295109 0.637781
0.088808 0.538674 0.771023
0.056336 0.529641 0.835172
0.045899 0.445853 0.832151
0.064546 0.365011 0.807370
0.111696 0.290059 0.772457
0.253330 0.294667 0.747890
0.445075 0.308583 0.737240
0.630640 0.315663 0.723720
0.744167 0.417014 0.674525
0.125765 0.662348 0.813016
0.097963 0.680934 0.872190
0.082826 0.625650 0.862211
0.100343 0.563394 0.840543
0.185916 0.513893 0.804349
0.295369 0.461936 0.766751
0.509651 0.481285 0.767727
0.697658 0.487114 0.764309
0.818296 0.562768 0.728267
0.152956 0.758144 0.850278
0.123537 0.792020 0.895232
0.114778 0.760098 0.889708
0.132082 0.730190 0.876738
0.225116 0.709743 0.859831
0.400931 0.700313 0.841825
0.586572 0.676051 0.810452
0.795590 0.681880 0.821683
0.884672 0.712337 0.788968
0.154726 0.831235 0.862181
0.108034 0.846769 0.879759
0.108431 0.844053 0.878447
0.134218 0.861784 0.883391
0.236042 0.882322 0.890929
0.414847 0.889220 0.889158
0.595087 0.895567 0.889494
0.868345 0.881956 0.876127
0.942748 0.873960 0.853727
0.165316 0.880491 0.852415
0.177401 0.884886 0.848478
0.232395 0.902647 0.867826
0.318090 0.921141 0.878508
0.423148 0.934630 0.881529
0.547387 0.940398 0.877714
0.684779 0.945342 0.880308
0.857786 0.945373 0.888518
0.950591 0.950561 0.893217
0.028412 0.039277 0.869963
0.035340 0.032929 0.821714
0.086183 0.031586 0.815488
0.157259 0.032624 0.755978
0.236454 0.034943 0.697475
0.319249 0.036042 0.666285
0.408270 0.037720 0.653834
0.510369 0.040314 0.649134
0.634913 0.043549 0.646540
0.032227 0.162631 0.877623
0.024384 0.104555 0.875853
0.057374 0.086641 0.851194
0.114015 0.086488 0.825101
0.185885 0.090730 0.772274
0.275792 0.095888 0.731777
0.375250 0.102785 0.715633
0.490608 0.109682 0.705318
0.625086 0.115816 0.704158
0.048066 0.308812 0.836881
0.026886 0.229648 0.858763
0.040284 0.178592 0.838193
0.086152 0.166537 0.803922
0.154177 0.166506 0.782650
0.246281 0.169528 0.749844
0.359625 0.180270 0.732937
0.493477 0.190097 0.730373
0.617121 0.193545 0.723659
0.049378 0.425238 0.818936
0.032929 0.355322 0.831876
0.050935 0.296696 0.812741
0.088777 0.267674 0.804837
0.154055 0.261540 0.783413
0.256626 0.267124 0.765133
0.381384 0.276463 0.752621
0.522637 0.289403 0.753841
0.643091 0.293919 0.743252
0.060945 0.538720 0.824643
0.048707 0.492744 0.835477
0.071107 0.432578 0.821866
0.125551 0.405997 0.803250
0.182498 0.382086 0.797391
0.292638 0.387213 0.787930
0.429999 0.396857 0.783017
0.569543 0.407874 0.785214
0.693385 0.410529 0.777371
0.092622 0.648859 0.855009
0.076844 0.612665 0.857847
0.096101 0.569543 0.848600
0.162631 0.549584 0.834623
0.256229 0.540230 0.829892
0.340322 0.520470 0.824155
0.493187 0.531975 0.821622
0.641749 0.542351 0.827573
0.763485 0.545708 0.827054
0.123812 0.747250 0.888518
0.107515 0.717830 0.885344
0.118624 0.689021 0.877165
0.183902 0.678462 0.872404
0.297246 0.684993 0.869261
0.428931 0.680995 0.867491
0.543236 0.666865 0.863493
0.717098 0.676173 0.865171
0.839902 0.681361 0.864805
0.126345 0.809415 0.891417
0.117739 0.794919 0.893797
0.130648 0.781430 0.890776
0.193393 0.790066 0.888945
0.303746 0.808499 0.892149
0.449256 0.824216 0.899748
0.595026 0.828244 0.903197
0.773068 0.828611 0.899321
0.909392 0.835355 0.903227
0.115023 0.855192 0.883452
0.105715 0.840574 0.878996
0.127047 0.866270 0.886656
0.194461 0.891600 0.901701
0.306722 0.913787 0.918029
0.453529 0.935271 0.928954
0.599603 0.941802 0.933928
0.810636 0.945556 0.937591
0.959869 0.959869 0.951537
