LUT color transfer/LUTs/28.cube
# (C) 2014 VisionColor & Patchflyer [www.vision-color.com]
# Generator: VC Patchmatch v.2.1.1 [64/53]
# All work and no play makes Jack a dull boy.
# LUT generated from: Fuji Superior 200_FC
LUT_3D_SIZE 5
0.025147 0.025147 0.025147
0.329534 0.025788 0.025788
0.570611 0.027405 0.026856
0.733639 0.028534 0.028412
0.849668 0.065492 0.063416
0.116976 0.272862 0.021485
0.459312 0.344335 0.063355
0.681956 0.389258 0.072236
0.819211 0.411627 0.081514
0.900389 0.428443 0.107668
0.388266 0.581643 0.070558
0.680629 0.645167 0.136782
0.817838 0.689097 0.151736
0.887938 0.702998 0.142580
0.917540 0.699947 0.153841
0.601465 0.786038 0.110780
0.813474 0.833249 0.187686
0.888914 0.859525 0.203098
0.917693 0.871855 0.199405
0.923461 0.861936 0.186709
0.669734 0.888426 0.109407
0.877317 0.924071 0.208743
0.920409 0.924804 0.240177
0.927306 0.925658 0.251408
0.927611 0.927214 0.230350
0.027649 0.027649 0.289647
0.254612 0.023835 0.266636
0.540002 0.031373 0.280064
0.702174 0.033478 0.277684
0.805844 0.055940 0.268070
0.082856 0.301427 0.274235
0.327642 0.313848 0.289281
0.674617 0.227054 0.200137
0.858000 0.171542 0.152956
0.902220 0.317540 0.283513
0.232395 0.572412 0.369757
0.518669 0.702937 0.223423
0.846067 0.743160 0.295811
0.909422 0.654856 0.217441
0.914733 0.583566 0.316350
0.373327 0.793301 0.437598
0.608515 0.884703 0.126131
0.885527 0.903655 0.257603
0.930419 0.910155 0.297887
0.935973 0.833646 0.378790
0.474342 0.917876 0.389441
0.612238 0.922545 0.182559
0.865873 0.934722 0.341100
0.913146 0.938476 0.419226
0.940246 0.940246 0.445716
0.029572 0.029572 0.496284
0.162081 0.028626 0.536614
0.432044 0.025544 0.404303
0.602228 0.027710 0.404120
0.727749 0.049195 0.392248
0.080873 0.289433 0.459907
0.092103 0.162112 0.569574
0.451270 0.160342 0.471595
0.724926 0.122347 0.401404
0.827298 0.252445 0.409766
0.161593 0.539330 0.545632
0.246677 0.617578 0.618189
0.585168 0.562921 0.556939
0.813046 0.472770 0.446952
0.891447 0.514672 0.476875
0.232303 0.770413 0.630884
0.346273 0.895628 0.600290
0.654719 0.865446 0.479912
0.908904 0.872526 0.566812
0.935973 0.807340 0.581445
0.322698 0.927611 0.677058
0.487831 0.941985 0.577066
0.702144 0.942626 0.553536
0.873777 0.945586 0.629084
0.946593 0.946563 0.676753
0.029450 0.029480 0.681392
0.108370 0.028138 0.684993
0.308766 0.026123 0.553246
0.522606 0.026673 0.532341
0.677394 0.048341 0.526574
0.076448 0.305241 0.671656
0.026734 0.098634 0.843229
0.223194 0.084993 0.701183
0.585595 0.104616 0.650507
0.713375 0.213199 0.532372
0.119692 0.538674 0.699702
0.073793 0.493095 0.793423
0.224537 0.355825 0.680354
0.594415 0.370474 0.654719
0.802976 0.441520 0.598901
0.189181 0.761654 0.791226
0.139651 0.813260 0.843320
0.357931 0.800381 0.811734
0.762783 0.780484 0.773678
0.913481 0.741665 0.716548
0.218448 0.905241 0.829099
0.322332 0.929229 0.848234
0.513680 0.941222 0.826596
0.765713 0.947143 0.805234
0.949859 0.949706 0.839567
0.028412 0.039277 0.869963
0.086183 0.031586 0.815488
0.236454 0.034943 0.697475
0.408270 0.037720 0.653834
0.634913 0.043549 0.646540
0.048066 0.308812 0.836881
0.040284 0.178592 0.838193
0.154177 0.166506 0.782650
0.359625 0.180270 0.732937
0.617121 0.193545 0.723659
0.060945 0.538720 0.824643
0.071107 0.432578 0.821866
0.182498 0.382086 0.797391
0.429999 0.396857 0.783017
0.693385 0.410529 0.777371
0.123812 0.747250 0.888518
0.118624 0.689021 0.877165
0.297246 0.684993 0.869261
0.543236 0.666865 0.863493
0.839902 0.681361 0.864805
0.115023 0.855192 0.883452
0.127047 0.866270 0.886656
0.306722 0.913787 0.918029
0.599603 0.941802 0.933928
0.959869 0.959869 0.951537
