LUT color transfer/LUTs/29.cube
# (C) 2014 VisionColor & Patchflyer [www.vision-color.com]
# Generator: VC Patchmatch v.2.1.1 [64/53]
# All work and no play makes Jack a dull boy.
# LUT generated from: Fuji Superior 200_FPE
LUT_3D_SIZE 9
0.033509 0.036683 0.037079
0.097292 0.044556 0.036866
0.215579 0.049378 0.038880
0.297856 0.046540 0.041077
0.342962 0.045594 0.042786
0.380713 0.045838 0.044434
0.411292 0.046601 0.045930
0.446815 0.048951 0.048096
0.508202 0.060975 0.055604
0.042542 0.088228 0.041779
0.198520 0.139223 0.043610
0.378729 0.175875 0.047333
0.493568 0.196445 0.051972
0.552880 0.202823 0.054780
0.601282 0.214755 0.058534
0.634913 0.218662 0.060945
0.661402 0.223758 0.063935
0.703578 0.260349 0.075319
0.140780 0.234775 0.045960
0.395926 0.329351 0.064851
0.548318 0.369116 0.075593
0.655116 0.398779 0.082094
0.715206 0.414069 0.087984
0.759243 0.424231 0.093263
0.790402 0.429816 0.097841
0.810819 0.432013 0.102266
0.827298 0.440558 0.113680
0.352560 0.400244 0.058442
0.583963 0.481361 0.099947
0.710018 0.517388 0.126009
0.776761 0.537621 0.134005
0.814206 0.542535 0.133547
0.847440 0.549798 0.135225
0.867185 0.553124 0.136385
0.880430 0.555444 0.139132
0.888395 0.555383 0.148775
0.536873 0.514214 0.089540
0.694026 0.575463 0.141848
0.799924 0.607996 0.169039
0.849638 0.624140 0.180667
0.876005 0.634302 0.182864
0.895323 0.635828 0.175387
0.907744 0.638605 0.171603
0.913817 0.638697 0.169589
0.915251 0.636713 0.177920
0.675593 0.599023 0.125032
0.772732 0.644709 0.178714
0.860960 0.673579 0.205142
0.894255 0.686091 0.216953
0.912596 0.696742 0.220432
0.921721 0.699763 0.218692
0.929381 0.700587 0.210452
0.931273 0.695735 0.198123
0.933410 0.692103 0.203800
0.762539 0.649897 0.144991
0.836881 0.699336 0.209842
0.896239 0.722316 0.235538
0.918975 0.733028 0.245853
0.928618 0.739681 0.250889
0.935271 0.744778 0.251621
0.939941 0.744778 0.242985
0.941558 0.743404 0.230503
0.941222 0.734615 0.226810
0.812284 0.680171 0.151247
0.879759 0.735775 0.218509
0.917723 0.758328 0.256535
0.931212 0.767025 0.270573
0.936095 0.771328 0.279820
0.939422 0.774990 0.286290
0.941863 0.774960 0.278782
0.944060 0.775082 0.261875
0.943755 0.771908 0.259159
0.828031 0.699001 0.153658
0.894133 0.746548 0.199435
0.926482 0.777646 0.259770
0.936950 0.789151 0.292088
0.940734 0.793088 0.303624
0.942473 0.795560 0.312963
0.942260 0.796963 0.318975
0.943175 0.795834 0.309209
0.944091 0.792508 0.289891
0.030030 0.037354 0.089570
0.079225 0.044068 0.095705
0.199680 0.049775 0.099947
0.295171 0.048249 0.106630
0.353796 0.046937 0.106508
0.400397 0.047059 0.107851
0.437140 0.047639 0.106844
0.469947 0.049622 0.108186
0.518212 0.057923 0.132235
0.033509 0.114900 0.125063
0.148226 0.158419 0.145510
0.356237 0.113802 0.082918
0.424262 0.077974 0.058778
0.445838 0.065095 0.054200
0.461555 0.057374 0.051423
0.485908 0.056855 0.052674
0.559838 0.094453 0.076112
0.665187 0.209628 0.161807
0.082338 0.267521 0.184115
0.335821 0.378027 0.107362
0.638361 0.456672 0.140383
0.708949 0.412482 0.107515
0.727291 0.371069 0.091646
0.727230 0.329885 0.083986
0.728725 0.304936 0.082429
0.749233 0.325414 0.106600
0.791043 0.394202 0.189914
0.233616 0.414008 0.238651
0.547723 0.531792 0.120302
0.768856 0.602655 0.178744
0.861723 0.627344 0.200778
0.870542 0.591302 0.171878
0.873045 0.561639 0.150149
0.872618 0.531579 0.138399
0.866636 0.510124 0.150912
0.861021 0.516167 0.221378
0.385046 0.526085 0.292149
0.684932 0.619287 0.152956
0.831479 0.673457 0.206455
0.902007 0.698024 0.237125
0.923522 0.708614 0.244541
0.923156 0.683009 0.210697
0.921233 0.658076 0.185428
0.913603 0.632166 0.198856
0.901549 0.611261 0.264652
0.486946 0.603845 0.333471
0.773373 0.666377 0.158968
0.873289 0.722072 0.227359
0.921813 0.745785 0.259037
0.933715 0.753170 0.273503
0.941100 0.758267 0.268437
0.941619 0.736324 0.233494
0.935241 0.707668 0.239261
0.925444 0.687648 0.309941
0.551568 0.654658 0.344030
0.817288 0.690669 0.153719
0.898711 0.749294 0.223545
0.930602 0.774441 0.274418
0.938384 0.782895 0.295201
0.942046 0.785611 0.303441
0.944060 0.784329 0.280125
0.942565 0.763668 0.281865
0.936797 0.741085 0.345006
0.590967 0.682857 0.312474
0.810788 0.696529 0.148379
0.894560 0.746273 0.198611
0.927275 0.782559 0.277226
0.935973 0.794247 0.312779
0.940429 0.799252 0.330541
0.941466 0.800290 0.338262
0.942626 0.798306 0.320256
0.939696 0.781094 0.381292
0.626917 0.702205 0.269963
0.775723 0.693538 0.147005
0.868986 0.743069 0.203952
0.911192 0.784360 0.300969
0.924407 0.798367 0.352514
0.932280 0.805661 0.379004
0.936645 0.809812 0.396887
0.939513 0.811765 0.404608
0.941161 0.813474 0.407599
0.030457 0.036133 0.130404
0.061250 0.041077 0.166629
0.188174 0.045350 0.172946
0.303990 0.046662 0.187686
0.374762 0.047059 0.197696
0.419837 0.048341 0.201297
0.449836 0.049073 0.197726
0.475990 0.050568 0.194461
0.514519 0.057160 0.202335
0.036469 0.123445 0.207797
0.042267 0.076692 0.205692
0.282383 0.102327 0.245975
0.400092 0.073579 0.212345
0.453254 0.064240 0.188571
0.480629 0.056672 0.165896
0.502434 0.055329 0.149538
0.553155 0.078645 0.172091
0.636164 0.172366 0.237034
0.049989 0.257511 0.280858
0.103517 0.338811 0.345464
0.383032 0.354986 0.320043
0.527184 0.310796 0.262394
0.588220 0.256474 0.199374
0.613642 0.207172 0.155520
0.627222 0.176516 0.133761
0.678492 0.228946 0.175967
0.749874 0.346044 0.282231
0.110964 0.383001 0.341650
0.261448 0.503014 0.384680
0.514946 0.525689 0.312230
0.712428 0.567590 0.352453
0.776730 0.531731 0.285313
0.803586 0.487236 0.225055
0.810971 0.440024 0.181765
0.816617 0.438117 0.215152
0.822324 0.475807 0.321447
0.208591 0.489204 0.397223
0.416144 0.603113 0.408331
0.635035 0.623957 0.278508
0.803983 0.673243 0.337591
0.873411 0.688441 0.368536
0.894530 0.660899 0.308614
0.896849 0.618601 0.252155
0.885527 0.581811 0.267185
0.870848 0.581079 0.364446
0.309682 0.573846 0.443305
0.516426 0.663752 0.397620
0.725155 0.679561 0.231632
0.854520 0.727596 0.300465
0.907439 0.748348 0.354101
0.926482 0.753933 0.375982
0.931792 0.727901 0.322057
0.923858 0.693019 0.328161
0.909789 0.677699 0.416693
0.394751 0.637629 0.472389
0.586999 0.701534 0.352789
0.769436 0.691463 0.161410
0.883330 0.748379 0.242084
0.921019 0.779690 0.328038
0.933043 0.788632 0.366918
0.940520 0.792691 0.375769
0.938811 0.765621 0.380377
0.931456 0.749355 0.461646
0.468055 0.684260 0.473426
0.630854 0.714382 0.302892
0.771115 0.691432 0.142489
0.881346 0.753872 0.224063
0.918303 0.793790 0.338567
0.931029 0.807034 0.390448
0.938750 0.812924 0.415229
0.941802 0.816129 0.425391
0.937255 0.794430 0.502525
0.534661 0.718776 0.451453
0.642969 0.722805 0.301518
0.751064 0.725185 0.226139
0.853758 0.779202 0.339757
0.901366 0.806210 0.424689
0.915923 0.818998 0.476081
0.923919 0.826871 0.509819
0.935027 0.832090 0.527123
0.940856 0.835843 0.535973
0.031739 0.036133 0.158450
0.052033 0.040497 0.211460
0.144717 0.042939 0.217838
0.268437 0.043915 0.218967
0.349248 0.045106 0.227207
0.399908 0.046601 0.235325
0.432776 0.048096 0.235904
0.460304 0.049989 0.234867
0.501213 0.056153 0.242008
0.038392 0.125582 0.250919
0.035889 0.049073 0.224033
0.141573 0.063905 0.263066
0.341558 0.065248 0.277256
0.417365 0.058259 0.263798
0.460029 0.054322 0.250614
0.488136 0.054078 0.233524
0.540185 0.072175 0.241398
0.618372 0.157504 0.287816
0.049439 0.253483 0.329961
0.055604 0.256809 0.371893
0.155428 0.232609 0.337591
0.421576 0.267124 0.362982
0.515068 0.226658 0.327031
0.565850 0.181308 0.288075
0.596307 0.145693 0.249729
0.646082 0.188479 0.263493
0.717525 0.314824 0.338018
0.077302 0.364721 0.393439
0.112398 0.452064 0.481483
0.280308 0.465736 0.452430
0.524163 0.481453 0.445930
0.625666 0.448646 0.400763
0.687160 0.405325 0.346548
0.722988 0.350881 0.287221
0.748470 0.345495 0.281437
0.785061 0.443885 0.381964
0.121553 0.458534 0.443641
0.174197 0.549828 0.507256
0.369360 0.582818 0.472724
0.601526 0.606531 0.460609
0.763760 0.644800 0.498817
0.816526 0.618784 0.444450
0.844114 0.570535 0.374136
0.845701 0.529000 0.345480
0.842100 0.558099 0.436164
0.174075 0.538567 0.485664
0.269703 0.630488 0.527642
0.479149 0.662562 0.462135
0.685786 0.692561 0.426352
0.824308 0.730739 0.490654
0.885313 0.743435 0.516686
0.906340 0.717342 0.459083
0.906218 0.670649 0.417151
0.891142 0.667659 0.494606
0.240711 0.610712 0.523003
0.389364 0.693263 0.526055
0.565026 0.708247 0.398215
0.732448 0.722042 0.307759
0.859922 0.771878 0.426047
0.907652 0.793667 0.493141
0.931029 0.798489 0.512566
0.933532 0.768765 0.485298
0.921782 0.755459 0.553368
0.323232 0.672267 0.544152
0.485832 0.722347 0.499855
0.617487 0.728908 0.352102
0.755581 0.727016 0.231128
0.875517 0.791257 0.384451
0.913390 0.816495 0.474739
0.929686 0.827817 0.520470
0.940826 0.833829 0.535180
0.931517 0.807858 0.599084
0.402594 0.716030 0.547509
0.543664 0.740444 0.493904
0.640467 0.751980 0.427924
0.755947 0.778805 0.436454
0.837888 0.811704 0.515938
0.883513 0.829374 0.565911
0.902861 0.839231 0.600916
0.925322 0.847257 0.623896
0.938537 0.853117 0.636927
0.032868 0.036286 0.183139
0.044465 0.038911 0.223819
0.110292 0.042176 0.244450
0.217899 0.041932 0.243992
0.314305 0.043030 0.249454
0.366400 0.044312 0.252506
0.407507 0.046357 0.258427
0.442847 0.048768 0.261082
0.489265 0.054963 0.272465
0.039826 0.124422 0.286717
0.036042 0.043153 0.235355
0.075288 0.048707 0.266545
0.229343 0.052369 0.286839
0.366979 0.052461 0.301549
0.423926 0.051270 0.291173
0.466957 0.052644 0.280888
0.522942 0.068971 0.288396
0.597742 0.144930 0.323766
0.048127 0.249088 0.363348
0.046174 0.213840 0.391913
0.062440 0.151827 0.331792
0.254887 0.184176 0.353765
0.437354 0.199619 0.376318
0.512688 0.163912 0.352758
0.560357 0.130434 0.321904
0.615473 0.167849 0.323308
0.690059 0.294408 0.378546
0.066987 0.349279 0.425757
0.066499 0.379644 0.485512
0.118929 0.364782 0.457008
0.315343 0.372625 0.439429
0.531975 0.408576 0.465553
0.608728 0.366049 0.426261
0.661433 0.310323 0.377340
0.703365 0.306828 0.357763
0.751919 0.418128 0.423377
0.094759 0.445472 0.485603
0.104341 0.516533 0.569818
0.196231 0.533410 0.547112
0.431128 0.564019 0.540673
0.620935 0.576135 0.545617
0.699763 0.543008 0.501869
0.751247 0.498192 0.446891
0.783139 0.463554 0.404105
0.808957 0.530083 0.474098
0.122499 0.519036 0.527764
0.136843 0.586114 0.590875
0.222583 0.607813 0.562158
0.452277 0.651240 0.558312
0.670741 0.678096 0.563867
0.802258 0.708721 0.600305
0.852857 0.685527 0.550500
0.869200 0.641978 0.497047
0.867308 0.651987 0.546807
0.150362 0.580346 0.560967
0.184985 0.648066 0.606348
0.302205 0.677089 0.567254
0.504677 0.711421 0.541390
0.719020 0.748531 0.537606
0.839765 0.781430 0.599054
0.900511 0.793729 0.622919
0.919066 0.770565 0.584558
0.907103 0.750057 0.615656
0.188418 0.638758 0.588830
0.266438 0.694301 0.598840
0.415335 0.724300 0.559777
0.582544 0.753872 0.510384
0.750759 0.782986 0.487327
0.857557 0.818204 0.572351
0.903807 0.835599 0.622492
0.934295 0.844938 0.644526
0.925689 0.816800 0.674250
0.241520 0.685725 0.602777
0.366201 0.725887 0.593774
0.504692 0.751003 0.579919
0.637140 0.779660 0.578897
0.748074 0.807462 0.594400
0.821912 0.831357 0.637232
0.873686 0.846128 0.670558
0.911528 0.856535 0.695338
0.934020 0.863828 0.712093
0.033661 0.036347 0.203006
0.040589 0.037873 0.229038
0.085359 0.041444 0.257511
0.174807 0.041291 0.263066
0.266484 0.041566 0.268956
0.340612 0.042634 0.276005
0.386603 0.044587 0.280461
0.431098 0.047944 0.287480
0.481758 0.054444 0.302953
0.041199 0.125551 0.320317
0.036194 0.040497 0.241825
0.050355 0.041505 0.257267
0.147051 0.045838 0.287633
0.282826 0.045869 0.307683
0.396002 0.048554 0.327733
0.451759 0.051331 0.322026
0.510704 0.068208 0.332403
0.578332 0.139559 0.358587
0.048157 0.249760 0.401617
0.044892 0.184512 0.405402
0.043183 0.103029 0.332769
0.125597 0.117128 0.336767
0.303120 0.135943 0.367803
0.455787 0.145480 0.392859
0.526848 0.121798 0.375769
0.584314 0.155245 0.371771
0.656397 0.271580 0.407813
0.058900 0.340215 0.454749
0.053376 0.336187 0.498177
0.054902 0.280415 0.455207
0.123217 0.266346 0.420539
0.351751 0.305287 0.443976
0.524559 0.330434 0.466316
0.597223 0.280171 0.427497
0.656245 0.276997 0.409461
0.717830 0.396979 0.456733
0.076295 0.428199 0.509636
0.070130 0.463951 0.576623
0.081971 0.439994 0.544793
0.209476 0.462058 0.531243
0.428290 0.477440 0.523033
0.611078 0.511513 0.548363
0.681758 0.461601 0.502159
0.727687 0.424826 0.459236
0.774746 0.506142 0.509606
0.104402 0.512840 0.566888
0.089662 0.546410 0.632959
0.113863 0.550530 0.608820
0.269001 0.598840 0.606683
0.518227 0.638849 0.619013
0.693385 0.656916 0.630640
0.761990 0.622858 0.587030
0.808255 0.583307 0.536095
0.835996 0.618036 0.574334
0.123812 0.570336 0.601953
0.108797 0.597314 0.645441
0.131685 0.609552 0.628748
0.264332 0.663539 0.631708
0.518120 0.715755 0.640497
0.723110 0.741848 0.648554
0.840421 0.766690 0.678676
0.884581 0.746365 0.645014
0.889158 0.737148 0.658076
0.129000 0.609766 0.623133
0.135470 0.635767 0.643397
0.197467 0.670802 0.641108
0.348135 0.725246 0.644495
0.548867 0.766812 0.643305
0.736812 0.797543 0.644282
0.849638 0.825528 0.691005
0.915587 0.841642 0.721828
0.917113 0.813199 0.723812
0.147951 0.644953 0.636652
0.196445 0.675135 0.638819
0.335134 0.728145 0.655604
0.487205 0.767697 0.669032
0.616556 0.795438 0.676051
0.742000 0.822202 0.689601
0.828153 0.844083 0.719234
0.891234 0.859648 0.749355
0.928954 0.869474 0.768185
0.034241 0.036439 0.217227
0.037537 0.037415 0.229740
0.067475 0.040711 0.259922
0.139376 0.041535 0.273045
0.225132 0.041199 0.282780
0.300206 0.041627 0.292027
0.369116 0.043305 0.303136
0.420294 0.046876 0.311559
0.475654 0.053986 0.329442
0.042115 0.122469 0.346258
0.036622 0.039368 0.252079
0.040955 0.038605 0.254093
0.096834 0.042512 0.287419
0.211719 0.043885 0.310307
0.321294 0.044709 0.329778
0.433082 0.049531 0.353674
0.498787 0.065888 0.370245
0.561303 0.136324 0.392370
0.048005 0.251652 0.438270
0.044709 0.159213 0.405951
0.041749 0.072114 0.326452
0.062165 0.069551 0.319890
0.182269 0.087037 0.354437
0.338567 0.098726 0.384466
0.487800 0.108827 0.418067
0.559991 0.147219 0.418402
0.621912 0.253117 0.435645
0.054200 0.332586 0.484382
0.049897 0.298222 0.498939
0.046571 0.218570 0.445624
0.048676 0.169970 0.395270
0.158160 0.200122 0.410101
0.364630 0.235767 0.447700
0.527398 0.251881 0.472663
0.606867 0.250736 0.451331
0.679103 0.371923 0.484291
0.063600 0.415229 0.533562
0.057221 0.410254 0.570245
0.053620 0.359243 0.534997
0.065980 0.341268 0.505913
0.192386 0.356405 0.493858
0.429633 0.404471 0.521904
0.600549 0.429984 0.545342
0.669032 0.395560 0.506127
0.739651 0.485771 0.539696
0.081880 0.494453 0.587549
0.071015 0.502953 0.635523
0.067323 0.477333 0.611109
0.097292 0.485115 0.591180
0.281788 0.540154 0.600275
0.513359 0.566522 0.601434
0.689143 0.595209 0.629053
0.747707 0.551232 0.579889
0.804623 0.601831 0.606439
0.097627 0.548821 0.625238
0.072602 0.525444 0.648829
0.073762 0.522942 0.638025
0.113466 0.567437 0.642664
0.308110 0.652766 0.669276
0.577203 0.703395 0.689052
0.759030 0.731167 0.707118
0.829984 0.699886 0.667109
0.864713 0.709743 0.675654
0.104402 0.582116 0.644312
0.090211 0.576013 0.652338
0.105043 0.598321 0.657679
0.171832 0.655421 0.676448
0.347768 0.726802 0.700557
0.566796 0.771511 0.711727
0.757748 0.798856 0.721248
0.887266 0.828458 0.759274
0.908415 0.804623 0.747585
0.108949 0.608911 0.653315
0.132113 0.632685 0.659602
0.220706 0.689296 0.685176
0.357290 0.740047 0.706294
0.496788 0.777890 0.720058
0.639979 0.809812 0.731289
0.766934 0.836332 0.749477
0.869596 0.858885 0.776944
0.924468 0.873442 0.803037
0.035218 0.037049 0.234165
0.036072 0.037171 0.233005
0.055848 0.040040 0.262364
0.113985 0.041932 0.281071
0.193515 0.041932 0.294682
0.268559 0.041657 0.305577
0.333654 0.042451 0.317418
0.408270 0.045777 0.331548
0.467506 0.052918 0.352697
0.043030 0.116182 0.365209
0.039643 0.046052 0.285893
0.041352 0.042237 0.275486
0.080323 0.046296 0.305638
0.167208 0.050568 0.327581
0.265507 0.053590 0.347234
0.366339 0.056214 0.368353
0.477882 0.062104 0.394354
0.548119 0.129397 0.425269
0.047425 0.244266 0.459632
0.044984 0.153109 0.408362
0.042512 0.082765 0.345861
0.049775 0.076112 0.338994
0.123110 0.095552 0.364721
0.254704 0.112337 0.396429
0.391333 0.124605 0.425849
0.522210 0.130892 0.452430
0.594903 0.241520 0.469398
0.051575 0.321202 0.503929
0.048249 0.268132 0.487892
0.046265 0.200504 0.440375
0.044495 0.143557 0.394873
0.075166 0.158877 0.403693
0.226963 0.192905 0.437018
0.408240 0.222049 0.477577
0.556481 0.232151 0.499947
0.641627 0.353002 0.518029
0.056275 0.392981 0.547326
0.053040 0.362036 0.548577
0.050507 0.314427 0.517540
0.050324 0.280415 0.490578
0.063386 0.257771 0.466438
0.218982 0.309697 0.495735
0.448066 0.350668 0.533165
0.608148 0.372793 0.557092
0.704005 0.471244 0.574456
0.066529 0.468391 0.598535
0.060822 0.449897 0.610712
0.057618 0.419074 0.590143
0.059724 0.407477 0.574975
0.113619 0.436408 0.574182
0.261707 0.453178 0.571984
0.520027 0.503548 0.603387
0.683619 0.530785 0.630457
0.771450 0.591241 0.639460
0.077302 0.517571 0.635401
0.067903 0.500938 0.647181
0.065431 0.485878 0.636561
0.069642 0.491737 0.632471
0.134020 0.548394 0.645350
0.371511 0.622309 0.672175
0.597070 0.645258 0.678096
0.767727 0.673426 0.710079
0.835416 0.694575 0.705440
0.080201 0.538262 0.650752
0.066499 0.503044 0.642329
0.066499 0.502831 0.641657
0.072969 0.528038 0.656367
0.134478 0.615213 0.692042
0.360372 0.717647 0.730892
0.596674 0.774472 0.765225
0.835081 0.806394 0.790738
0.900053 0.803464 0.780453
0.083314 0.560357 0.653895
0.090517 0.571405 0.655116
0.127779 0.619196 0.678248
0.219257 0.682918 0.704097
0.359884 0.741512 0.729641
0.535546 0.791440 0.755734
0.686366 0.825345 0.782559
0.828580 0.851926 0.809293
0.918914 0.875303 0.834073
0.037385 0.039704 0.263645
0.036194 0.037903 0.247959
0.054261 0.040375 0.278019
0.102327 0.042847 0.298253
0.169986 0.044434 0.312139
0.238651 0.044984 0.323949
0.305119 0.045319 0.336065
0.374762 0.047211 0.349889
0.455634 0.051545 0.367773
0.044099 0.122408 0.387121
0.042420 0.075624 0.337438
0.042969 0.070130 0.325078
0.074861 0.078065 0.345678
0.147829 0.090486 0.366308
0.238010 0.099184 0.385229
0.329290 0.107942 0.405859
0.422889 0.114595 0.425391
0.518914 0.118837 0.446754
0.047242 0.235843 0.469062
0.045594 0.173617 0.423041
0.044312 0.139345 0.393011
0.051911 0.144320 0.393988
0.107576 0.164706 0.409094
0.222446 0.185489 0.434730
0.350195 0.207858 0.463905
0.467201 0.221714 0.488899
0.559716 0.227115 0.501640
0.050080 0.306371 0.510369
0.047730 0.258610 0.480049
0.047425 0.231144 0.458106
0.054566 0.229648 0.455421
0.096712 0.253361 0.467231
0.227054 0.283330 0.487831
0.380926 0.310643 0.515679
0.515892 0.336736 0.544640
0.608911 0.346990 0.556695
0.053468 0.370336 0.551110
0.051881 0.340185 0.534783
0.052461 0.324559 0.521660
0.072236 0.340749 0.524071
0.122988 0.355276 0.529992
0.261326 0.394873 0.551812
0.434546 0.422644 0.573175
0.570397 0.449928 0.598993
0.666590 0.462470 0.613336
0.058991 0.436103 0.597711
0.056672 0.410620 0.584344
0.058228 0.408087 0.578363
0.091859 0.441505 0.586999
0.192294 0.483986 0.605676
0.312123 0.506645 0.617121
0.497307 0.537377 0.635706
0.637446 0.562341 0.658747
0.731289 0.577844 0.676844
0.066926 0.489754 0.637324
0.063020 0.468421 0.625452
0.064668 0.468757 0.620661
0.100069 0.509606 0.633753
0.227283 0.573510 0.661067
0.409537 0.620935 0.685878
0.546014 0.633082 0.694331
0.702358 0.659632 0.717830
0.794186 0.676387 0.735897
0.068971 0.507744 0.649256
0.066743 0.497047 0.644770
0.069429 0.504448 0.646296
0.102052 0.553887 0.664332
0.219165 0.627588 0.695583
0.414908 0.697597 0.731899
0.596094 0.731289 0.757168
0.751125 0.756405 0.777371
0.862211 0.777371 0.799710
0.067933 0.510338 0.648035
0.065949 0.499672 0.640436
0.070832 0.523003 0.655848
0.102998 0.585565 0.687282
0.209445 0.672724 0.727199
0.397208 0.760342 0.770413
0.588495 0.809812 0.805356
0.785336 0.849271 0.842405
0.922576 0.887449 0.880247
