LUT color transfer/LUTs/29.cube
# (C) 2014 VisionColor & Patchflyer [www.vision-color.com]
# Generator: VC Patchmatch v.2.1.1 [64/53]
# All work and no play makes Jack a dull boy.
# LUT generated from: Fuji Superior 200_FPE
LUT_3D_SIZE 5
0.033509 0.036683 0.037079
0.215579 0.049378 0.038880
0.342962 0.045594 0.042786
0.411292 0.046601 0.045930
0.508202 0.060975 0.055604
0.140780 0.234775 0.045960
0.548318 0.369116 0.075593
0.715206 0.414069 0.087984
0.790402 0.429816 0.097841
0.827298 0.440558 0.113680
0.536873 0.514214 0.089540
0.799924 0.607996 0.169039
0.876005 0.634302 0.182864
0.907744 0.638605 0.171603
0.915251 0.636713 0.177920
0.762539 0.649897 0.144991
0.896239 0.722316 0.235538
0.928618 0.739681 0.250889
0.939941 0.744778 0.242985
0.941222 0.734615 0.226810
0.828031 0.699001 0.153658
0.926482 0.777646 0.259770
0.940734 0.793088 0.303624
0.942260 0.796963 0.318975
0.944091 0.792508 0.289891
0.030457 0.036133 0.130404
0.188174 0.045350 0.172946
0.374762 0.047059 0.197696
0.449836 0.049073 0.197726
0.514519 0.057160 0.202335
0.049989 0.257511 0.280858
0.383032 0.354986 0.320043
0.588220 0.256474 0.199374
0.627222 0.176516 0.133761
0.749874 0.346044 0.282231
0.208591 0.489204 0.397223
0.635035 0.623957 0.278508
0.873411 0.688441 0.368536
0.896849 0.618601 0.252155
0.870848 0.581079 0.364446
0.394751 0.637629 0.472389
0.769436 0.691463 0.161410
0.921019 0.779690 0.328038
0.940520 0.792691 0.375769
0.931456 0.749355 0.461646
0.534661 0.718776 0.451453
0.751064 0.725185 0.226139
0.901366 0.806210 0.424689
0.923919 0.826871 0.509819
0.940856 0.835843 0.535973
0.032868 0.036286 0.183139
0.110292 0.042176 0.244450
0.314305 0.043030 0.249454
0.407507 0.046357 0.258427
0.489265 0.054963 0.272465
0.048127 0.249088 0.363348
0.062440 0.151827 0.331792
0.437354 0.199619 0.376318
0.560357 0.130434 0.321904
0.690059 0.294408 0.378546
0.094759 0.445472 0.485603
0.196231 0.533410 0.547112
0.620935 0.576135 0.545617
0.751247 0.498192 0.446891
0.808957 0.530083 0.474098
0.150362 0.580346 0.560967
0.302205 0.677089 0.567254
0.719020 0.748531 0.537606
0.900511 0.793729 0.622919
0.907103 0.750057 0.615656
0.241520 0.685725 0.602777
0.504692 0.751003 0.579919
0.748074 0.807462 0.594400
0.873686 0.846128 0.670558
0.934020 0.863828 0.712093
0.034241 0.036439 0.217227
0.067475 0.040711 0.259922
0.225132 0.041199 0.282780
0.369116 0.043305 0.303136
0.475654 0.053986 0.329442
0.048005 0.251652 0.438270
0.041749 0.072114 0.326452
0.182269 0.087037 0.354437
0.487800 0.108827 0.418067
0.621912 0.253117 0.435645
0.063600 0.415229 0.533562
0.053620 0.359243 0.534997
0.192386 0.356405 0.493858
0.600549 0.429984 0.545342
0.739651 0.485771 0.539696
0.097627 0.548821 0.625238
0.073762 0.522942 0.638025
0.308110 0.652766 0.669276
0.759030 0.731167 0.707118
0.864713 0.709743 0.675654
0.108949 0.608911 0.653315
0.220706 0.689296 0.685176
0.496788 0.777890 0.720058
0.766934 0.836332 0.749477
0.924468 0.873442 0.803037
0.037385 0.039704 0.263645
0.054261 0.040375 0.278019
0.169986 0.044434 0.312139
0.305119 0.045319 0.336065
0.455634 0.051545 0.367773
0.047242 0.235843 0.469062
0.044312 0.139345 0.393011
0.107576 0.164706 0.409094
0.350195 0.207858 0.463905
0.559716 0.227115 0.501640
0.053468 0.370336 0.551110
0.052461 0.324559 0.521660
0.122988 0.355276 0.529992
0.434546 0.422644 0.573175
0.666590 0.462470 0.613336
0.066926 0.489754 0.637324
0.064668 0.468757 0.620661
0.227283 0.573510 0.661067
0.546014 0.633082 0.694331
0.794186 0.676387 0.735897
0.067933 0.510338 0.648035
0.070832 0.523003 0.655848
0.209445 0.672724 0.727199
0.588495 0.809812 0.805356
0.922576 0.887449 0.880247
