LUT color transfer/LUTs/29.cube
# (C) 2014 VisionColor & Patchflyer [www.vision-color.com]
# Generator: VC Patchmatch v.2.1.1 [64/53]
# All work and no play makes Jack a dull boy.
# LUT generated from: Fuji Superior 200_FPE
LUT_3D_SIZE 17
0.033509 0.036683 0.037079
0.051362 0.038911 0.036286
0.097292 0.044556 0.036866
0.157900 0.048768 0.038392
0.215579 0.049378 0.038880
0.263951 0.048066 0.039887
0.297856 0.046540 0.041077
0.322301 0.045716 0.041962
0.342962 0.045594 0.042786
0.362982 0.045472 0.043610
0.380713 0.045838 0.044434
0.396612 0.046174 0.045197
0.411292 0.046601 0.045930
0.425757 0.047150 0.046662
0.446815 0.048951 0.048096
0.472206 0.052827 0.050629
0.508202 0.060975 0.055604
0.034577 0.051148 0.038849
0.066316 0.058808 0.038453
0.133028 0.069032 0.038392
0.213291 0.077790 0.039399
0.291447 0.088411 0.041535
0.354681 0.094209 0.043549
0.397040 0.095216 0.045502
0.428595 0.095277 0.046998
0.451972 0.094820 0.048249
0.475929 0.095399 0.049561
0.493629 0.098451 0.050538
0.511040 0.100954 0.051514
0.522698 0.099062 0.052033
0.534813 0.097017 0.052705
0.553429 0.103243 0.054200
0.576593 0.115816 0.057649
0.611322 0.144015 0.064637
0.042542 0.088228 0.041779
0.098665 0.112642 0.042329
0.198520 0.139223 0.043610
0.293645 0.158602 0.044648
0.378729 0.175875 0.047333
0.447181 0.189975 0.049958
0.493568 0.196445 0.051972
0.527764 0.200900 0.053529
0.552880 0.202823 0.054780
0.580468 0.210117 0.056733
0.601282 0.214755 0.058534
0.621027 0.218845 0.060090
0.634913 0.218662 0.060945
0.647211 0.218143 0.061738
0.661402 0.223758 0.063935
0.678981 0.235355 0.067689
0.703578 0.260349 0.075319
0.074617 0.153933 0.043854
0.165377 0.194644 0.045960
0.291569 0.235019 0.051881
0.381338 0.255558 0.055238
0.464439 0.277653 0.057252
0.531884 0.294377 0.059998
0.579065 0.304753 0.062867
0.615991 0.313542 0.065614
0.642237 0.317754 0.067262
0.669917 0.325628 0.070710
0.690120 0.330388 0.073335
0.709468 0.334997 0.075715
0.724941 0.336889 0.077241
0.738766 0.339208 0.078859
0.750454 0.342565 0.081483
0.763210 0.349065 0.085512
0.778164 0.363073 0.093111
0.140780 0.234775 0.045960
0.268330 0.285527 0.052094
0.395926 0.329351 0.064851
0.486351 0.353216 0.071656
0.548318 0.369116 0.075593
0.611612 0.388464 0.078676
0.655116 0.398779 0.082094
0.688991 0.408209 0.085206
0.715206 0.414069 0.087984
0.741604 0.421790 0.091188
0.759243 0.424231 0.093263
0.776669 0.428077 0.096010
0.790402 0.429816 0.097841
0.803037 0.432349 0.099916
0.810819 0.432013 0.102266
0.818631 0.433692 0.106355
0.827298 0.440558 0.113680
0.239338 0.321416 0.049928
0.374441 0.369116 0.062379
0.500526 0.414038 0.080262
0.583413 0.438025 0.092744
0.638865 0.451759 0.099367
0.681956 0.465095 0.103456
0.720821 0.475044 0.107240
0.749020 0.482185 0.109926
0.772305 0.486854 0.111269
0.797299 0.494636 0.114900
0.811948 0.495735 0.115541
0.826078 0.497566 0.117006
0.836118 0.497139 0.117433
0.847044 0.499428 0.118959
0.852995 0.499275 0.121218
0.859159 0.500542 0.125185
0.862760 0.502831 0.132052
0.352560 0.400244 0.058442
0.472221 0.441871 0.076844
0.583963 0.481361 0.099947
0.660395 0.504936 0.116548
0.710018 0.517388 0.126009
0.747097 0.527581 0.131075
0.776761 0.537621 0.134005
0.798459 0.541436 0.134829
0.814206 0.542535 0.133547
0.834043 0.548150 0.135225
0.847440 0.549798 0.135225
0.859983 0.553216 0.136172
0.867185 0.553124 0.136385
0.875212 0.555505 0.137423
0.880430 0.555444 0.139132
0.885954 0.556695 0.142855
0.888395 0.555383 0.148775
0.454582 0.463661 0.072877
0.546609 0.498878 0.095613
0.643839 0.533165 0.121187
0.716213 0.556451 0.139071
0.761898 0.568750 0.150637
0.794614 0.577813 0.156191
0.819730 0.586114 0.159243
0.838743 0.592401 0.160220
0.850736 0.592493 0.157595
0.864744 0.595056 0.156527
0.876463 0.596857 0.154635
0.886168 0.600366 0.154879
0.891600 0.600732 0.153811
0.897093 0.601556 0.153933
0.899596 0.600488 0.154910
0.902251 0.600519 0.157992
0.903075 0.597986 0.163729
0.536873 0.514214 0.089540
0.613138 0.545434 0.115084
0.694026 0.575463 0.141848
0.756436 0.595605 0.158206
0.799924 0.607996 0.169039
0.827848 0.616236 0.176761
0.849638 0.624140 0.180667
0.867491 0.630762 0.182406
0.876005 0.634302 0.182864
0.886625 0.635157 0.180545
0.895323 0.635828 0.175387
0.903380 0.638575 0.173800
0.907744 0.638605 0.171603
0.911650 0.638788 0.168704
0.913817 0.638697 0.169589
0.915892 0.639460 0.172183
0.915251 0.636713 0.177920
0.616403 0.563439 0.107546
0.672175 0.588495 0.135073
0.735073 0.612757 0.160403
0.793393 0.632227 0.176730
0.835203 0.644587 0.187655
0.859495 0.652186 0.195712
0.878080 0.659052 0.200320
0.892943 0.666316 0.202579
0.899535 0.669978 0.203189
0.907073 0.672023 0.202396
0.912505 0.671138 0.196780
0.917906 0.672755 0.194339
0.919493 0.671412 0.190005
0.921477 0.670222 0.185092
0.923430 0.668482 0.181979
0.925444 0.668727 0.185245
0.925444 0.666255 0.192111
0.675593 0.599023 0.125032
0.719722 0.622522 0.152590
0.772732 0.644709 0.178714
0.823148 0.661555 0.194034
0.860960 0.673579 0.205142
0.878752 0.680323 0.212894
0.894255 0.686091 0.216953
0.906462 0.691737 0.219181
0.912596 0.696742 0.220432
0.918639 0.699275 0.220066
0.921721 0.699763 0.218692
0.927306 0.701564 0.215793
0.929381 0.700587 0.210452
0.930236 0.698451 0.202945
0.931273 0.695735 0.198123
0.933013 0.694423 0.196933
0.933410 0.692103 0.203800
0.726101 0.628840 0.137850
0.761105 0.653040 0.168826
0.806058 0.673976 0.196780
0.848661 0.688777 0.210941
0.882017 0.700130 0.221103
0.898833 0.706722 0.228092
0.908293 0.711757 0.232547
0.918151 0.716182 0.234867
0.923095 0.719875 0.236088
0.927886 0.723629 0.236545
0.931060 0.724727 0.235447
0.933715 0.724849 0.232944
0.935149 0.724086 0.227298
0.936339 0.724269 0.220951
0.936675 0.719905 0.213535
0.937987 0.718105 0.211093
0.938750 0.715267 0.214908
0.762539 0.649897 0.144991
0.798123 0.677028 0.177432
0.836881 0.699336 0.209842
0.872343 0.712886 0.226322
0.896239 0.722316 0.235538
0.911955 0.728695 0.241581
0.918975 0.733028 0.245853
0.924437 0.736873 0.249638
0.928618 0.739681 0.250889
0.931884 0.742306 0.252079
0.935271 0.744778 0.251621
0.937682 0.744808 0.247715
0.939941 0.744778 0.242985
0.941222 0.745480 0.237247
0.941558 0.743404 0.230503
0.941405 0.739101 0.225589
0.941222 0.734615 0.226810
0.792538 0.667079 0.148898
0.831022 0.697108 0.182254
0.862608 0.722225 0.220645
0.890867 0.735042 0.238987
0.909758 0.743191 0.248692
0.921904 0.748959 0.253971
0.925750 0.751888 0.258549
0.929686 0.754757 0.262516
0.932158 0.757076 0.266850
0.934600 0.759793 0.269718
0.937438 0.761898 0.270878
0.939300 0.761715 0.265476
0.941222 0.761837 0.259007
0.942992 0.762631 0.251469
0.943511 0.762509 0.245335
0.943847 0.760555 0.240665
0.942901 0.753475 0.240421
0.812284 0.680171 0.151247
0.850919 0.707576 0.179049
0.879759 0.735775 0.218509
0.902892 0.750607 0.242802
0.917723 0.758328 0.256535
0.927245 0.763729 0.263706
0.931212 0.767025 0.270573
0.933867 0.769192 0.275151
0.936095 0.771328 0.279820
0.937194 0.773129 0.284245
0.939422 0.774990 0.286290
0.940490 0.776028 0.285801
0.941863 0.774960 0.278782
0.943236 0.774472 0.271000
0.944060 0.775082 0.261875
0.944457 0.775357 0.258335
0.943755 0.771908 0.259159
0.826993 0.692042 0.153048
0.865629 0.716579 0.175448
0.891783 0.745785 0.213565
0.913725 0.762905 0.243168
0.925078 0.771603 0.262547
0.931548 0.776761 0.274052
0.935393 0.780270 0.282475
0.937621 0.782437 0.287724
0.939178 0.784237 0.292424
0.940246 0.785794 0.297093
0.941161 0.787259 0.301366
0.941802 0.788296 0.302525
0.942596 0.788571 0.301183
0.943328 0.786496 0.291783
0.943999 0.786099 0.282200
0.944579 0.785794 0.272953
0.944366 0.785153 0.274754
0.828031 0.699001 0.153658
0.868162 0.718990 0.168795
0.894133 0.746548 0.199435
0.917693 0.767208 0.234287
0.926482 0.777646 0.259770
0.932616 0.784482 0.277897
0.936950 0.789151 0.292088
0.939055 0.791318 0.298375
0.940734 0.793088 0.303624
0.941985 0.794553 0.308537
0.942473 0.795560 0.312963
0.942138 0.796231 0.317327
0.942260 0.796963 0.318975
0.942412 0.797391 0.318669
0.943175 0.795834 0.309209
0.943664 0.794125 0.299657
0.944091 0.792508 0.289891
0.030274 0.036835 0.055543
0.041627 0.038544 0.054170
0.084352 0.043427 0.053742
0.143679 0.048157 0.054353
0.202335 0.050507 0.057740
0.254978 0.050385 0.059632
0.293339 0.049104 0.059876
0.322637 0.047913 0.059083
0.345647 0.047242 0.058625
0.367590 0.046845 0.058106
0.387396 0.046662 0.059327
0.406470 0.046723 0.059846
0.422644 0.047059 0.060151
0.437873 0.047608 0.059937
0.457801 0.049409 0.063325
0.481025 0.052522 0.069337
0.512718 0.058839 0.082887
0.029938 0.054780 0.059388
0.058473 0.068452 0.069154
0.145052 0.060700 0.048157
0.227848 0.057679 0.043275
0.286473 0.052399 0.042206
0.322271 0.049104 0.042695
0.346716 0.047486 0.043275
0.362982 0.045960 0.043671
0.379187 0.045991 0.044373
0.393957 0.046235 0.045075
0.409369 0.046662 0.045808
0.422644 0.047089 0.046479
0.439918 0.048249 0.047547
0.462409 0.050385 0.049165
0.498299 0.059266 0.054444
0.541253 0.079988 0.067262
0.593347 0.125277 0.097627
0.037964 0.106752 0.072328
0.084260 0.143679 0.059876
0.275761 0.198703 0.060029
0.369696 0.176730 0.052369
0.430701 0.160952 0.049958
0.467323 0.149203 0.050477
0.493294 0.140352 0.051179
0.508965 0.128878 0.051728
0.524834 0.127687 0.052766
0.534173 0.121340 0.053071
0.543084 0.117037 0.053498
0.550408 0.111757 0.053773
0.562676 0.112795 0.054688
0.579614 0.120211 0.056397
0.608087 0.145174 0.063325
0.643854 0.182589 0.078462
0.685878 0.235416 0.111299
0.069123 0.181704 0.087282
0.161166 0.243687 0.055268
0.362234 0.316014 0.068177
0.522286 0.355840 0.075929
0.570336 0.330907 0.069734
0.602594 0.313451 0.068025
0.625971 0.302037 0.066743
0.640681 0.289799 0.064881
0.653773 0.283421 0.065919
0.662135 0.273991 0.065705
0.672786 0.269902 0.066407
0.680140 0.263218 0.066285
0.687221 0.259586 0.067567
0.696101 0.261326 0.069734
0.709102 0.273289 0.076570
0.730739 0.298039 0.091127
0.758999 0.336309 0.122469
0.123537 0.260746 0.106050
0.281483 0.346288 0.057557
0.472251 0.416144 0.081239
0.610636 0.456703 0.103120
0.696712 0.479500 0.112856
0.715023 0.456092 0.103914
0.731838 0.441932 0.099245
0.744198 0.429999 0.094392
0.754849 0.420905 0.093080
0.760464 0.408637 0.090974
0.767880 0.400458 0.090852
0.772396 0.391211 0.090028
0.776852 0.384192 0.090211
0.781338 0.380835 0.091798
0.785794 0.381292 0.098085
0.794522 0.391608 0.110628
0.809537 0.415167 0.139681
0.202213 0.337926 0.123812
0.404685 0.432929 0.070497
0.559701 0.489601 0.100130
0.681880 0.528191 0.128267
0.754513 0.547509 0.143526
0.800504 0.561273 0.147768
0.806485 0.541405 0.137728
0.814054 0.527459 0.129244
0.823178 0.518791 0.124636
0.828428 0.507652 0.121431
0.833768 0.498634 0.118532
0.837491 0.488930 0.116121
0.840818 0.481758 0.114748
0.841947 0.474464 0.114961
0.843076 0.470863 0.120638
0.844175 0.470069 0.131472
0.847837 0.480140 0.157473
0.298497 0.408545 0.136629
0.514107 0.502617 0.087678
0.624414 0.543755 0.119326
0.732082 0.579492 0.149569
0.798917 0.598230 0.167727
0.837095 0.609857 0.174044
0.864744 0.618372 0.175021
0.866209 0.602838 0.163607
0.869871 0.592859 0.155520
0.872099 0.581872 0.149081
0.874510 0.573114 0.144869
0.876646 0.563500 0.140352
0.878538 0.556390 0.138888
0.879911 0.548943 0.138521
0.879667 0.540795 0.142641
0.879210 0.536065 0.152255
0.878111 0.536278 0.175479
0.387671 0.470680 0.154635
0.604379 0.557488 0.107362
0.680293 0.587823 0.139620
0.768734 0.618128 0.168063
0.833402 0.638636 0.186252
0.865904 0.649622 0.194919
0.888487 0.657496 0.197848
0.901671 0.662837 0.197116
0.903563 0.652216 0.186831
0.902525 0.639368 0.175814
0.902098 0.629175 0.168734
0.902403 0.618830 0.161685
0.902770 0.610651 0.157931
0.902647 0.602502 0.157015
0.900236 0.594812 0.161257
0.899290 0.587030 0.172396
0.896086 0.582452 0.195956
0.459480 0.520592 0.171786
0.669276 0.595544 0.124178
0.724544 0.623041 0.158511
0.799008 0.649897 0.185031
0.856901 0.668940 0.202152
0.883330 0.678798 0.211337
0.902373 0.686610 0.216373
0.914794 0.692073 0.216770
0.921538 0.696468 0.216922
0.919005 0.683223 0.204654
0.918425 0.673213 0.193942
0.919005 0.664240 0.183200
0.919585 0.656947 0.177615
0.919402 0.649317 0.174228
0.916472 0.642603 0.178622
0.914092 0.635004 0.190158
0.911925 0.626459 0.216678
0.526894 0.566888 0.191379
0.717586 0.623377 0.136507
0.762936 0.652491 0.174044
0.822660 0.676081 0.200046
0.873899 0.693690 0.216068
0.896696 0.702815 0.224918
0.910246 0.709377 0.230869
0.921355 0.714992 0.233585
0.927092 0.718929 0.234592
0.932189 0.722377 0.232761
0.930114 0.711330 0.219974
0.930449 0.702388 0.206882
0.930388 0.693935 0.197757
0.929534 0.685023 0.191897
0.928283 0.677241 0.196109
0.925078 0.669337 0.208042
0.922148 0.660670 0.234836
0.574365 0.601160 0.209812
0.754330 0.644800 0.144259
0.798215 0.677211 0.184512
0.847105 0.700343 0.215641
0.886137 0.714565 0.229038
0.908019 0.723323 0.237217
0.918303 0.729244 0.243870
0.926238 0.733577 0.246799
0.931060 0.737270 0.249668
0.935363 0.740383 0.247288
0.938811 0.742306 0.244083
0.939269 0.734066 0.230503
0.939422 0.726680 0.220066
0.937346 0.716548 0.209995
0.935973 0.708186 0.212314
0.934417 0.700465 0.224430
0.930846 0.691493 0.251743
0.613428 0.630426 0.222782
0.782895 0.661524 0.147372
0.827909 0.696742 0.187381
0.866423 0.720729 0.224704
0.897887 0.733486 0.239384
0.917021 0.741878 0.249119
0.923980 0.746548 0.256413
0.930114 0.750576 0.260197
0.933745 0.754299 0.264469
0.936889 0.756008 0.265324
0.940032 0.757656 0.263066
0.941772 0.757351 0.250217
0.941863 0.750973 0.239872
0.941283 0.744503 0.230289
0.940795 0.734768 0.228061
0.939666 0.726772 0.238987
0.936767 0.718166 0.266819
0.648341 0.653040 0.225834
0.805722 0.676661 0.150362
0.852598 0.712337 0.187259
0.884642 0.737636 0.228641
0.908110 0.750271 0.248814
0.924529 0.758450 0.258976
0.929808 0.763058 0.268223
0.933410 0.765835 0.273075
0.936309 0.769223 0.277958
0.938384 0.771023 0.280827
0.940948 0.772427 0.280583
0.942168 0.771725 0.269932
0.943816 0.770718 0.257115
0.943786 0.765377 0.248539
0.943206 0.759091 0.247959
0.942199 0.748440 0.254490
0.939788 0.739590 0.281865
0.673884 0.670588 0.219486
0.820188 0.688014 0.152041
0.866484 0.720668 0.181674
0.895232 0.747707 0.223636
0.915496 0.761532 0.249210
0.928038 0.770474 0.266606
0.933349 0.775662 0.279088
0.936309 0.778286 0.284276
0.938384 0.780545 0.289433
0.939910 0.783047 0.294713
0.941466 0.784970 0.297520
0.942107 0.783902 0.294682
0.943481 0.782742 0.282506
0.944518 0.781491 0.266117
0.943999 0.777951 0.266789
0.943023 0.770748 0.274968
0.941436 0.758816 0.297551
0.691402 0.682124 0.208896
0.823178 0.694911 0.152346
0.870481 0.719875 0.172091
0.896880 0.748653 0.209293
0.916350 0.766110 0.243290
0.928100 0.776425 0.266392
0.933867 0.782986 0.285130
0.937163 0.786099 0.293095
0.939544 0.788540 0.299474
0.940887 0.790249 0.305180
0.941863 0.792416 0.310094
0.941863 0.793210 0.313085
0.942718 0.792050 0.308141
0.943542 0.790768 0.296544
0.944213 0.789120 0.283299
0.943358 0.784970 0.292332
0.941924 0.776944 0.315892
0.705867 0.691432 0.195712
0.816953 0.697841 0.150607
0.864744 0.715358 0.162203
0.893614 0.743984 0.193606
0.914214 0.765743 0.231846
0.925902 0.779232 0.264836
0.931731 0.786740 0.287541
0.935576 0.791074 0.300664
0.938506 0.793881 0.309026
0.940764 0.795956 0.315953
0.941863 0.797482 0.321782
0.941863 0.798856 0.326848
0.941833 0.799527 0.330724
0.942351 0.798184 0.325719
0.942779 0.796963 0.316655
0.943297 0.795804 0.306706
0.942107 0.791165 0.330602
0.712032 0.695857 0.183108
0.799100 0.695125 0.146151
0.847623 0.708888 0.155093
0.880766 0.736416 0.181216
0.905913 0.760800 0.223026
0.920653 0.777493 0.261662
0.926055 0.786923 0.292119
0.930236 0.791959 0.309148
0.933776 0.796048 0.322423
0.936919 0.798520 0.330510
0.939452 0.800748 0.338903
0.940215 0.801968 0.344976
0.940703 0.803037 0.351171
0.941009 0.803922 0.356481
0.941222 0.803281 0.352300
0.941680 0.802792 0.347539
0.942107 0.802518 0.342504
0.030030 0.037354 0.089570
0.036591 0.038697 0.089601
0.079225 0.044068 0.095705
0.142855 0.048188 0.096254
0.199680 0.049775 0.099947
0.252262 0.049378 0.104829
0.295171 0.048249 0.106630
0.328740 0.047425 0.107546
0.353796 0.046937 0.106508
0.379492 0.046906 0.108186
0.400397 0.047059 0.107851
0.419989 0.047242 0.107790
0.437140 0.047639 0.106844
0.452003 0.048096 0.105226
0.469947 0.049622 0.108186
0.490791 0.052369 0.115389
0.518212 0.057923 0.132235
0.030549 0.057191 0.099306
0.033845 0.048585 0.112245
0.123354 0.059724 0.131136
0.211307 0.058167 0.106874
0.276280 0.054017 0.093202
0.317632 0.051026 0.084321
0.348058 0.049256 0.078553
0.369360 0.047730 0.071839
0.389776 0.047425 0.071077
0.406958 0.047364 0.068299
0.423285 0.047578 0.067048
0.436805 0.047852 0.064759
0.453712 0.048859 0.066011
0.473579 0.050752 0.070008
0.502342 0.056703 0.084138
0.538811 0.072175 0.107057
0.585382 0.109468 0.143801
0.033509 0.114900 0.125063
0.046387 0.162020 0.169253
0.148226 0.158419 0.145510
0.278447 0.137575 0.107912
0.356237 0.113802 0.082918
0.398932 0.094575 0.069093
0.424262 0.077974 0.058778
0.437812 0.071199 0.056977
0.445838 0.065095 0.054200
0.451728 0.059236 0.051942
0.461555 0.057374 0.051423
0.467536 0.053925 0.050721
0.485908 0.056855 0.052674
0.510430 0.062165 0.055848
0.559838 0.094453 0.076112
0.613764 0.146731 0.113161
0.665187 0.209628 0.161807
0.046906 0.192142 0.158236
0.097932 0.267124 0.177066
0.224796 0.274784 0.130343
0.431312 0.324041 0.131838
0.508782 0.290471 0.098238
0.555566 0.265812 0.082216
0.585016 0.243534 0.070954
0.598169 0.223453 0.069429
0.602197 0.203830 0.065614
0.602075 0.182635 0.062501
0.603052 0.170291 0.061738
0.603387 0.157900 0.060395
0.614801 0.162631 0.062989
0.633448 0.175204 0.067384
0.665370 0.214939 0.089631
0.704799 0.261265 0.126986
0.740444 0.313115 0.175845
0.082338 0.267521 0.184115
0.206638 0.366217 0.186191
0.335821 0.378027 0.107362
0.521721 0.435554 0.128420
0.638361 0.456672 0.140383
0.680873 0.433112 0.121675
0.708949 0.412482 0.107515
0.723140 0.392981 0.098634
0.727291 0.371069 0.091646
0.727443 0.349233 0.086488
0.727230 0.329885 0.083986
0.725704 0.312276 0.080537
0.728725 0.304936 0.082429
0.738491 0.309819 0.087556
0.749233 0.325414 0.106600
0.769375 0.356847 0.141878
0.791043 0.394202 0.189914
0.149172 0.343847 0.212070
0.319158 0.446204 0.198550
0.450233 0.464210 0.108766
0.606744 0.516594 0.139986
0.714046 0.542626 0.162387
0.776089 0.556390 0.172519
0.798489 0.535546 0.154421
0.809232 0.516014 0.143374
0.815091 0.499001 0.131472
0.817380 0.479484 0.122774
0.818570 0.463798 0.115785
0.817685 0.444480 0.108766
0.816983 0.432868 0.108156
0.817594 0.425971 0.111635
0.819852 0.429694 0.127993
0.821622 0.438636 0.159121
0.828153 0.458351 0.204410
0.233616 0.414008 0.238651
0.412207 0.509209 0.214054
0.547723 0.531792 0.120302
0.670588 0.574456 0.153689
0.768856 0.602655 0.178744
0.826627 0.617792 0.193820
0.861723 0.627344 0.200778
0.867826 0.607507 0.187045
0.870542 0.591302 0.171878
0.873167 0.575860 0.158877
0.873045 0.561639 0.150149
0.874205 0.545708 0.140627
0.872618 0.531579 0.138399
0.870237 0.518059 0.138491
0.866636 0.510124 0.150912
0.864164 0.511315 0.179660
0.861021 0.516167 0.221378
0.316136 0.476600 0.268498
0.486519 0.559197 0.229648
0.626764 0.584100 0.141238
0.718013 0.616114 0.170871
0.803708 0.643854 0.193942
0.857633 0.659327 0.212833
0.889128 0.668971 0.223697
0.904936 0.675959 0.227604
0.906035 0.659693 0.209323
0.905669 0.644373 0.191165
0.904356 0.630304 0.179538
0.903990 0.614679 0.166659
0.901305 0.599847 0.161807
0.897551 0.585382 0.161288
0.893950 0.574517 0.176059
0.888029 0.565026 0.201907
0.881773 0.563928 0.242313
0.385046 0.526085 0.292149
0.539208 0.595544 0.244053
0.684932 0.619287 0.152956
0.757809 0.648951 0.183993
0.831479 0.673457 0.206455
0.874571 0.689174 0.223514
0.902007 0.698024 0.237125
0.916320 0.704524 0.241520
0.923522 0.708614 0.244541
0.923613 0.695033 0.225498
0.923156 0.683009 0.210697
0.923430 0.671046 0.192905
0.921233 0.658076 0.185428
0.917052 0.644373 0.182467
0.913603 0.632166 0.198856
0.908232 0.620325 0.226963
0.901549 0.611261 0.264652
0.443931 0.569818 0.316686
0.581781 0.623652 0.248356
0.734737 0.647150 0.158083
0.793576 0.677607 0.193851
0.854704 0.699306 0.216678
0.892424 0.714870 0.234165
0.912749 0.724361 0.248173
0.924010 0.729702 0.253880
0.930480 0.733333 0.258122
0.935424 0.736782 0.257877
0.934173 0.723903 0.241215
0.935027 0.713008 0.219791
0.933379 0.699672 0.208774
0.929717 0.685145 0.204227
0.925261 0.671595 0.219028
0.920348 0.660487 0.249302
0.914061 0.651881 0.288975
0.486946 0.603845 0.333471
0.616297 0.646082 0.246891
0.773373 0.666377 0.158968
0.826871 0.700404 0.198611
0.873289 0.722072 0.227359
0.904784 0.736171 0.243565
0.921813 0.745785 0.259037
0.928527 0.750515 0.267124
0.933715 0.753170 0.273503
0.937865 0.756100 0.273808
0.941100 0.758267 0.268437
0.942565 0.748470 0.246036
0.941619 0.736324 0.233494
0.938933 0.721523 0.225406
0.935241 0.707668 0.239261
0.930266 0.695796 0.268681
0.925444 0.687648 0.309941
0.524926 0.633997 0.346227
0.644343 0.663325 0.232639
0.802060 0.680323 0.154421
0.850278 0.715389 0.192081
0.890379 0.738003 0.225132
0.918303 0.753079 0.246036
0.927306 0.762203 0.266606
0.932494 0.767147 0.276036
0.936522 0.770626 0.284184
0.939391 0.772244 0.288182
0.942199 0.773953 0.284855
0.943358 0.773922 0.271946
0.943267 0.763394 0.258244
0.942321 0.751827 0.247807
0.941100 0.737850 0.258732
0.936980 0.725917 0.287144
0.932555 0.717586 0.327703
0.551568 0.654658 0.344030
0.670100 0.678859 0.222263
0.817288 0.690669 0.153719
0.866209 0.724178 0.185122
0.898711 0.749294 0.223545
0.921874 0.764523 0.250431
0.930602 0.774441 0.274418
0.935088 0.778988 0.285527
0.938384 0.782895 0.295201
0.940215 0.785183 0.301579
0.942046 0.785611 0.303441
0.942809 0.785367 0.295232
0.944060 0.784329 0.280125
0.943816 0.774350 0.269871
0.942565 0.763668 0.281865
0.940581 0.750149 0.306096
0.936797 0.741085 0.345006
0.574853 0.672938 0.334905
0.689265 0.689906 0.207553
0.822934 0.697261 0.151949
0.871000 0.726345 0.175113
0.902831 0.752285 0.212772
0.923186 0.770809 0.246769
0.931792 0.782498 0.277653
0.936339 0.787778 0.292241
0.939666 0.791775 0.303716
0.941039 0.794522 0.311742
0.942046 0.796139 0.317143
0.942107 0.795438 0.318456
0.942931 0.794064 0.308324
0.943969 0.792294 0.291966
0.942870 0.784176 0.304448
0.941314 0.773587 0.328923
0.939422 0.762295 0.363226
0.590967 0.682857 0.312474
0.698573 0.695155 0.193820
0.810788 0.696529 0.148379
0.860838 0.717128 0.162783
0.894560 0.746273 0.198611
0.916228 0.767758 0.238468
0.927275 0.782559 0.277226
0.932219 0.789487 0.298070
0.935973 0.794247 0.312779
0.939025 0.796963 0.322271
0.940429 0.799252 0.330541
0.941283 0.800381 0.337377
0.941466 0.800290 0.338262
0.942107 0.799374 0.329839
0.942626 0.798306 0.320256
0.941314 0.789883 0.345800
0.939696 0.781094 0.381292
0.609827 0.694514 0.292515
0.702663 0.697902 0.181338
0.793240 0.693019 0.143832
0.843839 0.711086 0.156252
0.883146 0.741054 0.191775
0.907622 0.765743 0.238102
0.920073 0.782101 0.281193
0.926207 0.790127 0.309026
0.930571 0.795895 0.327916
0.934478 0.799222 0.339300
0.937285 0.801846 0.349615
0.938659 0.803616 0.358251
0.940215 0.805173 0.365209
0.940734 0.805447 0.366247
0.941161 0.805020 0.361578
0.941711 0.805234 0.359289
0.940246 0.797574 0.395666
0.626917 0.702205 0.269963
0.701564 0.698848 0.174807
0.775723 0.693538 0.147005
0.827085 0.711482 0.161318
0.868986 0.743069 0.203952
0.896544 0.766445 0.251865
0.911192 0.784360 0.300969
0.919310 0.792081 0.328588
0.924407 0.798367 0.352514
0.929076 0.802182 0.365637
0.932280 0.805661 0.379004
0.934508 0.807889 0.388159
0.936645 0.809812 0.396887
0.939208 0.811490 0.403662
0.939513 0.811765 0.404608
0.940368 0.812406 0.405737
0.941161 0.813474 0.407599
0.030243 0.036805 0.113954
0.034791 0.037812 0.121096
0.069429 0.042054 0.133120
0.137270 0.045838 0.138155
0.204288 0.047974 0.143008
0.259312 0.047944 0.149569
0.305364 0.047486 0.155001
0.341192 0.047059 0.158450
0.368658 0.046967 0.159670
0.393988 0.047333 0.162295
0.413916 0.047578 0.161929
0.432227 0.047822 0.161532
0.448005 0.048127 0.159976
0.461524 0.048585 0.158206
