LUT color transfer/LUTs/32.cube
# (C) 2014 VisionColor & Patchflyer [www.vision-color.com]
# Generator: VC Patchmatch v.2.1.1 [64/53]
# All work and no play makes Jack a dull boy.
# LUT generated from: FujiColor 200_FPE
LUT_3D_SIZE 17
0.033173 0.035981 0.036316
0.072755 0.051545 0.038972
0.158083 0.075502 0.038117
0.232975 0.097536 0.037781
0.292027 0.114534 0.039704
0.330205 0.123171 0.041566
0.355108 0.127596 0.042969
0.377417 0.130617 0.044068
0.394781 0.133700 0.044953
0.411383 0.137362 0.045747
0.426398 0.141756 0.046510
0.440131 0.144564 0.047181
0.453071 0.146639 0.047822
0.465095 0.148501 0.048463
0.486030 0.155062 0.049439
0.510246 0.163180 0.050507
0.546166 0.177066 0.052094
0.031983 0.062013 0.060060
0.069612 0.076173 0.049897
0.168307 0.111971 0.045686
0.254093 0.136721 0.040833
0.326543 0.156039 0.041810
0.383642 0.169131 0.044465
0.420264 0.175967 0.046387
0.447456 0.181765 0.047883
0.464240 0.184939 0.048676
0.482216 0.188663 0.049592
0.500786 0.193729 0.050599
0.518120 0.199191 0.051637
0.531731 0.202365 0.052308
0.545098 0.206485 0.053040
0.569848 0.216007 0.054475
0.594873 0.228580 0.056245
0.629175 0.249454 0.059113
0.047364 0.118379 0.108827
0.092226 0.133028 0.078035
0.182193 0.154849 0.054780
0.278233 0.180545 0.044800
0.356573 0.201114 0.043122
0.420661 0.217319 0.046113
0.468513 0.228458 0.049012
0.507134 0.238132 0.051759
0.532433 0.244480 0.053315
0.564996 0.255589 0.056123
0.584222 0.262913 0.057771
0.606836 0.271885 0.059937
0.624445 0.278630 0.061311
0.643000 0.287083 0.062959
0.661158 0.298344 0.064912
0.681331 0.312413 0.067750
0.702205 0.330938 0.072175
0.077516 0.178134 0.154025
0.137758 0.199283 0.108583
0.246250 0.223911 0.063539
0.312505 0.233494 0.053468
0.400549 0.258122 0.048524
0.465400 0.275883 0.050416
0.514855 0.289219 0.053468
0.555352 0.300511 0.056611
0.590753 0.311009 0.059785
0.628199 0.324376 0.064057
0.656703 0.334173 0.067720
0.681880 0.343542 0.070954
0.700740 0.352361 0.073396
0.716304 0.362097 0.075929
0.728542 0.372473 0.079622
0.740749 0.384833 0.085634
0.752712 0.400458 0.095949
0.106691 0.235843 0.193912
0.191867 0.265812 0.132570
0.313603 0.293645 0.078309
0.391485 0.306249 0.063752
0.435828 0.309117 0.059449
0.508904 0.333043 0.060761
0.559472 0.348028 0.064515
0.605310 0.363134 0.068666
0.641566 0.373327 0.072175
0.677607 0.385168 0.075990
0.706203 0.393835 0.079591
0.730770 0.402869 0.084382
0.746548 0.410590 0.089052
0.760281 0.421424 0.094240
0.769039 0.430365 0.101015
0.778378 0.441566 0.110994
0.786923 0.455177 0.125490
0.129549 0.289708 0.230381
0.242893 0.327428 0.157504
0.374975 0.358892 0.100557
0.460212 0.372442 0.082338
0.508843 0.376959 0.076020
0.543267 0.379339 0.074708
0.597986 0.397833 0.081117
0.646174 0.415564 0.089143
0.683040 0.426947 0.093507
0.718807 0.439246 0.099092
0.745876 0.446845 0.102022
0.769131 0.454475 0.106050
0.783536 0.460670 0.109926
0.794034 0.470527 0.116121
0.800412 0.479347 0.126467
0.806516 0.490150 0.140108
0.812222 0.501213 0.158389
0.144564 0.335882 0.263462
0.273228 0.377172 0.181857
0.424201 0.412177 0.126497
0.514366 0.427192 0.107515
0.564965 0.431983 0.099855
0.599390 0.434424 0.096986
0.629389 0.438392 0.099184
0.676783 0.456641 0.109834
0.714015 0.469368 0.117647
0.750698 0.482185 0.124788
0.775723 0.490486 0.130770
0.796750 0.499245 0.137636
0.809506 0.505852 0.145113
0.817960 0.514794 0.154391
0.823148 0.522881 0.165164
0.828428 0.533410 0.179324
0.831601 0.541527 0.195956
0.151095 0.370947 0.292393
0.298680 0.418433 0.206119
0.464393 0.454780 0.153201
0.555444 0.470680 0.133059
0.607965 0.475410 0.126040
0.641688 0.477211 0.122103
0.671626 0.482094 0.124178
0.699550 0.487922 0.129427
0.738094 0.502831 0.140261
0.776608 0.519707 0.153079
0.799954 0.528893 0.161288
0.819272 0.538598 0.172030
0.829679 0.545830 0.183413
0.835935 0.553094 0.194278
0.838834 0.558495 0.205478
0.841978 0.567224 0.219669
0.843412 0.573785 0.236454
0.148898 0.398627 0.320592
0.303014 0.451301 0.234775
0.487312 0.488228 0.178775
0.584131 0.504234 0.158236
0.640558 0.511559 0.151217
0.674708 0.512352 0.148806
0.702144 0.516747 0.150729
0.728634 0.522179 0.156283
0.752132 0.531090 0.171237
0.789761 0.549004 0.187442
0.812497 0.559930 0.198398
0.830991 0.570703 0.210880
0.840909 0.578790 0.223667
0.847105 0.585992 0.236118
0.849760 0.590906 0.247837
0.852018 0.597803 0.263310
0.853361 0.603326 0.277806
0.142733 0.424475 0.347692
0.311864 0.482338 0.262791
0.513024 0.519707 0.204135
0.614069 0.536553 0.182742
0.673609 0.546075 0.176333
0.708370 0.546929 0.175540
0.733822 0.549920 0.178561
0.759670 0.555993 0.184085
0.782406 0.566125 0.201785
0.801907 0.573663 0.215335
0.823850 0.586938 0.233341
0.842741 0.600244 0.252171
0.851896 0.610376 0.271214
0.857847 0.618769 0.287724
0.860471 0.623194 0.297337
0.862272 0.628260 0.311498
0.863249 0.631800 0.323033
0.135714 0.446204 0.375341
0.305699 0.503777 0.296025
0.517479 0.542626 0.229557
0.627222 0.558953 0.203372
0.692744 0.569574 0.196994
0.728878 0.571557 0.199680
0.755428 0.575677 0.205631
0.780636 0.582055 0.214084
0.801755 0.594232 0.236820
0.819913 0.603723 0.255619
0.832364 0.614099 0.280034
0.851987 0.627619 0.298497
0.862852 0.638270 0.316716
0.868315 0.648005 0.334508
0.870207 0.652766 0.345769
0.871855 0.656947 0.357702
0.871916 0.658534 0.367803
0.128054 0.464607 0.401862
0.298100 0.523980 0.327245
0.519554 0.562860 0.251408
0.636408 0.578210 0.221103
0.706386 0.589014 0.214572
0.745724 0.592187 0.217655
0.773983 0.598108 0.229679
0.798489 0.605859 0.243442
0.818418 0.618952 0.269780
0.836362 0.632593 0.298619
0.849515 0.644434 0.326207
0.858976 0.654200 0.349981
0.868986 0.664942 0.371588
0.873594 0.674159 0.391424
0.876158 0.679438 0.401068
0.877928 0.684108 0.412604
0.879179 0.685145 0.416327
0.121309 0.479316 0.426917
0.280217 0.539544 0.362737
0.503960 0.579705 0.286717
0.629847 0.593103 0.240635
0.706600 0.600855 0.225742
0.749691 0.605371 0.229252
0.782040 0.611841 0.241581
0.809079 0.623621 0.266606
0.828367 0.637537 0.295720
0.844297 0.654536 0.337835
0.859098 0.669703 0.372808
0.866819 0.680812 0.401770
0.874113 0.689723 0.423774
0.877867 0.697322 0.442298
0.879118 0.701320 0.451057
0.880003 0.705989 0.461921
0.880491 0.705653 0.463294
0.115267 0.492622 0.451698
0.262455 0.554589 0.399573
0.486580 0.595026 0.323949
0.616022 0.605707 0.263859
0.694118 0.608911 0.236606
0.744930 0.613855 0.234836
0.781857 0.618708 0.244327
0.811032 0.632166 0.273136
0.836912 0.652186 0.313542
0.852201 0.672786 0.370138
0.865690 0.689570 0.412787
0.870207 0.702846 0.451820
0.875669 0.712245 0.477302
0.878447 0.718502 0.494331
0.879149 0.721950 0.502525
0.879515 0.724941 0.511162
0.879698 0.724147 0.510613
0.123171 0.512169 0.476539
0.261875 0.570245 0.430610
0.473152 0.606928 0.365972
0.603296 0.618433 0.298039
0.675807 0.616632 0.256535
0.729244 0.619684 0.246067
0.771603 0.622461 0.244022
0.803067 0.632349 0.268101
0.830991 0.649927 0.305043
0.854246 0.678035 0.375235
0.866789 0.696681 0.425177
0.872251 0.715145 0.480842
0.875608 0.726131 0.513542
0.877470 0.733730 0.535760
0.878904 0.737423 0.543206
0.878752 0.739956 0.550561
0.878386 0.740047 0.551080
0.133944 0.532647 0.499825
0.267094 0.585931 0.461646
0.469764 0.619959 0.406592
0.594415 0.631128 0.335576
0.659846 0.626093 0.282292
0.712764 0.624231 0.257084
0.758328 0.626032 0.249546
0.794553 0.634089 0.267338
0.825803 0.649653 0.302159
0.849332 0.675380 0.369711
0.867155 0.701228 0.435798
0.873198 0.721920 0.497963
0.876097 0.736934 0.541955
0.876371 0.746273 0.571527
0.877623 0.751766 0.582605
0.878447 0.754452 0.588190
0.877928 0.753719 0.585443
0.156191 0.557763 0.520317
0.294499 0.604120 0.486549
0.482277 0.633051 0.442481
0.593378 0.643122 0.374640
0.651270 0.636347 0.315801
0.699580 0.632746 0.281712
0.744900 0.633326 0.266484
0.783932 0.640772 0.281315
0.818357 0.650782 0.305791
0.842191 0.672572 0.365759
0.860441 0.695979 0.428443
0.870146 0.719966 0.496712
0.874083 0.737911 0.546929
0.875669 0.752621 0.588281
0.877226 0.760830 0.605188
0.878141 0.765377 0.613947
0.878660 0.765805 0.614221
0.028809 0.038972 0.053468
0.058869 0.055116 0.077150
0.146395 0.083894 0.087678
0.224704 0.107362 0.089815
0.286259 0.123598 0.093141
0.335973 0.133761 0.094667
0.369390 0.137758 0.091890
0.393835 0.138949 0.088746
0.413458 0.139162 0.085298
0.430152 0.138155 0.080964
0.445991 0.136782 0.078584
0.460426 0.133394 0.075929
0.473548 0.131655 0.074220
0.486915 0.129732 0.071504
0.504570 0.134157 0.072389
0.525292 0.141634 0.074800
0.552300 0.155856 0.082429
0.033234 0.074830 0.093904
0.069795 0.086427 0.089937
0.209171 0.117067 0.062440
0.305547 0.129915 0.046357
0.359075 0.134188 0.043275
0.386481 0.136690 0.044373
0.407294 0.139895 0.045350
0.413581 0.139834 0.045838
0.424475 0.140810 0.046387
0.434943 0.141878 0.046937
0.449073 0.144717 0.047608
0.461372 0.147402 0.048249
0.478889 0.152132 0.049134
0.501793 0.159152 0.050172
0.536614 0.172854 0.051575
0.574639 0.191531 0.054688
0.615290 0.219821 0.069917
0.044770 0.132998 0.147341
0.087861 0.161257 0.144045
0.237705 0.194705 0.078920
0.352148 0.203220 0.051118
0.424353 0.207034 0.047395
0.470192 0.210697 0.049317
0.498299 0.212070 0.050721
0.511223 0.209293 0.051362
0.527428 0.213443 0.052552
0.537255 0.214176 0.053040
0.549706 0.216281 0.053651
0.559106 0.218448 0.054139
0.574517 0.223270 0.055055
0.597070 0.232883 0.056611
0.624598 0.250095 0.059113
0.655970 0.272526 0.065095
0.687892 0.301610 0.084321
0.065797 0.189914 0.192569
0.122347 0.238834 0.195346
0.289464 0.283726 0.106386
0.413397 0.300328 0.073274
0.489906 0.299962 0.059144
0.539178 0.299840 0.058320
0.575372 0.301152 0.059236
0.604547 0.300572 0.060365
0.629755 0.304906 0.063050
0.647395 0.306889 0.064668
0.662623 0.311345 0.066133
0.672908 0.315038 0.067170
0.682643 0.320073 0.068605
0.693172 0.327337 0.070436
0.705470 0.338811 0.075959
0.723903 0.357275 0.088258
0.746914 0.382055 0.114076
0.086519 0.245731 0.238224
0.143465 0.304723 0.239353
0.341131 0.363317 0.140261
0.485634 0.388220 0.100313
0.555871 0.393011 0.089601
0.608179 0.391272 0.083528
0.645869 0.392096 0.082490
0.679591 0.391730 0.079622
0.703120 0.392065 0.079988
0.718532 0.390539 0.080232
0.730617 0.392554 0.083314
0.738155 0.394018 0.084688
0.744991 0.396826 0.088106
0.751980 0.403174 0.092073
0.758022 0.411505 0.102510
0.767361 0.423865 0.119265
0.781979 0.442939 0.148440
0.102907 0.295750 0.278294
0.150362 0.353704 0.277440
0.372503 0.419379 0.173983
0.527581 0.447913 0.130983
0.607752 0.456764 0.119142
0.658198 0.463752 0.120821
0.696742 0.462776 0.119234
0.731350 0.463813 0.118318
0.753750 0.463050 0.114931
0.768826 0.461952 0.113954
0.780758 0.463325 0.113283
0.786892 0.462867 0.112276
0.792203 0.464759 0.114137
0.794247 0.467750 0.121462
0.797208 0.473610 0.134646
0.800809 0.481056 0.153475
0.808499 0.493843 0.185275
0.115267 0.337804 0.312932
0.152621 0.391638 0.310613
0.389563 0.459724 0.204440
0.557458 0.491432 0.159945
0.644221 0.503105 0.148440
0.692042 0.507958 0.148867
0.732570 0.516503 0.157076
0.767788 0.519219 0.159182
0.790341 0.522301 0.160494
0.802640 0.520012 0.159030
0.812406 0.521233 0.161196
0.818173 0.521538 0.160586
0.822568 0.523186 0.164492
0.824887 0.524315 0.169070
0.825650 0.526238 0.179690
0.827482 0.530938 0.196475
0.830961 0.538476 0.223453
0.123110 0.370306 0.342992
0.145418 0.421210 0.343816
0.387152 0.490150 0.234440
0.575921 0.524651 0.184176
0.673854 0.541131 0.175601
0.718959 0.544518 0.176822
0.757198 0.551843 0.186313
0.792203 0.563500 0.204868
0.815061 0.568566 0.207553
0.828031 0.569604 0.208011
0.835294 0.568933 0.210056
0.839414 0.568078 0.210269
0.843015 0.568231 0.212894
0.844053 0.568414 0.219150
0.843503 0.568170 0.227939
0.842893 0.569970 0.242527
0.844144 0.576135 0.268772
0.124147 0.397162 0.371160
0.139193 0.444251 0.371069
0.379278 0.514305 0.265690
0.584070 0.549065 0.208560
0.688807 0.566491 0.197086
0.737423 0.571923 0.200870
0.774014 0.578882 0.214389
0.807706 0.590021 0.234516
0.829892 0.606134 0.264790
0.842741 0.609247 0.269123
0.850675 0.611444 0.271412
0.854185 0.610132 0.270497
0.857511 0.610559 0.274067
0.857786 0.608484 0.274464
0.857267 0.607599 0.281590
0.856382 0.607721 0.293309
0.855161 0.611048 0.314397
0.123110 0.421607 0.397742
0.131380 0.462501 0.396307
0.357549 0.533196 0.300328
0.580407 0.566949 0.230381
0.690669 0.584955 0.216220
0.745815 0.591424 0.218082
0.784726 0.600488 0.237308
0.815976 0.611231 0.261418
0.838010 0.630304 0.301518
0.854337 0.645899 0.334905
0.861112 0.649592 0.341726
0.864988 0.649409 0.339055
0.867643 0.648951 0.341314
0.868223 0.646540 0.339483
0.867887 0.643366 0.337926
0.866911 0.641566 0.345830
0.865690 0.642939 0.362860
0.116579 0.440223 0.420722
0.122744 0.477028 0.419898
0.335637 0.548852 0.337469
0.568017 0.583215 0.256962
0.684047 0.597589 0.231113
0.751522 0.606958 0.230167
0.792355 0.617548 0.254704
0.822660 0.630182 0.286351
0.845640 0.652796 0.338293
0.859861 0.669367 0.377081
0.870726 0.682857 0.410803
0.874723 0.683528 0.408026
0.877867 0.684199 0.408057
0.877348 0.680903 0.402777
0.876646 0.677516 0.399603
0.875700 0.673732 0.399023
0.873442 0.671839 0.409705
0.111330 0.456123 0.442054
0.119661 0.491249 0.444404
0.309148 0.561181 0.376287
0.546868 0.597040 0.291783
0.663020 0.606500 0.251408
0.733761 0.612177 0.237400
0.785580 0.619837 0.248753
0.818112 0.635279 0.287831
0.846738 0.660151 0.345983
0.862119 0.684779 0.408392
0.873075 0.701167 0.450813
0.875547 0.709377 0.475593
0.877958 0.709804 0.475166
0.878569 0.707912 0.467964
0.880491 0.705623 0.459632
0.880644 0.701991 0.455726
0.879545 0.698970 0.458595
0.106600 0.470558 0.463539
0.119905 0.506004 0.467445
0.292576 0.572900 0.410742
0.525689 0.609644 0.331182
0.642695 0.615076 0.271794
0.720821 0.618769 0.248112
0.777035 0.624689 0.251225
0.814115 0.638544 0.283558
0.845670 0.665339 0.347646
0.864073 0.693446 0.422110
0.874876 0.714992 0.480262
0.876219 0.725673 0.512566
0.878630 0.732876 0.533623
0.879637 0.730465 0.524346
0.879728 0.727016 0.515587
0.880644 0.722835 0.504906
0.879576 0.718379 0.501854
0.105745 0.487221 0.486946
0.129335 0.523613 0.490639
0.288670 0.585504 0.443397
0.506706 0.619684 0.373327
0.621332 0.623438 0.305577
0.697963 0.623011 0.264256
0.760189 0.625635 0.249851
0.800839 0.639399 0.280186
0.839384 0.660945 0.327993
0.860227 0.692103 0.413321
0.874083 0.717678 0.486000
0.875761 0.735103 0.536736
0.877684 0.743801 0.561791
0.878538 0.748287 0.573449
0.877714 0.744778 0.565759
0.877440 0.740230 0.555322
0.878355 0.735927 0.544549
0.116793 0.509667 0.510613
0.148684 0.546777 0.510887
0.309880 0.601099 0.467720
0.499153 0.628565 0.411139
0.608911 0.632990 0.340520
0.684077 0.631525 0.291508
0.742916 0.632349 0.267155
0.789822 0.642664 0.284245
0.831357 0.661280 0.323812
0.856016 0.688380 0.398077
0.870878 0.715877 0.477363
0.875517 0.737453 0.542321
0.876982 0.750362 0.578729
0.877806 0.757717 0.598321
0.878477 0.759213 0.600732
0.877195 0.754971 0.592035
0.876860 0.751247 0.584161
0.131472 0.533349 0.533288
0.176059 0.571130 0.528527
0.341863 0.617395 0.489143
0.506493 0.639979 0.443549
0.604334 0.644617 0.381598
0.673793 0.643671 0.328832
0.729824 0.643793 0.300298
0.779202 0.653010 0.308446
0.823392 0.666773 0.336614
0.847990 0.688807 0.400336
0.866697 0.713649 0.469978
0.873106 0.736263 0.538079
0.876524 0.753292 0.585595
0.877165 0.764157 0.614801
0.877501 0.767849 0.623163
0.877989 0.768643 0.623743
0.876646 0.764584 0.616053
0.155398 0.560082 0.554711
0.218845 0.595453 0.542962
0.383307 0.634363 0.510674
0.528801 0.654475 0.474769
0.613214 0.659663 0.424048
0.675959 0.661707 0.383459
0.725429 0.661891 0.353826
0.773159 0.671443 0.361334
0.817136 0.682582 0.377966
0.841886 0.699397 0.430365
0.859556 0.716670 0.482063
0.869566 0.738064 0.544091
0.874113 0.753719 0.586358
0.876585 0.767483 0.623011
0.876646 0.774014 0.639033
0.876799 0.776486 0.644526
0.877134 0.776303 0.642695
0.029328 0.045533 0.080232
0.043030 0.059724 0.108553
0.121157 0.087556 0.140627
0.205692 0.113375 0.154604
0.272923 0.128725 0.163912
0.326238 0.140017 0.168673
0.366247 0.146853 0.170321
0.396704 0.150118 0.171298
0.416022 0.148379 0.167422
0.434699 0.146944 0.166171
0.448798 0.142397 0.161166
0.462989 0.137087 0.157473
0.476478 0.132387 0.153536
0.490486 0.127565 0.150484
0.507378 0.130343 0.150790
0.526604 0.135622 0.154543
0.551263 0.148226 0.164370
0.032868 0.085542 0.126284
0.036194 0.073396 0.115389
0.152224 0.123171 0.173648
0.275120 0.142947 0.164553
0.345892 0.148287 0.147433
0.384863 0.147951 0.131075
0.410407 0.146517 0.120516
0.427161 0.141176 0.106264
0.443030 0.137911 0.100374
0.457069 0.133852 0.093019
0.471504 0.131167 0.088411
0.484504 0.129488 0.083467
0.499153 0.130495 0.080964
0.516289 0.135500 0.080842
0.540856 0.148257 0.088960
0.570764 0.167300 0.106020
0.607874 0.197971 0.137942
0.041871 0.145296 0.186221
0.067872 0.181796 0.216281
0.161807 0.170199 0.169497
0.307927 0.189883 0.139071
0.397223 0.190005 0.100954
0.441321 0.182040 0.074464
0.467414 0.174258 0.055512
0.483864 0.169955 0.054292
0.493629 0.166110 0.050782
0.501579 0.163394 0.050294
0.504570 0.162814 0.050050
0.510338 0.162875 0.050416
0.528038 0.169009 0.051209
0.551934 0.178622 0.052216
0.588952 0.200473 0.056825
0.629877 0.231571 0.079683
0.670771 0.269596 0.120241
0.057404 0.203342 0.235904
0.086000 0.253330 0.269139
0.173434 0.239872 0.209476
0.350317 0.282536 0.158083
0.456062 0.286290 0.121614
0.518791 0.281834 0.093935
0.560174 0.274784 0.072511
0.586175 0.268284 0.067475
0.602319 0.263615 0.063020
0.613550 0.258000 0.060487
0.614404 0.254826 0.059846
0.618006 0.253361 0.059205
0.629389 0.259709 0.060517
0.647486 0.270207 0.062440
0.673152 0.290959 0.072602
0.704097 0.317662 0.098787
0.733974 0.350134 0.142611
0.071504 0.256901 0.281926
0.104219 0.312505 0.310796
0.193820 0.319982 0.253422
0.403204 0.373175 0.185336
0.519402 0.387243 0.151095
0.585016 0.384161 0.126894
0.632868 0.379248 0.106905
0.669337 0.373480 0.094667
0.688289 0.365820 0.085786
0.701595 0.359167 0.080873
0.710231 0.356542 0.081575
0.712367 0.353399 0.079347
0.716548 0.355657 0.082033
0.724117 0.362402 0.085573
0.734371 0.375860 0.105165
0.753964 0.395514 0.132570
0.775235 0.421790 0.176547
0.084535 0.304356 0.323491
0.113588 0.356817 0.345861
0.201572 0.378668 0.289403
0.449439 0.443397 0.213443
0.577234 0.462959 0.183627
0.642878 0.467231 0.169680
0.690822 0.463539 0.153017
0.727565 0.460151 0.143282
0.751278 0.456397 0.131716
0.766354 0.450752 0.122438
0.774685 0.446754 0.115175
0.777920 0.441901 0.109377
0.778714 0.439918 0.111818
0.779538 0.441596 0.118898
0.784451 0.450477 0.140810
0.792294 0.462440 0.171572
0.804837 0.480537 0.214176
0.093416 0.342626 0.356512
0.118837 0.389746 0.374029
0.196902 0.421485 0.321874
0.476631 0.493446 0.238468
0.613977 0.516625 0.211704
0.686458 0.524315 0.202213
0.734371 0.530632 0.204379
0.771908 0.529656 0.197452
0.792630 0.526635 0.189273
0.808225 0.523644 0.179904
0.815122 0.520043 0.174563
0.818112 0.516533 0.167239
0.818326 0.512322 0.166964
0.817472 0.508721 0.168887
0.818357 0.511254 0.186496
0.823270 0.519341 0.214755
0.829374 0.531548 0.254490
0.098482 0.372229 0.384100
0.117708 0.416419 0.401038
0.182315 0.452583 0.355810
0.483650 0.528130 0.262272
0.635645 0.555261 0.235477
0.713008 0.565728 0.232242
0.764309 0.573938 0.238163
0.801755 0.585016 0.257130
0.821256 0.582238 0.249805
0.834592 0.580072 0.243793
0.841245 0.577142 0.237720
0.842863 0.573053 0.230762
0.843076 0.568322 0.226673
0.841459 0.563592 0.228702
0.840635 0.562005 0.240574
0.840909 0.565606 0.265507
0.844022 0.575708 0.303197
0.100679 0.397009 0.409064
0.114809 0.435676 0.423560
0.164309 0.472908 0.386114
0.466011 0.550164 0.290227
0.636194 0.578759 0.251621
0.729152 0.594659 0.252049
0.782162 0.605066 0.266941
0.819150 0.617395 0.290791
0.840787 0.632746 0.326009
0.854032 0.631098 0.320729
0.860655 0.629145 0.313924
0.861723 0.624933 0.304311
0.861662 0.619898 0.298299
0.860227 0.614038 0.292744
0.858915 0.610834 0.301503
0.857511 0.611383 0.320897
0.856596 0.617090 0.352392
0.102602 0.419165 0.431861
0.110353 0.452094 0.444526
0.145846 0.488533 0.415015
0.438132 0.566857 0.321447
0.625452 0.595972 0.269963
0.728573 0.612848 0.263127
0.793454 0.627344 0.281498
0.829984 0.643427 0.318761
0.853300 0.661402 0.362799
0.866514 0.676143 0.401541
0.871794 0.673854 0.395102
0.873228 0.670558 0.387167
0.872709 0.663630 0.375860
0.871275 0.656611 0.366735
0.869810 0.650538 0.362676
0.867491 0.649195 0.377661
0.865690 0.653010 0.404791
0.099672 0.435645 0.452003
0.105257 0.466102 0.464454
0.133791 0.501945 0.440375
0.400076 0.578759 0.361578
0.600534 0.608270 0.295232
0.722652 0.623957 0.268559
0.792935 0.639490 0.287877
0.831235 0.655818 0.328740
0.858610 0.681025 0.393622
0.871946 0.698848 0.441596
0.878294 0.713008 0.480964
0.880339 0.710506 0.472877
0.880308 0.703609 0.456031
0.879026 0.694331 0.438117
0.877623 0.687160 0.429206
0.875029 0.682887 0.431952
0.871458 0.683650 0.452064
0.097108 0.451240 0.471656
0.107210 0.484352 0.487068
0.128542 0.516320 0.469154
0.367071 0.586755 0.402777
0.563210 0.613886 0.325353
0.689158 0.628107 0.283909
0.775265 0.636896 0.271824
0.817960 0.654841 0.318471
0.853758 0.680262 0.385611
0.870268 0.709529 0.465354
0.878569 0.728542 0.518090
0.877897 0.736355 0.542809
0.878691 0.730312 0.525536
0.879057 0.722805 0.506889
0.879973 0.715816 0.490028
0.878477 0.711421 0.488289
0.876310 0.711391 0.500267
0.096376 0.467506 0.491981
0.111299 0.502251 0.508049
0.137881 0.534295 0.493385
0.351019 0.597070 0.439033
0.537530 0.623804 0.363500
0.662409 0.631525 0.301457
0.746212 0.636286 0.276646
0.802365 0.648524 0.299886
0.842863 0.674403 0.368215
0.866056 0.707149 0.456596
0.876829 0.734859 0.533043
0.877195 0.747036 0.568872
0.877836 0.752285 0.584955
0.878904 0.744900 0.562921
0.878508 0.737972 0.546258
0.878202 0.732876 0.535546
0.876310 0.731228 0.541436
0.100587 0.487434 0.514855
0.125216 0.525200 0.530053
0.156954 0.556023 0.517296
0.354711 0.610468 0.470710
0.523247 0.633478 0.400977
0.639277 0.639460 0.336889
0.714565 0.635950 0.288792
0.774289 0.646754 0.303227
0.828214 0.663386 0.339071
0.855467 0.699153 0.435172
0.873869 0.730098 0.519615
0.876341 0.751217 0.578058
0.877531 0.760311 0.603784
0.878141 0.763210 0.611597
0.877287 0.756680 0.595148
0.876738 0.751888 0.584009
0.876280 0.750271 0.582269
0.117067 0.513451 0.539391
0.144625 0.548363 0.547845
0.190249 0.579797 0.532921
0.380224 0.623926 0.492866
0.525841 0.645777 0.442695
0.635035 0.652827 0.383185
0.702693 0.650294 0.334264
0.764462 0.659480 0.333745
0.819150 0.674617 0.361532
0.849302 0.697047 0.426825
0.868437 0.726558 0.509239
0.874357 0.749050 0.574975
0.876341 0.763973 0.613184
0.877440 0.770718 0.629847
0.877653 0.771023 0.629938
0.877043 0.766537 0.619715
0.876463 0.765255 0.619074
0.134676 0.540032 0.562615
0.168490 0.570672 0.562829
0.236698 0.603449 0.548211
0.413062 0.641352 0.515099
0.542321 0.660548 0.479316
0.638422 0.670436 0.440406
0.702083 0.669123 0.393866
0.756649 0.677943 0.391089
0.810727 0.690486 0.404700
0.841733 0.708919 0.455756
0.862699 0.727962 0.511925
0.870512 0.749691 0.576501
0.875151 0.765255 0.617365
0.876493 0.776059 0.644068
0.876280 0.778470 0.650629
0.876585 0.777707 0.647852
0.875914 0.775692 0.645838
0.159792 0.567285 0.583276
0.202090 0.591241 0.574212
0.295659 0.627497 0.566400
0.454414 0.659876 0.542107
0.567071 0.677974 0.518029
0.648737 0.688228 0.494026
0.708186 0.691432 0.461738
0.758511 0.701015 0.462104
0.803098 0.710536 0.466957
0.834836 0.725155 0.504356
0.855863 0.738918 0.541558
0.866819 0.756130 0.593622
0.872007 0.768582 0.626795
0.875090 0.780148 0.656519
0.874296 0.784970 0.670497
0.874205 0.785580 0.672267
0.874907 0.783841 0.667109
0.030152 0.053071 0.105226
0.037049 0.066682 0.131777
0.095644 0.090608 0.165316
0.175174 0.114351 0.188235
0.250858 0.133242 0.202029
0.310918 0.144167 0.211276
0.356573 0.151339 0.216495
0.390784 0.155856 0.220432
0.414618 0.156435 0.220310
0.436622 0.157168 0.221561
0.452094 0.152865 0.217838
0.467262 0.148592 0.215183
0.481453 0.142702 0.211948
0.495521 0.136721 0.209445
