LUT color transfer/LUTs/32.cube
# (C) 2014 VisionColor & Patchflyer [www.vision-color.com]
# Generator: VC Patchmatch v.2.1.1 [64/53]
# All work and no play makes Jack a dull boy.
# LUT generated from: FujiColor 200_FPE
LUT_3D_SIZE 9
0.033173 0.035981 0.036316
0.158083 0.075502 0.038117
0.292027 0.114534 0.039704
0.355108 0.127596 0.042969
0.394781 0.133700 0.044953
0.426398 0.141756 0.046510
0.453071 0.146639 0.047822
0.486030 0.155062 0.049439
0.546166 0.177066 0.052094
0.047364 0.118379 0.108827
0.182193 0.154849 0.054780
0.356573 0.201114 0.043122
0.468513 0.228458 0.049012
0.532433 0.244480 0.053315
0.584222 0.262913 0.057771
0.624445 0.278630 0.061311
0.661158 0.298344 0.064912
0.702205 0.330938 0.072175
0.106691 0.235843 0.193912
0.313603 0.293645 0.078309
0.435828 0.309117 0.059449
0.559472 0.348028 0.064515
0.641566 0.373327 0.072175
0.706203 0.393835 0.079591
0.746548 0.410590 0.089052
0.769039 0.430365 0.101015
0.786923 0.455177 0.125490
0.144564 0.335882 0.263462
0.424201 0.412177 0.126497
0.564965 0.431983 0.099855
0.629389 0.438392 0.099184
0.714015 0.469368 0.117647
0.775723 0.490486 0.130770
0.809506 0.505852 0.145113
0.823148 0.522881 0.165164
0.831601 0.541527 0.195956
0.148898 0.398627 0.320592
0.487312 0.488228 0.178775
0.640558 0.511559 0.151217
0.702144 0.516747 0.150729
0.752132 0.531090 0.171237
0.812497 0.559930 0.198398
0.840909 0.578790 0.223667
0.849760 0.590906 0.247837
0.853361 0.603326 0.277806
0.135714 0.446204 0.375341
0.517479 0.542626 0.229557
0.692744 0.569574 0.196994
0.755428 0.575677 0.205631
0.801755 0.594232 0.236820
0.832364 0.614099 0.280034
0.862852 0.638270 0.316716
0.870207 0.652766 0.345769
0.871916 0.658534 0.367803
0.121309 0.479316 0.426917
0.503960 0.579705 0.286717
0.706600 0.600855 0.225742
0.782040 0.611841 0.241581
0.828367 0.637537 0.295720
0.859098 0.669703 0.372808
0.874113 0.689723 0.423774
0.879118 0.701320 0.451057
0.880491 0.705653 0.463294
0.123171 0.512169 0.476539
0.473152 0.606928 0.365972
0.675807 0.616632 0.256535
0.771603 0.622461 0.244022
0.830991 0.649927 0.305043
0.866789 0.696681 0.425177
0.875608 0.726131 0.513542
0.878904 0.737423 0.543206
0.878386 0.740047 0.551080
0.156191 0.557763 0.520317
0.482277 0.633051 0.442481
0.651270 0.636347 0.315801
0.744900 0.633326 0.266484
0.818357 0.650782 0.305791
0.860441 0.695979 0.428443
0.874083 0.737911 0.546929
0.877226 0.760830 0.605188
0.878660 0.765805 0.614221
0.029328 0.045533 0.080232
0.121157 0.087556 0.140627
0.272923 0.128725 0.163912
0.366247 0.146853 0.170321
0.416022 0.148379 0.167422
0.448798 0.142397 0.161166
0.476478 0.132387 0.153536
0.507378 0.130343 0.150790
0.551263 0.148226 0.164370
0.041871 0.145296 0.186221
0.161807 0.170199 0.169497
0.397223 0.190005 0.100954
0.467414 0.174258 0.055512
0.493629 0.166110 0.050782
0.504570 0.162814 0.050050
0.528038 0.169009 0.051209
0.588952 0.200473 0.056825
0.670771 0.269596 0.120241
0.071504 0.256901 0.281926
0.193820 0.319982 0.253422
0.519402 0.387243 0.151095
0.632868 0.379248 0.106905
0.688289 0.365820 0.085786
0.710231 0.356542 0.081575
0.716548 0.355657 0.082033
0.734371 0.375860 0.105165
0.775235 0.421790 0.176547
0.093416 0.342626 0.356512
0.196902 0.421485 0.321874
0.613977 0.516625 0.211704
0.734371 0.530632 0.204379
0.792630 0.526635 0.189273
0.815122 0.520043 0.174563
0.818326 0.512322 0.166964
0.818357 0.511254 0.186496
0.829374 0.531548 0.254490
0.100679 0.397009 0.409064
0.164309 0.472908 0.386114
0.636194 0.578759 0.251621
0.782162 0.605066 0.266941
0.840787 0.632746 0.326009
0.860655 0.629145 0.313924
0.861662 0.619898 0.298299
0.858915 0.610834 0.301503
0.856596 0.617090 0.352392
0.099672 0.435645 0.452003
0.133791 0.501945 0.440375
0.600534 0.608270 0.295232
0.792935 0.639490 0.287877
0.858610 0.681025 0.393622
0.878294 0.713008 0.480964
0.880308 0.703609 0.456031
0.877623 0.687160 0.429206
0.871458 0.683650 0.452064
0.096376 0.467506 0.491981
0.137881 0.534295 0.493385
0.537530 0.623804 0.363500
0.746212 0.636286 0.276646
0.842863 0.674403 0.368215
0.876829 0.734859 0.533043
0.877836 0.752285 0.584955
0.878508 0.737972 0.546258
0.876310 0.731228 0.541436
0.117067 0.513451 0.539391
0.190249 0.579797 0.532921
0.525841 0.645777 0.442695
0.702693 0.650294 0.334264
0.819150 0.674617 0.361532
0.868437 0.726558 0.509239
0.876341 0.763973 0.613184
0.877653 0.771023 0.629938
0.876463 0.765255 0.619074
0.159792 0.567285 0.583276
0.295659 0.627497 0.566400
0.567071 0.677974 0.518029
0.708186 0.691432 0.461738
0.803098 0.710536 0.466957
0.855863 0.738918 0.541558
0.872007 0.768582 0.626795
0.874296 0.784970 0.670497
0.874907 0.783841 0.667109
0.031037 0.061158 0.124300
0.072114 0.093202 0.180880
0.221225 0.134646 0.225864
0.339818 0.156039 0.243961
0.404578 0.160952 0.251682
0.447547 0.159854 0.253208
0.479713 0.153170 0.249973
0.510674 0.144533 0.246220
0.555016 0.152987 0.252903
0.040742 0.162905 0.231052
0.054383 0.133272 0.189120
0.282658 0.195315 0.285069
0.424811 0.197726 0.264500
0.484047 0.180850 0.239414
0.511376 0.156252 0.209628
0.534020 0.145144 0.186587
0.582727 0.173129 0.197543
0.654047 0.244663 0.258976
0.062104 0.276646 0.340215
0.122713 0.333593 0.378393
0.324651 0.310643 0.314305
0.528954 0.309789 0.256443
0.609308 0.279942 0.191806
0.638666 0.253727 0.134813
0.646754 0.245945 0.105287
0.684352 0.280674 0.140383
0.747829 0.371862 0.265660
0.078218 0.351293 0.405585
0.119478 0.414374 0.441321
0.340520 0.442481 0.376959
0.609979 0.500420 0.345342
0.729427 0.488380 0.285801
0.778592 0.469032 0.222766
0.788449 0.452247 0.183032
0.795834 0.457618 0.207095
0.813474 0.503594 0.324651
0.082887 0.396460 0.449683
0.110597 0.457404 0.484108
0.310979 0.525689 0.417700
0.665003 0.602838 0.396643
0.791592 0.629450 0.409781
0.845670 0.621546 0.365133
0.853849 0.602792 0.325124
0.849729 0.595422 0.337575
0.849271 0.613458 0.420676
0.083345 0.432319 0.487587
0.102388 0.486641 0.519036
0.262348 0.569451 0.462593
0.681575 0.660334 0.426368
0.825986 0.692683 0.462898
0.868223 0.719295 0.518944
0.876463 0.708644 0.492470
0.872068 0.695003 0.478889
0.867796 0.702968 0.529992
0.089235 0.467353 0.523308
0.133883 0.538354 0.563653
0.238010 0.593072 0.514916
0.638254 0.671565 0.451667
0.813077 0.706386 0.461448
0.869902 0.749477 0.574243
0.875303 0.766384 0.623011
0.875822 0.752590 0.594293
0.872343 0.755642 0.618128
0.118288 0.518181 0.565209
0.183719 0.583490 0.594781
0.316320 0.632776 0.566827
0.617182 0.687922 0.517937
0.772793 0.712886 0.498482
0.855406 0.752865 0.579248
0.873106 0.781613 0.662531
0.874632 0.785275 0.672236
0.874113 0.789792 0.687221
0.170840 0.576104 0.605646
0.257939 0.621057 0.614191
0.455695 0.680690 0.621149
0.647639 0.727443 0.622889
0.762844 0.752529 0.622583
0.840116 0.776333 0.652155
0.867765 0.795224 0.700679
0.870207 0.804074 0.728389
0.871061 0.799344 0.718746
0.032593 0.077821 0.151064
0.050172 0.098085 0.203159
0.191287 0.134524 0.251438
0.296880 0.160098 0.281895
0.377874 0.169162 0.291600
0.433478 0.174166 0.300755
0.475532 0.173709 0.304387
0.510552 0.166262 0.304356
0.552728 0.167269 0.308568
0.040070 0.171939 0.258671
0.038209 0.126375 0.206271
0.157870 0.163821 0.285924
0.354925 0.202213 0.335882
0.447730 0.201541 0.328252
0.499092 0.186160 0.314549
0.533806 0.167361 0.296178
0.580804 0.177554 0.295262
0.649165 0.241764 0.338170
0.056886 0.282719 0.364080
0.068971 0.287205 0.369909
0.156374 0.249058 0.318120
0.401312 0.302953 0.388312
0.530419 0.296025 0.363073
0.596887 0.259892 0.323384
0.624018 0.228428 0.281590
0.663874 0.256443 0.291112
0.723201 0.356542 0.368872
0.067933 0.350103 0.429206
0.094301 0.407538 0.476783
0.274662 0.439002 0.456367
0.465309 0.440223 0.438178
0.627863 0.425513 0.388373
0.706233 0.398154 0.330556
0.736507 0.364508 0.272999
0.749660 0.372595 0.268070
0.778164 0.472938 0.398566
0.075349 0.396551 0.469520
0.095857 0.452308 0.515801
0.242985 0.508659 0.503136
0.468849 0.546380 0.481025
0.679530 0.594293 0.494148
0.794858 0.591775 0.443839
0.828214 0.569467 0.388632
0.830259 0.553567 0.371359
0.826810 0.593805 0.473381
0.080629 0.435126 0.505241
0.098909 0.486915 0.548333
0.184604 0.539818 0.540642
0.445670 0.621515 0.523400
0.727596 0.691035 0.546441
0.831327 0.720974 0.584344
0.862516 0.712642 0.552453
0.864347 0.695033 0.525322
0.856565 0.701564 0.577569
0.088472 0.468971 0.536736
0.132631 0.540185 0.587366
0.183810 0.574273 0.583215
0.409476 0.652949 0.564416
0.726772 0.728573 0.583368
0.845762 0.765927 0.634943
0.869688 0.778744 0.669123
0.872343 0.769070 0.648157
0.868711 0.769619 0.673426
0.115358 0.515618 0.572534
0.187991 0.588708 0.616602
0.274479 0.627680 0.622126
0.455329 0.680507 0.617731
0.708736 0.740139 0.624781
0.831296 0.775540 0.656367
0.868132 0.797879 0.711849
0.871489 0.798276 0.716915
0.871214 0.805386 0.735653
0.163424 0.570733 0.608759
0.261021 0.625513 0.634546
0.418189 0.679194 0.654780
0.586236 0.725277 0.675685
0.731289 0.767086 0.699001
0.820005 0.792172 0.716335
0.862364 0.811276 0.748257
0.872496 0.818875 0.766751
0.872862 0.819089 0.767269
0.034089 0.092866 0.176089
0.038178 0.101991 0.219303
0.153567 0.132723 0.268772
0.265141 0.154635 0.297093
0.351171 0.172580 0.319890
0.416480 0.179538 0.330785
0.467811 0.184970 0.338964
0.507164 0.184390 0.343633
0.548852 0.188113 0.349981
0.038605 0.169284 0.277440
0.036530 0.122377 0.224796
0.069459 0.134463 0.277226
0.265812 0.178225 0.337713
0.405646 0.203159 0.367895
0.482185 0.203769 0.364874
0.528740 0.195315 0.358221
0.573541 0.199954 0.359228
0.635523 0.242313 0.381872
0.049836 0.275242 0.374914
0.045319 0.240574 0.361364
0.085237 0.216068 0.306554
0.245609 0.248173 0.381659
0.442359 0.284794 0.417334
0.537865 0.276066 0.399359
0.600031 0.243961 0.377447
0.650019 0.256626 0.377478
0.706966 0.344121 0.422004
0.059846 0.344549 0.436072
0.067323 0.369512 0.463722
0.155703 0.378180 0.440162
0.276799 0.361303 0.428870
0.510155 0.411994 0.482612
0.626581 0.391821 0.455894
0.686122 0.349859 0.413993
0.714595 0.352239 0.395178
0.751949 0.455421 0.465248
0.066957 0.388495 0.475532
0.082612 0.441413 0.522179
0.212863 0.500664 0.534203
0.417700 0.540642 0.538048
0.577508 0.549950 0.536431
0.700862 0.529854 0.498619
0.758236 0.502846 0.452018
0.778225 0.488365 0.422477
0.797360 0.566644 0.512993
0.077607 0.433936 0.513329
0.091524 0.479316 0.556085
0.171420 0.533410 0.570367
0.364340 0.600397 0.579797
0.579614 0.641810 0.577111
0.758434 0.688701 0.613703
0.829984 0.681529 0.580560
0.844907 0.667948 0.556390
0.840604 0.687648 0.604791
0.086458 0.467292 0.543969
0.115572 0.519249 0.583337
0.176486 0.570825 0.606378
0.320333 0.632624 0.617029
0.577218 0.701991 0.628138
0.786725 0.759823 0.671168
0.857847 0.786892 0.712795
0.867399 0.777127 0.692561
0.862058 0.767727 0.698299
0.106905 0.505669 0.572869
0.169528 0.572869 0.613886
0.271641 0.628412 0.640894
0.411627 0.679408 0.660487
0.600137 0.731624 0.677577
0.791791 0.784085 0.709468
0.862211 0.811826 0.751797
0.873350 0.817960 0.765499
0.871855 0.815488 0.766384
0.142458 0.552880 0.602350
0.261845 0.625971 0.643000
0.426276 0.684382 0.673518
0.577783 0.730037 0.700710
0.699001 0.766018 0.724269
0.802579 0.800381 0.752132
0.856565 0.819852 0.775387
0.873533 0.827909 0.790127
0.875120 0.828885 0.794217
0.035096 0.104372 0.200504
0.037049 0.105287 0.232792
0.098589 0.127504 0.276768
0.231876 0.151766 0.310887
0.317418 0.167758 0.332128
0.395911 0.182681 0.351202
0.458289 0.188876 0.363165
0.503136 0.194125 0.369574
0.544640 0.204471 0.379156
0.038727 0.169711 0.297459
0.036164 0.123049 0.240391
0.038941 0.117006 0.272557
0.159838 0.155093 0.328649
0.327749 0.180728 0.369604
0.456092 0.203525 0.398962
0.518853 0.206455 0.396094
0.563470 0.220645 0.398688
0.618952 0.252079 0.415442
0.045167 0.264836 0.386053
0.042145 0.212192 0.356451
0.046784 0.179141 0.302770
0.102266 0.196902 0.355566
0.309041 0.235630 0.412390
0.476417 0.262730 0.441444
0.564843 0.259037 0.428687
0.624079 0.263798 0.426246
0.685450 0.332403 0.455055
0.054536 0.337804 0.445014
0.053559 0.334173 0.455390
0.073640 0.309590 0.416846
0.127489 0.293904 0.393835
0.317205 0.327199 0.466529
0.535180 0.367666 0.501183
0.626429 0.344396 0.472541
0.684565 0.338415 0.455879
0.730220 0.440986 0.503838
0.058595 0.375738 0.479103
0.065949 0.409186 0.509026
0.121813 0.437003 0.509392
0.244587 0.466148 0.514199
0.378973 0.461753 0.520272
0.609339 0.515419 0.565332
0.699092 0.485924 0.533227
0.736599 0.465080 0.503563
0.773098 0.549325 0.560235
0.070680 0.426032 0.515557
0.077455 0.459937 0.551690
0.142336 0.509361 0.569085
0.322499 0.585229 0.600519
0.529671 0.633783 0.621790
0.681239 0.654810 0.632441
0.766445 0.630549 0.598138
0.798306 0.610101 0.569665
0.816678 0.659846 0.622095
0.079988 0.460578 0.546410
0.087892 0.485237 0.570947
0.142977 0.541283 0.598016
0.292683 0.623407 0.635523
0.507668 0.687282 0.662654
0.688807 0.726528 0.672358
0.829984 0.774472 0.719600
0.852384 0.756954 0.696620
0.853330 0.757839 0.705715
0.091951 0.487892 0.567346
0.127596 0.534966 0.596521
0.236698 0.609430 0.637659
0.407431 0.680446 0.678004
0.573953 0.728878 0.704738
0.719173 0.768856 0.722164
0.843473 0.812222 0.764462
0.872251 0.825772 0.788205
0.872007 0.817655 0.778805
0.118441 0.524376 0.589227
0.235416 0.608911 0.637812
0.428046 0.687007 0.684474
0.588373 0.736873 0.719051
0.698238 0.769894 0.744106
0.783658 0.800504 0.767575
0.845243 0.822171 0.787472
0.871458 0.831449 0.802060
0.874235 0.834195 0.807858
0.035401 0.111727 0.218723
0.036927 0.110231 0.243137
0.050782 0.113771 0.279576
0.187686 0.146578 0.318181
0.277836 0.160189 0.340948
0.361944 0.175723 0.361486
0.441749 0.190372 0.380224
0.496071 0.195438 0.390509
0.537926 0.211154 0.400641
0.039094 0.170657 0.306767
0.036255 0.127260 0.248508
0.038239 0.117128 0.272038
0.066499 0.129091 0.313664
0.240345 0.164309 0.363958
0.376715 0.183291 0.397131
0.499123 0.201907 0.422187
0.549462 0.225559 0.429419
0.601862 0.264012 0.443702
0.044373 0.251469 0.392218
0.041444 0.198672 0.344152
0.039033 0.157015 0.300694
0.043091 0.157992 0.327214
0.153002 0.185367 0.388617
0.358068 0.220859 0.437751
0.520653 0.245304 0.465583
0.593774 0.273991 0.465492
0.660090 0.329259 0.484779
0.050904 0.331853 0.454505
0.048096 0.301122 0.443885
0.045167 0.249699 0.394568
0.052399 0.224247 0.361242
0.104662 0.239033 0.420981
0.355322 0.292638 0.484871
0.556725 0.322179 0.514549
0.642939 0.333532 0.499672
0.703304 0.424048 0.529686
0.057618 0.378149 0.488411
0.060060 0.392981 0.503563
0.065278 0.375906 0.483284
0.098619 0.368856 0.466835
0.156237 0.361654 0.472068
0.392767 0.414908 0.541741
0.616754 0.458152 0.575616
0.694087 0.444877 0.548455
0.747219 0.530892 0.583398
0.061921 0.407507 0.512261
0.069429 0.436774 0.536217
0.092897 0.459083 0.542046
0.182788 0.504387 0.561151
0.334752 0.550164 0.589105
0.483116 0.564019 0.605829
0.709468 0.618524 0.652583
0.755032 0.587518 0.615503
0.796475 0.645258 0.650782
0.072206 0.447761 0.542321
0.071962 0.459907 0.559106
0.096986 0.492714 0.573754
0.193774 0.568811 0.611933
0.417624 0.658351 0.663722
0.638880 0.719478 0.703670
0.780148 0.750088 0.726741
0.824887 0.725521 0.694759
0.840116 0.743160 0.713771
0.077668 0.466987 0.560357
0.091310 0.491493 0.576684
0.153536 0.554711 0.609796
0.305165 0.640009 0.659602
0.518624 0.716213 0.710781
0.683619 0.763699 0.739376
0.793179 0.794705 0.756069
0.865995 0.820676 0.787747
0.869139 0.812985 0.779049
0.093263 0.494301 0.576532
0.185245 0.572961 0.619654
0.371206 0.665705 0.676173
0.558755 0.730129 0.721553
0.686748 0.769985 0.752499
0.772915 0.797818 0.774044
0.832456 0.820798 0.790921
0.867185 0.831357 0.804074
0.874144 0.838682 0.812558
0.035737 0.119936 0.234348
0.037018 0.116548 0.251286
0.039246 0.102754 0.282231
0.130861 0.137697 0.318730
0.232609 0.155276 0.346258
0.318486 0.167117 0.368322
0.401648 0.181033 0.388403
0.483345 0.194888 0.406714
0.531151 0.208164 0.420020
0.039307 0.173465 0.311376
0.037263 0.139590 0.271305
0.039033 0.133211 0.289921
0.042481 0.125673 0.321782
0.161089 0.162905 0.367773
0.299657 0.183413 0.404273
0.421912 0.199680 0.430854
0.528923 0.215518 0.448829
0.582422 0.264317 0.471015
0.044831 0.245975 0.395331
0.041932 0.201785 0.350286
0.039887 0.165499 0.314977
0.041138 0.165103 0.333288
0.078553 0.173159 0.381872
0.246479 0.212100 0.434852
0.427253 0.237949 0.474128
0.561028 0.259007 0.492226
0.627222 0.328130 0.515007
0.049104 0.318608 0.455909
0.047059 0.285283 0.432135
0.044343 0.235386 0.390784
0.042512 0.201694 0.356359
0.049592 0.209995 0.392981
0.176654 0.246555 0.460670
0.424262 0.293339 0.513237
0.593408 0.319890 0.534569
0.670253 0.413916 0.558099
0.056184 0.378912 0.494636
0.056184 0.372198 0.490761
0.056611 0.347387 0.468818
0.058198 0.313466 0.442176
0.063844 0.286473 0.423041
0.148226 0.318883 0.491493
0.431312 0.382055 0.554559
0.635676 0.426383 0.582055
0.717372 0.516930 0.607538
0.064698 0.415717 0.518303
0.072602 0.432898 0.528618
0.081056 0.431128 0.523766
0.100679 0.433295 0.520958
0.150637 0.448981 0.530419
0.197345 0.438590 0.541863
0.479149 0.511330 0.608331
0.697566 0.563592 0.642237
0.768338 0.629694 0.665339
0.066651 0.433783 0.536553
0.076020 0.457618 0.552392
0.098634 0.483589 0.563653
0.150454 0.522881 0.583978
0.280415 0.584436 0.619715
0.446921 0.635126 0.656855
0.592325 0.658167 0.683803
0.792844 0.716915 0.730282
0.826841 0.736843 0.736416
0.070375 0.455238 0.555871
0.075349 0.467323 0.564324
0.102083 0.504295 0.582696
0.165652 0.563653 0.614496
0.336721 0.650568 0.667628
0.575357 0.732876 0.725368
0.746181 0.787442 0.769741
0.855192 0.818509 0.798032
0.868467 0.817868 0.796689
0.076661 0.469734 0.566064
0.129976 0.528344 0.596735
0.252552 0.612634 0.644739
0.440513 0.688594 0.694697
0.612497 0.747616 0.737667
0.744106 0.789273 0.771572
0.814572 0.815427 0.795438
0.858671 0.829923 0.806424
0.873350 0.839048 0.816526
0.036622 0.130617 0.256657
0.037720 0.127352 0.268864
0.039490 0.110048 0.293767
0.072053 0.131411 0.324865
0.188785 0.158114 0.359167
0.274754 0.170443 0.381628
0.358587 0.179904 0.401465
0.440955 0.192905 0.419043
0.517235 0.203372 0.433204
0.039979 0.180240 0.322240
0.039277 0.161227 0.306249
0.040711 0.163424 0.323095
0.042176 0.150118 0.348638
0.085252 0.175937 0.389960
0.237156 0.205722 0.427649
0.358465 0.223819 0.454932
0.468910 0.239536 0.475715
0.557305 0.251530 0.486854
0.044953 0.247379 0.397833
0.043091 0.215305 0.369940
0.041810 0.198459 0.354070
0.044984 0.208286 0.371221
0.054017 0.200717 0.409094
0.170581 0.244999 0.460304
0.358984 0.279423 0.500603
0.500908 0.301701 0.526787
0.598291 0.320348 0.535637
0.048768 0.313451 0.455116
0.047974 0.293431 0.433783
0.049622 0.267460 0.411658
0.054414 0.261173 0.405768
0.069001 0.272526 0.434821
0.142504 0.298039 0.492103
0.356329 0.347906 0.538811
0.529992 0.382361 0.565545
0.638880 0.407477 0.577111
0.054078 0.369512 0.492378
0.060792 0.367681 0.482216
0.071473 0.361913 0.472786
0.085878 0.360357 0.474647
0.093263 0.348974 0.477150
0.151492 0.376593 0.528099
0.367880 0.429633 0.578424
0.568139 0.476448 0.604303
0.686671 0.503563 0.619745
0.067231 0.417823 0.519219
0.077485 0.422919 0.517479
0.097169 0.433845 0.521447
0.142031 0.459266 0.537133
0.183719 0.476661 0.555535
0.206271 0.471015 0.568780
0.401785 0.528679 0.620783
0.629572 0.586084 0.653712
0.740017 0.613458 0.673365
0.071931 0.441718 0.539239
0.094697 0.468086 0.549737
0.133120 0.499825 0.567346
0.210941 0.544579 0.593957
0.316960 0.588830 0.624018
0.421958 0.618677 0.650813
0.504005 0.629084 0.667842
0.713893 0.694179 0.716854
0.807248 0.723690 0.741817
0.070375 0.451575 0.552270
0.098024 0.489540 0.570703
0.155673 0.542535 0.598993
0.268315 0.606592 0.637263
0.425071 0.667323 0.677211
0.586557 0.721614 0.717891
0.706386 0.757809 0.751339
0.800717 0.788876 0.781369
0.863279 0.811337 0.802213
0.071351 0.460578 0.561486
0.099214 0.499245 0.580377
0.166537 0.563989 0.614893
0.303365 0.638453 0.661555
0.494804 0.710628 0.710018
0.679606 0.769619 0.755886
0.788388 0.806699 0.789700
0.855161 0.832364 0.816037
0.872465 0.839414 0.821378
