LUT color transfer/LUTs/32.cube
# (C) 2014 VisionColor & Patchflyer [www.vision-color.com]
# Generator: VC Patchmatch v.2.1.1 [64/53]
# All work and no play makes Jack a dull boy.
# LUT generated from: FujiColor 200_FPE
LUT_3D_SIZE 5
0.033173 0.035981 0.036316
0.292027 0.114534 0.039704
0.394781 0.133700 0.044953
0.453071 0.146639 0.047822
0.546166 0.177066 0.052094
0.106691 0.235843 0.193912
0.435828 0.309117 0.059449
0.641566 0.373327 0.072175
0.746548 0.410590 0.089052
0.786923 0.455177 0.125490
0.148898 0.398627 0.320592
0.640558 0.511559 0.151217
0.752132 0.531090 0.171237
0.840909 0.578790 0.223667
0.853361 0.603326 0.277806
0.121309 0.479316 0.426917
0.706600 0.600855 0.225742
0.828367 0.637537 0.295720
0.874113 0.689723 0.423774
0.880491 0.705653 0.463294
0.156191 0.557763 0.520317
0.651270 0.636347 0.315801
0.818357 0.650782 0.305791
0.874083 0.737911 0.546929
0.878660 0.765805 0.614221
0.031037 0.061158 0.124300
0.221225 0.134646 0.225864
0.404578 0.160952 0.251682
0.479713 0.153170 0.249973
0.555016 0.152987 0.252903
0.062104 0.276646 0.340215
0.324651 0.310643 0.314305
0.609308 0.279942 0.191806
0.646754 0.245945 0.105287
0.747829 0.371862 0.265660
0.082887 0.396460 0.449683
0.310979 0.525689 0.417700
0.791592 0.629450 0.409781
0.853849 0.602792 0.325124
0.849271 0.613458 0.420676
0.089235 0.467353 0.523308
0.238010 0.593072 0.514916
0.813077 0.706386 0.461448
0.875303 0.766384 0.623011
0.872343 0.755642 0.618128
0.170840 0.576104 0.605646
0.455695 0.680690 0.621149
0.762844 0.752529 0.622583
0.867765 0.795224 0.700679
0.871061 0.799344 0.718746
0.034089 0.092866 0.176089
0.153567 0.132723 0.268772
0.351171 0.172580 0.319890
0.467811 0.184970 0.338964
0.548852 0.188113 0.349981
0.049836 0.275242 0.374914
0.085237 0.216068 0.306554
0.442359 0.284794 0.417334
0.600031 0.243961 0.377447
0.706966 0.344121 0.422004
0.066957 0.388495 0.475532
0.212863 0.500664 0.534203
0.577508 0.549950 0.536431
0.758236 0.502846 0.452018
0.797360 0.566644 0.512993
0.086458 0.467292 0.543969
0.176486 0.570825 0.606378
0.577218 0.701991 0.628138
0.857847 0.786892 0.712795
0.862058 0.767727 0.698299
0.142458 0.552880 0.602350
0.426276 0.684382 0.673518
0.699001 0.766018 0.724269
0.856565 0.819852 0.775387
0.875120 0.828885 0.794217
0.035401 0.111727 0.218723
0.050782 0.113771 0.279576
0.277836 0.160189 0.340948
0.441749 0.190372 0.380224
0.537926 0.211154 0.400641
0.044373 0.251469 0.392218
0.039033 0.157015 0.300694
0.153002 0.185367 0.388617
0.520653 0.245304 0.465583
0.660090 0.329259 0.484779
0.057618 0.378149 0.488411
0.065278 0.375906 0.483284
0.156237 0.361654 0.472068
0.616754 0.458152 0.575616
0.747219 0.530892 0.583398
0.072206 0.447761 0.542321
0.096986 0.492714 0.573754
0.417624 0.658351 0.663722
0.780148 0.750088 0.726741
0.840116 0.743160 0.713771
0.093263 0.494301 0.576532
0.371206 0.665705 0.676173
0.686748 0.769985 0.752499
0.832456 0.820798 0.790921
0.874144 0.838682 0.812558
0.036622 0.130617 0.256657
0.039490 0.110048 0.293767
0.188785 0.158114 0.359167
0.358587 0.179904 0.401465
0.517235 0.203372 0.433204
0.044953 0.247379 0.397833
0.041810 0.198459 0.354070
0.054017 0.200717 0.409094
0.358984 0.279423 0.500603
0.598291 0.320348 0.535637
0.054078 0.369512 0.492378
0.071473 0.361913 0.472786
0.093263 0.348974 0.477150
0.367880 0.429633 0.578424
0.686671 0.503563 0.619745
0.071931 0.441718 0.539239
0.133120 0.499825 0.567346
0.316960 0.588830 0.624018
0.504005 0.629084 0.667842
0.807248 0.723690 0.741817
0.071351 0.460578 0.561486
0.166537 0.563989 0.614893
0.494804 0.710628 0.710018
0.788388 0.806699 0.789700
0.872465 0.839414 0.821378
