LUT color transfer/LUTs/34.cube
# (C) 2014 VisionColor & Patchflyer [www.vision-color.com]
# Generator: VC Patchmatch v.2.1.1 [64/53]
# All work and no play makes Jack a dull boy.
# LUT generated from: Kodak Vision3 200T 5213 (NEG)_FC
LUT_3D_SIZE 17
0.029297 0.029297 0.029297
0.053407 0.018494 0.026581
0.084199 0.006897 0.013245
0.102266 0.003632 0.004852
0.119478 0.002045 0.002258
0.131899 0.001160 0.001190
0.145266 0.001068 0.000916
0.163760 0.001038 0.000580
0.181491 0.000793 0.000397
0.200809 0.000641 0.000214
0.214694 0.000366 0.000122
0.229953 0.000275 0.000061
0.247837 0.000458 0.000061
0.266941 0.000458 0.000061
0.281437 0.000092 0.000061
0.307958 0.000061 0.000061
0.336370 0.000061 0.000031
0.028962 0.093477 0.014740
0.055421 0.090150 0.011688
0.119661 0.060853 0.007324
0.163607 0.041230 0.002411
0.201175 0.031098 0.001343
0.234958 0.026825 0.000519
0.269017 0.028901 0.000214
0.305821 0.028901 0.000122
0.331609 0.030243 0.000031
0.357244 0.028931 0.000031
0.380774 0.029297 0.000031
0.403540 0.027741 0.000031
0.418463 0.025879 0.000031
0.429633 0.021912 0.000031
0.425177 0.014740 0.000031
0.428290 0.010101 0.000031
0.427955 0.005188 0.000031
0.034668 0.144961 0.007202
0.048615 0.146822 0.008484
0.075837 0.145632 0.012421
0.186587 0.127993 0.017548
0.288823 0.115938 0.010590
0.361013 0.108186 0.006561
0.418769 0.102205 0.002716
0.446479 0.096132 0.000732
0.470497 0.093263 0.000183
0.488869 0.085847 0.000031
0.516564 0.080537 0.000000
0.550042 0.074769 0.000000
0.568383 0.069612 0.000000
0.582940 0.064027 0.000000
0.584772 0.056489 0.000000
0.582116 0.047211 0.000000
0.578180 0.036439 0.000000
0.048127 0.209049 0.016938
0.063111 0.217533 0.019684
0.070527 0.228916 0.022339
0.125307 0.220218 0.032868
0.256504 0.216709 0.039704
0.381003 0.204593 0.033051
0.489097 0.189364 0.024018
0.586328 0.171267 0.010529
0.610086 0.157504 0.005402
0.624567 0.142824 0.000824
0.623560 0.129000 0.000397
0.630701 0.116670 0.000000
0.662959 0.110872 0.000000
0.684169 0.105440 0.000000
0.700587 0.100191 0.000000
0.702907 0.090486 0.000000
0.706294 0.080964 0.000000
0.080720 0.279942 0.031891
0.093904 0.293065 0.033021
0.094606 0.309331 0.035615
0.108034 0.314641 0.041047
0.183200 0.305211 0.053101
0.323796 0.308537 0.060029
0.460868 0.295537 0.054536
0.586160 0.268376 0.041993
0.684977 0.239719 0.026032
0.756191 0.214160 0.013153
0.750912 0.186252 0.005585
0.755047 0.168002 0.001465
0.751812 0.156619 0.000732
0.778470 0.151095 0.000366
0.799527 0.146151 0.000244
0.813657 0.136660 0.000214
0.822507 0.126436 0.000153
0.127474 0.356085 0.045991
0.134737 0.366796 0.044526
0.129274 0.383429 0.046265
0.129763 0.394415 0.050141
0.165866 0.397253 0.057923
0.250553 0.392432 0.069581
0.401053 0.394385 0.075380
0.540780 0.379217 0.071382
0.661814 0.344579 0.059358
0.769848 0.314534 0.043671
0.862379 0.268452 0.023987
0.885466 0.241718 0.013886
0.904265 0.220768 0.006287
0.913542 0.209079 0.004089
0.916472 0.201968 0.004150
0.914855 0.187259 0.003357
0.913542 0.175265 0.003784
0.181033 0.438712 0.058381
0.184604 0.444099 0.056764
0.172824 0.458259 0.056855
0.163302 0.469459 0.058625
0.182223 0.474983 0.064027
0.242222 0.475074 0.072847
0.337453 0.472908 0.083986
0.489158 0.468971 0.088869
0.619638 0.448646 0.086976
0.735485 0.416892 0.077699
0.833204 0.375601 0.061707
0.911330 0.333608 0.045777
0.936004 0.307851 0.033814
0.957580 0.284352 0.023835
0.964141 0.269413 0.020417
0.968475 0.249851 0.015534
0.972045 0.231205 0.012451
0.240848 0.523049 0.067750
0.240696 0.521981 0.068452
0.225803 0.535866 0.067842
0.204166 0.545083 0.066316
0.210727 0.547387 0.069459
0.250584 0.546441 0.076692
0.331838 0.547295 0.086488
0.448478 0.546532 0.099763
0.580972 0.534478 0.103731
0.704662 0.514229 0.104189
0.799298 0.479210 0.095827
0.875578 0.442618 0.085115
0.935729 0.402914 0.069581
0.964141 0.374960 0.057221
0.977691 0.349660 0.050629
0.984833 0.321828 0.042084
0.987243 0.299153 0.038453
0.303731 0.605936 0.073915
0.301076 0.600809 0.074922
0.283574 0.610025 0.075441
0.257115 0.617380 0.073884
0.251133 0.616922 0.075776
0.277501 0.612070 0.082490
0.331441 0.610864 0.090791
0.427085 0.607965 0.103120
0.549294 0.608087 0.118227
0.676951 0.592874 0.123415
0.777142 0.569863 0.124483
0.854688 0.540413 0.119631
0.915618 0.505592 0.107912
0.951263 0.470878 0.095613
0.968383 0.440879 0.087770
0.981720 0.404623 0.077150
0.988861 0.369833 0.068879
0.370794 0.686870 0.078737
0.369116 0.678538 0.081270
0.350759 0.682857 0.083162
0.316869 0.686915 0.081788
0.298680 0.683650 0.082460
0.318029 0.675624 0.089815
0.363836 0.672145 0.098390
0.426993 0.669429 0.108522
0.535653 0.669215 0.122988
0.657450 0.663874 0.138064
0.758953 0.645289 0.143648
0.839872 0.624445 0.147341
0.902190 0.596643 0.142245
0.938964 0.565194 0.133730
0.961517 0.533394 0.126894
0.977508 0.494102 0.115084
0.986419 0.456626 0.105409
0.449775 0.763912 0.083925
0.445533 0.753262 0.085267
0.423087 0.749630 0.086702
0.383993 0.747616 0.087282
0.356023 0.743221 0.089265
0.366461 0.735775 0.097597
0.409796 0.730678 0.107576
0.465888 0.726619 0.118532
0.539284 0.723629 0.131106
0.642283 0.718563 0.145357
0.747234 0.711666 0.160281
0.829709 0.694209 0.167056
0.895628 0.674159 0.169070
0.933379 0.647120 0.165438
0.956634 0.616754 0.161135
0.973693 0.580102 0.151949
0.985229 0.539544 0.141573
0.531579 0.831083 0.091829
0.525750 0.821775 0.090761
0.502525 0.813504 0.091188
0.458869 0.807034 0.092927
0.425574 0.799588 0.096498
0.425788 0.790219 0.104707
0.456916 0.782284 0.116396
0.507927 0.776944 0.128359
0.573175 0.774075 0.141115
0.647074 0.772793 0.155581
0.743175 0.768246 0.171054
0.826108 0.758541 0.186679
0.892912 0.740688 0.192142
0.931731 0.717800 0.194461
0.954864 0.691310 0.194003
0.971984 0.656703 0.186313
0.986206 0.619165 0.177462
0.611933 0.884794 0.103365
0.603754 0.879606 0.100404
0.581872 0.871550 0.098390
0.540215 0.862364 0.098085
0.498634 0.852232 0.101381
0.487068 0.840665 0.109529
0.512749 0.832120 0.121370
0.551751 0.824765 0.135164
0.611627 0.821866 0.148104
0.676646 0.820279 0.164309
0.752331 0.821073 0.180972
0.823453 0.813779 0.197879
0.891875 0.803403 0.213199
0.931395 0.782345 0.218967
0.955749 0.760891 0.222446
0.971801 0.730037 0.218021
0.985901 0.695460 0.211093
0.691096 0.912322 0.120150
0.677516 0.910063 0.113680
0.657069 0.903136 0.108553
0.617731 0.896086 0.105379
0.574151 0.888426 0.107424
0.547570 0.879820 0.114290
0.559380 0.872312 0.125216
0.592920 0.865568 0.139284
0.637934 0.860716 0.153140
0.698528 0.858854 0.171603
0.765072 0.859098 0.188479
0.825162 0.858946 0.209354
0.886351 0.853208 0.226108
0.931273 0.845792 0.242130
0.956268 0.827329 0.247623
0.973663 0.800809 0.247044
0.984894 0.768643 0.242710
0.767452 0.933471 0.134951
0.744167 0.932433 0.127596
0.713741 0.926574 0.120546
0.682155 0.921080 0.114504
0.639582 0.914336 0.114626
0.609857 0.907164 0.119966
0.606012 0.900298 0.128054
0.627039 0.893767 0.141299
0.665187 0.888701 0.155062
0.718013 0.886717 0.175967
0.778531 0.886931 0.194247
0.835477 0.888823 0.218692
0.888518 0.889128 0.239628
0.930449 0.884581 0.258274
0.953948 0.873808 0.268040
0.971984 0.851041 0.268406
0.983917 0.826841 0.265141
0.832395 0.947601 0.154574
0.806394 0.946044 0.145144
0.768002 0.940978 0.136080
0.738766 0.937377 0.129519
0.702602 0.932189 0.128573
0.667781 0.926818 0.129702
0.653986 0.921050 0.135378
0.655756 0.916503 0.144106
0.679957 0.911559 0.156771
0.725429 0.909636 0.177005
0.775448 0.908995 0.195590
0.829252 0.910796 0.220279
0.875792 0.911955 0.242771
0.916838 0.911742 0.263645
0.937804 0.904204 0.275090
0.962158 0.891630 0.282658
0.976593 0.872923 0.281041
0.881163 0.957580 0.172824
0.862547 0.954284 0.163760
0.818235 0.949340 0.153384
0.791104 0.947784 0.147341
0.759030 0.945739 0.145571
0.727840 0.943267 0.144991
0.702327 0.940368 0.146395
0.695949 0.936919 0.152499
0.697108 0.933623 0.159945
0.733883 0.931334 0.178378
0.772457 0.930205 0.196048
0.825742 0.931029 0.219883
0.863981 0.931456 0.242313
0.903777 0.931853 0.265263
0.925750 0.928740 0.280156
0.947265 0.919188 0.288182
0.963897 0.903441 0.290166
0.014435 0.011658 0.061311
0.083131 0.008789 0.100191
0.116274 0.002136 0.089418
0.131807 0.000610 0.078981
0.138552 0.000397 0.065248
0.142916 0.000397 0.050050
0.149813 0.000458 0.039857
0.167361 0.000366 0.030884
0.182620 0.000244 0.023316
0.198886 0.000153 0.014282
0.214664 0.000122 0.012451
0.226810 0.000061 0.005737
0.242435 0.000061 0.004639
0.255009 0.000061 0.001221
0.263951 0.000061 0.000824
0.283787 0.000061 0.000122
0.307256 0.000061 0.000061
0.010040 0.109621 0.100954
0.072328 0.076020 0.090333
0.164797 0.049348 0.077241
0.240635 0.031159 0.061677
0.300633 0.023407 0.044648
0.351202 0.021057 0.027466
0.397635 0.020356 0.019989
0.482033 0.016327 0.007050
0.462562 0.015473 0.004578
0.456825 0.014710 0.002472
0.479591 0.014984 0.002502
0.441978 0.013184 0.000458
0.443915 0.011475 0.000397
0.419104 0.008453 0.000031
0.401129 0.004730 0.000031
0.390295 0.002136 0.000031
0.385809 0.000732 0.000031
0.019928 0.173983 0.061158
0.067720 0.146426 0.057404
0.117433 0.152956 0.048676
0.233799 0.131319 0.046571
0.344549 0.117464 0.037293
0.443183 0.106325 0.028840
0.520851 0.097810 0.023346
0.610895 0.091493 0.012604
0.644709 0.087251 0.008209
0.673701 0.081605 0.004944
0.677516 0.077607 0.005798
0.682490 0.072694 0.001587
0.681270 0.068910 0.001312
0.656580 0.064881 0.000122
0.634119 0.060029 0.000061
0.606256 0.051026 0.000000
0.574792 0.038392 0.000000
0.037903 0.242985 0.043885
0.085908 0.217533 0.050141
0.116030 0.229953 0.044678
0.172885 0.235721 0.046082
0.310948 0.217746 0.049226
0.435935 0.199313 0.043549
0.547250 0.181308 0.036316
0.659007 0.163027 0.026520
0.726665 0.151064 0.017212
0.780392 0.137545 0.009857
0.775784 0.129366 0.010742
0.799496 0.118776 0.003723
0.798764 0.113191 0.002960
0.791501 0.108431 0.000824
0.769284 0.105287 0.000183
0.749111 0.099397 0.000031
0.728115 0.090059 0.000000
0.067414 0.318212 0.043977
0.111147 0.297398 0.054841
0.140688 0.313146 0.050263
0.168368 0.325261 0.048280
0.242649 0.329564 0.054658
0.391257 0.313634 0.058137
0.525063 0.293156 0.053742
0.646372 0.266026 0.045747
0.752605 0.238071 0.033387
0.837186 0.211505 0.023682
0.860624 0.191379 0.017517
0.880308 0.173129 0.008423
0.866178 0.159518 0.005585
0.865476 0.153719 0.002594
0.859953 0.148867 0.000641
0.847715 0.144778 0.000183
0.836179 0.138003 0.000092
0.107362 0.399695 0.050080
0.142794 0.380713 0.063172
0.176242 0.395392 0.060182
0.194430 0.412390 0.055634
0.238560 0.419379 0.058106
0.327184 0.419898 0.067445
0.476768 0.406592 0.070130
0.612894 0.382605 0.065858
0.732128 0.347662 0.055451
0.830182 0.314076 0.044739
0.910903 0.272450 0.031586
0.937194 0.244160 0.019379
0.942016 0.219547 0.011414
0.937499 0.207004 0.006165
0.928100 0.199893 0.003296
0.923339 0.193088 0.001770
0.910491 0.186831 0.001526
0.155245 0.481468 0.060212
0.182864 0.464317 0.072969
0.221073 0.474189 0.073274
0.234440 0.494179 0.066011
0.260166 0.501793 0.064515
0.319463 0.499641 0.070588
0.418936 0.499855 0.080903
0.565255 0.481117 0.080201
0.696971 0.456703 0.075807
0.806378 0.420615 0.066377
0.895674 0.380331 0.053132
0.946960 0.335836 0.038636
0.952209 0.305196 0.028016
0.958770 0.277668 0.017121
0.966247 0.263005 0.010071
0.971588 0.252018 0.006500
0.975158 0.240665 0.004700
0.208286 0.564340 0.069062
0.224155 0.548714 0.080842
0.269383 0.550576 0.086763
0.284031 0.572671 0.077394
0.296239 0.579431 0.070741
0.327916 0.572290 0.073884
0.403235 0.568689 0.081178
0.509834 0.567773 0.090517
0.647868 0.548974 0.089815
0.770886 0.523384 0.087800
0.869703 0.484947 0.078126
0.926055 0.444511 0.065675
0.964996 0.400717 0.051575
0.976928 0.370352 0.038605
0.984131 0.344076 0.030182
0.986236 0.323354 0.025452
0.987610 0.305882 0.022675
0.267491 0.642222 0.076661
0.279973 0.629892 0.087160
0.321447 0.626322 0.094697
0.337804 0.644236 0.086641
0.342168 0.651469 0.078065
0.358755 0.640208 0.078004
0.393454 0.627375 0.082643
0.474662 0.620935 0.090700
0.597635 0.621881 0.104311
0.729137 0.602670 0.104005
0.841382 0.580209 0.101717
0.903960 0.549294 0.092622
0.948516 0.512306 0.080568
0.972564 0.474540 0.067933
0.983459 0.441367 0.057557
0.990814 0.410178 0.050385
0.993133 0.379294 0.045289
0.330922 0.715404 0.084688
0.338354 0.704997 0.094667
0.371435 0.696010 0.102998
0.388952 0.707881 0.097047
0.387427 0.715419 0.086915
0.400275 0.705135 0.085176
0.427192 0.691997 0.087770
0.462943 0.675837 0.094087
0.565072 0.673457 0.105928
0.686473 0.672663 0.118471
0.805570 0.657343 0.119142
0.883635 0.640528 0.117617
0.934813 0.612802 0.110994
0.961669 0.579538 0.101198
0.978851 0.545235 0.093050
0.987427 0.510719 0.086244
0.990814 0.476493 0.081605
0.400916 0.779812 0.096071
0.408606 0.772244 0.102632
0.432807 0.759762 0.108980
0.445411 0.763516 0.102815
0.436713 0.768521 0.094209
0.442420 0.763607 0.092256
0.470253 0.752926 0.094148
0.504479 0.738888 0.101747
0.558602 0.728969 0.111635
0.659342 0.724086 0.122347
0.777340 0.721370 0.136934
0.860075 0.710842 0.138247
0.921477 0.696223 0.139284
0.951904 0.672572 0.134981
0.970977 0.640925 0.129030
0.984375 0.607080 0.123201
0.989319 0.571817 0.118868
0.475013 0.834501 0.110536
0.482643 0.831235 0.109743
0.496498 0.817502 0.114778
0.502983 0.816678 0.107881
0.488655 0.820096 0.099306
0.487037 0.816068 0.096620
0.511620 0.811063 0.098543
0.546197 0.798856 0.107088
0.597314 0.790555 0.118044
0.658518 0.784115 0.130587
0.760510 0.781094 0.145357
0.846189 0.776944 0.156832
0.910857 0.766964 0.161501
0.945953 0.751247 0.165164
0.965545 0.723323 0.165805
0.980011 0.691341 0.162264
0.988556 0.658015 0.158511
0.552087 0.882231 0.127108
0.563104 0.879637 0.120424
0.570153 0.868925 0.122316
0.570764 0.865751 0.114260
0.549859 0.865995 0.105684
0.540490 0.863676 0.102693
0.560662 0.860716 0.103059
0.595026 0.853269 0.113741
0.643885 0.845884 0.125032
0.702831 0.840909 0.139773
0.768719 0.837491 0.155825
0.840970 0.834134 0.169314
0.903929 0.825406 0.183261
0.940581 0.811460 0.190158
0.962310 0.791775 0.196017
0.977691 0.763272 0.197391
0.987579 0.731472 0.194461
0.632410 0.910033 0.144625
0.644038 0.908934 0.131777
0.643977 0.902464 0.130495
0.642023 0.900145 0.122408
0.621393 0.900389 0.112703
0.604639 0.899199 0.107881
0.609827 0.898131 0.106569
0.640223 0.892363 0.116976
0.683589 0.887877 0.129488
0.740673 0.883452 0.145632
0.799954 0.880491 0.164065
0.850645 0.877806 0.183383
0.899687 0.872007 0.199710
0.936187 0.863706 0.213199
0.958892 0.849790 0.222416
0.975525 0.827512 0.227878
0.986664 0.797665 0.228794
0.712367 0.933440 0.158785
0.718807 0.932403 0.144289
0.710475 0.928618 0.140993
0.705104 0.926818 0.133700
0.688075 0.926909 0.122683
0.670008 0.926787 0.115633
0.663630 0.926238 0.112062
0.682490 0.922148 0.120119
0.718624 0.918059 0.131258
0.770779 0.913725 0.148562
0.824674 0.910735 0.168338
0.868864 0.908354 0.191653
0.905638 0.904234 0.213443
0.938109 0.896941 0.230961
0.955016 0.884703 0.243717
0.973022 0.868406 0.250492
0.985840 0.846799 0.253086
0.795102 0.951293 0.168612
0.790249 0.949523 0.158419
0.773800 0.946654 0.153323
0.760311 0.944610 0.145907
0.747463 0.945434 0.135470
0.730037 0.945983 0.125368
0.717800 0.945647 0.120394
0.723079 0.943816 0.123354
0.748409 0.940368 0.132540
0.794583 0.936675 0.148501
0.841703 0.933471 0.168765
0.883391 0.931304 0.193423
0.915038 0.928832 0.220096
0.940429 0.923247 0.243015
0.954620 0.914122 0.259220
0.967956 0.900572 0.268223
0.982544 0.883299 0.272068
0.868315 0.964904 0.175998
0.854978 0.961425 0.176761
0.833188 0.957763 0.169070
0.809934 0.954772 0.161288
0.797604 0.955383 0.151369
0.784939 0.956390 0.141360
0.766751 0.956451 0.133730
0.768002 0.955596 0.133242
0.775570 0.954284 0.136049
0.815549 0.951202 0.150668
0.853239 0.948943 0.167788
0.892638 0.947295 0.192660
0.920897 0.945190 0.218906
0.945312 0.942107 0.247013
0.957305 0.936736 0.267308
0.967529 0.926116 0.280674
0.977081 0.911620 0.286412
0.009522 0.002564 0.079652
0.059754 0.002228 0.119142
0.095125 0.001404 0.121065
0.117220 0.000458 0.124483
0.130282 0.000275 0.124666
0.139437 0.000153 0.118044
0.152773 0.000122 0.109346
0.172641 0.000061 0.104067
0.194461 0.000031 0.094820
0.213993 0.000031 0.087404
0.229160 0.000031 0.072816
0.244175 0.000031 0.060121
0.255222 0.000031 0.044373
0.266819 0.000031 0.028565
0.264622 0.000061 0.016358
0.277989 0.000061 0.006592
0.294255 0.000061 0.001038
0.005921 0.065644 0.148928
0.067475 0.031342 0.174350
0.168154 0.017212 0.172854
0.230655 0.010040 0.167391
0.276219 0.005646 0.157992
0.320836 0.003937 0.143130
0.361120 0.003662 0.128847
0.395544 0.002777 0.110048
0.399084 0.001923 0.093568
0.429236 0.001770 0.076692
0.461158 0.002258 0.062135
0.442176 0.000702 0.039948
0.442725 0.000580 0.028077
0.418250 0.000061 0.012879
0.407324 0.000061 0.006104
0.400824 0.000061 0.002014
0.397284 0.000183 0.000275
0.008179 0.190066 0.178927
0.048371 0.160067 0.169375
0.133455 0.118044 0.157412
0.248905 0.104372 0.137026
0.346990 0.093233 0.122530
0.433509 0.086000 0.108766
0.514672 0.079713 0.096254
0.590646 0.074098 0.085389
0.665232 0.066468 0.073152
0.737636 0.057984 0.059266
0.793179 0.050080 0.045899
0.853452 0.039368 0.026154
0.802487 0.033112 0.018494
0.798062 0.023651 0.005127
0.686900 0.016510 0.002075
0.608988 0.011780 0.000671
0.548379 0.009339 0.000122
0.019104 0.281804 0.151064
0.059327 0.240421 0.133364
0.135653 0.205142 0.125368
0.207919 0.215671 0.110567
0.335668 0.198093 0.104494
0.449348 0.183047 0.098421
0.552102 0.168673 0.092439
0.645579 0.156527 0.087495
0.731151 0.143740 0.078645
0.807340 0.128206 0.068360
0.864500 0.118563 0.056184
0.912902 0.102510 0.040253
0.914458 0.094209 0.029633
0.920256 0.083925 0.015167
0.905394 0.079530 0.006287
0.852537 0.074403 0.002441
0.794842 0.071168 0.000549
0.041047 0.356115 0.114412
0.083070 0.313146 0.111635
0.161440 0.289036 0.116548
0.207462 0.308415 0.102876
0.288334 0.316930 0.099123
0.423072 0.295842 0.098360
0.540719 0.275761 0.095369
0.648203 0.253544 0.093935
0.738994 0.231907 0.087556
0.820264 0.209583 0.079622
0.887266 0.189548 0.067597
0.933135 0.167208 0.053437
0.953429 0.150851 0.040803
0.963378 0.138949 0.026764
0.967468 0.131899 0.013245
0.948302 0.129580 0.007324
0.917052 0.127108 0.003052
0.075196 0.424414 0.099855
0.112123 0.395422 0.109285
0.188663 0.375525 0.118959
0.233036 0.393652 0.107027
0.286625 0.408972 0.100008
0.374121 0.412726 0.100008
0.508400 0.390478 0.099458
0.628367 0.367620 0.099611
0.731334 0.340246 0.097353
0.818189 0.311635 0.091005
0.895491 0.275837 0.081239
0.940337 0.245014 0.067903
0.964874 0.218006 0.053285
0.978454 0.198428 0.038697
0.983673 0.186801 0.023682
0.981292 0.181216 0.014038
0.967132 0.180697 0.008118
0.115846 0.496284 0.095064
0.146700 0.475013 0.109651
0.217655 0.460548 0.124422
0.267308 0.472145 0.115511
0.307256 0.491188 0.105623
0.375250 0.498543 0.102296
0.464836 0.497688 0.102815
0.596811 0.473518 0.104341
0.714122 0.447547 0.103944
0.811597 0.418051 0.100649
0.894453 0.383566 0.092348
0.936400 0.340566 0.081270
0.961944 0.306111 0.066957
0.977539 0.272663 0.053132
0.987854 0.248585 0.034577
0.990448 0.236728 0.022583
0.990448 0.230808 0.012146
0.162783 0.572580 0.099367
0.185122 0.556710 0.115175
0.248783 0.542611 0.132692
0.305974 0.545846 0.128298
0.336522 0.565698 0.115511
0.389914 0.576196 0.109560
0.464652 0.577234 0.107515
0.556527 0.571618 0.108675
0.681224 0.546319 0.109682
0.793133 0.519448 0.109194
0.882765 0.486381 0.104463
0.928649 0.448081 0.095247
0.960571 0.404074 0.082765
0.978912 0.366995 0.067475
0.988403 0.331044 0.050416
0.992798 0.303181 0.035737
0.993103 0.289342 0.024445
0.214267 0.647684 0.107851
0.231693 0.632609 0.123507
0.286595 0.621439 0.139590
0.345312 0.618631 0.138918
0.375967 0.634379 0.126497
0.418326 0.643442 0.117678
0.474083 0.646922 0.113252
0.549844 0.640864 0.113130
0.646616 0.631983 0.114870
0.765057 0.608042 0.115328
0.870527 0.583902 0.114504
0.920989 0.553048 0.107942
0.955688 0.514839 0.097719
0.975708 0.471824 0.084535
0.986542 0.428885 0.066987
0.992767 0.390677 0.052369
0.995087 0.352865 0.038087
0.266545 0.715816 0.120119
0.282353 0.705516 0.131258
0.328588 0.694987 0.146120
0.386297 0.686427 0.149386
0.416724 0.697871 0.136873
0.452766 0.705379 0.126894
0.502251 0.709255 0.120241
0.550286 0.703609 0.117861
0.637522 0.697124 0.118746
0.734417 0.688167 0.121126
0.848951 0.667872 0.122072
0.913603 0.647456 0.120516
0.951446 0.618418 0.113832
0.973236 0.580819 0.102205
0.985473 0.540291 0.088685
0.991943 0.496880 0.075593
0.994507 0.453727 0.062654
0.331685 0.777035 0.131746
0.348119 0.770901 0.139071
0.384009 0.761624 0.151278
0.433783 0.749752 0.156435
0.462287 0.754604 0.145968
0.486336 0.760769 0.134249
0.534783 0.765713 0.126894
0.576471 0.760555 0.124331
0.631052 0.755337 0.124361
0.709895 0.745693 0.126192
0.820676 0.739742 0.132326
0.891783 0.724880 0.132387
0.944366 0.710048 0.131960
0.969238 0.683070 0.123690
0.983307 0.644999 0.111208
0.991150 0.604898 0.100893
0.994141 0.559518 0.088838
0.404196 0.830472 0.142977
0.419196 0.828611 0.146029
0.444556 0.819821 0.156008
0.483894 0.805234 0.164858
0.506706 0.806912 0.154788
0.525841 0.811002 0.142794
0.558373 0.815915 0.131930
0.598688 0.812650 0.129305
0.649073 0.809903 0.128817
0.709346 0.806882 0.131685
0.809155 0.803403 0.137728
0.880308 0.800961 0.142214
0.935760 0.791012 0.145388
0.966430 0.774044 0.144472
0.981323 0.741878 0.137697
0.989624 0.704646 0.130068
0.993317 0.663157 0.121736
0.485847 0.877043 0.156405
0.500511 0.874815 0.155795
0.519158 0.867491 0.161227
0.546410 0.854978 0.169955
0.561090 0.853025 0.161410
0.570581 0.856229 0.148898
0.595056 0.860746 0.136995
0.628382 0.860807 0.134524
0.677821 0.859922 0.134463
0.737087 0.858732 0.138827
0.800015 0.856718 0.146548
0.864805 0.855009 0.152438
0.924987 0.851926 0.161654
0.959472 0.838437 0.164157
0.979187 0.817349 0.163912
0.987915 0.786007 0.161196
0.991943 0.749264 0.155032
0.572900 0.903349 0.171603
0.585168 0.903685 0.166262
0.596460 0.900999 0.166751
0.613794 0.893217 0.175113
0.624048 0.891783 0.167727
0.628656 0.892973 0.156252
0.636683 0.895811 0.142733
0.665003 0.896971 0.138857
0.703792 0.897459 0.138338
0.762905 0.897307 0.143221
0.820157 0.896361 0.151583
0.872129 0.896147 0.160372
0.915618 0.893675 0.171481
0.951720 0.889738 0.181613
0.973877 0.875090 0.185885
0.986297 0.851499 0.188693
0.990265 0.822477 0.188602
0.656245 0.926909 0.187839
0.667353 0.927642 0.178836
0.673609 0.927184 0.175021
0.680323 0.924163 0.177249
0.688655 0.922637 0.173068
0.691157 0.923339 0.161959
0.689937 0.925383 0.148531
0.706142 0.926513 0.142397
0.738064 0.927428 0.139956
0.788632 0.926390 0.145876
0.840482 0.925536 0.154330
0.885008 0.924193 0.166323
0.918700 0.920928 0.180636
0.949310 0.916411 0.193393
0.967407 0.904997 0.207279
0.982269 0.887602 0.214115
0.989044 0.865660 0.218662
0.741573 0.946502 0.204166
0.747066 0.946258 0.193606
0.747524 0.945830 0.189151
0.748257 0.944121 0.187076
0.752468 0.943633 0.181125
0.753536 0.944244 0.171481
0.748074 0.945953 0.157992
0.753079 0.947265 0.149386
0.774105 0.948058 0.144991
0.816403 0.947051 0.149660
0.858732 0.945922 0.157778
0.899474 0.944183 0.170871
0.927459 0.941161 0.187686
0.951873 0.936278 0.202945
0.967498 0.926696 0.220279
0.978790 0.914946 0.233310
0.987640 0.896635 0.241398
0.823575 0.960723 0.219150
0.821195 0.959411 0.212161
0.814694 0.958556 0.208957
0.810727 0.957244 0.202579
0.812833 0.956817 0.194980
0.811826 0.957336 0.185183
0.803708 0.958984 0.170657
0.805264 0.960449 0.160128
0.810666 0.961791 0.151278
0.844999 0.960784 0.154757
0.877470 0.959991 0.159731
0.912139 0.958038 0.173373
0.937377 0.955200 0.189609
0.958984 0.950683 0.207919
0.971771 0.943236 0.229252
0.979370 0.932555 0.245518
0.985992 0.920501 0.258885
0.004669 0.001282 0.082734
0.044739 0.000488 0.126375
0.077852 0.000610 0.136416
0.097505 0.000305 0.134157
0.113863 0.000153 0.139193
0.126955 0.000122 0.141207
0.142184 0.000092 0.141268
0.160159 0.000061 0.142397
0.181186 0.000031 0.138643
0.199161 0.000031 0.135500
0.218357 0.000031 0.127871
0.234531 0.000000 0.119722
0.254490 0.000000 0.107088
