LUT color transfer/LUTs/34.cube
# (C) 2014 VisionColor & Patchflyer [www.vision-color.com]
# Generator: VC Patchmatch v.2.1.1 [64/53]
# All work and no play makes Jack a dull boy.
# LUT generated from: Kodak Vision3 200T 5213 (NEG)_FC
LUT_3D_SIZE 5
0.029297 0.029297 0.029297
0.119478 0.002045 0.002258
0.181491 0.000793 0.000397
0.247837 0.000458 0.000061
0.336370 0.000061 0.000031
0.080720 0.279942 0.031891
0.183200 0.305211 0.053101
0.684977 0.239719 0.026032
0.751812 0.156619 0.000732
0.822507 0.126436 0.000153
0.303731 0.605936 0.073915
0.251133 0.616922 0.075776
0.549294 0.608087 0.118227
0.915618 0.505592 0.107912
0.988861 0.369833 0.068879
0.611933 0.884794 0.103365
0.498634 0.852232 0.101381
0.611627 0.821866 0.148104
0.891875 0.803403 0.213199
0.985901 0.695460 0.211093
0.881163 0.957580 0.172824
0.759030 0.945739 0.145571
0.697108 0.933623 0.159945
0.863981 0.931456 0.242313
0.963897 0.903441 0.290166
0.002197 0.000793 0.093172
0.099336 0.000122 0.143557
0.165866 0.000031 0.158480
0.231449 0.000000 0.144656
0.310857 0.000031 0.048188
0.026062 0.414679 0.384771
0.289891 0.262455 0.300542
0.674662 0.213748 0.238651
0.897551 0.126558 0.158267
0.977905 0.064057 0.038239
0.137209 0.684276 0.263279
0.355291 0.598581 0.256809
0.639048 0.625986 0.230045
0.928862 0.530587 0.210452
0.988128 0.339345 0.125399
0.349737 0.863035 0.250523
0.497780 0.848875 0.263798
0.694118 0.859464 0.254459
0.915251 0.857420 0.235630
0.992279 0.744442 0.189975
0.717983 0.950378 0.287785
0.752560 0.952789 0.274296
0.811368 0.954894 0.257328
0.933165 0.958831 0.238285
0.990478 0.936095 0.228336
0.001373 0.000183 0.152804
0.083497 0.000031 0.218906
0.115572 0.000031 0.208347
0.165225 0.000000 0.216617
0.280369 0.000000 0.161379
0.012757 0.356695 0.839002
0.174899 0.250797 0.690379
0.470069 0.176699 0.570596
0.733104 0.116060 0.492851
0.964050 0.035950 0.259541
0.124910 0.783475 0.767712
0.300542 0.661570 0.664164
0.589456 0.583200 0.597925
0.848478 0.514015 0.520821
0.956970 0.348501 0.350271
0.256992 0.896269 0.628885
0.366278 0.851469 0.515358
0.604425 0.827695 0.516304
0.868894 0.842771 0.498070
0.981781 0.765042 0.425406
0.543206 0.934478 0.448600
0.572931 0.935851 0.438453
0.699763 0.942992 0.457069
0.872770 0.943877 0.457343
0.986450 0.930297 0.409171
0.000031 0.000061 0.219638
0.080018 0.000000 0.328954
0.119753 0.000000 0.335454
0.113680 0.000000 0.295872
0.224857 0.000000 0.306462
0.000702 0.300587 0.810651
0.101747 0.246891 0.954559
0.327474 0.174197 0.877562
0.515984 0.093721 0.863523
0.889281 0.039399 0.758709
0.084352 0.732067 0.966369
0.225055 0.639384 0.905730
0.468315 0.575662 0.839506
0.657984 0.497948 0.781155
0.874327 0.391592 0.711696
0.246464 0.920073 0.927398
0.371527 0.879698 0.876310
0.570336 0.852323 0.845060
0.820951 0.816495 0.814939
0.937285 0.757259 0.751186
0.414832 0.949828 0.811765
0.463416 0.942596 0.763607
0.571557 0.936584 0.726101
0.766567 0.932464 0.700862
0.955901 0.934600 0.692409
0.000031 0.000366 0.286473
0.054536 0.000000 0.433997
0.129305 0.000000 0.501488
0.143313 0.000000 0.484962
0.174960 0.000000 0.426551
0.000031 0.305058 0.820340
0.031708 0.231693 0.981353
0.193561 0.204044 0.978790
0.387640 0.139712 0.973297
0.635828 0.063691 0.970581
0.049561 0.769314 0.987610
0.175677 0.624552 0.975250
0.432242 0.591104 0.932067
0.582513 0.533364 0.897612
0.707912 0.462333 0.884855
0.255772 0.903166 0.976318
0.430060 0.865080 0.949828
0.594141 0.838987 0.933410
0.784329 0.819974 0.912108
0.863310 0.793790 0.891997
0.403815 0.960327 0.955901
0.500053 0.949004 0.946227
0.649348 0.941619 0.938170
0.792782 0.934051 0.925780
0.939605 0.933165 0.926482
