LUT color transfer/LUTs/34.cube
# (C) 2014 VisionColor & Patchflyer [www.vision-color.com]
# Generator: VC Patchmatch v.2.1.1 [64/53]
# All work and no play makes Jack a dull boy.
# LUT generated from: Kodak Vision3 200T 5213 (NEG)_FC
LUT_3D_SIZE 9
0.029297 0.029297 0.029297
0.084199 0.006897 0.013245
0.119478 0.002045 0.002258
0.145266 0.001068 0.000916
0.181491 0.000793 0.000397
0.214694 0.000366 0.000122
0.247837 0.000458 0.000061
0.281437 0.000092 0.000061
0.336370 0.000061 0.000031
0.034668 0.144961 0.007202
0.075837 0.145632 0.012421
0.288823 0.115938 0.010590
0.418769 0.102205 0.002716
0.470497 0.093263 0.000183
0.516564 0.080537 0.000000
0.568383 0.069612 0.000000
0.584772 0.056489 0.000000
0.578180 0.036439 0.000000
0.080720 0.279942 0.031891
0.094606 0.309331 0.035615
0.183200 0.305211 0.053101
0.460868 0.295537 0.054536
0.684977 0.239719 0.026032
0.750912 0.186252 0.005585
0.751812 0.156619 0.000732
0.799527 0.146151 0.000244
0.822507 0.126436 0.000153
0.181033 0.438712 0.058381
0.172824 0.458259 0.056855
0.182223 0.474983 0.064027
0.337453 0.472908 0.083986
0.619638 0.448646 0.086976
0.833204 0.375601 0.061707
0.936004 0.307851 0.033814
0.964141 0.269413 0.020417
0.972045 0.231205 0.012451
0.303731 0.605936 0.073915
0.283574 0.610025 0.075441
0.251133 0.616922 0.075776
0.331441 0.610864 0.090791
0.549294 0.608087 0.118227
0.777142 0.569863 0.124483
0.915618 0.505592 0.107912
0.968383 0.440879 0.087770
0.988861 0.369833 0.068879
0.449775 0.763912 0.083925
0.423087 0.749630 0.086702
0.356023 0.743221 0.089265
0.409796 0.730678 0.107576
0.539284 0.723629 0.131106
0.747234 0.711666 0.160281
0.895628 0.674159 0.169070
0.956634 0.616754 0.161135
0.985229 0.539544 0.141573
0.611933 0.884794 0.103365
0.581872 0.871550 0.098390
0.498634 0.852232 0.101381
0.512749 0.832120 0.121370
0.611627 0.821866 0.148104
0.752331 0.821073 0.180972
0.891875 0.803403 0.213199
0.955749 0.760891 0.222446
0.985901 0.695460 0.211093
0.767452 0.933471 0.134951
0.713741 0.926574 0.120546
0.639582 0.914336 0.114626
0.606012 0.900298 0.128054
0.665187 0.888701 0.155062
0.778531 0.886931 0.194247
0.888518 0.889128 0.239628
0.953948 0.873808 0.268040
0.983917 0.826841 0.265141
0.881163 0.957580 0.172824
0.818235 0.949340 0.153384
0.759030 0.945739 0.145571
0.702327 0.940368 0.146395
0.697108 0.933623 0.159945
0.772457 0.930205 0.196048
0.863981 0.931456 0.242313
0.925750 0.928740 0.280156
0.963897 0.903441 0.290166
0.009522 0.002564 0.079652
0.095125 0.001404 0.121065
0.130282 0.000275 0.124666
0.152773 0.000122 0.109346
0.194461 0.000031 0.094820
0.229160 0.000031 0.072816
0.255222 0.000031 0.044373
0.264622 0.000061 0.016358
0.294255 0.000061 0.001038
0.008179 0.190066 0.178927
0.133455 0.118044 0.157412
0.346990 0.093233 0.122530
0.514672 0.079713 0.096254
0.665232 0.066468 0.073152
0.793179 0.050080 0.045899
0.802487 0.033112 0.018494
0.686900 0.016510 0.002075
0.548379 0.009339 0.000122
0.041047 0.356115 0.114412
0.161440 0.289036 0.116548
0.288334 0.316930 0.099123
0.540719 0.275761 0.095369
0.738994 0.231907 0.087556
0.887266 0.189548 0.067597
0.953429 0.150851 0.040803
0.967468 0.131899 0.013245
0.917052 0.127108 0.003052
0.115846 0.496284 0.095064
0.217655 0.460548 0.124422
0.307256 0.491188 0.105623
0.464836 0.497688 0.102815
0.714122 0.447547 0.103944
0.894453 0.383566 0.092348
0.961944 0.306111 0.066957
0.987854 0.248585 0.034577
0.990448 0.230808 0.012146
0.214267 0.647684 0.107851
0.286595 0.621439 0.139590
0.375967 0.634379 0.126497
0.474083 0.646922 0.113252
0.646616 0.631983 0.114870
0.870527 0.583902 0.114504
0.955688 0.514839 0.097719
0.986542 0.428885 0.066987
0.995087 0.352865 0.038087
0.331685 0.777035 0.131746
0.384009 0.761624 0.151278
0.462287 0.754604 0.145968
0.534783 0.765713 0.126894
0.631052 0.755337 0.124361
0.820676 0.739742 0.132326
0.944366 0.710048 0.131960
0.983307 0.644999 0.111208
0.994141 0.559518 0.088838
0.485847 0.877043 0.156405
0.519158 0.867491 0.161227
0.561090 0.853025 0.161410
0.595056 0.860746 0.136995
0.677821 0.859922 0.134463
0.800015 0.856718 0.146548
0.924987 0.851926 0.161654
0.979187 0.817349 0.163912
0.991943 0.749264 0.155032
0.656245 0.926909 0.187839
0.673609 0.927184 0.175021
0.688655 0.922637 0.173068
0.689937 0.925383 0.148531
0.738064 0.927428 0.139956
0.840482 0.925536 0.154330
0.918700 0.920928 0.180636
0.967407 0.904997 0.207279
0.989044 0.865660 0.218662
0.823575 0.960723 0.219150
0.814694 0.958556 0.208957
0.812833 0.956817 0.194980
0.803708 0.958984 0.170657
0.810666 0.961791 0.151278
0.877470 0.959991 0.159731
0.937377 0.955200 0.189609
0.971771 0.943236 0.229252
0.985992 0.920501 0.258885
0.002197 0.000793 0.093172
0.060212 0.000305 0.141970
0.099336 0.000122 0.143557
0.127169 0.000061 0.152010
0.165866 0.000031 0.158480
0.201083 0.000031 0.156344
0.231449 0.000000 0.144656
0.266453 0.000000 0.110994
0.310857 0.000031 0.048188
0.003449 0.134524 0.345129
0.085359 0.097108 0.328862
0.308110 0.043488 0.319707
0.476875 0.030213 0.306920
0.595361 0.028931 0.276005
0.639307 0.024872 0.226093
0.702464 0.010132 0.171740
0.628519 0.001343 0.095033
0.581369 0.000427 0.037324
0.026062 0.414679 0.384771
0.121401 0.327825 0.343755
0.289891 0.262455 0.300542
0.511650 0.239048 0.263798
0.674662 0.213748 0.238651
0.800320 0.174899 0.207614
0.897551 0.126558 0.158267
0.963195 0.084413 0.096040
0.977905 0.064057 0.038239
0.071901 0.575616 0.302220
0.161379 0.491218 0.286687
0.318273 0.437263 0.268406
0.459388 0.457160 0.244999
0.685161 0.429938 0.233341
0.841703 0.385031 0.219638
0.926726 0.307240 0.186740
0.971984 0.231861 0.139406
0.990662 0.195956 0.089082
0.137209 0.684276 0.263279
0.215030 0.625040 0.251530
0.355291 0.598581 0.256809
0.491936 0.617472 0.241856
0.639048 0.625986 0.230045
0.833997 0.591012 0.226200
0.928862 0.530587 0.210452
0.971344 0.432059 0.173373
0.988128 0.339345 0.125399
0.219852 0.778958 0.253971
0.289281 0.748653 0.242832
0.413001 0.738888 0.257389
0.539940 0.745632 0.252140
0.667048 0.764401 0.239963
0.806561 0.757595 0.229648
0.926848 0.718898 0.226780
0.976776 0.649409 0.201877
0.991363 0.542062 0.158907
0.349737 0.863035 0.250523
0.403540 0.854093 0.246708
0.497780 0.848875 0.263798
0.596796 0.847257 0.267155
0.694118 0.859464 0.254459
0.818448 0.866575 0.247776
0.915251 0.857420 0.235630
0.978607 0.819455 0.221653
0.992279 0.744442 0.189975
0.535058 0.914946 0.258549
0.564843 0.917144 0.254063
0.615961 0.917052 0.267399
0.676753 0.914488 0.277501
0.741695 0.919097 0.268162
0.836637 0.924651 0.262089
0.921630 0.926329 0.254673
0.972656 0.916289 0.231785
0.991882 0.876188 0.210544
0.717983 0.950378 0.287785
0.735836 0.951720 0.272251
0.752560 0.952789 0.274296
0.783169 0.952422 0.272984
0.811368 0.954894 0.257328
0.863615 0.957946 0.243656
0.933165 0.958831 0.238285
0.981781 0.952056 0.230716
0.990478 0.936095 0.228336
0.001129 0.000397 0.118013
0.044190 0.000092 0.162417
0.085908 0.000031 0.171939
0.107973 0.000031 0.171023
0.135348 0.000031 0.181003
0.169406 0.000031 0.189242
0.196139 0.000000 0.183413
0.229709 0.000000 0.161959
0.303838 0.000000 0.110689
0.000580 0.104707 0.429465
0.064637 0.079103 0.587655
0.244327 0.041321 0.519875
0.390143 0.011994 0.458503
0.468421 0.015229 0.411658
0.534569 0.011994 0.367330
0.552819 0.002777 0.294942
0.506828 0.000366 0.194980
0.537835 0.000153 0.121492
0.027253 0.376349 0.625559
0.098634 0.303258 0.562783
0.210269 0.252720 0.498177
0.403479 0.215579 0.434516
0.565270 0.194888 0.401190
0.699107 0.164248 0.364492
0.814817 0.119509 0.311788
0.926207 0.072114 0.230152
0.972259 0.040101 0.125307
0.072663 0.637690 0.587869
0.156710 0.538994 0.553765
0.279973 0.478828 0.491829
0.444343 0.428412 0.456031
0.637507 0.405188 0.416480
0.770321 0.364981 0.382254
0.869566 0.297597 0.330617
0.938140 0.221942 0.254719
0.978424 0.171511 0.165988
0.122316 0.747677 0.522469
0.200412 0.676188 0.488838
0.302770 0.622110 0.434607
0.465919 0.587930 0.416602
0.606851 0.601480 0.396307
0.792096 0.580484 0.379873
0.898314 0.531716 0.353262
0.952697 0.437888 0.302205
0.977081 0.344808 0.231067
0.185702 0.826017 0.479789
0.247776 0.772854 0.410056
0.341039 0.739559 0.385489
0.486061 0.723323 0.388251
0.633753 0.736263 0.382910
0.767498 0.747280 0.366979
0.902495 0.719661 0.355169
0.960021 0.657404 0.324407
0.983459 0.556497 0.269627
0.283574 0.875212 0.420462
0.330846 0.851347 0.362753
0.412665 0.838193 0.357000
0.531762 0.836149 0.374151
0.661860 0.840055 0.382025
0.790234 0.853574 0.373358
0.895689 0.851530 0.355413
0.965545 0.818753 0.335454
0.987762 0.754604 0.295811
0.437964 0.905943 0.366003
0.469184 0.906249 0.348119
0.524010 0.905516 0.349340
0.613855 0.907500 0.371893
0.711208 0.908934 0.383978
0.812222 0.915648 0.380438
0.909545 0.918242 0.371588
0.965484 0.906035 0.335973
0.989319 0.871183 0.300237
0.628321 0.942321 0.355474
0.641749 0.943908 0.342138
0.665125 0.945556 0.345373
0.717647 0.947051 0.360265
0.774929 0.947540 0.366827
0.831968 0.949645 0.358709
0.908385 0.950408 0.346532
0.970611 0.945129 0.318822
0.989837 0.932494 0.291630
0.001373 0.000183 0.152804
0.044648 0.000031 0.206546
0.083497 0.000031 0.218906
0.106905 0.000031 0.219242
0.115572 0.000031 0.208347
0.137911 0.000031 0.215457
0.165225 0.000000 0.216617
0.202762 0.000000 0.203342
0.280369 0.000000 0.161379
0.000031 0.086366 0.427787
0.047608 0.059602 0.844923
0.194095 0.036316 0.730373
0.318059 0.018769 0.618311
0.340124 0.007477 0.468925
0.441077 0.004730 0.485649
0.439460 0.001678 0.374899
0.413565 0.000122 0.267536
0.496468 0.000092 0.202304
0.012757 0.356695 0.839002
0.076478 0.294865 0.775036
0.174899 0.250797 0.690379
0.329137 0.212772 0.612345
0.470069 0.176699 0.570596
0.611673 0.155367 0.541817
0.733104 0.116060 0.492851
0.859800 0.070680 0.405661
0.964050 0.035950 0.259541
0.068116 0.596155 0.808240
0.133791 0.516732 0.745037
0.222629 0.466072 0.680949
0.363012 0.419715 0.628840
0.534478 0.384680 0.573449
0.673472 0.350881 0.536141
0.779995 0.296559 0.491325
0.887419 0.229084 0.412314
0.965606 0.171038 0.287984
0.124910 0.783475 0.767712
0.205661 0.704723 0.718120
0.300542 0.661570 0.664164
0.433600 0.620340 0.622583
0.589456 0.583200 0.597925
0.743435 0.559091 0.559365
0.848478 0.514015 0.520821
0.910582 0.435172 0.452873
0.956970 0.348501 0.350271
0.180148 0.860105 0.698222
0.247654 0.810910 0.642618
0.325231 0.773861 0.596170
0.433722 0.738003 0.561044
0.597620 0.716152 0.553506
0.735241 0.727810 0.538857
0.874449 0.706935 0.517800
0.940826 0.655528 0.477745
0.969146 0.571084 0.409079
0.256992 0.896269 0.628885
0.304906 0.874937 0.562112
0.366278 0.851469 0.515358
0.459907 0.830716 0.504219
0.604425 0.827695 0.516304
0.752453 0.836667 0.518166
0.868894 0.842771 0.498070
0.950103 0.817533 0.471275
0.981781 0.765042 0.425406
0.377234 0.913725 0.534981
0.413550 0.911559 0.535958
0.449470 0.899016 0.466300
0.527001 0.895842 0.470176
0.639521 0.899199 0.487968
0.769299 0.902861 0.498100
0.883421 0.908721 0.488487
0.953368 0.900206 0.456382
0.985473 0.879454 0.421103
0.543206 0.934478 0.448600
0.547723 0.934325 0.448417
0.572931 0.935851 0.438453
0.621393 0.938872 0.443488
0.699763 0.942992 0.457069
0.786145 0.943572 0.466377
0.872770 0.943877 0.457343
0.950591 0.939605 0.430884
0.986450 0.930297 0.409171
0.000519 0.000061 0.183993
0.036774 0.000031 0.241550
0.079774 0.000031 0.267308
0.104616 0.000000 0.272435
0.116762 0.000000 0.267002
0.117220 0.000031 0.248692
0.136538 0.000000 0.249790
0.173007 0.000000 0.244846
0.255192 0.000000 0.228916
0.000000 0.080751 0.467018
0.022766 0.055360 0.848493
0.147799 0.035157 0.789288
0.253330 0.022156 0.723751
0.323064 0.008972 0.660365
0.313298 0.002197 0.514244
0.341512 0.000855 0.453788
0.356985 0.000092 0.370062
0.469444 0.000092 0.311559
0.001648 0.325704 0.878325
0.046510 0.292607 0.932784
0.142885 0.247074 0.853468
0.269245 0.207431 0.772717
0.398062 0.176486 0.742382
0.505760 0.133471 0.723400
0.637720 0.111086 0.697032
0.777707 0.073854 0.635203
0.940917 0.036683 0.477043
0.044495 0.568490 0.944762
0.108278 0.508064 0.893996
0.186130 0.459586 0.836652
0.312184 0.416602 0.769268
0.454490 0.374914 0.713726
0.570886 0.334127 0.684138
0.689876 0.299855 0.657618
0.805295 0.242329 0.603281
0.934997 0.179721 0.484489
0.109010 0.746624 0.904540
0.176974 0.687144 0.863111
0.252247 0.649058 0.813886
0.367514 0.612345 0.770153
0.517067 0.576547 0.732357
0.644617 0.541024 0.692042
0.760159 0.508736 0.665949
0.850767 0.444907 0.617761
0.924376 0.365927 0.526665
0.179629 0.875090 0.876249
0.256901 0.828824 0.835843
0.333959 0.798520 0.795865
0.440253 0.768246 0.760678
0.575692 0.740490 0.734768
0.712154 0.712673 0.716609
0.841581 0.688869 0.683680
0.903777 0.643549 0.640955
0.941772 0.573098 0.571756
0.248478 0.912932 0.823362
0.297002 0.889525 0.763104
0.357397 0.871244 0.724834
0.443488 0.851438 0.698283
0.558328 0.835172 0.677974
0.713344 0.822690 0.673945
0.845182 0.830228 0.660365
0.928069 0.807584 0.631617
0.961517 0.764920 0.590127
0.336889 0.931579 0.738231
0.373602 0.924102 0.714778
0.410895 0.910216 0.649393
0.478401 0.901091 0.628489
0.570138 0.892729 0.617121
0.702693 0.891905 0.624292
0.852415 0.897002 0.625391
0.931945 0.895171 0.598291
0.972808 0.881285 0.572259
0.467506 0.937835 0.621103
0.479164 0.936461 0.613748
0.501549 0.931731 0.578927
0.544793 0.930724 0.567269
0.607340 0.933196 0.559777
0.700252 0.937652 0.562646
0.829709 0.938476 0.569238
0.925505 0.939391 0.552789
0.977081 0.934813 0.536095
0.000031 0.000061 0.219638
0.025147 0.000031 0.274510
0.080018 0.000000 0.328954
0.106294 0.000000 0.338048
0.119753 0.000000 0.335454
0.121675 0.000000 0.320897
0.113680 0.000000 0.295872
0.140169 0.000000 0.289433
0.224857 0.000000 0.306462
0.000000 0.085664 0.498238
0.001251 0.058137 0.763928
0.114565 0.030488 0.885313
0.234836 0.017212 0.873991
0.308171 0.006165 0.834958
0.299657 0.002014 0.671672
0.262852 0.000305 0.507210
0.297780 0.000031 0.463340
0.439292 0.000092 0.445899
0.000702 0.300587 0.810651
0.014801 0.295109 0.967193
0.101747 0.246891 0.954559
0.212955 0.205631 0.902434
0.327474 0.174197 0.877562
0.431586 0.137545 0.870207
0.515984 0.093721 0.863523
0.658045 0.072236 0.834104
0.889281 0.039399 0.758709
0.023713 0.567452 0.979217
0.076356 0.509453 0.963897
0.150271 0.455177 0.934600
0.261921 0.421424 0.883085
0.382040 0.371160 0.828672
0.495521 0.335225 0.805753
0.575341 0.287648 0.784268
0.701625 0.254261 0.766262
0.876463 0.195987 0.704067
0.084352 0.732067 0.966369
0.150362 0.680522 0.935393
0.225055 0.639384 0.905730
0.329610 0.605386 0.871122
0.468315 0.575662 0.839506
0.577630 0.536233 0.801175
0.657984 0.497948 0.781155
0.764675 0.459709 0.763088
0.874327 0.391592 0.711696
0.157137 0.858671 0.942809
0.231754 0.811490 0.912322
0.300237 0.783658 0.890135
0.397223 0.757076 0.865751
0.525017 0.733593 0.846677
0.657465 0.707546 0.825193
0.742916 0.678767 0.797024
0.836820 0.651987 0.776913
0.903014 0.596078 0.731655
0.246464 0.920073 0.927398
0.303349 0.895079 0.896391
0.371527 0.879698 0.876310
0.461738 0.865141 0.858640
0.570336 0.852323 0.845060
0.697200 0.838315 0.831083
0.820951 0.816495 0.814939
0.900481 0.791165 0.783566
0.937285 0.757259 0.751186
0.322362 0.940948 0.888151
0.347631 0.931273 0.852811
0.393683 0.921538 0.826902
0.468574 0.912932 0.810239
0.559258 0.904418 0.796536
0.666133 0.894957 0.779782
0.804349 0.888243 0.766842
0.909606 0.888762 0.753841
0.950896 0.874876 0.738735
0.414832 0.949828 0.811765
0.433265 0.946593 0.788479
0.463416 0.942596 0.763607
0.510643 0.939269 0.746395
0.571557 0.936584 0.726101
0.644038 0.933318 0.704158
0.766567 0.932464 0.700862
0.899626 0.935332 0.702663
0.955901 0.934600 0.692409
0.000031 0.000244 0.256779
0.010620 0.000031 0.302007
0.071839 0.000000 0.390631
0.108522 0.000000 0.414435
0.125002 0.000000 0.416388
0.128817 0.000000 0.405829
0.124605 0.000000 0.385168
0.114260 0.000000 0.341802
0.176272 0.000000 0.350347
0.000000 0.103120 0.542657
0.000061 0.062165 0.635325
0.066529 0.024079 0.974640
0.187594 0.015137 0.980713
0.263951 0.005829 0.924132
0.278782 0.001984 0.805768
0.266026 0.000275 0.657694
0.254520 0.000000 0.540261
0.397009 0.000122 0.559991
0.000061 0.304891 0.814954
0.000580 0.278202 0.925566
0.055940 0.239170 0.980713
0.154147 0.209781 0.969726
0.251453 0.181125 0.955657
0.355077 0.147768 0.949767
0.447089 0.106081 0.951141
0.520134 0.066529 0.945342
0.787442 0.044343 0.938598
0.007019 0.586130 0.971984
0.038514 0.511131 0.986481
0.109773 0.446220 0.977539
0.221057 0.424521 0.947601
0.323354 0.384283 0.912474
0.424384 0.346700 0.892210
0.513176 0.307790 0.883604
0.576501 0.258167 0.875212
0.780545 0.222095 0.860166
0.063691 0.752041 0.982849
0.127886 0.680873 0.968902
0.204791 0.632395 0.953033
0.307332 0.602579 0.930266
0.436912 0.584207 0.901244
0.530571 0.545052 0.873137
0.609094 0.512642 0.861265
0.660853 0.469108 0.848875
0.797757 0.426902 0.832944
0.142275 0.855741 0.971923
0.224430 0.802701 0.951080
0.306462 0.773526 0.934966
0.398108 0.748989 0.919860
0.513390 0.730007 0.902586
0.632670 0.711482 0.882719
0.702296 0.682429 0.864744
0.751553 0.654841 0.853208
0.847562 0.624308 0.838102
0.237125 0.909361 0.958801
0.295720 0.885405 0.938903
0.370062 0.868864 0.927764
0.458442 0.853574 0.918212
0.560662 0.844999 0.905699
0.673426 0.832090 0.892882
0.786618 0.812985 0.880217
0.840360 0.794125 0.868254
0.897398 0.775937 0.852445
0.328801 0.941772 0.945129
0.359167 0.933715 0.929564
0.418891 0.924865 0.918578
0.505394 0.916289 0.911559
0.594751 0.908843 0.904418
0.692683 0.901671 0.895628
0.794797 0.898558 0.891417
0.895262 0.883848 0.877989
0.934997 0.871305 0.864073
0.394781 0.956909 0.913024
0.417090 0.953979 0.906096
0.455756 0.949248 0.895445
0.522789 0.945220 0.888945
0.589715 0.941985 0.877623
0.658167 0.938293 0.861204
0.751034 0.934447 0.846708
0.871824 0.928100 0.841428
0.938750 0.928100 0.846403
0.000031 0.000366 0.286473
0.002319 0.000031 0.319982
0.054536 0.000000 0.433997
0.103792 0.000000 0.487129
0.129305 0.000000 0.501488
0.138216 0.000000 0.497047
0.143313 0.000000 0.484962
0.165652 0.000000 0.478645
0.174960 0.000000 0.426551
0.000000 0.109163 0.574060
0.000061 0.078645 0.679393
0.033600 0.037110 0.946349
0.121126 0.028748 0.989502
0.201114 0.019776 0.950072
0.255314 0.013275 0.901152
0.280980 0.007599 0.816175
0.298894 0.003815 0.726299
0.377813 0.000946 0.673716
0.000031 0.305058 0.820340
0.000275 0.260594 0.900694
0.031708 0.231693 0.981353
0.111757 0.219211 0.986511
0.193561 0.204044 0.978790
0.291905 0.174411 0.972930
0.387640 0.139712 0.973297
0.468696 0.097261 0.973449
0.635828 0.063691 0.970581
0.001617 0.576486 0.967590
0.012940 0.503471 0.988739
0.075288 0.430564 0.987335
0.197040 0.417319 0.971893
0.297902 0.404211 0.950835
0.386572 0.374105 0.929747
0.475593 0.340475 0.921721
0.545098 0.299916 0.917662
0.652735 0.254047 0.917418
0.049561 0.769314 0.987610
0.107256 0.680034 0.984436
0.175677 0.624552 0.975250
0.289784 0.597848 0.954803
0.432242 0.591104 0.932067
0.515984 0.564675 0.909758
0.582513 0.533364 0.897612
0.638575 0.505837 0.891691
0.707912 0.462333 0.884855
0.145724 0.854307 0.982849
0.232975 0.808591 0.972351
0.318547 0.774075 0.957183
0.411444 0.746639 0.943481
0.529168 0.730861 0.929473
0.635966 0.722683 0.912352
0.688899 0.699611 0.897276
0.736782 0.680262 0.888579
0.783810 0.649485 0.881102
0.255772 0.903166 0.976318
0.317784 0.885801 0.964721
0.430060 0.865080 0.949828
0.507561 0.849729 0.941283
0.594141 0.838987 0.933410
0.691279 0.826780 0.923980
0.784329 0.819974 0.912108
0.828428 0.807034 0.900114
0.863310 0.793790 0.891997
0.348516 0.932830 0.966186
0.371923 0.929778 0.958495
0.455634 0.918120 0.948302
0.550317 0.906706 0.941985
0.626123 0.899840 0.936553
0.709621 0.893675 0.930358
0.807126 0.886229 0.922454
0.884306 0.881437 0.912200
0.908873 0.880430 0.903166
0.403815 0.960327 0.955901
0.450752 0.954803 0.951354
0.500053 0.949004 0.946227
0.581353 0.944396 0.942992
0.649348 0.941619 0.938170
0.709224 0.938140 0.932677
0.792782 0.934051 0.925780
0.884398 0.932006 0.922942
0.939605 0.933165 0.926482
