LUT color transfer/LUTs/35.cube
# (C) 2014 VisionColor & Patchflyer [www.vision-color.com]
# Generator: VC Patchmatch v.2.1.1 [64/53]
# All work and no play makes Jack a dull boy.
# LUT generated from: Kodak Vision3 200T 5213 (NEG)_FPE
LUT_3D_SIZE 5
0.034607 0.038911 0.039490
0.090639 0.034211 0.028656
0.147738 0.037079 0.031739
0.197879 0.037110 0.033295
0.252567 0.037720 0.033967
0.077394 0.216953 0.057282
0.236789 0.290288 0.070558
0.636805 0.265782 0.061585
0.596994 0.159670 0.055421
0.596490 0.122377 0.054688
0.428458 0.501457 0.087587
0.341848 0.485512 0.088106
0.690105 0.570855 0.144045
0.869566 0.499840 0.127993
0.870451 0.376791 0.093812
0.781003 0.684596 0.144656
0.668788 0.648463 0.131441
0.759793 0.675990 0.181552
0.921386 0.709773 0.260105
0.946410 0.633661 0.232425
0.931945 0.786374 0.216739
0.882902 0.753628 0.187625
0.834195 0.742092 0.195743
0.913848 0.787839 0.304509
0.954803 0.782925 0.356603
0.028199 0.028351 0.066529
0.083345 0.032929 0.118898
0.146975 0.034943 0.131167
0.202945 0.038117 0.119509
0.252110 0.038514 0.047883
0.042725 0.288212 0.360998
0.330755 0.302983 0.314305
0.580957 0.243870 0.235080
0.602899 0.119738 0.129824
0.568689 0.056184 0.053986
0.086213 0.462745 0.315618
0.430518 0.538293 0.318639
0.738018 0.608057 0.289769
0.874723 0.528572 0.230213
0.843565 0.342824 0.108156
0.417868 0.640009 0.316533
0.602899 0.684352 0.331945
0.797330 0.727810 0.320562
0.934722 0.744289 0.291417
0.952239 0.653986 0.205936
0.808408 0.785977 0.359442
0.838956 0.791043 0.342718
0.881865 0.797574 0.321477
0.944793 0.814359 0.297826
0.960174 0.787533 0.265415
0.030457 0.030457 0.106477
0.063264 0.033112 0.158907
0.094514 0.032532 0.160006
0.142245 0.032959 0.168856
0.240146 0.039094 0.132265
0.048371 0.250828 0.477119
0.123079 0.255436 0.442329
0.452064 0.212985 0.422370
0.562524 0.121294 0.362814
0.554528 0.052918 0.183459
0.069429 0.505333 0.605280
0.263066 0.578332 0.582086
0.623835 0.591943 0.571649
0.775937 0.532601 0.503334
0.799252 0.366873 0.339010
0.166064 0.630488 0.565148
0.358526 0.662257 0.522301
0.663630 0.720607 0.557610
0.874968 0.765713 0.568536
0.946654 0.707942 0.488167
0.603647 0.755001 0.507713
0.640192 0.764248 0.503685
0.763272 0.802029 0.531762
0.891661 0.829343 0.543053
0.966369 0.818296 0.489921
0.032380 0.032380 0.143099
0.056519 0.035126 0.204685
0.091310 0.036988 0.216861
0.087434 0.035920 0.200687
0.190951 0.036011 0.217166
0.047913 0.213779 0.466896
0.056489 0.211246 0.492012
0.300587 0.189822 0.490242
0.419440 0.098314 0.455024
0.550256 0.053895 0.406226
0.062074 0.447425 0.653986
0.118273 0.516884 0.650111
0.466331 0.564309 0.651759
0.653773 0.533700 0.633814
0.771908 0.443626 0.583764
0.126925 0.637568 0.719203
0.301701 0.698268 0.714199
0.584665 0.742428 0.728206
0.798276 0.757412 0.737697
0.883024 0.719387 0.695735
0.350988 0.745510 0.688472
0.436164 0.758907 0.675654
0.588800 0.785885 0.680110
0.781155 0.820676 0.693812
0.937255 0.851987 0.716640
0.033783 0.033783 0.172183
0.042573 0.034607 0.230838
0.093019 0.038636 0.270359
0.106935 0.039002 0.268772
0.139193 0.038849 0.256596
0.047272 0.214847 0.467933
0.049409 0.165713 0.495979
0.128191 0.196292 0.511315
0.342901 0.144427 0.518578
0.465614 0.055970 0.486793
0.061646 0.427863 0.676661
0.078996 0.468315 0.669764
0.396902 0.559579 0.693049
0.576806 0.543557 0.681605
0.672297 0.499992 0.672938
0.128054 0.624048 0.748318
0.363684 0.708156 0.766018
0.586938 0.734127 0.776364
0.757778 0.751217 0.783413
0.817319 0.746090 0.777035
0.306950 0.753689 0.782376
0.453803 0.786282 0.795804
0.641749 0.819547 0.816739
0.775296 0.836301 0.827543
0.900450 0.856016 0.846220
