LUT color transfer/LUTs/35.cube
# (C) 2014 VisionColor & Patchflyer [www.vision-color.com]
# Generator: VC Patchmatch v.2.1.1 [64/53]
# All work and no play makes Jack a dull boy.
# LUT generated from: Kodak Vision3 200T 5213 (NEG)_FPE
LUT_3D_SIZE 17
0.034607 0.038911 0.039490
0.042664 0.035187 0.035798
0.056672 0.033631 0.031067
0.073579 0.033234 0.028992
0.090639 0.034211 0.028656
0.103670 0.035340 0.028779
0.115877 0.036042 0.029664
0.132998 0.036866 0.030945
0.147738 0.037079 0.031739
0.163851 0.037354 0.032807
0.174166 0.037201 0.032990
0.185641 0.037110 0.033204
0.197879 0.037110 0.033295
0.210758 0.037018 0.033173
0.219455 0.036896 0.033082
0.235843 0.037171 0.033387
0.252567 0.037720 0.033967
0.033509 0.068269 0.039887
0.054627 0.076478 0.038911
0.108522 0.067689 0.034272
0.146670 0.056245 0.032624
0.180056 0.052949 0.033661
0.211887 0.050904 0.035492
0.241215 0.052125 0.037232
0.266728 0.049989 0.038758
0.286656 0.050233 0.039979
0.303349 0.049256 0.041291
0.317693 0.049836 0.041901
0.328069 0.048066 0.042145
0.332647 0.046845 0.041688
0.333837 0.044434 0.041566
0.324987 0.042390 0.041047
0.320348 0.041474 0.040009
0.311223 0.040497 0.038148
0.036133 0.104616 0.040467
0.047333 0.113008 0.040925
0.079469 0.125917 0.042451
0.210758 0.139010 0.041932
0.305760 0.133639 0.040925
0.362463 0.123842 0.042756
0.405066 0.115236 0.044984
0.416052 0.104036 0.045747
0.428443 0.098756 0.046143
0.431006 0.089235 0.045991
0.439399 0.083223 0.046326
0.449683 0.075563 0.046632
0.451423 0.071473 0.047150
0.451972 0.066560 0.047181
0.445716 0.060060 0.047028
0.434333 0.054475 0.046571
0.421851 0.048188 0.046479
0.044831 0.152102 0.047242
0.059022 0.167697 0.048219
0.067842 0.179660 0.049866
0.148104 0.203800 0.055238
0.317266 0.235569 0.055085
0.425452 0.231632 0.052827
0.499733 0.214969 0.051850
0.550622 0.191562 0.052735
0.549584 0.171084 0.052735
0.539147 0.149172 0.052247
0.526787 0.133181 0.051423
0.519341 0.117983 0.050935
0.527092 0.109865 0.050935
0.530297 0.103517 0.051087
0.532250 0.097200 0.051209
0.523003 0.087770 0.050996
0.515007 0.077241 0.050477
0.077394 0.216953 0.057282
0.095338 0.234104 0.056825
0.094667 0.244114 0.058808
0.115084 0.255955 0.063233
0.236789 0.290288 0.070558
0.410376 0.326207 0.071107
0.526802 0.324437 0.068666
0.603967 0.301091 0.062806
0.636805 0.265782 0.061585
0.652308 0.234730 0.060029
0.621866 0.197711 0.057130
0.608225 0.173831 0.055909
0.596994 0.159670 0.055421
0.601831 0.152071 0.055451
0.605646 0.145968 0.055482
0.602869 0.134463 0.055177
0.596490 0.122377 0.054688
0.143557 0.292363 0.065675
0.155856 0.303288 0.063050
0.143618 0.309361 0.064851
0.142275 0.315801 0.068757
0.203494 0.337285 0.074617
0.338125 0.373327 0.083467
0.507698 0.404303 0.085756
0.620005 0.402045 0.084993
0.681620 0.373632 0.078157
0.720180 0.342641 0.075288
0.730953 0.293996 0.069520
0.719905 0.258839 0.066285
0.711849 0.231830 0.063508
0.702739 0.215457 0.062013
0.699123 0.206577 0.061891
0.687678 0.189364 0.060670
0.679377 0.175265 0.060426
0.230579 0.369207 0.072145
0.237385 0.373632 0.069856
0.214817 0.374243 0.070924
0.195560 0.374701 0.073793
0.228122 0.388434 0.078096
0.320851 0.414588 0.085603
0.457481 0.449012 0.096681
0.603494 0.467964 0.103029
0.695262 0.461433 0.103792
0.753384 0.436027 0.096956
0.775265 0.395193 0.090181
0.790463 0.355062 0.082307
0.787503 0.323751 0.078828
0.790036 0.299336 0.075746
0.787594 0.282032 0.073518
0.779721 0.260105 0.071015
0.770260 0.237949 0.068391
0.330556 0.440436 0.078462
0.329915 0.440009 0.079103
0.305684 0.439948 0.079011
0.265248 0.432837 0.078767
0.276112 0.437751 0.081300
0.337942 0.455360 0.087861
0.449882 0.484443 0.098909
0.587686 0.516869 0.117800
0.691752 0.521752 0.122744
0.773617 0.514748 0.124422
0.807614 0.485618 0.114687
0.828428 0.452537 0.106325
0.840024 0.415488 0.096406
0.844633 0.386130 0.092531
0.843137 0.360739 0.088167
0.837919 0.332815 0.083894
0.824979 0.306691 0.080293
0.428458 0.501457 0.087587
0.422507 0.498482 0.088167
0.394308 0.495338 0.088808
0.349325 0.486427 0.087343
0.341848 0.485512 0.088106
0.379141 0.495155 0.094301
0.456077 0.515831 0.103243
0.570108 0.542687 0.119966
0.690105 0.570855 0.144045
0.780713 0.570672 0.150057
0.825772 0.554482 0.147250
0.853422 0.530648 0.138369
0.869566 0.499840 0.127993
0.879576 0.469383 0.115297
0.879484 0.441367 0.108705
0.876158 0.408438 0.099489
0.870451 0.376791 0.093812
0.523629 0.557061 0.097444
0.519600 0.554223 0.098573
0.494285 0.550530 0.099062
0.446494 0.540307 0.096132
0.418173 0.532403 0.095796
0.441108 0.537408 0.102785
0.499458 0.552483 0.113222
0.576837 0.572015 0.126040
0.680034 0.596674 0.149020
0.789654 0.619471 0.172824
0.838346 0.608087 0.173434
0.868772 0.592798 0.171328
0.888945 0.570123 0.160647
0.899229 0.543145 0.149081
0.904173 0.517235 0.139071
0.901823 0.482490 0.127779
0.898497 0.450004 0.118990
0.618814 0.603571 0.111971
0.612375 0.599451 0.111849
0.584329 0.593042 0.110506
0.535195 0.582147 0.107424
0.497230 0.572992 0.106935
0.506035 0.575494 0.114565
0.556207 0.588373 0.126436
0.619959 0.604608 0.140139
0.688884 0.621851 0.158694
0.777264 0.640436 0.179721
0.850736 0.653132 0.198795
0.881285 0.640955 0.199283
0.901701 0.625513 0.194583
0.916381 0.605310 0.184756
0.922362 0.581750 0.175906
0.924346 0.552148 0.161776
0.921996 0.518181 0.148714
0.704768 0.646174 0.127749
0.699123 0.641230 0.126162
0.675395 0.633631 0.123415
0.626719 0.622492 0.119814
0.584817 0.612696 0.119570
0.581262 0.612177 0.125887
0.610895 0.620386 0.139193
0.663508 0.633936 0.154025
0.722408 0.649592 0.171817
0.784009 0.666377 0.192416
0.851804 0.680262 0.212711
0.892363 0.682826 0.229191
0.911528 0.669398 0.227512
0.924041 0.653437 0.223392
0.930907 0.634546 0.216495
0.934051 0.607660 0.202548
0.935729 0.578393 0.188785
0.781003 0.684596 0.144656
0.774441 0.679622 0.142000
0.754421 0.671229 0.138247
0.713771 0.659480 0.133608
0.668788 0.648463 0.131441
0.651026 0.644495 0.136324
0.673426 0.651087 0.148379
0.707576 0.661402 0.164279
0.759793 0.675990 0.181552
0.808103 0.691035 0.203037
0.862821 0.707637 0.226139
0.894224 0.711666 0.245274
0.921386 0.709773 0.260105
0.932647 0.696162 0.259678
0.938872 0.681208 0.257359
0.942565 0.658869 0.245060
0.946410 0.633661 0.232425
0.842283 0.717159 0.162142
0.833646 0.711666 0.157290
0.818326 0.703120 0.152407
0.785367 0.691585 0.146792
0.743648 0.680323 0.143282
0.713771 0.673487 0.146151
0.720363 0.676295 0.155459
0.746548 0.685145 0.170993
0.783169 0.696498 0.187961
0.823606 0.710872 0.211643
0.871061 0.726131 0.234623
0.897856 0.739071 0.263828
0.923461 0.742000 0.283207
0.940185 0.736141 0.296880
0.946410 0.723598 0.296849
0.950439 0.705501 0.289067
0.953124 0.684077 0.277287
0.887999 0.744564 0.178500
0.876585 0.738033 0.172091
0.859586 0.727932 0.164950
0.837858 0.717891 0.159091
0.801175 0.706722 0.154635
0.770565 0.699275 0.155978
0.764309 0.698299 0.161440
0.777798 0.704219 0.174655
0.807797 0.714137 0.190433
0.836942 0.727474 0.216251
0.877653 0.742153 0.240940
0.901946 0.757046 0.275151
0.925505 0.767575 0.303288
0.941497 0.766598 0.322545
0.950072 0.757717 0.328313
0.954009 0.741207 0.321538
0.957092 0.722591 0.311376
0.914733 0.767727 0.197452
0.905333 0.759915 0.188693
0.889464 0.748684 0.179568
0.874540 0.740322 0.173709
0.849729 0.731807 0.170230
0.820096 0.723293 0.168673
0.806119 0.719997 0.171054
0.804013 0.721279 0.178592
0.820645 0.728023 0.192142
0.844358 0.739956 0.216861
0.875029 0.752651 0.241276
0.897948 0.767300 0.275578
0.919036 0.779507 0.306462
0.935912 0.787594 0.333654
0.944091 0.783505 0.343877
0.953735 0.772824 0.346349
0.957580 0.756222 0.338079
0.931945 0.786374 0.216739
0.926940 0.778866 0.207248
0.909667 0.766323 0.196658
0.898375 0.759640 0.190463
0.882902 0.753628 0.187625
0.864073 0.747433 0.185458
0.843992 0.741817 0.184421
0.836423 0.741085 0.188937
0.834195 0.742092 0.195743
0.853727 0.752346 0.218051
0.873533 0.762509 0.240970
0.896452 0.776242 0.273442
0.913848 0.787839 0.304509
0.930205 0.799222 0.336156
0.939391 0.800900 0.352972
0.948455 0.796384 0.360174
0.954803 0.782925 0.356603
0.028077 0.031067 0.045075
0.058991 0.034913 0.069154
0.093935 0.035615 0.072480
0.113771 0.037293 0.067567
0.120241 0.037659 0.058778
0.123079 0.037537 0.048707
0.126436 0.037018 0.045502
0.141054 0.037201 0.038453
0.152499 0.037232 0.037537
0.164706 0.037049 0.034424
0.176883 0.037293 0.035309
0.185000 0.037140 0.033875
0.194827 0.037079 0.033692
0.202274 0.037018 0.033356
0.208103 0.036957 0.033204
0.220829 0.036927 0.033112
0.235508 0.037079 0.033295
0.029786 0.081727 0.100679
0.059907 0.075380 0.085023
0.128511 0.063142 0.069154
0.172488 0.055421 0.056947
0.206149 0.050202 0.046143
0.232944 0.046448 0.040253
0.260777 0.045167 0.039368
0.296910 0.043061 0.039887
0.308354 0.043275 0.040742
0.317601 0.043275 0.041382
0.324895 0.042908 0.041016
0.324163 0.042115 0.040497
0.323003 0.041535 0.039857
0.311315 0.040833 0.038972
0.295872 0.039887 0.037232
0.286198 0.039277 0.036103
0.281132 0.038972 0.035554
0.031037 0.118898 0.081300
0.055818 0.120821 0.073365
0.125643 0.146029 0.066041
0.249516 0.146365 0.059052
0.331884 0.134981 0.050233
0.389471 0.119905 0.047425
0.433570 0.105837 0.047913
0.475196 0.090791 0.048188
0.489326 0.084047 0.048798
0.496834 0.075929 0.048951
0.493782 0.072206 0.048890
0.492897 0.068025 0.049165
0.488838 0.065187 0.049226
0.479683 0.063081 0.048859
0.468299 0.060060 0.048310
0.448951 0.055390 0.047456
0.422339 0.049287 0.046479
0.038422 0.165347 0.070558
0.079530 0.180728 0.074281
0.128389 0.205905 0.067384
0.216098 0.233646 0.064607
0.368353 0.241733 0.060182
0.456855 0.226047 0.055543
0.519371 0.204471 0.054292
0.559716 0.178866 0.053223
0.581811 0.158175 0.054475
0.593530 0.135348 0.055055
0.583032 0.126436 0.054353
0.581140 0.111513 0.053986
0.575280 0.105806 0.053529
0.568261 0.102571 0.053223
0.558984 0.100130 0.052827
0.547173 0.094820 0.052247
0.531334 0.085603 0.051392
0.056703 0.226474 0.069856
0.114382 0.248905 0.079713
0.165438 0.274693 0.071229
0.212558 0.295628 0.066011
0.324895 0.327367 0.068482
0.476097 0.337285 0.068116
0.572625 0.324529 0.067597
0.634058 0.297612 0.064912
0.660792 0.262669 0.063172
0.675898 0.228290 0.061341
0.665431 0.199298 0.060212
0.660700 0.174716 0.059022
0.643366 0.157656 0.057923
0.638727 0.151949 0.057496
0.628687 0.146853 0.056641
0.620325 0.142794 0.056123
0.610162 0.135134 0.055451
0.102876 0.302739 0.071717
0.160922 0.316991 0.084718
0.221561 0.342626 0.077119
0.255894 0.360571 0.069398
0.323720 0.381811 0.070039
0.442161 0.411200 0.079866
0.581369 0.420356 0.082734
0.671061 0.406104 0.083436
0.720882 0.375280 0.079774
0.743923 0.338674 0.076478
0.751308 0.295064 0.071351
0.745968 0.258686 0.068116
0.729152 0.227253 0.064454
0.715358 0.211154 0.063264
0.703426 0.202853 0.062165
0.694820 0.195224 0.061280
0.684199 0.188235 0.060700
0.179324 0.376043 0.076417
0.226535 0.385077 0.089845
0.292988 0.407996 0.086976
0.320363 0.423194 0.077180
0.361410 0.436774 0.075044
0.437675 0.454017 0.082368
0.556985 0.481819 0.096254
0.673136 0.481727 0.099763
0.752270 0.468879 0.100343
0.791257 0.436942 0.095857
0.806088 0.396475 0.090547
0.813107 0.355184 0.083680
0.798428 0.319448 0.078981
0.792309 0.292195 0.074830
0.783597 0.272999 0.071839
0.776638 0.259556 0.069947
0.768215 0.246250 0.068055
0.273579 0.444068 0.080385
0.297871 0.447883 0.092500
0.366995 0.468086 0.098665
0.395468 0.481880 0.088014
0.417624 0.488594 0.082033
0.461295 0.496529 0.086366
0.548257 0.514824 0.097658
0.658885 0.537652 0.114473
0.752178 0.534234 0.117189
0.818021 0.519966 0.117372
0.844266 0.486625 0.110475
0.856748 0.450309 0.103700
0.861082 0.411093 0.096681
0.856199 0.379904 0.091920
0.849729 0.354482 0.087495
0.840909 0.332601 0.083680
0.830930 0.314458 0.080781
0.370474 0.502708 0.088777
0.385550 0.504845 0.099489
0.443687 0.519982 0.107973
0.471794 0.531334 0.099855
0.483482 0.534295 0.092988
0.504768 0.535180 0.093660
0.546487 0.541131 0.099184
0.630961 0.557183 0.112184
0.742443 0.582391 0.135164
0.817868 0.574823 0.136660
0.861997 0.557504 0.133516
0.883970 0.531991 0.126864
0.895201 0.500343 0.119539
0.898466 0.468193 0.111421
0.896910 0.440269 0.106050
0.893309 0.413626 0.100923
0.886717 0.386801 0.095399
0.465995 0.555077 0.100008
0.470481 0.556054 0.109743
0.511711 0.565362 0.119539
0.537804 0.573480 0.113771
0.541314 0.573388 0.106203
0.557427 0.572778 0.105074
0.586755 0.575372 0.108675
0.625116 0.579950 0.115236
0.716014 0.599908 0.134646
0.813535 0.620478 0.154330
0.866484 0.609247 0.151522
0.893858 0.595728 0.148196
0.911864 0.573602 0.141482
0.917510 0.545708 0.134463
0.921660 0.519448 0.127443
0.919646 0.491783 0.121553
0.915007 0.464103 0.115267
0.553903 0.599512 0.117433
0.560403 0.601007 0.124666
0.587152 0.605310 0.131991
0.605341 0.608362 0.125612
0.599970 0.605585 0.118318
0.607141 0.604944 0.116396
0.636286 0.608118 0.120027
0.669337 0.612970 0.128328
0.716381 0.622187 0.140993
0.789273 0.635889 0.155673
0.871183 0.652399 0.174380
0.899199 0.643458 0.171847
0.918608 0.631373 0.168612
0.930266 0.613153 0.162692
0.935576 0.589532 0.155612
0.938079 0.564050 0.147768
0.935607 0.537041 0.139925
0.637232 0.640497 0.136660
0.646632 0.640681 0.136568
0.658717 0.640894 0.142031
0.668574 0.639887 0.135470
0.657282 0.635157 0.127993
0.656703 0.632776 0.125399
0.679866 0.636835 0.128603
0.710903 0.642481 0.137667
0.753292 0.652277 0.150515
0.798672 0.664149 0.165743
0.869413 0.679866 0.184665
0.904997 0.684230 0.193759
0.923430 0.675410 0.191348
0.933349 0.664332 0.189853
0.940093 0.646571 0.186892
0.943908 0.623804 0.180545
0.945037 0.599847 0.173312
0.713008 0.678737 0.157198
0.727138 0.677821 0.152865
0.732937 0.675959 0.155306
0.736843 0.672328 0.147921
0.721065 0.665522 0.139986
0.712428 0.661860 0.136507
0.731533 0.665095 0.138399
0.757809 0.672572 0.147951
0.796628 0.682643 0.160952
0.834684 0.695186 0.177646
0.879942 0.709102 0.198123
0.906737 0.714992 0.210636
0.930236 0.714107 0.222507
0.939025 0.705348 0.223239
0.944762 0.691890 0.225071
0.948852 0.673548 0.221439
0.950317 0.650935 0.213626
0.782925 0.714046 0.177768
0.798489 0.711269 0.167086
0.798825 0.707973 0.166140
0.800351 0.703731 0.159487
0.786496 0.696712 0.151614
0.773159 0.691341 0.146883
0.778012 0.691432 0.146609
0.799619 0.698054 0.155337
0.830961 0.708125 0.167849
0.862669 0.720394 0.184878
0.895323 0.733516 0.206699
0.915038 0.744900 0.229984
0.933013 0.747005 0.246891
0.944030 0.741329 0.256870
0.949523 0.730922 0.262333
0.953155 0.715969 0.263005
0.955016 0.696742 0.258213
0.843412 0.744564 0.194736
0.853391 0.740200 0.182284
0.849973 0.735958 0.179324
0.849210 0.731533 0.173526
0.840085 0.724636 0.164584
0.827420 0.718685 0.158541
0.823667 0.716030 0.156222
0.835386 0.720150 0.162081
0.860624 0.728511 0.172457
0.881376 0.739467 0.188327
0.907347 0.752102 0.210849
0.922789 0.764126 0.238560
0.936187 0.771145 0.266697
0.946014 0.769375 0.284825
0.950774 0.760678 0.296239
0.955291 0.747829 0.298009
0.958404 0.731472 0.294774
0.894072 0.770047 0.208286
0.894469 0.764920 0.198550
0.887633 0.759335 0.193179
0.883055 0.753597 0.186587
0.878599 0.748257 0.178256
0.870817 0.742153 0.170382
0.863615 0.738125 0.166873
0.865873 0.738949 0.168765
0.880919 0.744625 0.175875
0.898772 0.754452 0.190097
0.916045 0.765866 0.210819
0.929808 0.778134 0.239750
0.939818 0.788663 0.274968
0.947509 0.792111 0.303868
0.951782 0.786221 0.320104
0.955566 0.776028 0.326818
0.959716 0.760952 0.324468
0.927855 0.790158 0.219028
0.922576 0.786343 0.220066
0.913390 0.779049 0.210758
0.903899 0.771511 0.202914
0.900572 0.766598 0.194278
0.897002 0.761990 0.185794
0.890196 0.756893 0.180179
0.890806 0.756436 0.179110
0.893400 0.757626 0.181033
0.908660 0.766384 0.193637
0.921447 0.775814 0.210727
0.933684 0.787991 0.238743
0.942016 0.798642 0.272679
0.949462 0.807767 0.310582
0.953521 0.805264 0.332494
0.956695 0.797909 0.345464
0.959411 0.786435 0.348211
0.028321 0.028962 0.056306
0.046723 0.031464 0.086854
0.076448 0.033631 0.096986
0.101534 0.034455 0.104311
0.115785 0.035126 0.105562
0.124544 0.036225 0.100313
0.135622 0.036988 0.092836
0.152895 0.037903 0.088075
0.170260 0.037995 0.079286
0.185519 0.038514 0.072084
0.197055 0.038483 0.062928
0.207828 0.038361 0.053223
0.211429 0.037873 0.048219
0.218112 0.037995 0.038880
0.214054 0.037354 0.036713
0.220310 0.036988 0.034150
0.228244 0.036927 0.033295
0.030213 0.055787 0.111208
0.047486 0.044404 0.104372
0.120363 0.043122 0.116762
0.168307 0.040467 0.118441
0.205264 0.039094 0.116915
0.234440 0.039368 0.107240
0.257481 0.039918 0.095277
0.282170 0.040497 0.081819
0.292882 0.040681 0.072084
0.307073 0.041199 0.060578
0.314611 0.041108 0.054383
0.313634 0.040528 0.043244
0.311101 0.040223 0.041444
0.301610 0.039673 0.038727
0.293065 0.039399 0.037140
0.288365 0.039246 0.036225
0.285771 0.039185 0.035920
0.032502 0.139986 0.180545
0.038727 0.134401 0.165438
0.124361 0.125948 0.150118
0.233829 0.124758 0.134676
0.301396 0.113497 0.116426
0.348852 0.101534 0.099184
0.386969 0.088930 0.083803
0.417212 0.078340 0.072541
0.440742 0.069032 0.065400
0.459236 0.059602 0.056916
0.471565 0.056001 0.054871
0.473640 0.049836 0.049256
0.461494 0.048615 0.048219
0.450996 0.047883 0.047730
0.421942 0.045594 0.045411
0.394537 0.043977 0.043397
0.370275 0.042847 0.041749
0.033570 0.192416 0.174777
0.041535 0.188663 0.155703
0.135775 0.200473 0.148257
0.247288 0.231693 0.133608
0.366369 0.226169 0.117769
0.443091 0.211337 0.101625
0.496803 0.191623 0.087617
0.535149 0.170413 0.079469
0.558648 0.148287 0.073030
0.573999 0.122713 0.064485
0.584955 0.108370 0.061891
0.584527 0.085145 0.054353
0.579797 0.078187 0.053986
0.574639 0.069673 0.053346
0.567010 0.069306 0.053590
0.548272 0.068025 0.052583
0.529625 0.067323 0.051545
0.037079 0.238010 0.152499
0.059327 0.242557 0.144137
0.176638 0.272923 0.148104
0.256077 0.304631 0.130434
0.368933 0.334173 0.119783
0.487282 0.327306 0.107362
0.563165 0.310155 0.095125
0.616571 0.286961 0.088777
0.639918 0.255955 0.082063
0.656306 0.224475 0.073823
0.664210 0.193347 0.070497
0.663386 0.160769 0.061463
0.660029 0.137667 0.059510
0.657160 0.124208 0.058259
0.656947 0.116945 0.057984
0.648402 0.117037 0.057740
0.635554 0.117220 0.057099
0.050721 0.290623 0.134463
0.092622 0.307012 0.143069
0.217929 0.341405 0.152132
0.296269 0.370764 0.133089
0.376776 0.396826 0.119905
0.486748 0.421393 0.117372
0.591974 0.411933 0.108186
0.663844 0.394354 0.104067
0.707149 0.369726 0.099092
0.728939 0.336812 0.090486
0.739315 0.298329 0.082368
0.736538 0.255909 0.071412
0.733577 0.220569 0.067750
0.727474 0.193286 0.064607
0.727626 0.180697 0.063600
0.722499 0.174350 0.062898
0.716213 0.176333 0.062470
0.092348 0.354345 0.125490
0.136385 0.369238 0.141299
0.262089 0.403876 0.156710
0.347265 0.430488 0.139895
0.411582 0.453468 0.123903
0.498039 0.474434 0.118807
0.597848 0.493355 0.121798
0.689342 0.481849 0.119905
0.749249 0.462409 0.116762
0.784634 0.435508 0.110292
0.800046 0.400229 0.103639
0.804440 0.359121 0.089082
0.800778 0.319112 0.082979
0.792294 0.282002 0.075044
0.791592 0.255543 0.071504
0.786130 0.241489 0.069642
0.780331 0.234043 0.068544
0.160128 0.423316 0.126162
0.197971 0.432105 0.145327
0.310246 0.461372 0.163577
0.401099 0.484810 0.153017
0.452445 0.502342 0.134127
0.522774 0.521202 0.126711
0.606577 0.537804 0.127169
0.699016 0.552605 0.135927
0.768841 0.537194 0.133669
0.821622 0.518074 0.129335
0.844694 0.487968 0.122957
0.854154 0.452323 0.110506
0.855863 0.412528 0.100984
0.849271 0.372396 0.092226
0.844938 0.338735 0.085725
0.839139 0.312123 0.081392
0.830961 0.297581 0.078889
0.250675 0.482399 0.130861
0.278340 0.488869 0.151247
0.368093 0.511833 0.169894
0.453696 0.531609 0.166140
0.502083 0.545830 0.148226
0.558816 0.559564 0.138399
0.623423 0.572961 0.134951
0.699962 0.584436 0.141024
0.777813 0.593988 0.147433
0.835691 0.578836 0.144594
0.872435 0.560403 0.141970
0.891539 0.534981 0.132540
0.899199 0.502144 0.123964
0.898589 0.465019 0.112062
0.893248 0.427054 0.103944
0.886290 0.394125 0.097292
0.876768 0.361624 0.090669
0.343465 0.536187 0.142061
0.364950 0.541863 0.157107
0.429389 0.558129 0.176089
0.506004 0.574121 0.179507
0.551141 0.584802 0.161990
0.600000 0.595514 0.150973
0.655970 0.606256 0.145052
0.705623 0.612818 0.146639
0.777264 0.622705 0.152071
0.843381 0.629389 0.158053
0.887388 0.615869 0.156924
0.907652 0.599237 0.150790
0.921294 0.575891 0.144350
0.923125 0.543786 0.134218
0.924712 0.512459 0.125063
0.919066 0.477073 0.117037
0.910674 0.441917 0.109041
0.438682 0.583825 0.157382
0.461540 0.589960 0.166903
0.505653 0.601373 0.182620
0.565423 0.612757 0.189151
0.604486 0.619684 0.175418
0.637690 0.624933 0.162814
0.691279 0.635401 0.155489
0.732937 0.640955 0.156161
0.780606 0.648463 0.159091
0.829984 0.652094 0.162753
0.894133 0.659907 0.170596
0.915251 0.647883 0.165896
0.930266 0.635798 0.163027
0.939757 0.614710 0.155673
0.942351 0.585901 0.146853
0.941619 0.556237 0.138491
0.935943 0.521813 0.129732
0.536568 0.628229 0.170565
0.553384 0.632471 0.174380
0.579095 0.638819 0.187564
0.621668 0.646479 0.199557
0.651942 0.650324 0.186618
0.678309 0.653132 0.173587
0.715389 0.659083 0.161532
0.754665 0.664729 0.161929
0.798550 0.672053 0.164309
0.838376 0.680690 0.170748
0.897185 0.690211 0.179294
0.921874 0.690700 0.180423
0.935912 0.682857 0.179232
0.943450 0.670344 0.175296
0.948272 0.648554 0.167941
0.949432 0.622553 0.160098
0.948272 0.593896 0.151522
0.628580 0.668971 0.189151
0.644846 0.671809 0.188540
0.662745 0.675441 0.195438
0.688441 0.679774 0.206851
0.707179 0.680140 0.196933
0.722225 0.680018 0.182834
0.751064 0.683619 0.169528
0.781460 0.689113 0.169100
0.823941 0.697078 0.171237
0.859525 0.706538 0.178439
0.897490 0.717525 0.189242
0.920317 0.721035 0.193545
0.940185 0.721431 0.198459
0.946441 0.712795 0.196475
0.951080 0.696956 0.193210
0.952819 0.675563 0.186892
0.952422 0.650782 0.179141
0.715145 0.706172 0.207370
0.729915 0.707790 0.200778
0.741024 0.709316 0.201877
0.754696 0.711757 0.213016
0.767330 0.711269 0.204685
0.776211 0.709499 0.192172
0.788205 0.708095 0.177096
0.813382 0.712337 0.174746
0.845701 0.719142 0.175753
0.878447 0.728878 0.183352
0.907286 0.739162 0.193820
0.926452 0.748806 0.204532
0.940185 0.751492 0.213626
0.949401 0.748592 0.218723
0.953552 0.736538 0.217594
0.955200 0.719753 0.214755
0.955047 0.699367 0.209049
0.787320 0.739193 0.227970
0.800961 0.739376 0.216922
0.807858 0.739284 0.212528
0.813230 0.739651 0.215579
0.822171 0.739345 0.211154
0.828702 0.736996 0.198947
0.832486 0.733486 0.184939
0.845853 0.734524 0.180514
0.870420 0.739284 0.180148
0.893095 0.747280 0.187472
0.917174 0.756680 0.197604
0.931792 0.765866 0.210391
0.942443 0.771420 0.225467
0.950317 0.771176 0.235538
0.954131 0.764401 0.246555
0.956664 0.750973 0.248692
0.957519 0.734462 0.248661
0.849790 0.769100 0.249363
0.857328 0.767086 0.235599
0.859556 0.765682 0.230564
0.861418 0.764279 0.228244
0.866148 0.762966 0.221408
0.870329 0.760800 0.211002
0.870512 0.756405 0.197330
0.876036 0.754879 0.189792
0.890379 0.756863 0.187381
0.908934 0.763333 0.193484
0.925078 0.771023 0.202182
0.937469 0.779904 0.215427
0.945190 0.786801 0.233463
0.951690 0.788876 0.248356
0.955505 0.784146 0.265324
0.958068 0.776516 0.276982
0.959472 0.762814 0.281163
0.897734 0.794095 0.269444
0.898253 0.790982 0.259617
0.895567 0.788632 0.255863
0.895354 0.785458 0.248295
0.898222 0.783322 0.239231
0.899901 0.780636 0.228183
0.898894 0.776120 0.213474
0.902373 0.773678 0.202640
0.906889 0.772122 0.195163
0.921477 0.777157 0.200046
0.932708 0.782681 0.205692
0.941649 0.790829 0.218448
0.948089 0.797482 0.235782
0.953460 0.801785 0.254276
0.957305 0.799466 0.278111
0.959503 0.793454 0.295354
0.961303 0.785550 0.308873
0.027985 0.028412 0.060212
0.039551 0.030823 0.096712
0.061891 0.032563 0.108003
0.081880 0.033295 0.110994
0.098756 0.033753 0.116457
0.112093 0.034180 0.118502
0.126375 0.034913 0.118471
0.143069 0.035615 0.119173
0.160922 0.036500 0.115785
0.176547 0.037415 0.112795
0.191073 0.037873 0.106142
0.203738 0.038392 0.099001
0.217472 0.038727 0.087160
