LUT color transfer/LUTs/35.cube
# (C) 2014 VisionColor & Patchflyer [www.vision-color.com]
# Generator: VC Patchmatch v.2.1.1 [64/53]
# All work and no play makes Jack a dull boy.
# LUT generated from: Kodak Vision3 200T 5213 (NEG)_FPE
LUT_3D_SIZE 9
0.034607 0.038911 0.039490
0.056672 0.033631 0.031067
0.090639 0.034211 0.028656
0.115877 0.036042 0.029664
0.147738 0.037079 0.031739
0.174166 0.037201 0.032990
0.197879 0.037110 0.033295
0.219455 0.036896 0.033082
0.252567 0.037720 0.033967
0.036133 0.104616 0.040467
0.079469 0.125917 0.042451
0.305760 0.133639 0.040925
0.405066 0.115236 0.044984
0.428443 0.098756 0.046143
0.439399 0.083223 0.046326
0.451423 0.071473 0.047150
0.445716 0.060060 0.047028
0.421851 0.048188 0.046479
0.077394 0.216953 0.057282
0.094667 0.244114 0.058808
0.236789 0.290288 0.070558
0.526802 0.324437 0.068666
0.636805 0.265782 0.061585
0.621866 0.197711 0.057130
0.596994 0.159670 0.055421
0.605646 0.145968 0.055482
0.596490 0.122377 0.054688
0.230579 0.369207 0.072145
0.214817 0.374243 0.070924
0.228122 0.388434 0.078096
0.457481 0.449012 0.096681
0.695262 0.461433 0.103792
0.775265 0.395193 0.090181
0.787503 0.323751 0.078828
0.787594 0.282032 0.073518
0.770260 0.237949 0.068391
0.428458 0.501457 0.087587
0.394308 0.495338 0.088808
0.341848 0.485512 0.088106
0.456077 0.515831 0.103243
0.690105 0.570855 0.144045
0.825772 0.554482 0.147250
0.869566 0.499840 0.127993
0.879484 0.441367 0.108705
0.870451 0.376791 0.093812
0.618814 0.603571 0.111971
0.584329 0.593042 0.110506
0.497230 0.572992 0.106935
0.556207 0.588373 0.126436
0.688884 0.621851 0.158694
0.850736 0.653132 0.198795
0.901701 0.625513 0.194583
0.922362 0.581750 0.175906
0.921996 0.518181 0.148714
0.781003 0.684596 0.144656
0.754421 0.671229 0.138247
0.668788 0.648463 0.131441
0.673426 0.651087 0.148379
0.759793 0.675990 0.181552
0.862821 0.707637 0.226139
0.921386 0.709773 0.260105
0.938872 0.681208 0.257359
0.946410 0.633661 0.232425
0.887999 0.744564 0.178500
0.859586 0.727932 0.164950
0.801175 0.706722 0.154635
0.764309 0.698299 0.161440
0.807797 0.714137 0.190433
0.877653 0.742153 0.240940
0.925505 0.767575 0.303288
0.950072 0.757717 0.328313
0.957092 0.722591 0.311376
0.931945 0.786374 0.216739
0.909667 0.766323 0.196658
0.882902 0.753628 0.187625
0.843992 0.741817 0.184421
0.834195 0.742092 0.195743
0.873533 0.762509 0.240970
0.913848 0.787839 0.304509
0.939391 0.800900 0.352972
0.954803 0.782925 0.356603
0.028321 0.028962 0.056306
0.076448 0.033631 0.096986
0.115785 0.035126 0.105562
0.135622 0.036988 0.092836
0.170260 0.037995 0.079286
0.197055 0.038483 0.062928
0.211429 0.037873 0.048219
0.214054 0.037354 0.036713
0.228244 0.036927 0.033295
0.032502 0.139986 0.180545
0.124361 0.125948 0.150118
0.301396 0.113497 0.116426
0.386969 0.088930 0.083803
0.440742 0.069032 0.065400
0.471565 0.056001 0.054871
0.461494 0.048615 0.048219
0.421942 0.045594 0.045411
0.370275 0.042847 0.041749
0.037079 0.238010 0.152499
0.176638 0.272923 0.148104
0.368933 0.334173 0.119783
0.563165 0.310155 0.095125
0.639918 0.255955 0.082063
0.664210 0.193347 0.070497
0.660029 0.137667 0.059510
0.656947 0.116945 0.057984
0.635554 0.117220 0.057099
0.092348 0.354345 0.125490
0.262089 0.403876 0.156710
0.411582 0.453468 0.123903
0.597848 0.493355 0.121798
0.749249 0.462409 0.116762
0.800046 0.400229 0.103639
0.800778 0.319112 0.082979
0.791592 0.255543 0.071504
0.780331 0.234043 0.068544
0.250675 0.482399 0.130861
0.368093 0.511833 0.169894
0.502083 0.545830 0.148226
0.623423 0.572961 0.134951
0.777813 0.593988 0.147433
0.872435 0.560403 0.141970
0.899199 0.502144 0.123964
0.893248 0.427054 0.103944
0.876768 0.361624 0.090669
0.438682 0.583825 0.157382
0.505653 0.601373 0.182620
0.604486 0.619684 0.175418
0.691279 0.635401 0.155489
0.780606 0.648463 0.159091
0.894133 0.659907 0.170596
0.930266 0.635798 0.163027
0.942351 0.585901 0.146853
0.935943 0.521813 0.129732
0.628580 0.668971 0.189151
0.662745 0.675441 0.195438
0.707179 0.680140 0.196933
0.751064 0.683619 0.169528
0.823941 0.697078 0.171237
0.897490 0.717525 0.189242
0.940185 0.721431 0.198459
0.951080 0.696956 0.193210
0.952422 0.650782 0.179141
0.787320 0.739193 0.227970
0.807858 0.739284 0.212528
0.822171 0.739345 0.211154
0.832486 0.733486 0.184939
0.870420 0.739284 0.180148
0.917174 0.756680 0.197604
0.942443 0.771420 0.225467
0.954131 0.764401 0.246555
0.957519 0.734462 0.248661
0.897734 0.794095 0.269444
0.895567 0.788632 0.255863
0.898222 0.783322 0.239231
0.898894 0.776120 0.213474
0.906889 0.772122 0.195163
0.932708 0.782681 0.205692
0.948089 0.797482 0.235782
0.957305 0.799466 0.278111
0.961303 0.785550 0.308873
0.028199 0.028351 0.066529
0.048707 0.031708 0.109926
0.083345 0.032929 0.118898
0.111299 0.033661 0.126497
0.146975 0.034943 0.131167
0.178317 0.036652 0.129061
0.202945 0.038117 0.119509
0.226200 0.038941 0.091463
0.252110 0.038514 0.047883
0.036835 0.103517 0.238468
0.058534 0.095003 0.211276
0.246311 0.062348 0.217594
0.340826 0.048615 0.208988
0.399023 0.053681 0.194095
0.423346 0.049226 0.166812
0.426001 0.046632 0.122713
0.400519 0.044373 0.073426
0.376226 0.043366 0.047608
0.042725 0.288212 0.360998
0.079347 0.300816 0.335668
0.330755 0.302983 0.314305
0.502617 0.284062 0.275303
0.580957 0.243870 0.235080
0.608911 0.187945 0.191333
0.602899 0.119738 0.129824
0.579065 0.070161 0.071077
0.568689 0.056184 0.053986
0.048341 0.380957 0.336583
0.117830 0.407141 0.321263
0.378576 0.438819 0.317571
0.549645 0.482399 0.300908
0.697444 0.459358 0.267826
0.760311 0.413565 0.233967
0.764981 0.328359 0.177783
0.742580 0.231434 0.112886
0.734035 0.179965 0.072297
0.086213 0.462745 0.315618
0.199893 0.493507 0.307378
0.430518 0.538293 0.318639
0.593118 0.578973 0.303227
0.738018 0.608057 0.289769
0.839475 0.581003 0.266255
0.874723 0.528572 0.230213
0.866270 0.436606 0.168505
0.843565 0.342824 0.108156
0.192187 0.545861 0.313085
0.323690 0.575006 0.303166
0.505821 0.618433 0.323644
0.648951 0.651209 0.316655
0.773678 0.681178 0.303380
0.873045 0.690455 0.288273
0.919005 0.659815 0.267308
0.934142 0.603815 0.221012
0.925353 0.517571 0.160220
0.417868 0.640009 0.316533
0.495140 0.656550 0.311315
0.602899 0.684352 0.331945
0.704677 0.706813 0.335058
0.797330 0.727810 0.320562
0.885924 0.748592 0.314611
0.934722 0.744289 0.291417
0.953277 0.710536 0.256138
0.952239 0.653986 0.205936
0.642680 0.721584 0.324102
0.676020 0.728817 0.317082
0.723079 0.743069 0.334081
0.776852 0.756374 0.347692
0.834714 0.768673 0.336553
0.895537 0.783688 0.330327
0.939757 0.794461 0.320195
0.956939 0.778775 0.278172
0.957702 0.737728 0.236301
0.808408 0.785977 0.359442
0.825895 0.786801 0.339788
0.838956 0.791043 0.342718
0.861021 0.795529 0.341436
0.881865 0.797574 0.321477
0.913054 0.804105 0.303990
0.944793 0.814359 0.297826
0.959503 0.806638 0.278782
0.960174 0.787533 0.265415
0.029267 0.029328 0.084688
0.039063 0.030732 0.120821
0.068116 0.032105 0.134279
0.089815 0.032074 0.138552
0.116274 0.032654 0.146304
0.148562 0.033845 0.152102
0.173312 0.035340 0.148440
0.201877 0.037507 0.133120
0.253178 0.039490 0.089662
0.037995 0.083650 0.265415
0.042817 0.069886 0.260471
0.184421 0.052033 0.271214
0.279576 0.038758 0.261509
0.340734 0.043427 0.258305
0.373297 0.044343 0.240208
0.378851 0.044526 0.206088
0.367315 0.044678 0.152407
0.372992 0.044099 0.093751
0.046998 0.270573 0.434485
0.055726 0.265507 0.408362
0.192355 0.274876 0.390539
0.423651 0.266636 0.380468
0.525353 0.237339 0.354559
0.574517 0.187915 0.317494
0.584680 0.121233 0.258778
0.567987 0.067689 0.173693
0.550225 0.052918 0.082948
0.053437 0.418982 0.503410
0.090150 0.442420 0.489021
0.281712 0.469215 0.467262
0.498054 0.466346 0.456580
0.635523 0.445838 0.418982
0.695949 0.401816 0.378225
0.719417 0.329122 0.322011
0.707057 0.231434 0.234272
0.690272 0.157794 0.136248
0.066224 0.485664 0.487556
0.133608 0.523064 0.474159
0.308415 0.546685 0.451484
0.531151 0.569238 0.458045
0.671382 0.600580 0.456336
0.789731 0.588754 0.432425
0.837613 0.544198 0.392966
0.841276 0.453452 0.316732
0.825711 0.357504 0.221698
0.108064 0.552239 0.473060
0.201541 0.576959 0.437446
0.363287 0.602869 0.429053
0.563531 0.641657 0.450660
0.709041 0.675532 0.457313
0.817212 0.697261 0.449683
0.892058 0.678706 0.428687
0.916808 0.627985 0.375097
0.914183 0.543725 0.292271
0.245624 0.625757 0.450355
0.338277 0.633783 0.415381
0.465736 0.661189 0.420020
0.614893 0.699641 0.448493
0.739467 0.729702 0.463661
0.840055 0.754330 0.462776
0.909545 0.759091 0.443275
0.947417 0.731197 0.404242
0.952697 0.681788 0.342016
0.492973 0.699794 0.430152
0.541726 0.710414 0.419867
0.606256 0.726955 0.424872
0.698177 0.753658 0.450996
0.784512 0.775387 0.467933
0.858030 0.793301 0.469245
0.923217 0.806363 0.462196
0.954498 0.791684 0.412207
0.961852 0.754055 0.354284
0.713527 0.774075 0.435126
0.728817 0.775784 0.420630
0.749874 0.782132 0.424048
0.794308 0.796017 0.441871
0.838437 0.807370 0.451026
0.876371 0.815030 0.443946
0.925811 0.825315 0.433021
0.958190 0.820951 0.394720
0.963592 0.799527 0.348272
0.030457 0.030457 0.106477
0.037812 0.031617 0.145724
0.063264 0.033112 0.158907
0.085176 0.033082 0.163973
0.094514 0.032532 0.160006
0.115724 0.032593 0.166323
0.142245 0.032959 0.168856
0.177981 0.035126 0.162020
0.240146 0.039094 0.132265
0.038972 0.068177 0.273136
0.039704 0.056367 0.289403
0.129397 0.054505 0.310094
0.230625 0.043977 0.305577
0.256321 0.038788 0.271977
0.312810 0.040375 0.274571
0.327703 0.041413 0.243961
0.324712 0.042695 0.199557
0.361669 0.044617 0.158755
0.048371 0.250828 0.477119
0.049134 0.243168 0.459449
0.123079 0.255436 0.442329
0.327886 0.245731 0.433265
0.452064 0.212985 0.422370
0.534691 0.180713 0.408835
0.562524 0.121294 0.362814
0.558679 0.068421 0.288106
0.554528 0.052918 0.183459
0.055207 0.398016 0.562615
0.070161 0.411200 0.544396
0.165377 0.433143 0.530663
0.377050 0.443122 0.518303
0.562249 0.441047 0.509941
0.648585 0.410605 0.484367
0.688563 0.348684 0.441245
0.697902 0.256641 0.364828
0.692683 0.167224 0.249683
0.069429 0.505333 0.605280
0.118959 0.543511 0.592859
0.263066 0.578332 0.582086
0.466194 0.593317 0.574151
0.623835 0.591943 0.571649
0.726375 0.573922 0.542824
0.775937 0.532601 0.503334
0.795712 0.457603 0.436790
0.799252 0.366873 0.339010
0.089876 0.562463 0.585382
0.162875 0.601770 0.570169
0.293339 0.627161 0.557900
0.464668 0.644526 0.552987
0.646448 0.667292 0.569329
0.764599 0.694667 0.577722
0.851133 0.682429 0.555413
0.888548 0.640955 0.511101
0.893828 0.568414 0.436194
0.166064 0.630488 0.565148
0.249317 0.650294 0.541100
0.358526 0.662257 0.522301
0.499153 0.683680 0.528588
0.663630 0.720607 0.557610
0.790112 0.751461 0.576654
0.874968 0.765713 0.568536
0.929442 0.747860 0.539239
0.946654 0.707942 0.488167
0.357961 0.694453 0.537011
0.413748 0.708553 0.544396
0.482918 0.707790 0.504601
0.583734 0.731441 0.518639
0.702846 0.765072 0.548363
0.811475 0.792050 0.568811
0.893614 0.810666 0.569482
0.944396 0.804074 0.539467
0.961975 0.780697 0.498955
0.603647 0.755001 0.507713
0.609186 0.756313 0.508049
0.640192 0.764248 0.503685
0.690547 0.779812 0.513359
0.763272 0.802029 0.531762
0.831693 0.818662 0.545861
0.891661 0.829343 0.543053
0.946960 0.831449 0.520500
0.966369 0.818296 0.489921
0.031434 0.031434 0.124880
0.036530 0.033051 0.161257
0.058228 0.034638 0.181338
0.079988 0.035126 0.188846
0.091768 0.034821 0.188846
0.093263 0.034058 0.180789
0.111727 0.033539 0.184054
0.147189 0.033722 0.184787
0.222110 0.037568 0.178744
0.039307 0.066194 0.281041
0.040253 0.052583 0.305882
0.098268 0.049531 0.326390
0.187655 0.043763 0.333471
0.233066 0.041291 0.318090
0.233921 0.039063 0.281193
0.267674 0.038758 0.272068
0.289982 0.039643 0.247074
0.349493 0.043671 0.222721
0.048280 0.229160 0.484138
0.049683 0.222812 0.486946
0.084352 0.234928 0.474922
0.246601 0.225650 0.464393
0.379843 0.201114 0.465644
0.445563 0.146777 0.446571
0.517113 0.118486 0.436225
0.546746 0.071839 0.393347
0.556176 0.053712 0.301213
0.054688 0.364782 0.583825
0.060243 0.384634 0.575769
0.107973 0.405356 0.568597
0.287892 0.426719 0.561852
0.467765 0.413657 0.547112
0.572412 0.392630 0.541955
0.645075 0.359426 0.528344
0.678889 0.281300 0.478523
0.696956 0.185657 0.385260
0.064881 0.475578 0.637385
0.088411 0.510353 0.630274
0.165301 0.542214 0.623804
0.350118 0.571328 0.624170
0.539803 0.575082 0.615228
0.656428 0.568856 0.608057
0.730251 0.547280 0.593469
0.766171 0.489128 0.550469
0.790249 0.404990 0.474098
0.089082 0.571405 0.671687
0.154299 0.617456 0.663996
0.273106 0.648585 0.659815
0.440635 0.670954 0.658106
0.605753 0.683253 0.660883
0.721065 0.686671 0.663966
0.801114 0.671656 0.643000
0.841062 0.636896 0.608026
0.855772 0.576333 0.544930
0.133913 0.634852 0.656153
0.201785 0.658869 0.638575
0.304173 0.681239 0.631922
0.442344 0.703334 0.633753
0.593454 0.722469 0.641505
0.735714 0.742611 0.658045
0.835538 0.764462 0.667353
0.896391 0.751797 0.646540
0.918883 0.721431 0.609583
0.255314 0.694728 0.633997
0.315007 0.710475 0.631281
0.388251 0.715694 0.605158
0.491447 0.732326 0.606806
0.607340 0.751034 0.616510
0.738155 0.780453 0.640101
0.853269 0.808255 0.661128
0.918639 0.813352 0.648096
0.946624 0.799893 0.625299
0.468330 0.746609 0.601892
0.486824 0.749569 0.600855
0.525048 0.750820 0.585077
0.580163 0.760861 0.584863
0.651225 0.779263 0.590570
0.744625 0.806546 0.608667
0.848478 0.831235 0.629358
0.923766 0.844877 0.626215
0.960418 0.840940 0.611078
0.032380 0.032380 0.143099
0.034730 0.033478 0.172152
0.056519 0.035126 0.204685
0.078462 0.036713 0.214694
0.091310 0.036988 0.216861
0.093812 0.036652 0.212070
0.087434 0.035920 0.200687
0.112917 0.035157 0.201785
0.190951 0.036011 0.217166
0.039857 0.070039 0.293614
0.040040 0.048798 0.314061
0.066926 0.043336 0.339635
0.153079 0.042542 0.359716
0.204715 0.042664 0.354192
0.221225 0.042084 0.326482
0.209415 0.040223 0.287785
0.241093 0.039704 0.278325
0.332341 0.041199 0.277501
0.047913 0.213779 0.466896
0.049165 0.207370 0.497566
0.056489 0.211246 0.492012
0.162432 0.209689 0.485786
0.300587 0.189822 0.490242
0.383490 0.148363 0.481575
0.419440 0.098314 0.455024
0.490791 0.070008 0.444709
0.550256 0.053895 0.406226
0.055299 0.348608 0.596826
0.055970 0.358984 0.593225
0.072450 0.378164 0.589715
0.196735 0.412711 0.593225
0.371054 0.394629 0.574151
0.497719 0.380606 0.575158
0.558038 0.338613 0.562432
0.630793 0.297902 0.550011
0.692012 0.211383 0.498756
0.062074 0.447425 0.653986
0.072206 0.483055 0.652033
0.118273 0.516884 0.650111
0.269612 0.549813 0.653529
0.466331 0.564309 0.651759
0.585351 0.550851 0.637842
0.653773 0.533700 0.633814
0.720821 0.508309 0.626642
0.771908 0.443626 0.583764
0.077760 0.540978 0.690852
0.116945 0.586938 0.688228
0.201328 0.620508 0.689387
0.356390 0.651240 0.694362
0.532113 0.669215 0.699611
0.662928 0.673793 0.698543
0.732418 0.666773 0.692348
0.794522 0.654353 0.684474
0.831846 0.611948 0.648615
0.126925 0.637568 0.719203
0.195041 0.669276 0.712520
0.301701 0.698268 0.714199
0.440833 0.724575 0.720211
0.584665 0.742428 0.728206
0.706203 0.753506 0.734768
0.798276 0.757412 0.737697
0.856077 0.742672 0.719875
0.883024 0.719387 0.695735
0.211337 0.696284 0.711116
0.253178 0.706416 0.695155
0.328801 0.723476 0.691249
0.445350 0.747097 0.697719
0.571328 0.767971 0.709895
0.685237 0.781796 0.715358
0.796872 0.797421 0.724880
0.885191 0.813352 0.735042
0.917632 0.802670 0.723415
0.350988 0.745510 0.688472
0.384710 0.750698 0.680781
0.436164 0.758907 0.675654
0.508354 0.772396 0.678950
0.588800 0.785885 0.680110
0.669825 0.796780 0.678004
0.781155 0.820676 0.693812
0.888151 0.846128 0.717006
0.937255 0.851987 0.716640
0.033204 0.033204 0.159762
0.033265 0.033204 0.179080
0.050050 0.034546 0.221836
0.077211 0.037049 0.239567
0.092409 0.038270 0.244663
0.096559 0.038270 0.242222
0.093446 0.037934 0.234653
0.085756 0.037110 0.218204
0.143496 0.036957 0.230716
0.041077 0.081270 0.317815
0.039704 0.050202 0.311986
0.046052 0.042664 0.344091
0.101106 0.043305 0.375830
0.167575 0.044068 0.379339
0.202945 0.043122 0.359747
0.208042 0.042084 0.328984
0.204776 0.041199 0.300481
0.300664 0.041352 0.311650
0.047486 0.214664 0.467872
0.048707 0.196689 0.485878
0.050050 0.182956 0.495705
0.084840 0.193759 0.496010
0.206714 0.185855 0.499580
0.315618 0.157580 0.503563
0.373602 0.108873 0.486427
0.398688 0.065705 0.457557
0.514519 0.052949 0.458839
0.054780 0.340520 0.599725
0.055116 0.332555 0.598260
0.057740 0.343160 0.595300
0.133928 0.389364 0.606836
0.281758 0.392950 0.600641
0.417243 0.376913 0.596368
0.504112 0.349844 0.594842
0.543938 0.296468 0.576562
0.654444 0.246632 0.568170
0.061830 0.435035 0.668330
0.066285 0.460288 0.664302
0.100481 0.494774 0.664942
0.220447 0.533120 0.672053
0.413169 0.559823 0.677363
0.528069 0.546609 0.664118
0.604425 0.533425 0.660975
0.644190 0.505013 0.651240
0.730526 0.477317 0.647822
0.073610 0.521385 0.703731
0.106447 0.572961 0.705074
0.200504 0.613886 0.711269
0.340734 0.643397 0.719417
0.502251 0.662043 0.724971
0.632151 0.670405 0.724849
0.693324 0.661799 0.716854
0.729519 0.649989 0.711666
0.794308 0.637995 0.708644
0.115908 0.617792 0.732723
0.173190 0.653864 0.730495
0.284550 0.688380 0.738796
0.419532 0.714900 0.748623
0.556359 0.732723 0.756222
0.674372 0.744259 0.762081
0.764431 0.749081 0.764340
0.803677 0.744808 0.760586
0.849790 0.737850 0.754238
0.210758 0.700740 0.753964
0.259434 0.717769 0.749996
0.352605 0.740932 0.754421
0.480262 0.766995 0.766964
0.595178 0.784482 0.777340
0.696651 0.796933 0.786130
0.778164 0.808804 0.795590
0.858183 0.810056 0.794522
0.890898 0.800320 0.783841
0.303593 0.745937 0.743954
0.338750 0.754452 0.744289
0.399207 0.766995 0.745968
0.498085 0.787930 0.757931
0.589105 0.804379 0.765927
0.666438 0.814542 0.767666
0.749630 0.825193 0.769162
0.844785 0.838224 0.778744
0.908660 0.850675 0.795804
0.033783 0.033783 0.172183
0.033936 0.033936 0.183932
0.042573 0.034607 0.230838
0.070985 0.037110 0.259617
0.093019 0.038636 0.270359
0.101595 0.038972 0.271122
0.106935 0.039002 0.268772
0.128939 0.039246 0.271153
0.139193 0.038849 0.256596
0.041627 0.084169 0.331731
0.040711 0.060700 0.333745
0.042298 0.047425 0.353124
0.059846 0.049378 0.380102
0.122438 0.048768 0.393591
0.179690 0.045594 0.390082
0.208133 0.043702 0.372229
0.223606 0.043030 0.352117
0.280430 0.042908 0.343053
0.047272 0.214847 0.467933
0.048371 0.188815 0.476539
0.049409 0.165713 0.495979
0.056611 0.183749 0.504509
0.128191 0.196292 0.511315
0.253880 0.182605 0.522118
0.342901 0.144427 0.518578
0.383398 0.090852 0.496590
0.465614 0.055970 0.486793
0.054139 0.332311 0.593713
0.055177 0.313970 0.594385
0.055177 0.310811 0.590021
0.112383 0.369497 0.609644
0.235187 0.398245 0.619776
0.364294 0.390707 0.615412
0.466316 0.373587 0.618799
0.524437 0.338857 0.611292
0.587488 0.283742 0.598230
0.061646 0.427863 0.676661
0.065949 0.442283 0.671504
0.078996 0.468315 0.669764
0.193835 0.517372 0.679927
0.396902 0.559579 0.693049
0.506676 0.556435 0.686641
0.576806 0.543557 0.681605
0.623835 0.529427 0.679438
0.672297 0.499992 0.672938
0.075593 0.519982 0.715938
0.120638 0.573632 0.722469
0.210330 0.615503 0.728573
0.349096 0.642329 0.735317
0.512505 0.663691 0.742123
0.629740 0.676265 0.743679
0.677333 0.669642 0.736904
0.715175 0.663172 0.734524
0.746975 0.648249 0.729671
0.128054 0.624048 0.748318
0.194553 0.660151 0.752163
0.363684 0.708156 0.766018
0.477913 0.722499 0.771115
0.586938 0.734127 0.776364
0.682521 0.743282 0.781125
0.757778 0.751217 0.783413
0.791043 0.749508 0.779263
0.817319 0.746090 0.777035
0.228397 0.703365 0.770169
0.264683 0.716243 0.770352
0.394659 0.748592 0.780575
0.528283 0.770932 0.792691
0.618830 0.782040 0.799344
0.702907 0.791867 0.806577
0.779446 0.798795 0.810330
0.842954 0.806119 0.812497
0.867033 0.809323 0.811246
0.306950 0.753689 0.782376
0.378027 0.771115 0.789425
0.453803 0.786282 0.795804
0.563256 0.807095 0.809079
0.641749 0.819547 0.816739
0.703426 0.827604 0.822019
0.775296 0.836301 0.827543
0.847532 0.847593 0.836698
0.900450 0.856016 0.846220
