LUT color transfer/LUTs/37.cube
# (C) 2014 VisionColor & Patchflyer [www.vision-color.com]
# Generator: VC Patchmatch v.2.1.1 [64/53]
# All work and no play makes Jack a dull boy.
# LUT generated from: Kodak Vision3 250D 5207 (NEG)_FC
LUT_3D_SIZE 17
0.023072 0.025788 0.023560
0.112825 0.024872 0.019593
0.203464 0.030304 0.016876
0.256535 0.029999 0.017060
0.284886 0.026978 0.017151
0.297673 0.024048 0.016449
0.304295 0.023926 0.015900
0.320043 0.025940 0.015351
0.332067 0.025544 0.013886
0.359899 0.026032 0.012726
0.388983 0.022004 0.011322
0.425116 0.019043 0.010590
0.465431 0.015839 0.010010
0.505119 0.014435 0.009339
0.536339 0.011810 0.009308
0.578546 0.011109 0.008942
0.623926 0.010224 0.008728
0.027680 0.060029 0.022126
0.085573 0.062440 0.017304
0.194797 0.065827 0.013092
0.312627 0.076387 0.012757
0.409857 0.081727 0.012970
0.472053 0.076905 0.011780
0.479164 0.070863 0.010956
0.490913 0.066835 0.010498
0.494636 0.066224 0.009064
0.512535 0.063478 0.007935
0.537804 0.059602 0.006561
0.571130 0.051728 0.006195
0.609735 0.042939 0.006287
0.643641 0.034882 0.006561
0.668177 0.024506 0.006775
0.692805 0.018769 0.007172
0.716793 0.012024 0.007721
0.035889 0.130831 0.019898
0.068452 0.132265 0.017823
0.145480 0.130983 0.021393
0.259220 0.139193 0.023529
0.379767 0.145815 0.021515
0.465858 0.142275 0.017945
0.508782 0.131350 0.014343
0.534447 0.123262 0.012146
0.562188 0.117830 0.010559
0.594232 0.110262 0.008606
0.625818 0.103609 0.006653
0.667140 0.094362 0.005859
0.696468 0.083619 0.005585
0.731533 0.073610 0.005493
0.749905 0.059632 0.005493
0.768490 0.046601 0.005768
0.788815 0.031983 0.005798
0.063935 0.199405 0.026398
0.085695 0.204288 0.025544
0.120577 0.213321 0.029969
0.207431 0.205722 0.038361
0.332555 0.213565 0.038636
0.443763 0.207919 0.032441
0.515892 0.192966 0.024994
0.569818 0.179049 0.017945
0.607813 0.167269 0.014008
0.643824 0.156649 0.010040
0.681910 0.143740 0.007233
0.721462 0.132082 0.005707
0.760220 0.123323 0.005310
0.795438 0.115358 0.005280
0.819638 0.107210 0.005127
0.831144 0.091798 0.005188
0.836545 0.076478 0.005249
0.108736 0.257084 0.037110
0.125673 0.266972 0.034821
0.145113 0.277134 0.038392
0.178195 0.278080 0.043977
0.261204 0.271641 0.051667
0.384436 0.271855 0.049531
0.486732 0.260197 0.041596
0.578424 0.245701 0.031922
0.639261 0.225467 0.023468
0.698604 0.210056 0.015198
0.734066 0.186526 0.009705
0.771206 0.172000 0.006500
0.801114 0.163668 0.005463
0.834653 0.157992 0.005249
0.858244 0.153567 0.005127
0.876005 0.140688 0.005127
0.883513 0.126101 0.005097
0.167849 0.313329 0.044678
0.175845 0.323674 0.039918
0.186892 0.331029 0.043519
0.198703 0.334783 0.048371
0.241032 0.335119 0.053956
0.319341 0.330083 0.059785
0.440101 0.326116 0.055879
0.547890 0.317632 0.049165
0.647776 0.301335 0.040223
0.728176 0.286717 0.030060
0.794278 0.253101 0.018463
0.832212 0.231937 0.012482
0.863157 0.216159 0.008240
0.892149 0.210513 0.006928
0.908629 0.206668 0.006622
0.918456 0.192752 0.006012
0.925231 0.178714 0.005982
0.234989 0.374243 0.049012
0.237369 0.382147 0.044617
0.238254 0.387732 0.046845
0.236789 0.390326 0.051118
0.260563 0.391424 0.056092
0.315373 0.389319 0.060914
0.394614 0.385168 0.064576
0.513619 0.380072 0.061097
0.624094 0.369360 0.056794
0.729351 0.359136 0.049012
0.806149 0.333761 0.039094
0.874296 0.308248 0.027893
0.902708 0.290059 0.020630
0.924987 0.277165 0.014038
0.941344 0.268803 0.012177
0.950256 0.252506 0.009674
0.956481 0.235233 0.008240
0.308461 0.437629 0.050477
0.303975 0.440925 0.050568
0.300328 0.448402 0.051606
0.283818 0.448890 0.052491
0.293034 0.446845 0.056428
0.331853 0.444282 0.061982
0.401846 0.443519 0.065187
0.497307 0.440162 0.067811
0.609140 0.432471 0.066896
0.719493 0.423850 0.064271
0.809216 0.409445 0.058106
0.880003 0.391531 0.050172
0.932708 0.368765 0.038270
0.950896 0.353017 0.029847
0.962707 0.337484 0.025666
0.968658 0.316976 0.020630
0.972351 0.297063 0.018463
0.384482 0.503731 0.047883
0.377035 0.501411 0.048981
0.366140 0.506416 0.051484
0.343023 0.506157 0.052430
0.336919 0.501122 0.056428
0.361776 0.496315 0.062928
0.410880 0.496559 0.066987
0.490105 0.493233 0.070771
0.594461 0.489601 0.074495
0.707835 0.482948 0.074403
0.804730 0.475608 0.073732
0.876097 0.465568 0.070344
0.929198 0.448173 0.061433
0.958434 0.427878 0.052003
0.971344 0.409873 0.046265
0.981353 0.385336 0.037385
0.984558 0.359792 0.031037
0.457389 0.577401 0.042847
0.451804 0.570321 0.046876
0.436973 0.571313 0.050660
0.407309 0.567926 0.052247
0.387823 0.559380 0.056092
0.405859 0.551568 0.064210
0.449866 0.551873 0.069154
0.505943 0.551812 0.073732
0.600778 0.549523 0.078035
0.704662 0.542290 0.081422
0.802197 0.538415 0.083406
0.873869 0.533745 0.084901
0.926421 0.525109 0.081880
0.955108 0.508766 0.076265
0.971160 0.487785 0.072053
0.981903 0.461387 0.062959
0.986603 0.433280 0.056214
0.540063 0.665629 0.038636
0.534096 0.651423 0.041291
0.511421 0.643000 0.045289
0.473289 0.633783 0.049744
0.443915 0.623316 0.054963
0.455055 0.616114 0.063935
0.499001 0.615747 0.070924
0.552911 0.616266 0.077272
0.620050 0.616175 0.082734
0.709972 0.611170 0.086915
0.802441 0.604578 0.091127
0.874205 0.601434 0.094301
0.927031 0.596246 0.095125
0.955047 0.582940 0.094148
0.971160 0.563989 0.092470
0.981476 0.537285 0.087221
0.988983 0.507439 0.079683
0.627100 0.751247 0.037446
0.621302 0.735195 0.037140
0.597299 0.720241 0.039765
0.552010 0.706600 0.045289
0.516442 0.692805 0.052461
0.516167 0.682612 0.062226
0.551843 0.677455 0.072236
0.603540 0.677302 0.080415
0.666194 0.677394 0.087098
0.731182 0.676722 0.093080
0.814954 0.671839 0.097993
0.878660 0.668544 0.105196
0.930510 0.664881 0.108064
0.956329 0.656855 0.110628
0.973754 0.642847 0.112001
0.983612 0.617151 0.108156
0.989349 0.587549 0.102785
0.711757 0.825132 0.041321
0.705196 0.813107 0.039063
0.684901 0.796475 0.038697
0.641917 0.780423 0.041260
0.595331 0.764004 0.047547
0.581994 0.750393 0.058228
0.611627 0.743191 0.068757
0.654871 0.738155 0.080323
0.714504 0.738247 0.087892
0.772381 0.736721 0.096559
0.836042 0.735714 0.103029
0.887175 0.733883 0.111879
0.935699 0.731167 0.120363
0.960174 0.725399 0.124910
0.976379 0.715267 0.128908
0.985595 0.693294 0.128084
0.989746 0.666407 0.125124
0.794614 0.871305 0.048798
0.780941 0.867124 0.044404
0.762936 0.855436 0.040406
0.725734 0.841489 0.039246
0.679225 0.824125 0.044373
0.650629 0.807370 0.054688
0.664668 0.796384 0.065553
0.701106 0.789487 0.078187
0.746609 0.785580 0.087953
0.798978 0.784085 0.099031
0.858122 0.785763 0.107057
0.895445 0.788449 0.118654
0.935729 0.788937 0.128176
0.964630 0.792416 0.140871
0.980102 0.784207 0.145907
0.987396 0.767025 0.147158
0.989929 0.743099 0.145663
0.863645 0.903746 0.053590
0.843961 0.900145 0.050477
0.819608 0.888640 0.047089
0.793484 0.879057 0.041077
0.748684 0.864988 0.043824
0.716884 0.850065 0.052308
0.713283 0.840757 0.061006
0.737667 0.832395 0.074128
0.777279 0.827939 0.084749
0.819272 0.825986 0.099123
0.872892 0.828824 0.109041
0.909117 0.833066 0.123720
0.940734 0.838437 0.136233
0.966430 0.843351 0.150332
0.980865 0.839719 0.159609
0.987243 0.823697 0.161166
0.989441 0.802915 0.160159
0.910124 0.922789 0.064851
0.891875 0.919707 0.058961
0.864988 0.908110 0.054566
0.846555 0.901946 0.048219
0.814145 0.893980 0.049805
0.776577 0.885740 0.054017
0.761685 0.877165 0.060914
0.764279 0.869627 0.071229
0.790860 0.863859 0.082155
0.828855 0.862211 0.096712
0.871672 0.863798 0.108827
0.906249 0.867399 0.124331
0.935637 0.872892 0.138155
0.959625 0.877287 0.151949
0.972045 0.874235 0.162203
0.985473 0.867491 0.169619
0.987762 0.847898 0.169680
0.944274 0.939910 0.073823
0.929320 0.936217 0.069306
0.893706 0.923461 0.064210
0.882109 0.919280 0.058473
0.864683 0.914000 0.058717
0.841459 0.907927 0.060395
0.813443 0.901274 0.063844
0.806424 0.895720 0.072023
0.806546 0.890990 0.080415
0.841428 0.889586 0.094453
0.872251 0.889738 0.107057
0.905333 0.892729 0.123384
0.931060 0.896330 0.137911
0.954070 0.899504 0.152682
0.966918 0.899046 0.165377
0.977447 0.890349 0.171084
0.985168 0.876951 0.173983
0.021851 0.027192 0.090547
0.088167 0.025757 0.086702
0.194217 0.025483 0.085695
0.253361 0.023926 0.086336
0.276982 0.021485 0.085115
0.286564 0.019745 0.075410
0.290166 0.019562 0.070863
0.304417 0.020966 0.060670
0.319463 0.020294 0.054963
0.343145 0.020905 0.043366
0.368566 0.018372 0.036805
0.395422 0.017456 0.025422
0.430396 0.016144 0.020294
0.461250 0.015686 0.013214
0.489998 0.012757 0.011505
0.529870 0.011933 0.009552
0.573877 0.010895 0.009033
0.015229 0.061830 0.078523
0.059602 0.062806 0.067170
0.197635 0.065675 0.051331
0.315221 0.073365 0.044373
0.402411 0.076112 0.040650
0.468147 0.076326 0.035950
0.494362 0.075776 0.032319
0.519799 0.075441 0.027253
0.523430 0.073915 0.024475
0.530755 0.070893 0.022492
0.549065 0.066438 0.020111
0.571923 0.060121 0.013794
0.602655 0.050690 0.010925
0.624933 0.041321 0.007385
0.636652 0.029419 0.007202
0.651820 0.020203 0.007385
0.668635 0.013001 0.008026
0.020294 0.137087 0.069154
0.059144 0.129274 0.058442
0.159487 0.135561 0.047913
0.280888 0.140261 0.044800
0.396551 0.144045 0.042603
0.495827 0.140597 0.037171
0.556298 0.132021 0.031495
0.614496 0.125734 0.024323
0.647547 0.120943 0.020661
0.683742 0.116732 0.018769
0.705501 0.113497 0.017609
0.734829 0.108492 0.012757
0.753506 0.101472 0.010803
0.769070 0.093538 0.006928
0.772519 0.082643 0.006073
0.775235 0.066896 0.005646
0.776455 0.046418 0.005646
0.047639 0.219699 0.057496
0.083497 0.204715 0.055756
0.147860 0.216342 0.048524
0.242191 0.219181 0.048920
0.369970 0.222110 0.048463
0.484810 0.214145 0.043854
0.567407 0.198245 0.036866
0.638239 0.182528 0.028717
0.691264 0.171695 0.023194
0.741634 0.161196 0.019898
0.779049 0.154696 0.018952
0.811826 0.144778 0.013855
0.837674 0.138552 0.011963
0.853788 0.131838 0.008087
0.860960 0.125612 0.006409
0.863218 0.113283 0.005615
0.862364 0.095460 0.005280
0.091676 0.290227 0.050904
0.119387 0.279850 0.056519
0.176211 0.289281 0.050721
0.226780 0.298955 0.048798
0.322606 0.297551 0.051423
0.455482 0.292454 0.048219
0.561334 0.277317 0.041657
0.655558 0.259953 0.035431
0.726207 0.239078 0.028046
0.790555 0.220432 0.023285
0.826291 0.204318 0.020783
0.858671 0.189181 0.015045
0.877531 0.177035 0.012726
0.895964 0.170687 0.008972
0.903319 0.165377 0.006867
0.908873 0.158175 0.005707
0.910033 0.145632 0.005249
0.145937 0.355138 0.047761
0.166415 0.351293 0.058412
0.220462 0.358770 0.054566
0.255589 0.368841 0.049195
0.312200 0.369696 0.049165
0.404334 0.363928 0.051850
0.527901 0.354437 0.047639
0.639506 0.340887 0.042390
0.740093 0.321813 0.035187
0.814755 0.300008 0.029847
0.867247 0.270680 0.024659
0.900664 0.247974 0.017945
0.919310 0.226535 0.013977
0.925292 0.215274 0.009979
0.929473 0.208469 0.007538
0.933593 0.202060 0.006134
0.936889 0.193149 0.005524
0.208377 0.419226 0.049683
0.224155 0.417334 0.061250
0.273594 0.424659 0.059937
0.300755 0.434699 0.050782
0.336217 0.434943 0.047272
0.394842 0.425971 0.049866
0.483986 0.419562 0.053254
0.606180 0.409277 0.048554
0.723003 0.397406 0.043305
0.818769 0.378470 0.037324
0.882689 0.352682 0.030762
0.918975 0.322927 0.022217
0.935760 0.297627 0.017121
0.944732 0.275853 0.011994
0.949004 0.261509 0.008576
0.952911 0.251774 0.006775
0.954925 0.242222 0.006134
0.277043 0.483192 0.049836
0.277867 0.485237 0.062196
0.328191 0.487984 0.066529
0.354376 0.498848 0.054444
0.375372 0.497353 0.044709
0.408484 0.486061 0.046876
0.474281 0.477058 0.049928
0.560891 0.468605 0.052979
0.685893 0.460334 0.049348
0.799390 0.448966 0.046906
0.886793 0.429648 0.040192
0.931090 0.405417 0.032105
0.954559 0.376791 0.023774
0.962402 0.353262 0.017578
0.966491 0.332815 0.013397
0.969207 0.315999 0.011292
0.970306 0.301885 0.010315
0.348424 0.547616 0.048646
0.345296 0.550546 0.059815
0.387732 0.550332 0.066438
0.412970 0.561090 0.056092
0.424994 0.560540 0.044617
0.440085 0.541894 0.044221
0.467979 0.525170 0.048341
0.531899 0.512169 0.052491
0.637095 0.507042 0.058076
0.761303 0.501671 0.055451
0.870130 0.497002 0.052186
0.924285 0.483238 0.045106
0.956542 0.462486 0.036927
0.971496 0.437705 0.027832
0.977142 0.413901 0.022004
0.981170 0.392050 0.018372
0.983703 0.368856 0.016175
0.418814 0.617151 0.047791
0.411872 0.616632 0.058137
0.442451 0.612390 0.066346
0.465797 0.620966 0.059419
0.471107 0.621271 0.046632
0.482826 0.603632 0.044800
0.504540 0.584573 0.046876
0.528191 0.563836 0.053132
0.614847 0.555291 0.058564
0.723278 0.551232 0.063203
0.844617 0.553948 0.060548
0.912688 0.556756 0.057862
0.955047 0.547524 0.052857
0.972503 0.528206 0.046052
0.982818 0.503578 0.041047
0.986511 0.478935 0.038331
0.988891 0.452689 0.037018
0.488777 0.691493 0.050294
0.487327 0.688899 0.056977
0.506157 0.678920 0.063142
0.522301 0.680293 0.056489
0.517540 0.679469 0.047608
0.524285 0.668544 0.045899
0.550744 0.652125 0.046632
0.577844 0.632959 0.053559
0.621698 0.618433 0.060853
0.713756 0.612055 0.065705
0.825879 0.611811 0.071260
0.897704 0.619898 0.069947
0.948302 0.621790 0.069490
0.970031 0.611963 0.066621
0.982391 0.591089 0.063294
0.989593 0.566827 0.060822
0.991699 0.541268 0.059846
0.562463 0.759548 0.057038
0.566949 0.755215 0.056336
0.574914 0.741421 0.062013
0.585504 0.739040 0.054444
0.573388 0.736996 0.046021
0.571740 0.727382 0.043519
0.599145 0.720577 0.044495
0.629816 0.704707 0.051881
0.675685 0.694667 0.059968
0.727794 0.684047 0.068605
0.822980 0.681544 0.075166
0.893095 0.686763 0.080415
0.945068 0.693477 0.082673
0.967132 0.690455 0.085847
0.980774 0.674647 0.088441
0.988586 0.652338 0.088014
0.991455 0.627588 0.087617
0.641779 0.824887 0.066773
0.652552 0.819211 0.060304
0.656214 0.805325 0.062593
0.660853 0.799527 0.054017
0.641505 0.795407 0.045930
0.631098 0.789212 0.043061
0.654353 0.784909 0.042359
0.689815 0.778012 0.051087
0.736873 0.769894 0.059388
0.787945 0.761990 0.070100
0.844587 0.754879 0.079286
0.900053 0.757931 0.086641
0.944640 0.755764 0.095003
0.966247 0.754879 0.100374
0.979950 0.742458 0.107057
0.988067 0.725093 0.110933
0.991119 0.701961 0.111513
0.720638 0.872435 0.079011
0.736355 0.870085 0.065034
0.734981 0.861631 0.063416
0.737545 0.857755 0.054963
0.720424 0.854643 0.045472
0.704433 0.849027 0.041047
0.711116 0.845884 0.038849
0.742458 0.839384 0.047211
0.786374 0.834806 0.056947
0.832486 0.827695 0.069123
0.878752 0.822171 0.081178
0.911223 0.817105 0.093599
0.943206 0.815488 0.104128
0.966033 0.813169 0.114168
0.979736 0.803220 0.123293
0.987701 0.788174 0.130251
0.990814 0.769009 0.133883
0.801724 0.906340 0.087617
0.813840 0.902068 0.072175
0.806302 0.895567 0.069093
0.807279 0.892180 0.061707
0.794522 0.891203 0.049928
0.777951 0.887785 0.042725
0.772152 0.885527 0.038270
0.792172 0.880003 0.044404
0.829068 0.875547 0.052888
0.860471 0.870451 0.066865
0.899931 0.864988 0.080476
0.927092 0.860014 0.095888
0.948943 0.857206 0.111238
0.968383 0.854490 0.124422
0.979614 0.848325 0.137331
0.987549 0.837156 0.145113
0.990814 0.823362 0.149813
0.877806 0.931792 0.088075
0.874144 0.926757 0.079500
0.860746 0.921386 0.076936
0.856107 0.917205 0.070588
0.850950 0.917540 0.058137
0.839963 0.917571 0.046845
0.829435 0.915923 0.040955
0.834134 0.912444 0.042084
0.859068 0.908171 0.048768
0.886656 0.903655 0.061799
0.914672 0.899168 0.077028
0.939757 0.894408 0.093568
0.958099 0.892149 0.112825
0.971984 0.889006 0.130526
0.980499 0.883330 0.146181
0.986633 0.873625 0.156954
0.990051 0.861479 0.162539
0.932647 0.950256 0.085206
0.916259 0.946166 0.090272
0.899229 0.941649 0.088197
0.887053 0.936065 0.082918
0.883696 0.936400 0.071107
0.879667 0.937194 0.059052
0.871580 0.936889 0.050172
0.873198 0.934508 0.047639
0.879118 0.931701 0.047913
0.903258 0.927733 0.059998
0.925566 0.924346 0.072419
0.948699 0.920531 0.089723
0.964721 0.918456 0.108370
0.977661 0.916411 0.129793
0.983551 0.911345 0.148562
0.986694 0.901274 0.163363
0.988525 0.887999 0.172427
0.020600 0.026276 0.163485
0.066102 0.024262 0.178744
0.161868 0.021668 0.180972
0.227604 0.018433 0.194736
0.264317 0.016022 0.201053
0.284520 0.014282 0.194430
0.299443 0.013550 0.182834
0.318883 0.013367 0.173068
0.338293 0.012512 0.161440
0.364935 0.012238 0.144533
0.392248 0.011749 0.124056
0.419593 0.011658 0.102693
0.443458 0.012085 0.079622
0.465888 0.012512 0.054810
0.481331 0.011444 0.035645
0.512718 0.011353 0.020569
0.551934 0.010895 0.010315
0.011383 0.067567 0.172610
0.039277 0.063447 0.169558
0.159396 0.056825 0.150912
0.266178 0.055787 0.141787
0.342992 0.056397 0.137453
0.401648 0.057435 0.130465
0.434760 0.056977 0.122133
0.462043 0.054505 0.114687
0.476997 0.051240 0.106447
0.492714 0.048737 0.098604
0.513695 0.046784 0.085512
0.541192 0.043488 0.068849
0.572625 0.039002 0.051606
0.606470 0.032624 0.032959
0.631861 0.024659 0.020172
0.653040 0.018280 0.012360
0.667659 0.013153 0.008545
0.010925 0.135988 0.157992
0.040742 0.139406 0.155489
0.139864 0.123690 0.133883
0.251255 0.123018 0.119448
0.343938 0.124819 0.109194
0.428565 0.124636 0.100496
0.498604 0.122683 0.092744
0.564660 0.121187 0.086427
0.610895 0.117403 0.080171
0.651545 0.112551 0.072908
0.673182 0.107332 0.066743
0.702235 0.098451 0.054261
0.724300 0.089693 0.043061
0.754452 0.078828 0.028870
0.762936 0.065339 0.018097
0.769162 0.051545 0.011475
0.771084 0.037690 0.007019
0.023957 0.233097 0.145174
0.060975 0.220035 0.133974
0.152010 0.203128 0.123140
0.239963 0.209415 0.107332
0.347967 0.207523 0.099001
0.447150 0.201328 0.093812
0.532662 0.192203 0.088594
0.610574 0.184482 0.084321
0.682261 0.177584 0.078950
0.744991 0.168093 0.072847
0.796170 0.161837 0.066865
0.831083 0.148836 0.057038
0.853635 0.140780 0.047730
0.875120 0.130434 0.034852
0.883299 0.121950 0.022400
0.887022 0.110414 0.014130
0.884428 0.098817 0.008026
0.057160 0.311681 0.122164
0.094759 0.293431 0.116732
0.183993 0.276829 0.115999
0.247379 0.292241 0.100649
0.331212 0.293614 0.090455
0.443702 0.284825 0.087221
0.544411 0.273106 0.083864
0.641764 0.260594 0.083101
0.720653 0.247105 0.079347
0.789456 0.232883 0.074678
0.843565 0.219486 0.068513
0.881468 0.201755 0.059907
0.905760 0.187350 0.051118
0.928191 0.176761 0.039216
0.937560 0.168002 0.026429
0.942260 0.161868 0.017853
0.941619 0.153719 0.010864
0.106538 0.377508 0.102205
0.140902 0.367315 0.108309
0.223178 0.351446 0.112367
0.279637 0.364233 0.098268
0.339269 0.373693 0.087282
0.421241 0.367834 0.081178
0.534585 0.355657 0.078676
0.641642 0.342992 0.078431
0.738842 0.329717 0.078004
0.814420 0.312306 0.074922
0.876616 0.288106 0.070588
0.915709 0.263966 0.062867
0.940154 0.242313 0.053590
0.954803 0.225772 0.042603
0.963745 0.214237 0.029541
0.966125 0.206638 0.020935
0.967376 0.203250 0.013611
0.162417 0.438331 0.088228
0.192660 0.435248 0.101534
0.264530 0.423377 0.110475
0.319463 0.430365 0.098726
0.366918 0.442023 0.086152
0.432532 0.441810 0.078523
0.509804 0.431098 0.073274
0.625589 0.418402 0.073487
0.735515 0.406500 0.073701
0.825147 0.391836 0.072999
0.893645 0.370291 0.069459
0.928008 0.340047 0.064424
0.952148 0.312856 0.055634
0.966613 0.285634 0.045655
0.976715 0.265141 0.031739
0.978912 0.252964 0.022705
0.976898 0.245457 0.014832
0.224826 0.501457 0.082582
0.243503 0.501335 0.099001
0.305089 0.492348 0.111086
0.360998 0.491920 0.102968
0.398932 0.501183 0.088411
0.454170 0.506920 0.079683
0.521035 0.500847 0.073213
0.596109 0.485969 0.068849
0.714153 0.475410 0.069856
0.818982 0.464530 0.070527
0.898817 0.448142 0.068971
0.937316 0.422904 0.064942
0.959808 0.391775 0.057496
0.974151 0.362020 0.047395
0.982147 0.331991 0.033783
0.985168 0.309102 0.024506
0.983307 0.294957 0.016541
0.288579 0.566659 0.081758
0.299382 0.566293 0.097719
0.348913 0.560525 0.110170
0.404028 0.555611 0.106355
0.438331 0.562509 0.092103
0.483635 0.567575 0.081117
0.539590 0.567590 0.074037
0.603250 0.553918 0.069459
0.685740 0.537224 0.065858
0.797009 0.529213 0.066835
0.894301 0.521920 0.067323
0.938933 0.503639 0.064820
0.965820 0.478630 0.058503
0.978515 0.446189 0.049683
0.985656 0.411490 0.035950
0.988495 0.380880 0.026795
0.988190 0.348165 0.019165
0.348898 0.633967 0.085542
0.355383 0.633631 0.095949
0.393530 0.629267 0.109438
0.447883 0.620050 0.110109
0.478767 0.624475 0.095766
0.518029 0.628138 0.083925
0.571252 0.629999 0.075166
0.615595 0.619593 0.070008
0.691356 0.606058 0.066011
0.774884 0.591791 0.063416
0.883192 0.590661 0.064820
0.936492 0.585382 0.064851
0.967681 0.570245 0.060426
0.981872 0.543740 0.052308
0.987762 0.508888 0.041840
0.991241 0.473259 0.032563
0.991547 0.435416 0.024811
0.414420 0.702693 0.088258
0.424369 0.701900 0.095064
0.449226 0.697322 0.106355
0.493477 0.686152 0.110353
0.522820 0.686519 0.098390
0.551415 0.689601 0.084871
0.606134 0.693629 0.075624
0.647303 0.683253 0.070436
0.695033 0.671229 0.067536
0.762844 0.656886 0.065736
0.868086 0.651362 0.065827
0.924926 0.652399 0.066377
0.965148 0.654353 0.065705
0.983703 0.638117 0.059480
0.989441 0.607019 0.049287
0.992889 0.574014 0.042573
0.993744 0.535103 0.033936
0.483238 0.764248 0.091493
0.492958 0.763485 0.094240
0.508782 0.757351 0.104158
0.545861 0.744228 0.113924
0.569604 0.741848 0.102327
0.592737 0.742641 0.088289
0.632776 0.747494 0.076081
0.674830 0.740597 0.070771
0.722469 0.733730 0.067353
0.773953 0.724575 0.065614
0.868116 0.720516 0.065431
0.921874 0.727779 0.066468
0.963287 0.735439 0.068360
0.984253 0.730892 0.067323
0.989197 0.705135 0.061158
0.992859 0.674434 0.056641
0.995209 0.637858 0.051820
0.564202 0.823087 0.097169
0.576837 0.821286 0.096284
0.589380 0.815549 0.101625
0.613062 0.803159 0.112123
0.630335 0.799100 0.102571
0.641566 0.798642 0.088106
0.672206 0.802701 0.074952
0.710292 0.802457 0.070039
0.760586 0.800198 0.066865
0.812100 0.796536 0.066377
0.865629 0.789944 0.068971
0.913542 0.794400 0.070771
0.960174 0.800748 0.075319
0.982147 0.800504 0.076112
0.988769 0.782010 0.075746
0.992157 0.754971 0.075624
0.994842 0.724697 0.072297
0.651209 0.867491 0.105074
0.665248 0.868864 0.099184
0.673976 0.867857 0.099519
0.686000 0.859434 0.109651
0.698116 0.856535 0.101808
0.705745 0.855741 0.089448
0.716670 0.856901 0.074708
0.749386 0.857969 0.068147
0.792630 0.859037 0.064210
0.842741 0.858183 0.064149
0.888365 0.855741 0.067567
0.924529 0.854429 0.070863
0.954803 0.856321 0.077089
0.979736 0.859983 0.083284
0.987121 0.844663 0.087068
0.991547 0.822049 0.091676
0.994079 0.796292 0.094759
0.737087 0.900908 0.115206
0.752682 0.900694 0.105623
0.759884 0.899077 0.101534
0.763699 0.894896 0.103944
0.774472 0.892546 0.100710
0.779477 0.891997 0.088869
0.780179 0.892882 0.074372
0.799069 0.893645 0.065064
0.833127 0.894987 0.058991
0.867399 0.894926 0.060639
0.906767 0.892363 0.064088
0.935485 0.888151 0.070741
0.957153 0.884062 0.079591
0.977172 0.883543 0.087953
0.985870 0.877226 0.099886
0.990570 0.862333 0.108217
0.993408 0.845426 0.115633
0.819547 0.927581 0.125246
0.827756 0.925872 0.114839
0.831418 0.924681 0.110201
0.831907 0.922240 0.108095
0.837705 0.921202 0.102602
0.842069 0.921111 0.093355
0.838651 0.921935 0.078950
0.844816 0.922759 0.067445
0.865965 0.923613 0.059602
0.894896 0.923583 0.060212
0.922606 0.922454 0.063386
0.947692 0.917754 0.071046
0.965240 0.912535 0.081300
0.978882 0.907195 0.091646
0.985016 0.899626 0.106905
0.989807 0.889525 0.120821
0.992859 0.876524 0.131777
0.888548 0.947570 0.134585
0.887175 0.945525 0.128695
0.884672 0.944030 0.125490
0.883238 0.942779 0.119356
0.886778 0.942168 0.112398
0.888365 0.942168 0.103182
0.884978 0.943084 0.088563
0.887144 0.943908 0.075532
0.893584 0.944884 0.063691
0.917357 0.944884 0.063325
0.937957 0.944152 0.063447
0.957763 0.940917 0.071382
0.973083 0.936065 0.080110
0.984649 0.930388 0.092103
0.987854 0.921416 0.111177
0.990265 0.911345 0.128115
0.992462 0.899168 0.144564
0.020752 0.023072 0.207797
0.059937 0.020508 0.243656
0.128603 0.019348 0.243778
0.178408 0.017060 0.234104
0.219211 0.015290 0.244633
0.251682 0.013458 0.250889
0.278752 0.012146 0.249577
0.306127 0.011353 0.246525
0.329503 0.010163 0.236576
0.355962 0.009552 0.224582
0.385229 0.009033 0.209659
0.411292 0.008759 0.193149
0.443183 0.008698 0.169955
