LUT color transfer/LUTs/37.cube
# (C) 2014 VisionColor & Patchflyer [www.vision-color.com]
# Generator: VC Patchmatch v.2.1.1 [64/53]
# All work and no play makes Jack a dull boy.
# LUT generated from: Kodak Vision3 250D 5207 (NEG)_FC
LUT_3D_SIZE 5
0.023072 0.025788 0.023560
0.284886 0.026978 0.017151
0.332067 0.025544 0.013886
0.465431 0.015839 0.010010
0.623926 0.010224 0.008728
0.108736 0.257084 0.037110
0.261204 0.271641 0.051667
0.639261 0.225467 0.023468
0.801114 0.163668 0.005463
0.883513 0.126101 0.005097
0.384482 0.503731 0.047883
0.336919 0.501122 0.056428
0.594461 0.489601 0.074495
0.929198 0.448173 0.061433
0.984558 0.359792 0.031037
0.711757 0.825132 0.041321
0.595331 0.764004 0.047547
0.714504 0.738247 0.087892
0.935699 0.731167 0.120363
0.989746 0.666407 0.125124
0.944274 0.939910 0.073823
0.864683 0.914000 0.058717
0.806546 0.890990 0.080415
0.931060 0.896330 0.137911
0.985168 0.876951 0.173983
0.018799 0.020935 0.244144
0.181735 0.014801 0.260380
0.306035 0.009979 0.273472
0.411048 0.008301 0.232395
0.558587 0.008820 0.073396
0.032380 0.341863 0.321904
0.297185 0.267155 0.268833
0.655894 0.245518 0.228153
0.833249 0.177035 0.166934
0.941039 0.117372 0.059480
0.180056 0.590341 0.220401
0.389868 0.557107 0.222202
0.659129 0.578286 0.179904
0.943267 0.530190 0.178927
0.985931 0.361746 0.113588
0.415518 0.826352 0.194705
0.545403 0.822141 0.205997
0.746181 0.832242 0.186954
0.940612 0.830594 0.161044
0.994598 0.748012 0.128817
0.790616 0.941588 0.203067
0.823240 0.942809 0.185855
0.874784 0.944305 0.168887
0.964813 0.947295 0.140597
0.995666 0.927398 0.111696
0.014191 0.016236 0.422446
0.127230 0.010498 0.449561
0.194064 0.009400 0.401343
0.280827 0.008515 0.380652
0.492836 0.007630 0.247837
0.022065 0.327367 0.741375
0.196323 0.259617 0.595682
0.439155 0.202853 0.496330
0.646082 0.149874 0.433951
0.905394 0.083803 0.240528
0.124056 0.696696 0.700053
0.288853 0.619455 0.627665
0.574960 0.581094 0.598825
0.867582 0.552071 0.543618
0.963561 0.414328 0.377737
0.268437 0.860868 0.570138
0.373266 0.825925 0.459129
0.623072 0.830442 0.486534
0.887236 0.849943 0.465263
0.985412 0.817990 0.417838
0.603479 0.934142 0.380667
0.630732 0.934997 0.375723
0.761501 0.942840 0.392416
0.903593 0.945098 0.386801
0.989013 0.937743 0.355459
0.011292 0.012665 0.664820
0.091279 0.008484 0.704616
0.166567 0.007507 0.655879
0.166934 0.008057 0.588586
0.354376 0.007324 0.519249
0.002960 0.309361 0.894926
0.115023 0.261784 0.886076
0.307240 0.202060 0.807157
0.431403 0.123049 0.758785
0.802152 0.068086 0.681819
0.086610 0.659434 0.935271
0.211551 0.605661 0.882506
0.435538 0.582101 0.845731
0.636133 0.505898 0.788022
0.871031 0.422019 0.734981
0.233463 0.888029 0.892790
0.334447 0.860838 0.856718
0.538277 0.853056 0.843961
0.839353 0.853025 0.847593
0.953185 0.825193 0.809323
0.393866 0.941314 0.799405
0.447913 0.936614 0.751034
0.581964 0.936187 0.725063
0.803037 0.941131 0.712673
0.965759 0.948333 0.717433
0.010040 0.011536 0.803616
0.043000 0.008789 0.883207
0.144717 0.006043 0.865782
0.168917 0.006134 0.842649
0.214481 0.006806 0.746517
0.000641 0.322515 0.933562
0.043732 0.249729 0.977081
0.180362 0.244816 0.955688
0.323217 0.177066 0.941222
0.521233 0.094942 0.942931
0.051026 0.702632 0.981048
0.165148 0.601846 0.962890
0.400992 0.613321 0.928893
0.549737 0.562417 0.899138
0.685695 0.487205 0.882567
0.246220 0.883238 0.953796
0.393805 0.863188 0.937591
0.571984 0.857237 0.931395
0.795346 0.856260 0.926818
0.872618 0.836301 0.912016
0.375158 0.947356 0.937011
0.463355 0.941741 0.933196
0.644678 0.941588 0.933349
0.802548 0.943297 0.931670
0.956512 0.955596 0.944488
