LUT color transfer/LUTs/37.cube
# (C) 2014 VisionColor & Patchflyer [www.vision-color.com]
# Generator: VC Patchmatch v.2.1.1 [64/53]
# All work and no play makes Jack a dull boy.
# LUT generated from: Kodak Vision3 250D 5207 (NEG)_FC
LUT_3D_SIZE 9
0.023072 0.025788 0.023560
0.203464 0.030304 0.016876
0.284886 0.026978 0.017151
0.304295 0.023926 0.015900
0.332067 0.025544 0.013886
0.388983 0.022004 0.011322
0.465431 0.015839 0.010010
0.536339 0.011810 0.009308
0.623926 0.010224 0.008728
0.035889 0.130831 0.019898
0.145480 0.130983 0.021393
0.379767 0.145815 0.021515
0.508782 0.131350 0.014343
0.562188 0.117830 0.010559
0.625818 0.103609 0.006653
0.696468 0.083619 0.005585
0.749905 0.059632 0.005493
0.788815 0.031983 0.005798
0.108736 0.257084 0.037110
0.145113 0.277134 0.038392
0.261204 0.271641 0.051667
0.486732 0.260197 0.041596
0.639261 0.225467 0.023468
0.734066 0.186526 0.009705
0.801114 0.163668 0.005463
0.858244 0.153567 0.005127
0.883513 0.126101 0.005097
0.234989 0.374243 0.049012
0.238254 0.387732 0.046845
0.260563 0.391424 0.056092
0.394614 0.385168 0.064576
0.624094 0.369360 0.056794
0.806149 0.333761 0.039094
0.902708 0.290059 0.020630
0.941344 0.268803 0.012177
0.956481 0.235233 0.008240
0.384482 0.503731 0.047883
0.366140 0.506416 0.051484
0.336919 0.501122 0.056428
0.410880 0.496559 0.066987
0.594461 0.489601 0.074495
0.804730 0.475608 0.073732
0.929198 0.448173 0.061433
0.971344 0.409873 0.046265
0.984558 0.359792 0.031037
0.540063 0.665629 0.038636
0.511421 0.643000 0.045289
0.443915 0.623316 0.054963
0.499001 0.615747 0.070924
0.620050 0.616175 0.082734
0.802441 0.604578 0.091127
0.927031 0.596246 0.095125
0.971160 0.563989 0.092470
0.988983 0.507439 0.079683
0.711757 0.825132 0.041321
0.684901 0.796475 0.038697
0.595331 0.764004 0.047547
0.611627 0.743191 0.068757
0.714504 0.738247 0.087892
0.836042 0.735714 0.103029
0.935699 0.731167 0.120363
0.976379 0.715267 0.128908
0.989746 0.666407 0.125124
0.863645 0.903746 0.053590
0.819608 0.888640 0.047089
0.748684 0.864988 0.043824
0.713283 0.840757 0.061006
0.777279 0.827939 0.084749
0.872892 0.828824 0.109041
0.940734 0.838437 0.136233
0.980865 0.839719 0.159609
0.989441 0.802915 0.160159
0.944274 0.939910 0.073823
0.893706 0.923461 0.064210
0.864683 0.914000 0.058717
0.813443 0.901274 0.063844
0.806546 0.890990 0.080415
0.872251 0.889738 0.107057
0.931060 0.896330 0.137911
0.966918 0.899046 0.165377
0.985168 0.876951 0.173983
0.020600 0.026276 0.163485
0.161868 0.021668 0.180972
0.264317 0.016022 0.201053
0.299443 0.013550 0.182834
0.338293 0.012512 0.161440
0.392248 0.011749 0.124056
0.443458 0.012085 0.079622
0.481331 0.011444 0.035645
0.551934 0.010895 0.010315
0.010925 0.135988 0.157992
0.139864 0.123690 0.133883
0.343938 0.124819 0.109194
0.498604 0.122683 0.092744
0.610895 0.117403 0.080171
0.673182 0.107332 0.066743
0.724300 0.089693 0.043061
0.762936 0.065339 0.018097
0.771084 0.037690 0.007019
0.057160 0.311681 0.122164
0.183993 0.276829 0.115999
0.331212 0.293614 0.090455
0.544411 0.273106 0.083864
0.720653 0.247105 0.079347
0.843565 0.219486 0.068513
0.905760 0.187350 0.051118
0.937560 0.168002 0.026429
0.941619 0.153719 0.010864
0.162417 0.438331 0.088228
0.264530 0.423377 0.110475
0.366918 0.442023 0.086152
0.509804 0.431098 0.073274
0.735515 0.406500 0.073701
0.893645 0.370291 0.069459
0.952148 0.312856 0.055634
0.976715 0.265141 0.031739
0.976898 0.245457 0.014832
0.288579 0.566659 0.081758
0.348913 0.560525 0.110170
0.438331 0.562509 0.092103
0.539590 0.567590 0.074037
0.685740 0.537224 0.065858
0.894301 0.521920 0.067323
0.965820 0.478630 0.058503
0.985656 0.411490 0.035950
0.988190 0.348165 0.019165
0.414420 0.702693 0.088258
0.449226 0.697322 0.106355
0.522820 0.686519 0.098390
0.606134 0.693629 0.075624
0.695033 0.671229 0.067536
0.868086 0.651362 0.065827
0.965148 0.654353 0.065705
0.989441 0.607019 0.049287
0.993744 0.535103 0.033936
0.564202 0.823087 0.097169
0.589380 0.815549 0.101625
0.630335 0.799100 0.102571
0.672206 0.802701 0.074952
0.760586 0.800198 0.066865
0.865629 0.789944 0.068971
0.960174 0.800748 0.075319
0.988769 0.782010 0.075746
0.994842 0.724697 0.072297
0.737087 0.900908 0.115206
0.759884 0.899077 0.101534
0.774472 0.892546 0.100710
0.780179 0.892882 0.074372
0.833127 0.894987 0.058991
0.906767 0.892363 0.064088
0.957153 0.884062 0.079591
0.985870 0.877226 0.099886
0.993408 0.845426 0.115633
0.888548 0.947570 0.134585
0.884672 0.944030 0.125490
0.886778 0.942168 0.112398
0.884978 0.943084 0.088563
0.893584 0.944884 0.063691
0.937957 0.944152 0.063447
0.973083 0.936065 0.080110
0.987854 0.921416 0.111177
0.992462 0.899168 0.144564
0.018799 0.020935 0.244144
0.093141 0.018067 0.277378
0.181735 0.014801 0.260380
0.242893 0.012299 0.271977
0.306035 0.009979 0.273472
0.364141 0.008759 0.258122
0.411048 0.008301 0.232395
0.469825 0.008209 0.176242
0.558587 0.008820 0.073396
0.034058 0.151980 0.354437
0.109499 0.119539 0.288975
0.284153 0.092592 0.262943
0.422980 0.085115 0.238529
0.531243 0.078859 0.222782
0.592462 0.066712 0.208133
0.649042 0.051820 0.178622
0.725490 0.033783 0.120974
0.812070 0.020783 0.051514
0.032380 0.341863 0.321904
0.139956 0.295445 0.295171
0.297185 0.267155 0.268833
0.496590 0.260105 0.244144
0.655894 0.245518 0.228153
0.765560 0.218204 0.206271
0.833249 0.177035 0.166934
0.884153 0.138155 0.115114
0.941039 0.117372 0.059480
0.095277 0.488899 0.261601
0.196262 0.439338 0.252232
0.340703 0.416388 0.243534
0.472328 0.429480 0.212100
0.697276 0.419593 0.207584
0.853819 0.396963 0.202548
0.925719 0.340932 0.182681
0.960693 0.274281 0.143465
0.981384 0.238041 0.095186
0.180056 0.590341 0.220401
0.268284 0.564736 0.215915
0.389868 0.557107 0.222202
0.518395 0.575814 0.201205
0.659129 0.578286 0.179904
0.859174 0.565896 0.184268
0.943267 0.530190 0.178927
0.974914 0.450736 0.154055
0.985931 0.361746 0.113588
0.281376 0.712001 0.207797
0.350652 0.700587 0.199557
0.450874 0.702541 0.210269
0.574487 0.708949 0.199557
0.707820 0.727077 0.180972
0.840650 0.718135 0.167483
0.947356 0.703944 0.171420
0.983917 0.653193 0.156710
0.992157 0.548531 0.126223
0.415518 0.826352 0.194705
0.459724 0.821347 0.191897
0.545403 0.822141 0.205997
0.644160 0.820096 0.204623
0.746181 0.832242 0.186954
0.865690 0.837125 0.174746
0.940612 0.830594 0.161044
0.985870 0.812680 0.151492
0.994598 0.748012 0.128817
0.602655 0.896513 0.188296
0.630488 0.897704 0.182254
0.675959 0.899138 0.194369
0.734524 0.897795 0.204959
0.803616 0.902678 0.192508
0.888640 0.908537 0.183078
0.949706 0.909056 0.169345
0.984558 0.902007 0.139284
0.995605 0.869993 0.115541
0.790616 0.941588 0.203067
0.811887 0.942046 0.184787
0.823240 0.942809 0.185855
0.848875 0.942626 0.184451
0.874784 0.944305 0.168887
0.916197 0.946960 0.154025
0.964813 0.947295 0.140597
0.988830 0.942351 0.121126
0.995666 0.927398 0.111696
0.016175 0.018433 0.309483
0.055909 0.016083 0.324742
0.146700 0.013092 0.337346
0.193210 0.011322 0.319524
0.241489 0.010315 0.321538
0.302434 0.009033 0.326177
0.349828 0.008484 0.308659
0.407721 0.008209 0.264714
0.531182 0.007691 0.165103
0.021515 0.141207 0.509911
0.087007 0.112001 0.429786
0.236637 0.088533 0.383459
0.372351 0.062654 0.361089
0.472053 0.055634 0.347387
0.538018 0.041657 0.329076
0.596277 0.024964 0.296849
0.666499 0.014588 0.234531
0.760403 0.011048 0.147280
0.038544 0.340795 0.542794
0.120912 0.286534 0.472709
0.231662 0.261387 0.431083
0.390875 0.235142 0.383215
0.528435 0.221988 0.359411
0.644343 0.197879 0.333333
0.735409 0.161044 0.290089
0.820096 0.120394 0.221057
0.915404 0.092653 0.134127
0.078920 0.540093 0.508400
0.167544 0.474098 0.484825
0.282689 0.446662 0.449149
0.431281 0.420813 0.431373
0.637980 0.413520 0.405676
0.780575 0.389303 0.379721
0.870420 0.336629 0.335225
0.924163 0.272541 0.265949
0.962432 0.226963 0.182925
0.139590 0.657267 0.447791
0.220554 0.609873 0.428931
0.315496 0.581186 0.390082
0.463752 0.567330 0.387854
0.608255 0.580941 0.361791
0.809888 0.582101 0.355871
0.916075 0.559487 0.341787
0.959930 0.486259 0.305623
0.978027 0.394339 0.239338
0.213352 0.749813 0.406760
0.278599 0.712459 0.346822
0.364782 0.705287 0.335592
0.496773 0.707668 0.345113
0.652583 0.722560 0.336278
0.786175 0.733486 0.315877
0.919127 0.729397 0.315877
0.970581 0.690791 0.300374
0.986267 0.597040 0.256077
0.319982 0.832914 0.355886
0.371313 0.816190 0.301640
0.447669 0.818235 0.302892
0.562371 0.826505 0.321233
0.694606 0.831724 0.325628
0.823667 0.847532 0.312398
0.914580 0.847410 0.293980
0.975891 0.832975 0.286107
0.989837 0.787778 0.257786
0.489601 0.894316 0.302312
0.522362 0.895903 0.283497
0.575952 0.897002 0.286473
0.661402 0.901061 0.307713
0.761166 0.904021 0.316991
0.854612 0.912840 0.309819
0.932250 0.915099 0.300420
0.978058 0.904967 0.267948
0.991852 0.880644 0.239506
0.695094 0.938781 0.278325
0.710048 0.939361 0.263066
0.729488 0.940856 0.265721
0.781155 0.942443 0.280949
0.833280 0.943999 0.285801
0.880308 0.945891 0.276402
0.937926 0.946380 0.263767
0.982300 0.941253 0.233860
0.993500 0.931884 0.201907
0.014191 0.016236 0.422446
0.049866 0.012757 0.453468
0.127230 0.010498 0.449561
0.174929 0.009552 0.430884
0.194064 0.009400 0.401343
0.232059 0.008881 0.397528
0.280827 0.008515 0.380652
0.354070 0.008209 0.344488
0.492836 0.007630 0.247837
0.005219 0.121157 0.638743
0.069795 0.098177 0.601144
0.196963 0.077028 0.538613
0.313481 0.059358 0.498589
0.393957 0.037507 0.477241
0.464363 0.028199 0.468772
0.527153 0.016968 0.420096
0.585626 0.009339 0.338460
0.719020 0.009033 0.245716
0.022065 0.327367 0.741375
0.097536 0.282872 0.649119
0.196323 0.259617 0.595682
0.329778 0.233371 0.538460
0.439155 0.202853 0.496330
0.548837 0.184451 0.475029
0.646082 0.149874 0.433951
0.745632 0.110384 0.359792
0.905394 0.083803 0.240528
0.068666 0.513817 0.739147
0.141451 0.463264 0.677012
0.226719 0.436286 0.635386
0.352300 0.412940 0.608133
0.506035 0.386053 0.552682
0.653025 0.364858 0.523781
0.761593 0.322744 0.483757
0.858640 0.269642 0.409934
0.945281 0.224857 0.293996
0.124056 0.696696 0.700053
0.203433 0.642710 0.662333
0.288853 0.619455 0.627665
0.407050 0.600290 0.607828
0.574960 0.581094 0.598825
0.758587 0.577829 0.574411
0.867582 0.552071 0.543618
0.924865 0.490013 0.480797
0.963561 0.414328 0.377737
0.188998 0.793393 0.630716
0.253147 0.758389 0.587991
0.321294 0.739590 0.552804
0.418128 0.723354 0.530037
0.598596 0.718105 0.541054
0.746990 0.732937 0.523995
0.894163 0.736171 0.518441
0.953704 0.709102 0.491936
0.979248 0.640116 0.427909
0.268437 0.860868 0.570138
0.316869 0.838437 0.499260
0.373266 0.825925 0.459129
0.463844 0.821591 0.462730
0.623072 0.830442 0.486534
0.778668 0.842618 0.489128
0.887236 0.849943 0.465263
0.960449 0.847044 0.454032
0.985412 0.817990 0.417838
0.395483 0.896513 0.478386
0.430671 0.902373 0.502998
0.478889 0.890715 0.407797
0.564416 0.893889 0.419760
0.680507 0.900786 0.441550
0.809308 0.906584 0.451072
0.908385 0.913848 0.438010
0.963836 0.909087 0.412314
0.987640 0.900053 0.387076
0.603479 0.934142 0.380667
0.606439 0.934356 0.385824
0.630732 0.934997 0.375723
0.679957 0.938445 0.379690
0.761501 0.942840 0.392416
0.835843 0.944823 0.398978
0.903593 0.945098 0.386801
0.964019 0.941772 0.365255
0.989013 0.937743 0.355459
0.012329 0.014099 0.546319
0.037079 0.011719 0.584527
0.104463 0.009339 0.569909
0.154849 0.008606 0.547997
0.178592 0.008362 0.522774
0.185000 0.008515 0.485695
0.215824 0.008209 0.475319
0.283421 0.008026 0.439063
0.442725 0.007599 0.368078
0.001953 0.102541 0.742794
0.043641 0.090333 0.778363
0.160372 0.064546 0.721080
0.260471 0.050660 0.678935
0.338720 0.033845 0.651133
0.361395 0.018708 0.601282
0.428595 0.012604 0.585016
0.503227 0.008515 0.519890
0.677668 0.008148 0.416770
0.008515 0.317845 0.868528
0.067750 0.285039 0.825574
0.162081 0.258518 0.762966
0.274678 0.230869 0.697475
0.374411 0.202457 0.662638
0.448371 0.162051 0.625910
0.544549 0.139895 0.606958
0.659205 0.105287 0.558175
0.874479 0.074861 0.416831
0.048890 0.496071 0.896681
0.115999 0.459388 0.835065
0.189578 0.432441 0.792370
0.302144 0.411017 0.755459
0.422019 0.377966 0.704128
0.524559 0.341787 0.667414
0.648630 0.316243 0.644068
0.764340 0.270771 0.591974
0.907286 0.224262 0.478920
0.108675 0.669261 0.853651
0.174197 0.631296 0.813153
0.240192 0.610056 0.781537
0.339040 0.593240 0.760616
0.490074 0.576669 0.742092
0.629023 0.542794 0.702174
0.760967 0.525490 0.684413
0.855756 0.477134 0.642817
0.928588 0.414542 0.556939
0.174197 0.817990 0.824063
0.244022 0.780789 0.790890
0.308843 0.766232 0.766842
0.401709 0.754177 0.750515
0.551095 0.743587 0.741604
0.720088 0.733852 0.738308
0.860105 0.730831 0.722530
0.923278 0.705425 0.691844
0.957336 0.650156 0.628092
0.244419 0.881468 0.776059
0.288060 0.863005 0.725444
0.339757 0.850034 0.696971
0.417029 0.842283 0.683268
0.548623 0.837736 0.675319
0.729671 0.840574 0.687770
0.860716 0.851682 0.677546
0.942382 0.851011 0.664897
0.974273 0.827359 0.630777
0.331487 0.911925 0.704784
0.365026 0.910979 0.698970
0.401556 0.897581 0.614878
0.476020 0.894957 0.603159
0.586282 0.894896 0.603784
0.734493 0.900175 0.622721
0.875486 0.908843 0.626657
0.943877 0.911284 0.601175
0.980560 0.909453 0.584665
0.480812 0.930938 0.581704
0.495521 0.931212 0.582773
0.527825 0.928038 0.544442
0.581292 0.930632 0.537087
0.652934 0.935821 0.529290
0.750027 0.941466 0.532921
0.867063 0.943206 0.539666
0.939483 0.945464 0.521279
0.981903 0.946075 0.513619
0.011292 0.012665 0.664820
0.024994 0.011322 0.709865
0.091279 0.008484 0.704616
0.139773 0.007782 0.678676
0.166567 0.007507 0.655879
0.174319 0.007630 0.627283
0.166934 0.008057 0.588586
0.210849 0.007782 0.550591
0.354376 0.007324 0.519249
0.002197 0.094789 0.807736
0.014862 0.088624 0.903471
0.119692 0.061707 0.880217
0.221592 0.043946 0.865568
0.288701 0.030121 0.849088
0.330510 0.017060 0.816434
0.334173 0.009216 0.739925
0.397345 0.007355 0.692714
0.607904 0.007813 0.638056
0.002960 0.309361 0.894926
0.030365 0.293156 0.933532
0.115023 0.261784 0.886076
0.215274 0.231724 0.836027
0.307240 0.202060 0.807157
0.380865 0.166384 0.786770
0.431403 0.123049 0.758785
0.540612 0.100465 0.738399
0.802152 0.068086 0.681819
0.029847 0.505852 0.956512
0.084565 0.463447 0.930114
0.153140 0.431373 0.901762
0.250874 0.416632 0.868955
0.352956 0.380621 0.820615
0.445167 0.346914 0.792569
0.515190 0.302968 0.764187
0.643732 0.275074 0.744381
0.837217 0.228107 0.690578
0.086610 0.659434 0.935271
0.146731 0.628611 0.906065
0.211551 0.605661 0.882506
0.301900 0.592111 0.860441
0.435538 0.582101 0.845731
0.549798 0.545144 0.810910
0.636133 0.505898 0.788022
0.751873 0.476310 0.774807
0.871031 0.422019 0.734981
0.153353 0.804074 0.907134
0.218509 0.770260 0.883482
0.273075 0.756252 0.870176
0.354955 0.746609 0.855924
0.489647 0.740505 0.849943
0.649973 0.732082 0.843259
0.746487 0.703517 0.818051
0.847745 0.690501 0.807706
0.916472 0.649180 0.774929
0.233463 0.888029 0.892790
0.280461 0.870054 0.869596
0.334447 0.860838 0.856718
0.414313 0.855100 0.847288
0.538277 0.853056 0.843961
0.694820 0.853330 0.844938
0.839353 0.853025 0.847593
0.919066 0.843931 0.830472
0.953185 0.825193 0.809323
0.305272 0.923430 0.863035
0.327245 0.915282 0.828916
0.363043 0.907866 0.810391
0.436500 0.906157 0.801724
0.544991 0.904418 0.797116
0.676326 0.903044 0.792203
0.828122 0.906157 0.793057
0.922148 0.913329 0.789364
0.963958 0.911162 0.785977
0.393866 0.941314 0.799405
0.415900 0.939696 0.774594
0.447913 0.936614 0.751034
0.506401 0.935546 0.739803
0.581964 0.936187 0.725063
0.673457 0.937407 0.708400
0.803037 0.941131 0.712673
0.915862 0.945495 0.719966
0.965759 0.948333 0.717433
0.010529 0.011994 0.749783
0.013703 0.011292 0.797421
0.066987 0.008453 0.819181
0.124483 0.006958 0.796262
0.155825 0.006714 0.781338
0.165805 0.006775 0.765103
0.161166 0.007019 0.740475
0.150118 0.007691 0.675074
0.243656 0.007080 0.629908
0.001434 0.108003 0.848722
0.002777 0.080903 0.897612
0.071412 0.062715 0.964416
0.165682 0.049378 0.959411
0.237522 0.032441 0.964172
0.294530 0.017884 0.960510
0.319768 0.008576 0.917144
0.319585 0.006622 0.827695
0.516442 0.007324 0.809567
0.000763 0.319005 0.910918
0.006073 0.285618 0.955749
0.068452 0.258000 0.959167
0.153750 0.241032 0.927794
0.231724 0.213535 0.905638
0.308995 0.179782 0.895232
0.372625 0.137942 0.883665
0.424353 0.096315 0.871885
0.675135 0.071839 0.875944
0.011597 0.530678 0.979217
0.046357 0.463996 0.971923
0.112093 0.425589 0.954070
0.209308 0.426261 0.930388
0.298116 0.400153 0.905882
0.381201 0.365713 0.881987
0.453498 0.329915 0.864225
0.507591 0.282155 0.844419
0.725277 0.250294 0.831022
0.066041 0.682795 0.969848
0.125460 0.632334 0.949462
0.192584 0.605264 0.934447
0.279713 0.595712 0.916350
0.404990 0.598550 0.900145
0.500084 0.565591 0.879149
0.578637 0.531258 0.863706
0.632868 0.485557 0.850706
0.783719 0.448478 0.838132
0.139315 0.804715 0.949554
0.212924 0.769162 0.929534
0.279576 0.757412 0.919707
0.356786 0.747738 0.909758
0.477211 0.745235 0.901610
0.621622 0.742123 0.892119
0.699916 0.714534 0.876066
0.751278 0.685832 0.864622
0.854673 0.663951 0.857664
0.225986 0.883116 0.935973
0.274876 0.862058 0.917693
0.332403 0.855772 0.912779
0.411414 0.850736 0.908354
0.526452 0.852171 0.903593
0.666606 0.854582 0.900328
0.797086 0.849668 0.898466
0.852140 0.833219 0.887510
0.912840 0.826871 0.882933
0.308812 0.923980 0.924956
0.329747 0.919005 0.908690
0.375219 0.911498 0.899809
0.461677 0.910124 0.900389
0.569085 0.908629 0.899138
0.688869 0.909606 0.898680
0.804807 0.917021 0.905058
0.911803 0.917449 0.906065
0.951598 0.913909 0.900114
0.367712 0.945525 0.897032
0.387243 0.944366 0.890623
0.419440 0.941558 0.883452
0.496986 0.940551 0.882109
0.581292 0.940368 0.876829
0.667414 0.941131 0.867613
0.770809 0.942535 0.861357
0.891020 0.945281 0.867460
0.952331 0.948943 0.878752
0.010040 0.011536 0.803616
0.010193 0.011109 0.834531
0.043000 0.008789 0.883207
0.104616 0.006622 0.863218
0.144717 0.006043 0.865782
0.161501 0.006043 0.861997
0.168917 0.006134 0.842649
0.202579 0.006165 0.825162
0.214481 0.006806 0.746517
0.000824 0.112886 0.872404
0.002472 0.091402 0.893767
0.041779 0.075868 0.986114
0.107942 0.068971 0.985473
0.177249 0.051728 0.982879
0.243229 0.036622 0.982818
0.290654 0.023560 0.972351
0.315038 0.015747 0.930205
0.435737 0.009888 0.893187
0.000641 0.322515 0.933562
0.002228 0.273869 0.955871
0.043732 0.249729 0.977081
0.112276 0.253880 0.967376
0.180362 0.244816 0.955688
0.254124 0.212558 0.946838
0.323217 0.177066 0.941222
0.379889 0.131685 0.939300
0.521233 0.094942 0.942931
0.005249 0.531228 0.979461
0.019135 0.459174 0.986542
0.077485 0.414420 0.977295
0.186267 0.425162 0.957702
0.275349 0.425818 0.939025
0.347692 0.401022 0.920897
0.417487 0.368307 0.908415
0.478676 0.328878 0.901274
0.590661 0.286061 0.894835
0.051026 0.702632 0.981048
0.104662 0.634928 0.972747
0.165148 0.601846 0.962890
0.265919 0.598337 0.944305
0.400992 0.613321 0.928893
0.483650 0.594522 0.913542
0.549737 0.562417 0.899138
0.607324 0.530556 0.889647
0.685695 0.487205 0.882567
0.142367 0.812741 0.966430
0.222477 0.785428 0.952331
0.292302 0.768215 0.943725
0.374212 0.754513 0.935210
0.498604 0.755581 0.928100
0.627146 0.758846 0.921019
0.686290 0.739223 0.909453
0.735073 0.718883 0.898283
0.786526 0.688273 0.889158
0.246220 0.883238 0.953796
0.296483 0.872190 0.944701
0.393805 0.863188 0.937591
0.468666 0.856321 0.933928
0.571984 0.857237 0.931395
0.691035 0.856870 0.929168
0.795346 0.856260 0.926818
0.838010 0.847562 0.919249
0.872618 0.836301 0.912016
0.333257 0.919951 0.945190
0.341436 0.918791 0.940276
0.414343 0.912413 0.935088
0.520897 0.907683 0.933928
0.610590 0.906767 0.932952
0.710567 0.908598 0.932586
0.818173 0.911284 0.931884
0.900084 0.915129 0.931548
0.925414 0.915557 0.927947
0.375158 0.947356 0.937011
0.415930 0.945281 0.936034
0.463355 0.941741 0.933196
0.563470 0.941405 0.934478
0.644678 0.941588 0.933349
0.712062 0.941619 0.931884
0.802548 0.943297 0.931670
0.898680 0.949157 0.936919
0.956512 0.955596 0.944488
