LUT color transfer/LUTs/38.cube
# (C) 2014 VisionColor & Patchflyer [www.vision-color.com]
# Generator: VC Patchmatch v.2.1.1 [64/53]
# All work and no play makes Jack a dull boy.
# LUT generated from: Kodak Vision3 250D 5207 (NEG)_FPE
LUT_3D_SIZE 17
0.032898 0.036500 0.036622
0.076875 0.042237 0.034974
0.145357 0.051575 0.036652
0.180667 0.052247 0.037110
0.194583 0.050446 0.036988
0.198459 0.048859 0.036652
0.202518 0.048768 0.036683
0.215915 0.049592 0.036988
0.223636 0.048737 0.037018
0.241367 0.048554 0.037476
0.251743 0.046052 0.037812
0.266453 0.044495 0.038422
0.281407 0.043091 0.039216
0.298741 0.042664 0.040040
0.308690 0.042298 0.040558
0.326848 0.042817 0.041474
0.344244 0.043397 0.042451
0.032685 0.050080 0.039551
0.076905 0.063447 0.037903
0.173220 0.076661 0.037049
0.276341 0.088106 0.039216
0.351324 0.092500 0.041718
0.387671 0.084260 0.043214
0.380499 0.079561 0.042969
0.382452 0.073732 0.042969
0.386145 0.072358 0.042939
0.392950 0.068544 0.043214
0.399268 0.064637 0.043824
0.402899 0.057465 0.044221
0.403967 0.052308 0.044831
0.404150 0.048829 0.045167
0.395972 0.046113 0.045106
0.392737 0.045594 0.045106
0.385168 0.045197 0.044923
0.036652 0.094514 0.045594
0.068330 0.112276 0.044617
0.167666 0.135897 0.043763
0.285252 0.156344 0.043702
0.388861 0.167849 0.045991
0.449104 0.162020 0.047486
0.467262 0.146670 0.047852
0.477607 0.134890 0.048280
0.487709 0.125826 0.049134
0.496895 0.113985 0.049744
0.502739 0.103639 0.049928
0.508080 0.089754 0.050141
0.504356 0.078004 0.049744
0.500999 0.068940 0.049592
0.488167 0.057923 0.049042
0.473640 0.052461 0.048646
0.456672 0.048310 0.048127
0.058228 0.156222 0.052796
0.087160 0.171695 0.051209
0.141390 0.196323 0.052918
0.266148 0.221073 0.055451
0.392645 0.240635 0.052583
0.476448 0.237675 0.052461
0.516533 0.220127 0.052399
0.541039 0.203189 0.052461
0.552422 0.186038 0.052827
0.563958 0.170535 0.053071
0.567041 0.150515 0.053590
0.569970 0.132540 0.053803
0.572625 0.119051 0.053712
0.573754 0.108248 0.053529
0.572076 0.097444 0.053407
0.555962 0.083864 0.052796
0.538842 0.068391 0.051789
0.118959 0.220249 0.059876
0.147616 0.235996 0.056550
0.178103 0.253056 0.058442
0.229404 0.268406 0.061921
0.345373 0.290837 0.065553
0.462501 0.302098 0.061006
0.534356 0.292973 0.059358
0.588251 0.278965 0.059113
0.607294 0.254032 0.058320
0.628229 0.234531 0.058381
0.624445 0.202228 0.057130
0.625971 0.181033 0.056733
0.626459 0.167819 0.056825
0.629999 0.158022 0.056977
0.633753 0.151217 0.057130
0.626337 0.134798 0.056580
0.613092 0.119081 0.055634
0.213947 0.287877 0.062593
0.230335 0.298436 0.057313
0.247684 0.308904 0.059937
0.264683 0.316594 0.063874
0.323919 0.331273 0.067750
0.425422 0.350286 0.072694
0.530846 0.355566 0.068574
0.606439 0.350530 0.068086
0.655726 0.334539 0.068757
0.689967 0.317968 0.069245
0.697261 0.280232 0.065553
0.696498 0.251789 0.063630
0.694545 0.230350 0.061982
0.696834 0.221042 0.061677
0.699977 0.214603 0.062043
0.692714 0.197269 0.061128
0.683619 0.179141 0.060609
0.325948 0.356481 0.063294
0.332326 0.362158 0.058473
0.331868 0.365515 0.061189
0.327367 0.366735 0.065522
0.359136 0.375738 0.069001
0.426352 0.389319 0.073701
0.517159 0.404669 0.079011
0.608591 0.405493 0.077913
0.674327 0.397955 0.079194
0.729488 0.387304 0.080568
0.747951 0.359182 0.078706
0.764309 0.333822 0.076478
0.763882 0.310323 0.074434
0.768154 0.295537 0.072694
0.768887 0.284764 0.071565
0.761379 0.265538 0.069398
0.751614 0.245640 0.067140
0.432609 0.416663 0.066804
0.427237 0.417395 0.065919
0.424033 0.421302 0.067323
0.400748 0.416510 0.068177
0.410971 0.418708 0.070069
0.455680 0.427680 0.075105
0.530678 0.440955 0.080293
0.619394 0.452338 0.087465
0.690867 0.449592 0.089418
0.755245 0.444282 0.091890
0.788602 0.429236 0.092042
0.811002 0.411002 0.091157
0.824613 0.389273 0.088930
0.828641 0.371359 0.087068
0.828153 0.354955 0.084993
0.821561 0.333288 0.081544
0.810422 0.311315 0.078737
0.536568 0.472450 0.077089
0.526528 0.469703 0.076295
0.512581 0.469764 0.077302
0.482719 0.463355 0.076143
0.474784 0.460975 0.075685
0.499168 0.465126 0.079713
0.553231 0.476722 0.085664
0.628305 0.487465 0.093507
0.704540 0.492866 0.100374
0.773251 0.490150 0.103883
0.815702 0.482765 0.106233
0.842802 0.471077 0.106020
0.859586 0.453788 0.104280
0.871000 0.435447 0.101259
0.872709 0.418997 0.099031
0.871641 0.398138 0.095552
0.865141 0.375341 0.091279
0.630961 0.527001 0.089235
0.621439 0.522728 0.088716
0.604898 0.520684 0.087587
0.571633 0.512963 0.084199
0.546273 0.505150 0.082399
0.559747 0.506035 0.086397
0.603571 0.515709 0.093507
0.659724 0.527337 0.102449
0.726894 0.533043 0.109743
0.793469 0.533898 0.115419
0.837552 0.529503 0.118685
0.867491 0.523308 0.120424
0.886168 0.512230 0.119417
0.896300 0.496345 0.116945
0.901396 0.478584 0.113649
0.899565 0.455909 0.109621
0.893400 0.431220 0.104585
0.723491 0.578607 0.108492
0.714977 0.572320 0.106966
0.691752 0.565576 0.103426
0.651774 0.555230 0.097658
0.617334 0.545953 0.093446
0.623133 0.546532 0.096406
0.663203 0.555810 0.104219
0.712947 0.567041 0.113344
0.761532 0.575341 0.121553
0.815991 0.577386 0.127413
0.855894 0.574304 0.130953
0.887114 0.570062 0.133455
0.908721 0.563592 0.134249
0.920134 0.551415 0.132570
0.924559 0.535180 0.129641
0.924468 0.513146 0.124605
0.919676 0.487861 0.119081
0.804288 0.624903 0.126864
0.798276 0.618311 0.124941
0.778805 0.610132 0.120760
0.737499 0.598444 0.113375
0.699123 0.587854 0.107698
0.694179 0.585534 0.108217
0.719936 0.591394 0.114778
0.763333 0.601831 0.124178
0.807675 0.611658 0.132906
0.843839 0.616297 0.139162
0.878721 0.614343 0.142947
0.899382 0.612482 0.146395
0.919646 0.607019 0.147738
0.929717 0.598718 0.147494
0.936584 0.587640 0.146059
0.938231 0.567895 0.141451
0.937713 0.546258 0.136233
0.871214 0.664302 0.143587
0.866209 0.658778 0.141848
0.851286 0.650263 0.138094
0.819272 0.639002 0.131502
0.779477 0.627192 0.124269
0.762264 0.621515 0.121920
0.781979 0.625788 0.126955
0.809537 0.632990 0.133913
0.851041 0.643763 0.142947
0.878752 0.648951 0.149203
0.902007 0.649622 0.153445
0.916106 0.649042 0.157321
0.928801 0.647517 0.160830
0.938445 0.641047 0.161318
0.944732 0.633051 0.161349
0.947784 0.617914 0.158358
0.947387 0.598810 0.153597
0.912261 0.692714 0.156222
0.907195 0.688289 0.154269
0.899718 0.680323 0.151308
0.880919 0.670314 0.146181
0.849393 0.659602 0.139498
0.823606 0.651606 0.135103
0.829526 0.652308 0.137026
0.848020 0.657801 0.142245
0.874205 0.665278 0.149233
0.895994 0.670954 0.155459
0.917235 0.675166 0.161257
0.926299 0.677638 0.165927
0.936400 0.677974 0.169894
0.943603 0.680323 0.175906
0.949645 0.674067 0.176577
0.951843 0.662562 0.174838
0.951782 0.647395 0.171023
0.936919 0.715541 0.166140
0.932097 0.710842 0.163638
0.924620 0.702022 0.160037
0.913451 0.692958 0.156344
0.892363 0.683619 0.150698
0.868925 0.675837 0.146181
0.866819 0.674189 0.145937
0.874571 0.677150 0.148928
0.895262 0.683497 0.154818
0.908171 0.690669 0.160647
0.926543 0.696590 0.167178
0.934722 0.701534 0.173037
0.942718 0.705806 0.178927
0.949157 0.709957 0.185977
0.952087 0.708247 0.189761
0.953704 0.697169 0.188296
0.953582 0.683040 0.184970
0.946502 0.733059 0.173465
0.944030 0.727749 0.170779
0.939055 0.717952 0.166629
0.933501 0.710842 0.163943
0.922606 0.704280 0.160128
0.907439 0.697536 0.155978
0.899443 0.694179 0.154238
0.895964 0.693965 0.154543
0.905943 0.697780 0.158053
0.915709 0.705043 0.163302
0.929656 0.713497 0.170687
0.937102 0.719295 0.176974
0.944701 0.725582 0.184237
0.950286 0.730465 0.191379
0.952605 0.729885 0.196567
0.954925 0.725643 0.198703
0.954803 0.712245 0.196201
0.951537 0.747890 0.179629
0.949950 0.742763 0.176944
0.944335 0.731167 0.171633
0.942412 0.726101 0.169741
0.939055 0.721920 0.167544
0.932250 0.717067 0.164767
0.921569 0.711971 0.161685
0.917144 0.710781 0.161044
0.915221 0.710964 0.161471
0.924193 0.718593 0.166445
0.932036 0.725307 0.172061
0.938323 0.733120 0.179049
0.944945 0.740719 0.187472
0.949981 0.746456 0.195468
0.952575 0.748409 0.203250
0.954406 0.742916 0.204837
0.955383 0.733394 0.203830
0.029236 0.036713 0.057801
0.063966 0.042786 0.065705
0.138766 0.049622 0.067567
0.178775 0.050385 0.067781
0.191440 0.048859 0.067201
0.194400 0.047822 0.061311
0.195132 0.047486 0.059632
0.204929 0.048463 0.053101
0.211521 0.047883 0.050202
0.224735 0.047913 0.044038
0.235447 0.045869 0.043427
0.246372 0.044923 0.039124
0.263890 0.043580 0.039399
0.278050 0.042939 0.039246
0.287449 0.042420 0.039612
0.305425 0.042390 0.040375
0.324651 0.042664 0.041352
0.028962 0.051606 0.068391
0.051240 0.063264 0.066987
0.165072 0.076753 0.055116
0.264042 0.087953 0.051637
0.327428 0.089845 0.049012
0.366491 0.086458 0.047547
0.381018 0.084321 0.046632
0.394659 0.081392 0.045624
0.398169 0.078859 0.045258
0.399756 0.075196 0.045014
0.403204 0.070954 0.045136
0.408087 0.063966 0.044800
0.406592 0.057374 0.044862
0.403632 0.051026 0.044678
0.388861 0.047395 0.044495
0.378271 0.045258 0.044251
0.369879 0.044373 0.043885
0.030152 0.097475 0.080751
0.048066 0.105165 0.071382
0.175662 0.141909 0.062104
0.297642 0.158785 0.056519
0.392004 0.165255 0.053376
0.451789 0.158145 0.051087
0.479805 0.144961 0.050385
0.503349 0.134096 0.049958
0.517784 0.125307 0.050843
0.531853 0.116609 0.051759
0.536889 0.110872 0.052033
0.543420 0.102174 0.052125
0.542107 0.093080 0.051850
0.538872 0.084199 0.051789
0.527214 0.072969 0.050874
0.506737 0.062440 0.049928
0.477668 0.051423 0.048981
0.042023 0.160250 0.081025
0.076509 0.170260 0.078676
0.176089 0.209415 0.068910
0.305608 0.239017 0.063416
0.425696 0.251347 0.058350
0.503746 0.243839 0.056153
0.543969 0.224643 0.055512
0.569085 0.204929 0.054108
0.585748 0.188144 0.054780
0.599481 0.171084 0.055299
0.607385 0.158511 0.056153
0.611383 0.143191 0.056001
0.612360 0.133486 0.055909
0.610895 0.124178 0.055634
0.605707 0.116030 0.055329
0.592218 0.102052 0.054566
0.571435 0.083253 0.053590
0.086610 0.229831 0.075105
0.129397 0.241703 0.080659
0.224247 0.275608 0.069551
0.301701 0.300328 0.063905
0.420935 0.322759 0.064454
0.528832 0.324956 0.061952
0.592981 0.310857 0.062318
0.637812 0.292729 0.063264
0.654444 0.267155 0.062135
0.667903 0.242969 0.061280
0.669429 0.218906 0.060853
0.670069 0.198001 0.059937
0.665675 0.180758 0.059297
0.665980 0.170871 0.059052
0.661921 0.163577 0.058717
0.656794 0.154513 0.058198
0.645289 0.139620 0.057435
0.174136 0.302800 0.066102
0.205066 0.311467 0.077363
0.296742 0.340063 0.069368
0.352758 0.358434 0.062593
0.423972 0.372900 0.064027
0.521294 0.386297 0.069520
0.611902 0.383185 0.070069
0.676905 0.372717 0.073243
0.715877 0.353704 0.074586
0.733944 0.328573 0.073487
0.736263 0.295766 0.069795
0.732815 0.267262 0.067231
0.722896 0.240085 0.064424
0.717952 0.224216 0.063508
0.712581 0.214755 0.062898
0.709285 0.206455 0.062409
0.703700 0.195224 0.061830
0.282490 0.371405 0.063996
0.302785 0.377905 0.075196
0.381003 0.400732 0.072328
0.423667 0.413886 0.065156
0.468528 0.422309 0.066072
0.526589 0.427497 0.070741
0.608408 0.436194 0.077790
0.689891 0.432349 0.081880
0.749844 0.423102 0.085664
0.782773 0.403738 0.086732
0.792508 0.375113 0.084382
0.796872 0.346822 0.080903
0.785794 0.316487 0.077119
0.777096 0.292042 0.072816
0.766476 0.274083 0.070069
0.761074 0.262211 0.068513
0.756436 0.251194 0.067262
0.395254 0.432898 0.064698
0.390616 0.435676 0.072999
0.458732 0.453895 0.078859
0.498589 0.465126 0.073243
0.526864 0.467872 0.072480
0.560922 0.469306 0.076112
0.618921 0.473610 0.082063
0.687617 0.477577 0.089143
0.757855 0.473640 0.094270
0.811002 0.464637 0.098329
0.835935 0.445624 0.098360
0.846189 0.422202 0.096284
0.846555 0.394461 0.092256
0.836973 0.367391 0.087434
0.826169 0.344076 0.082795
0.817411 0.326177 0.079835
0.810025 0.311315 0.077638
0.499260 0.486641 0.074495
0.489494 0.488563 0.080079
0.538216 0.500389 0.086763
0.574228 0.510613 0.084627
0.593423 0.511498 0.083406
0.606699 0.506127 0.083894
0.630991 0.503899 0.086976
0.680644 0.504479 0.092500
0.750774 0.508354 0.100679
0.813474 0.504601 0.106600
0.858488 0.498512 0.110750
0.878080 0.484321 0.110658
0.885924 0.463554 0.108125
0.888609 0.442588 0.104616
0.879789 0.417380 0.098940
0.872007 0.395895 0.094392
0.864347 0.375692 0.090211
0.593790 0.537011 0.087526
0.580545 0.536858 0.089113
0.608362 0.542473 0.095216
0.638666 0.550561 0.096468
0.650721 0.550042 0.094942
0.660456 0.544274 0.094789
0.676570 0.540002 0.096742
0.692958 0.535088 0.099458
0.749218 0.537072 0.106264
0.811154 0.539849 0.114015
0.866056 0.539513 0.120089
0.895445 0.535882 0.123262
0.910826 0.524437 0.122927
0.915160 0.507591 0.120668
0.917754 0.489326 0.117464
0.910460 0.466529 0.112398
0.903655 0.445045 0.107637
0.674998 0.581537 0.104250
0.669810 0.581689 0.105776
0.685130 0.582666 0.109163
0.704463 0.585229 0.109102
0.704036 0.582727 0.107271
0.709590 0.579522 0.106569
0.729671 0.577569 0.108919
0.747005 0.574945 0.111513
0.774685 0.574792 0.116243
0.821500 0.576379 0.123140
0.873411 0.578485 0.130251
0.905608 0.578790 0.134524
0.927550 0.576471 0.136965
0.934661 0.566247 0.135958
0.937835 0.550439 0.133242
0.938323 0.532677 0.129702
0.932860 0.512474 0.125093
0.748653 0.621454 0.120027
0.752071 0.620417 0.120119
0.755093 0.618006 0.120974
0.767178 0.617670 0.121309
0.759915 0.613519 0.119112
0.758450 0.609277 0.117922
0.777401 0.611139 0.121096
0.797024 0.611139 0.124392
0.826322 0.614649 0.130159
0.848569 0.614740 0.134279
0.889952 0.615991 0.140200
0.909972 0.618280 0.145388
0.931762 0.618860 0.148531
0.940002 0.614282 0.149111
0.944945 0.603326 0.147494
0.947143 0.588067 0.144564
0.946410 0.571191 0.140871
0.815915 0.659449 0.136294
0.825254 0.657771 0.136751
0.825650 0.653895 0.136812
0.831724 0.650904 0.136110
0.820249 0.645014 0.132753
0.812222 0.640772 0.130678
0.828519 0.642542 0.133425
0.846860 0.646693 0.137636
0.876402 0.652186 0.143709
0.895933 0.654963 0.148074
0.913085 0.654231 0.151492
0.925872 0.656245 0.155764
0.936614 0.655360 0.159426
0.944457 0.652552 0.160555
0.948760 0.644678 0.160372
0.950988 0.633326 0.158602
0.950774 0.617945 0.155215
0.873777 0.692500 0.150912
0.887358 0.689540 0.151217
0.886412 0.685206 0.150301
0.889006 0.681697 0.149783
0.880858 0.675929 0.146975
0.870634 0.670832 0.144259
0.874998 0.670161 0.144808
0.887785 0.673579 0.148287
0.904356 0.679316 0.153109
0.919493 0.682795 0.157229
0.931762 0.684718 0.161074
0.936767 0.685023 0.163668
0.943114 0.685420 0.167361
0.946349 0.685145 0.170535
0.950622 0.679652 0.171420
0.952697 0.670924 0.171054
0.952789 0.659083 0.168917
0.912779 0.719753 0.162844
0.920958 0.714687 0.162112
0.918120 0.709957 0.160616
0.919127 0.706416 0.160006
0.915404 0.701045 0.157992
0.906920 0.695705 0.155367
0.905364 0.692531 0.154452
0.912383 0.694667 0.156466
0.925689 0.699458 0.160403
0.931029 0.703731 0.163790
0.940398 0.706264 0.167391
0.944030 0.707240 0.170077
0.947570 0.708949 0.174197
0.950195 0.709621 0.177890
0.951904 0.708156 0.182376
0.954131 0.701015 0.183047
0.954498 0.691432 0.182284
0.939849 0.741329 0.172976
0.940154 0.735683 0.171084
0.936584 0.730678 0.168978
0.936278 0.726040 0.167514
0.935424 0.721859 0.166232
0.932708 0.716823 0.164492
0.929198 0.712551 0.162997
0.930083 0.711940 0.163241
0.937682 0.715236 0.165743
0.941680 0.719875 0.168887
0.945861 0.723690 0.172122
0.948943 0.725246 0.174868
0.951202 0.729061 0.179385
0.952880 0.731258 0.184085
0.954284 0.731319 0.189914
0.955016 0.726833 0.193668
0.955505 0.717830 0.193545
0.950835 0.756985 0.180697
0.947814 0.754299 0.179660
0.944945 0.748837 0.176638
0.943114 0.742550 0.173983
0.943267 0.738582 0.172580
0.943358 0.734524 0.171115
0.942351 0.729854 0.169772
0.942504 0.728206 0.169497
0.943084 0.727810 0.169894
0.946044 0.732906 0.172854
0.948608 0.736782 0.175662
0.951232 0.739895 0.178683
0.953094 0.743770 0.182895
0.954620 0.748409 0.187869
0.955688 0.750301 0.195285
0.956054 0.747311 0.200381
0.955962 0.739834 0.203494
0.029480 0.036622 0.085176
0.045747 0.039826 0.101595
0.115328 0.045258 0.120394
0.162417 0.044526 0.130343
0.186099 0.042725 0.133730
0.197665 0.042054 0.129763
0.206149 0.042054 0.122835
0.218448 0.042237 0.118257
0.228794 0.042054 0.110536
0.244175 0.042420 0.100923
0.257542 0.042908 0.087007
0.270237 0.043183 0.073701
0.275517 0.043061 0.062165
0.284031 0.043244 0.047852
0.286107 0.042084 0.044007
0.297185 0.041993 0.040070
0.313268 0.042206 0.040742
0.030518 0.054627 0.116121
0.034791 0.058320 0.115419
0.130831 0.069764 0.121157
0.217777 0.076020 0.118227
0.273564 0.076509 0.114931
0.309911 0.074952 0.107698
0.328008 0.073457 0.100526
0.339788 0.068544 0.092287
0.342931 0.064973 0.085145
0.346593 0.061982 0.078035
0.351293 0.059541 0.069978
0.357427 0.055390 0.057008
0.364324 0.051453 0.051850
0.367224 0.047120 0.044587
0.368444 0.045533 0.043946
0.368811 0.044678 0.043671
0.366705 0.044312 0.043610
0.032013 0.102419 0.146700
0.035706 0.115541 0.147768
0.136446 0.133394 0.138521
0.243229 0.142672 0.124880
0.321263 0.145724 0.110780
0.381048 0.144350 0.098482
0.423865 0.139376 0.087129
0.459846 0.133272 0.078798
0.479927 0.124849 0.073335
0.494881 0.115419 0.066835
0.498604 0.107759 0.064454
0.502586 0.094759 0.055573
0.502617 0.083925 0.053468
0.499123 0.071351 0.050446
0.490120 0.060792 0.049348
0.474739 0.053773 0.048493
0.454963 0.049348 0.047974
0.033112 0.166934 0.161349
0.045930 0.177310 0.152987
0.160739 0.204074 0.146181
0.282200 0.230716 0.127840
0.385809 0.237552 0.110780
0.457984 0.232242 0.096895
0.507927 0.220462 0.085054
0.545708 0.207431 0.078218
0.572717 0.194736 0.074067
0.591272 0.178622 0.068605
0.604456 0.166110 0.067384
0.606958 0.146822 0.060365
0.608881 0.134371 0.058839
0.606073 0.119722 0.055879
0.602899 0.108370 0.055268
0.593072 0.095979 0.054536
0.579736 0.085237 0.054047
0.039368 0.227817 0.155764
0.075166 0.239109 0.147555
0.213962 0.273442 0.146700
0.310430 0.303807 0.124483
0.413214 0.321019 0.104677
0.504143 0.318425 0.092988
0.568383 0.307652 0.083803
0.620264 0.293889 0.081758
0.646967 0.275425 0.078370
0.666102 0.255787 0.073793
0.675074 0.234623 0.071717
0.676539 0.210788 0.065064
0.676081 0.190127 0.063478
0.675288 0.174166 0.060822
0.676509 0.162509 0.059846
0.674586 0.154849 0.059358
0.667384 0.145693 0.058839
0.091371 0.294224 0.133974
0.142580 0.310094 0.139773
0.279362 0.341314 0.141146
0.364080 0.366003 0.118868
0.442817 0.384497 0.101259
0.524804 0.391150 0.093904
0.604730 0.384070 0.086763
0.667384 0.373388 0.086122
0.709468 0.359564 0.086519
0.732509 0.339193 0.082856
0.742763 0.313222 0.079316
0.741787 0.283528 0.072572
0.738064 0.255955 0.069581
0.734005 0.232578 0.066804
0.734829 0.218814 0.065553
0.732967 0.209018 0.064424
0.733364 0.205539 0.064149
0.179843 0.360143 0.112673
0.228244 0.376257 0.127932
0.346044 0.402197 0.134371
0.424170 0.420783 0.115724
0.488899 0.437476 0.099397
0.557595 0.446326 0.093935
0.623117 0.446265 0.091096
0.696406 0.438636 0.091890
0.749981 0.428046 0.093874
0.783688 0.412284 0.093477
0.798367 0.389029 0.091371
0.803586 0.360098 0.084871
0.799222 0.329519 0.080842
0.793301 0.300038 0.075959
0.789456 0.278874 0.073091
0.784665 0.264897 0.071015
0.780148 0.255863 0.069459
0.296010 0.424323 0.096834
0.317098 0.433936 0.117433
0.406806 0.454871 0.131106
0.483223 0.469062 0.118563
0.532937 0.480354 0.104005
0.597208 0.493751 0.100526
0.656107 0.496162 0.098573
0.711833 0.491951 0.099458
0.772625 0.484291 0.102724
0.819547 0.474525 0.105135
0.843046 0.457206 0.104860
0.852476 0.432395 0.100038
0.853544 0.404379 0.095613
0.845823 0.372122 0.089815
0.840879 0.346670 0.085695
0.829252 0.321614 0.080812
0.820584 0.306310 0.077882
0.398795 0.480354 0.094026
0.406943 0.486336 0.113649
0.470573 0.502312 0.128267
0.539391 0.513481 0.123171
0.584207 0.521965 0.111421
0.637308 0.531395 0.107698
0.693248 0.540398 0.108553
0.742168 0.537926 0.110170
0.786419 0.529320 0.110597
0.837888 0.522850 0.114382
0.874052 0.514443 0.117342
0.890990 0.496849 0.114839
0.897154 0.474296 0.111604
0.895781 0.446494 0.105989
0.889006 0.418448 0.100954
0.876066 0.389700 0.094789
0.858335 0.357412 0.087312
0.489128 0.532067 0.099031
0.491508 0.534997 0.110079
0.533288 0.546502 0.126223
0.594324 0.555261 0.129366
0.634028 0.560723 0.119570
0.680201 0.567590 0.115480
0.731350 0.575341 0.115846
0.769497 0.577111 0.119295
0.812772 0.572015 0.121065
0.849424 0.565332 0.123629
0.892088 0.561273 0.128206
0.912139 0.553094 0.129274
0.923308 0.538598 0.128084
0.923827 0.515343 0.123751
0.922667 0.491463 0.119265
0.912993 0.462013 0.112673
0.898161 0.428702 0.104707
0.571694 0.575128 0.112581
0.580728 0.579156 0.119234
0.605356 0.586938 0.130190
0.651057 0.593011 0.135256
0.686610 0.596277 0.129549
0.719142 0.599817 0.124971
0.769772 0.607935 0.124788
0.802060 0.608667 0.127840
0.833341 0.607752 0.130068
0.860136 0.602106 0.132113
0.901244 0.600855 0.137697
0.923033 0.597162 0.140322
0.938750 0.592523 0.142123
0.944427 0.577996 0.140078
0.943236 0.556512 0.136080
0.939941 0.533654 0.131106
0.929290 0.502861 0.123445
0.653544 0.614130 0.121798
0.663523 0.616876 0.123995
0.675074 0.620905 0.131563
0.706203 0.626215 0.142489
0.733791 0.626612 0.137209
0.760067 0.627497 0.132235
0.796597 0.632349 0.130831
0.828367 0.635126 0.134737
0.859678 0.637568 0.138460
0.879484 0.635370 0.141146
0.916106 0.635035 0.146578
0.927581 0.636713 0.150729
0.943542 0.636164 0.153811
0.949737 0.629938 0.154391
0.951110 0.613947 0.151247
0.951141 0.594965 0.147189
0.950134 0.572412 0.141878
0.734844 0.651850 0.137301
0.747372 0.653590 0.138155
0.756069 0.655390 0.142031
0.772122 0.658289 0.150240
0.790158 0.657404 0.148043
0.804959 0.655299 0.141878
0.834104 0.658198 0.140200
0.857114 0.661982 0.143862
0.891112 0.667536 0.148714
0.910033 0.669337 0.152651
0.926360 0.668177 0.155459
0.936065 0.669093 0.158968
0.945922 0.671992 0.163119
0.952392 0.668513 0.164401
0.953521 0.656672 0.162600
0.953704 0.641474 0.159518
0.953796 0.623713 0.155550
0.812467 0.686213 0.150423
0.826230 0.686854 0.148989
0.832700 0.687160 0.149905
0.837674 0.688655 0.155978
0.848905 0.687160 0.154055
0.858763 0.684810 0.150881
0.872251 0.683253 0.148989
0.889921 0.686000 0.151766
0.910491 0.690425 0.155947
0.927001 0.694209 0.160433
0.939696 0.696376 0.164065
0.945861 0.695705 0.166262
0.950347 0.697505 0.169192
0.953368 0.699977 0.172366
0.954528 0.690883 0.171328
0.954833 0.678920 0.169406
0.954833 0.665217 0.166567
0.870115 0.716915 0.164309
0.881834 0.715908 0.161776
0.885344 0.714534 0.160800
0.886595 0.713954 0.162051
0.892454 0.713436 0.162905
0.899229 0.710567 0.160311
0.904234 0.707057 0.158511
0.913451 0.706905 0.159457
0.928405 0.709682 0.162600
0.934295 0.713863 0.166293
0.944610 0.715755 0.169589
0.948882 0.714778 0.171420
0.951812 0.714137 0.173251
0.954070 0.715145 0.175662
0.954894 0.714046 0.177340
0.955413 0.705379 0.177005
0.955657 0.695430 0.176028
0.912413 0.744442 0.177310
0.918120 0.741207 0.173495
0.920806 0.739528 0.172671
0.921233 0.737636 0.171847
0.923858 0.735988 0.170871
0.927428 0.733577 0.169497
0.928923 0.729244 0.167697
0.931823 0.726772 0.167086
0.939361 0.727169 0.168582
0.943847 0.730404 0.171725
0.948089 0.732998 0.174594
0.951476 0.732357 0.176394
0.953460 0.731411 0.177920
0.954833 0.730434 0.179477
0.955352 0.729976 0.181582
0.955596 0.727199 0.184024
0.955962 0.719631 0.184207
0.937591 0.767025 0.188479
0.938323 0.763577 0.186587
0.938415 0.761501 0.185550
0.938964 0.758480 0.183291
0.940185 0.756008 0.181064
0.941344 0.753017 0.178805
0.942596 0.748379 0.176669
0.943816 0.744778 0.174594
0.945556 0.742245 0.173983
0.948699 0.744625 0.176516
0.951110 0.745968 0.178592
0.953216 0.746914 0.180575
0.954803 0.745663 0.181979
0.955932 0.744778 0.183444
0.956085 0.745052 0.186038
0.956115 0.743130 0.188663
0.956054 0.739742 0.191806
0.029664 0.035126 0.099001
0.041077 0.036683 0.121920
0.085176 0.040345 0.140627
0.123598 0.041596 0.144228
0.153353 0.040589 0.152438
0.175967 0.039399 0.157015
0.194491 0.039033 0.157870
0.212863 0.039155 0.158053
0.226505 0.039216 0.153140
0.243259 0.039734 0.148287
0.258518 0.040131 0.139467
0.272557 0.040650 0.130495
0.286992 0.041230 0.115602
