LUT color transfer/LUTs/38.cube
# (C) 2014 VisionColor & Patchflyer [www.vision-color.com]
# Generator: VC Patchmatch v.2.1.1 [64/53]
# All work and no play makes Jack a dull boy.
# LUT generated from: Kodak Vision3 250D 5207 (NEG)_FPE
LUT_3D_SIZE 5
0.032898 0.036500 0.036622
0.194583 0.050446 0.036988
0.223636 0.048737 0.037018
0.281407 0.043091 0.039216
0.344244 0.043397 0.042451
0.118959 0.220249 0.059876
0.345373 0.290837 0.065553
0.607294 0.254032 0.058320
0.626459 0.167819 0.056825
0.613092 0.119081 0.055634
0.536568 0.472450 0.077089
0.474784 0.460975 0.075685
0.704540 0.492866 0.100374
0.859586 0.453788 0.104280
0.865141 0.375341 0.091279
0.871214 0.664302 0.143587
0.779477 0.627192 0.124269
0.851041 0.643763 0.142947
0.928801 0.647517 0.160830
0.947387 0.598810 0.153597
0.951537 0.747890 0.179629
0.939055 0.721920 0.167544
0.915221 0.710964 0.161471
0.944945 0.740719 0.187472
0.955383 0.733394 0.203830
0.029816 0.034028 0.109163
0.123171 0.039368 0.154208
0.212253 0.038025 0.169711
0.276616 0.040314 0.154879
0.330632 0.042329 0.056275
0.040070 0.252201 0.311681
0.338903 0.305852 0.293065
0.591028 0.280919 0.232181
0.622431 0.185611 0.148898
0.610010 0.096895 0.058747
0.156374 0.455604 0.272038
0.482460 0.523644 0.277104
0.749706 0.569299 0.218967
0.888395 0.523812 0.192020
0.855039 0.366567 0.105379
0.527810 0.640589 0.240452
0.672145 0.675288 0.256199
0.857084 0.711574 0.237797
0.941863 0.708583 0.200473
0.953216 0.644099 0.166476
0.882567 0.773281 0.250584
0.903777 0.773678 0.229252
0.929290 0.775479 0.216800
0.953490 0.774990 0.200534
0.956725 0.747189 0.188235
0.031739 0.032593 0.149691
0.076448 0.035279 0.196933
0.126009 0.035706 0.202243
0.193484 0.036072 0.211612
0.322057 0.041688 0.165408
0.046693 0.239628 0.443336
0.158053 0.273472 0.424292
0.443183 0.249882 0.404303
0.545708 0.173968 0.354788
0.576104 0.076020 0.190173
0.067964 0.482063 0.569970
0.257267 0.554009 0.558282
0.611048 0.588586 0.569635
0.797879 0.563088 0.526375
0.835081 0.430198 0.373465
0.197620 0.623774 0.537087
0.384726 0.650538 0.486809
0.687709 0.724605 0.539895
0.892149 0.768460 0.541604
0.955657 0.737942 0.484398
0.683970 0.765957 0.457771
0.713146 0.772549 0.453254
0.825681 0.806027 0.477028
0.919951 0.826383 0.477043
0.966094 0.816037 0.428824
0.033539 0.033661 0.195895
0.051392 0.037446 0.241764
0.098909 0.038422 0.260960
0.100679 0.037385 0.243931
0.242741 0.037903 0.266148
0.047517 0.217594 0.477791
0.060883 0.233768 0.483925
0.288411 0.223178 0.483528
0.383551 0.133837 0.441413
0.548516 0.064515 0.405035
0.059754 0.429847 0.622980
0.110140 0.496239 0.629084
0.427451 0.563424 0.652430
0.636072 0.536690 0.635065
0.778439 0.472923 0.604883
0.121157 0.618097 0.694423
0.253025 0.673396 0.693721
0.544045 0.735836 0.722744
0.811063 0.779873 0.760922
0.905028 0.767391 0.744045
0.325628 0.730861 0.676844
0.417609 0.748684 0.665980
0.598978 0.787350 0.680537
0.807858 0.834043 0.706508
0.945953 0.867643 0.735592
0.035340 0.035370 0.228733
0.038025 0.037079 0.263645
0.078645 0.039826 0.314794
0.096315 0.039918 0.314214
0.132876 0.039643 0.295323
0.049134 0.223178 0.499001
0.049561 0.187625 0.490639
0.106981 0.238346 0.518029
0.296941 0.193194 0.514946
0.423682 0.087495 0.482948
0.060029 0.413092 0.648432
0.075593 0.456107 0.649897
0.355123 0.566842 0.691829
0.545190 0.559853 0.685298
0.659907 0.519661 0.676265
0.125826 0.615351 0.727077
0.316075 0.694453 0.749416
0.559838 0.739925 0.775326
0.766415 0.774868 0.802609
0.826627 0.773648 0.799283
0.276799 0.733486 0.760067
0.407813 0.768002 0.776730
0.637995 0.818814 0.812589
0.782193 0.846098 0.835782
0.919249 0.882261 0.872343
