LUT color transfer/LUTs/38.cube
# (C) 2014 VisionColor & Patchflyer [www.vision-color.com]
# Generator: VC Patchmatch v.2.1.1 [64/53]
# All work and no play makes Jack a dull boy.
# LUT generated from: Kodak Vision3 250D 5207 (NEG)_FPE
LUT_3D_SIZE 9
0.032898 0.036500 0.036622
0.145357 0.051575 0.036652
0.194583 0.050446 0.036988
0.202518 0.048768 0.036683
0.223636 0.048737 0.037018
0.251743 0.046052 0.037812
0.281407 0.043091 0.039216
0.308690 0.042298 0.040558
0.344244 0.043397 0.042451
0.036652 0.094514 0.045594
0.167666 0.135897 0.043763
0.388861 0.167849 0.045991
0.467262 0.146670 0.047852
0.487709 0.125826 0.049134
0.502739 0.103639 0.049928
0.504356 0.078004 0.049744
0.488167 0.057923 0.049042
0.456672 0.048310 0.048127
0.118959 0.220249 0.059876
0.178103 0.253056 0.058442
0.345373 0.290837 0.065553
0.534356 0.292973 0.059358
0.607294 0.254032 0.058320
0.624445 0.202228 0.057130
0.626459 0.167819 0.056825
0.633753 0.151217 0.057130
0.613092 0.119081 0.055634
0.325948 0.356481 0.063294
0.331868 0.365515 0.061189
0.359136 0.375738 0.069001
0.517159 0.404669 0.079011
0.674327 0.397955 0.079194
0.747951 0.359182 0.078706
0.763882 0.310323 0.074434
0.768887 0.284764 0.071565
0.751614 0.245640 0.067140
0.536568 0.472450 0.077089
0.512581 0.469764 0.077302
0.474784 0.460975 0.075685
0.553231 0.476722 0.085664
0.704540 0.492866 0.100374
0.815702 0.482765 0.106233
0.859586 0.453788 0.104280
0.872709 0.418997 0.099031
0.865141 0.375341 0.091279
0.723491 0.578607 0.108492
0.691752 0.565576 0.103426
0.617334 0.545953 0.093446
0.663203 0.555810 0.104219
0.761532 0.575341 0.121553
0.855894 0.574304 0.130953
0.908721 0.563592 0.134249
0.924559 0.535180 0.129641
0.919676 0.487861 0.119081
0.871214 0.664302 0.143587
0.851286 0.650263 0.138094
0.779477 0.627192 0.124269
0.781979 0.625788 0.126955
0.851041 0.643763 0.142947
0.902007 0.649622 0.153445
0.928801 0.647517 0.160830
0.944732 0.633051 0.161349
0.947387 0.598810 0.153597
0.936919 0.715541 0.166140
0.924620 0.702022 0.160037
0.892363 0.683619 0.150698
0.866819 0.674189 0.145937
0.895262 0.683497 0.154818
0.926543 0.696590 0.167178
0.942718 0.705806 0.178927
0.952087 0.708247 0.189761
0.953582 0.683040 0.184970
0.951537 0.747890 0.179629
0.944335 0.731167 0.171633
0.939055 0.721920 0.167544
0.921569 0.711971 0.161685
0.915221 0.710964 0.161471
0.932036 0.725307 0.172061
0.944945 0.740719 0.187472
0.952575 0.748409 0.203250
0.955383 0.733394 0.203830
0.029480 0.036622 0.085176
0.115328 0.045258 0.120394
0.186099 0.042725 0.133730
0.206149 0.042054 0.122835
0.228794 0.042054 0.110536
0.257542 0.042908 0.087007
0.275517 0.043061 0.062165
0.286107 0.042084 0.044007
0.313268 0.042206 0.040742
0.032013 0.102419 0.146700
0.136446 0.133394 0.138521
0.321263 0.145724 0.110780
0.423865 0.139376 0.087129
0.479927 0.124849 0.073335
0.498604 0.107759 0.064454
0.502617 0.083925 0.053468
0.490120 0.060792 0.049348
0.454963 0.049348 0.047974
0.039368 0.227817 0.155764
0.213962 0.273442 0.146700
0.413214 0.321019 0.104677
0.568383 0.307652 0.083803
0.646967 0.275425 0.078370
0.675074 0.234623 0.071717
0.676081 0.190127 0.063478
0.676509 0.162509 0.059846
0.667384 0.145693 0.058839
0.179843 0.360143 0.112673
0.346044 0.402197 0.134371
0.488899 0.437476 0.099397
0.623117 0.446265 0.091096
0.749981 0.428046 0.093874
0.798367 0.389029 0.091371
0.799222 0.329519 0.080842
0.789456 0.278874 0.073091
0.780148 0.255863 0.069459
0.398795 0.480354 0.094026
0.470573 0.502312 0.128267
0.584207 0.521965 0.111421
0.693248 0.540398 0.108553
0.786419 0.529320 0.110597
0.874052 0.514443 0.117342
0.897154 0.474296 0.111604
0.889006 0.418448 0.100954
0.858335 0.357412 0.087312
0.571694 0.575128 0.112581
0.605356 0.586938 0.130190
0.686610 0.596277 0.129549
0.769772 0.607935 0.124788
0.833341 0.607752 0.130068
0.901244 0.600855 0.137697
0.938750 0.592523 0.142123
0.943236 0.556512 0.136080
0.929290 0.502861 0.123445
0.734844 0.651850 0.137301
0.756069 0.655390 0.142031
0.790158 0.657404 0.148043
0.834104 0.658198 0.140200
0.891112 0.667536 0.148714
0.926360 0.668177 0.155459
0.945922 0.671992 0.163119
0.953521 0.656672 0.162600
0.953796 0.623713 0.155550
0.870115 0.716915 0.164309
0.885344 0.714534 0.160800
0.892454 0.713436 0.162905
0.904234 0.707057 0.158511
0.928405 0.709682 0.162600
0.944610 0.715755 0.169589
0.951812 0.714137 0.173251
0.954894 0.714046 0.177340
0.955657 0.695430 0.176028
0.937591 0.767025 0.188479
0.938415 0.761501 0.185550
0.940185 0.756008 0.181064
0.942596 0.748379 0.176669
0.945556 0.742245 0.173983
0.951110 0.745968 0.178592
0.954803 0.745663 0.181979
0.956085 0.745052 0.186038
0.956054 0.739742 0.191806
0.029816 0.034028 0.109163
0.059541 0.037140 0.142458
0.123171 0.039368 0.154208
0.168307 0.038178 0.164889
0.212253 0.038025 0.169711
0.250431 0.039033 0.166384
0.276616 0.040314 0.154879
0.301701 0.041444 0.119875
0.330632 0.042329 0.056275
0.038392 0.124117 0.247166
0.084565 0.121462 0.215366
0.265232 0.117830 0.221897
0.358251 0.104097 0.202213
0.413703 0.091188 0.185489
0.431373 0.076204 0.167208
0.437537 0.060822 0.136049
0.438392 0.050721 0.085908
0.437507 0.047211 0.050294
0.040070 0.252201 0.311681
0.111025 0.287724 0.303258
0.338903 0.305852 0.293065
0.502922 0.305821 0.264439
0.591028 0.280919 0.232181
0.623682 0.240543 0.198123
0.622431 0.185611 0.148898
0.608087 0.130892 0.091707
0.610010 0.096895 0.058747
0.058167 0.361395 0.299168
0.183505 0.395300 0.291447
0.413092 0.431037 0.294011
0.557031 0.457984 0.257359
0.705043 0.448951 0.233707
0.776242 0.424094 0.214054
0.787625 0.363699 0.177478
0.769162 0.285328 0.123323
0.759945 0.236820 0.080964
0.156374 0.455604 0.272038
0.308354 0.488197 0.269139
0.482460 0.523644 0.277104
0.630228 0.559106 0.250736
0.749706 0.569299 0.218967
0.850828 0.557137 0.211429
0.888395 0.523812 0.192020
0.878691 0.450340 0.151278
0.855039 0.366567 0.105379
0.327626 0.554437 0.263218
0.440452 0.576013 0.248478
0.564050 0.607263 0.262303
0.698573 0.634760 0.249454
0.823575 0.662318 0.230503
0.889860 0.654536 0.207797
0.928862 0.638544 0.198123
0.940551 0.597314 0.173953
0.929198 0.518120 0.139223
0.527810 0.640589 0.240452
0.583078 0.651362 0.237125
0.672145 0.675288 0.256199
0.767849 0.693996 0.256779
0.857084 0.711574 0.237797
0.918486 0.720119 0.222721
0.941863 0.708583 0.200473
0.953124 0.689235 0.184848
0.953216 0.644099 0.166476
0.736950 0.713588 0.230198
0.766293 0.718654 0.222934
0.803128 0.731533 0.239628
0.847990 0.743557 0.256016
0.891478 0.751644 0.242771
0.932280 0.762692 0.233951
0.950042 0.758297 0.215732
0.955474 0.741451 0.191165
0.956420 0.709743 0.179721
0.882567 0.773281 0.250584
0.897795 0.771176 0.228702
0.903777 0.773678 0.229252
0.916106 0.776425 0.229038
0.929290 0.775479 0.216800
0.942840 0.777401 0.207614
0.953490 0.774990 0.200534
0.956512 0.762448 0.191684
0.956725 0.747189 0.188235
0.030579 0.032959 0.126040
0.039124 0.034211 0.142947
0.094331 0.036316 0.172702
0.128328 0.036774 0.177218
0.165133 0.036683 0.183963
0.209689 0.036652 0.192355
0.242893 0.037446 0.189425
0.276493 0.039612 0.171511
0.333318 0.042481 0.112306
0.039002 0.110140 0.282872
0.057954 0.106722 0.255680
0.213107 0.106538 0.265354
0.311559 0.079011 0.256779
0.367285 0.068452 0.248417
0.389227 0.054719 0.232120
0.394659 0.046479 0.203800
0.403296 0.045594 0.160006
0.427802 0.046540 0.098665
0.044556 0.256260 0.399695
0.073671 0.268894 0.375860
0.234409 0.290074 0.371771
0.422583 0.289128 0.362188
0.512474 0.269718 0.338506
0.567590 0.235538 0.311360
0.584741 0.182101 0.263966
0.578393 0.121553 0.188464
0.575097 0.080812 0.100587
0.051850 0.388495 0.456062
0.110597 0.416358 0.447456
0.294377 0.448554 0.440040
0.487343 0.458320 0.440375
0.638636 0.452552 0.413031
0.709224 0.422934 0.380301
0.735042 0.366751 0.331411
0.732479 0.292103 0.255238
0.729671 0.229511 0.160845
0.079591 0.471199 0.442969
0.178317 0.506401 0.436194
0.341741 0.528038 0.420813
0.533471 0.556481 0.435615
0.673259 0.584497 0.423102
0.804440 0.588205 0.410178
0.859800 0.563882 0.385641
0.866941 0.494652 0.328084
0.852384 0.406210 0.237690
0.156298 0.548302 0.429938
0.274617 0.566155 0.391989
0.415625 0.594049 0.391882
0.583673 0.634211 0.415106
0.732906 0.668177 0.414557
0.834943 0.684352 0.394003
0.908385 0.679500 0.383688
0.931853 0.645685 0.348104
0.927581 0.571923 0.278965
0.328267 0.624414 0.405585
0.429160 0.634943 0.366339
0.530236 0.661463 0.372168
0.657801 0.697627 0.397894
0.775235 0.724422 0.407630
0.872160 0.749111 0.396811
0.926024 0.748287 0.367544
0.954131 0.730770 0.340963
0.955444 0.693324 0.292988
0.577462 0.704372 0.371893
0.621653 0.712856 0.353429
0.676692 0.727230 0.358648
0.755428 0.751400 0.383734
0.835813 0.771420 0.397986
0.896391 0.788327 0.391669
0.940642 0.795041 0.376669
0.958892 0.777310 0.322774
0.959594 0.747127 0.274159
0.791867 0.772519 0.348302
0.806851 0.772549 0.329351
0.823362 0.777798 0.332372
0.858091 0.790280 0.352239
0.889036 0.799222 0.359106
0.917021 0.805386 0.347585
0.945037 0.811246 0.331258
0.959381 0.796597 0.283009
0.959258 0.776822 0.241581
0.031739 0.032593 0.149691
0.036835 0.033539 0.170871
0.076448 0.035279 0.196933
0.110811 0.035523 0.205722
0.126009 0.035706 0.202243
0.155734 0.035981 0.208408
0.193484 0.036072 0.211612
0.244724 0.037201 0.205753
0.322057 0.041688 0.165408
0.039857 0.088899 0.300816
0.045808 0.087404 0.284123
0.158877 0.086336 0.295537
0.258488 0.070954 0.294865
0.299870 0.051026 0.280644
0.335332 0.045167 0.277226
0.356573 0.042237 0.253574
0.371466 0.043366 0.214542
0.421149 0.046326 0.167910
0.046693 0.239628 0.443336
0.053986 0.248264 0.427283
0.158053 0.273472 0.424292
0.340093 0.272404 0.417609
0.443183 0.249882 0.404303
0.514946 0.227176 0.392218
0.545708 0.173968 0.354788
0.553979 0.115694 0.288045
0.576104 0.076020 0.190173
0.053376 0.366491 0.524834
0.075441 0.388617 0.510369
0.180362 0.419257 0.508080
0.368261 0.437415 0.508141
0.540063 0.440253 0.498177
0.640040 0.423545 0.480522
0.687617 0.376608 0.443351
0.709529 0.309102 0.377859
0.720943 0.237140 0.269917
0.067964 0.482063 0.569970
0.125154 0.518212 0.560265
0.257267 0.554009 0.558282
0.438483 0.577081 0.560876
0.611048 0.588586 0.569635
0.738643 0.588296 0.555764
0.797879 0.563088 0.526375
0.821775 0.503761 0.466300
0.835081 0.430198 0.373465
0.102724 0.552728 0.552514
0.185489 0.587793 0.541329
0.300267 0.610864 0.531624
0.450202 0.632227 0.532753
0.649409 0.668055 0.562539
0.775280 0.697444 0.569100
0.870359 0.701686 0.561105
0.909697 0.679194 0.532143
0.918944 0.622217 0.465614
0.197620 0.623774 0.537087
0.285908 0.638697 0.506279
0.384726 0.650538 0.486809
0.513451 0.678492 0.501381
0.687709 0.724605 0.539895
0.814557 0.756191 0.556649
0.892149 0.768460 0.541604
0.941009 0.763455 0.525704
0.955657 0.737942 0.484398
0.401328 0.686793 0.504250
0.446281 0.705348 0.526360
0.537972 0.710262 0.466468
0.636225 0.737270 0.484779
0.749752 0.771389 0.515114
0.846082 0.795041 0.531838
0.917205 0.811215 0.525734
0.952850 0.804532 0.494408
0.964385 0.790829 0.461173
0.683970 0.765957 0.457771
0.686595 0.767788 0.463569
0.713146 0.772549 0.453254
0.757961 0.785672 0.459815
0.825681 0.806027 0.477028
0.873472 0.817746 0.486519
0.919951 0.826383 0.477043
0.956054 0.824857 0.450736
0.966094 0.816037 0.428824
0.032654 0.032868 0.173770
0.035767 0.034028 0.191348
0.059480 0.036316 0.216953
0.092805 0.036530 0.229831
0.110719 0.036347 0.231296
0.116579 0.035767 0.223880
0.141207 0.036042 0.228428
0.194644 0.036347 0.230594
0.300786 0.039307 0.222416
0.040772 0.076051 0.309575
0.040467 0.074708 0.306340
0.113130 0.072511 0.319524
0.201297 0.061463 0.326757
0.250889 0.047486 0.320287
0.254459 0.040009 0.298253
0.291478 0.039551 0.295140
0.334173 0.040131 0.278813
0.413489 0.044862 0.252140
0.047944 0.227268 0.470192
0.049134 0.231327 0.463294
0.100069 0.255680 0.464302
0.259052 0.254154 0.456733
0.371206 0.236332 0.453834
0.423682 0.190204 0.429847
0.482856 0.160815 0.419837
0.523339 0.111574 0.385138
0.570397 0.068910 0.298131
0.052308 0.339757 0.550072
0.062196 0.367407 0.548913
0.114443 0.392599 0.549340
0.276356 0.421851 0.554864
0.434928 0.412314 0.539452
0.539147 0.398825 0.532494
0.624994 0.378470 0.526696
0.672816 0.320821 0.485023
0.714229 0.248829 0.403388
0.062776 0.454520 0.605585
0.088075 0.489006 0.602228
0.157641 0.519051 0.602686
0.312398 0.553109 0.612573
0.509560 0.571664 0.617182
0.642267 0.567483 0.609979
0.732631 0.560433 0.606744
0.776654 0.516152 0.571496
0.808927 0.450431 0.502373
0.087892 0.553979 0.642969
0.146975 0.594659 0.638453
0.243565 0.625513 0.640162
0.388998 0.654078 0.646479
0.581186 0.681300 0.661616
0.726101 0.699306 0.678065
0.818967 0.700984 0.673487
0.866300 0.682673 0.651881
0.885954 0.637156 0.598459
0.138277 0.621546 0.634333
0.200229 0.643763 0.619287
0.286015 0.664546 0.614343
0.407919 0.690089 0.620844
0.581430 0.721065 0.638575
0.747311 0.753994 0.668940
0.848081 0.779507 0.681361
0.911986 0.779965 0.674769
0.934905 0.764523 0.649195
0.258244 0.683253 0.617151
0.307774 0.700557 0.621851
0.383398 0.703151 0.583612
0.492546 0.725368 0.590661
0.626688 0.755886 0.610681
0.766873 0.791928 0.644129
0.872801 0.819791 0.665156
0.929808 0.826383 0.652277
0.956420 0.823484 0.639765
0.493339 0.742031 0.580652
0.513802 0.747738 0.585168
0.564828 0.753506 0.566796
0.626657 0.769375 0.571405
0.704021 0.791745 0.579034
0.796017 0.818814 0.595941
0.878691 0.837308 0.610834
0.937163 0.847807 0.601434
0.965148 0.848264 0.592828
0.033539 0.033661 0.195895
0.035187 0.034852 0.208164
0.051392 0.037446 0.241764
0.079316 0.038178 0.256229
0.098909 0.038422 0.260960
0.105196 0.038117 0.256352
0.100679 0.037385 0.243931
0.135225 0.037140 0.247105
0.242741 0.037903 0.266148
0.041016 0.071839 0.320500
0.041382 0.065492 0.326055
0.074891 0.061006 0.335943
0.157321 0.050385 0.355230
0.204044 0.044465 0.355718
0.225559 0.042084 0.343389
0.222477 0.040833 0.318578
0.266300 0.040864 0.317632
0.387762 0.043336 0.324346
0.047517 0.217594 0.477791
0.048676 0.215396 0.479347
0.060883 0.233768 0.483925
0.166278 0.240146 0.484230
0.288411 0.223178 0.483528
0.359228 0.187091 0.471687
0.383551 0.133837 0.441413
0.448249 0.104585 0.431891
0.548516 0.064515 0.405035
0.052827 0.329473 0.566064
0.055177 0.344274 0.566064
0.075288 0.368948 0.571496
0.185290 0.407675 0.583825
0.336263 0.399054 0.570550
0.448707 0.385245 0.565484
0.515221 0.353353 0.553185
0.602625 0.326375 0.548943
0.692378 0.259571 0.511162
0.059754 0.429847 0.622980
0.070893 0.465293 0.626001
0.110140 0.496239 0.629084
0.231098 0.532876 0.639948
0.427451 0.563424 0.652430
0.558404 0.553170 0.640192
0.636072 0.536690 0.635065
0.714336 0.521065 0.634730
0.778439 0.472923 0.604883
0.075990 0.527276 0.664759
0.110842 0.567224 0.665034
0.170535 0.597284 0.669032
0.296727 0.632288 0.680262
0.486931 0.665705 0.697810
0.655207 0.686305 0.710933
0.734615 0.681941 0.706050
0.805478 0.680964 0.708370
0.850492 0.651621 0.684352
0.121157 0.618097 0.694423
0.174075 0.645930 0.689845
0.253025 0.673396 0.693721
0.376196 0.703944 0.704402
0.544045 0.735836 0.722744
0.702419 0.761959 0.743587
0.811063 0.779873 0.760922
0.875914 0.778500 0.756802
0.905028 0.767391 0.744045
0.195743 0.678614 0.692317
0.230533 0.687984 0.677882
0.289433 0.703700 0.675074
0.401755 0.731899 0.686122
0.551766 0.764035 0.707210
0.692348 0.789334 0.723995
0.812833 0.813962 0.743801
0.897093 0.835721 0.761685
0.932189 0.834226 0.759670
0.325628 0.730861 0.676844
0.364538 0.738796 0.669306
0.417609 0.748684 0.665980
0.502174 0.767452 0.673732
0.598978 0.787350 0.680537
0.696437 0.805936 0.684657
0.807858 0.834043 0.706508
0.902525 0.858610 0.731167
0.945953 0.867643 0.735592
0.034607 0.034638 0.215274
0.035065 0.035126 0.222232
0.042786 0.037751 0.256413
0.067231 0.038422 0.281193
0.088258 0.039002 0.289403
0.096101 0.039124 0.287846
0.093355 0.038941 0.279026
0.086275 0.038300 0.258976
0.158083 0.038758 0.275151
0.042267 0.078431 0.352361
0.042145 0.058137 0.335698
0.049653 0.051667 0.344366
0.106477 0.049805 0.371984
0.155917 0.043824 0.378149
0.190188 0.042817 0.373754
0.205814 0.042329 0.357977
0.213138 0.041932 0.339635
0.336370 0.043977 0.361700
0.048402 0.221714 0.489540
0.048249 0.200076 0.482490
0.049866 0.207034 0.488655
0.085634 0.227481 0.496651
0.185779 0.221775 0.497688
0.282414 0.195727 0.496040
0.336858 0.148821 0.478340
0.357549 0.100526 0.449165
0.493233 0.067384 0.456580
0.053742 0.327855 0.580072
0.052918 0.317174 0.568231
0.058076 0.337514 0.575433
0.122942 0.389090 0.596155
0.246876 0.402808 0.598413
0.365759 0.387228 0.589380
0.452674 0.367666 0.586419
0.498543 0.325917 0.570825
0.637659 0.287709 0.571679
0.059480 0.418463 0.637873
0.064454 0.445914 0.639551
0.093568 0.478965 0.644923
0.186175 0.520180 0.657832
0.369741 0.561837 0.675807
0.493935 0.556832 0.668849
0.577630 0.543008 0.662196
0.624323 0.516182 0.653071
0.725429 0.496056 0.655726
0.071992 0.511254 0.679377
0.101472 0.558038 0.684169
0.170138 0.595148 0.693477
0.282475 0.628260 0.705562
0.456840 0.662837 0.722560
0.620981 0.686458 0.735805
0.691920 0.681056 0.730129
0.730098 0.669184 0.724300
0.802853 0.665125 0.728450
0.112093 0.604517 0.711299
0.156374 0.634302 0.709560
0.235355 0.665705 0.719692
0.355047 0.697871 0.733974
0.513252 0.729824 0.751369
0.667399 0.755764 0.770199
0.772488 0.771664 0.784421
0.812772 0.769223 0.781155
0.865721 0.771817 0.784695
0.194400 0.682704 0.733547
0.225528 0.694820 0.728359
0.295415 0.715541 0.732113
0.422187 0.749142 0.750210
0.565164 0.778775 0.770077
0.692348 0.801968 0.789303
0.785306 0.823911 0.809964
0.874754 0.839811 0.824613
0.910979 0.838224 0.822293
0.271794 0.725551 0.726680
0.301793 0.734951 0.726955
0.351293 0.747280 0.729458
0.464027 0.775387 0.746944
0.577569 0.800259 0.762722
0.673884 0.818662 0.773190
0.764370 0.835996 0.782620
0.860624 0.856382 0.800809
0.921874 0.873228 0.825071
0.035340 0.035370 0.228733
0.035737 0.035737 0.234134
0.038025 0.037079 0.263645
0.054963 0.038911 0.297795
0.078645 0.039826 0.314794
0.090425 0.040009 0.317296
0.096315 0.039918 0.314214
0.123690 0.039979 0.317388
0.132876 0.039643 0.295323
0.043061 0.078950 0.371557
0.042664 0.065614 0.356786
0.042847 0.058991 0.360204
0.062440 0.061616 0.381811
0.109529 0.058076 0.392279
0.158541 0.052491 0.395453
0.190158 0.047608 0.389654
0.210544 0.044434 0.379248
0.291112 0.044923 0.384558
0.049134 0.223178 0.499001
0.047944 0.192752 0.484352
0.049561 0.187625 0.490639
0.056916 0.219516 0.508141
0.106981 0.238346 0.518029
0.213931 0.223087 0.516777
0.296941 0.193194 0.514946
0.337469 0.139193 0.492561
0.423682 0.087495 0.482948
0.053925 0.323552 0.583124
0.053315 0.298924 0.568994
0.053956 0.307607 0.570733
0.102022 0.373861 0.600061
0.204883 0.411215 0.617426
0.312139 0.408255 0.613886
0.406806 0.392111 0.609705
0.472755 0.365988 0.605035
0.558526 0.327169 0.599786
0.060029 0.413092 0.648432
0.063600 0.427909 0.644465
0.075593 0.456107 0.649897
0.168017 0.510658 0.667750
0.355123 0.566842 0.691829
0.470130 0.572274 0.692836
0.545190 0.559853 0.685298
0.598962 0.544411 0.680140
0.659907 0.519661 0.676265
0.074006 0.512078 0.692226
0.114321 0.564691 0.702083
0.180606 0.602411 0.711452
0.299077 0.634638 0.723781
0.476143 0.671351 0.742275
0.621805 0.695583 0.755581
0.675258 0.692866 0.752499
0.715724 0.687282 0.748257
0.751278 0.673579 0.743313
0.125826 0.615351 0.727077
0.177066 0.645960 0.731868
0.316075 0.694453 0.749416
0.427314 0.716518 0.760586
0.559838 0.739925 0.775326
0.682918 0.760708 0.791379
0.766415 0.774868 0.802609
0.799374 0.775814 0.800961
0.826627 0.773648 0.799283
0.218051 0.691768 0.750607
0.231388 0.696986 0.749294
0.341253 0.730465 0.761624
0.491768 0.763760 0.781521
0.602747 0.784421 0.796292
0.703883 0.803616 0.812894
0.789120 0.819883 0.826444
0.858152 0.834897 0.838041
0.883604 0.839597 0.839841
0.276799 0.733486 0.760067
0.336431 0.751522 0.768948
0.407813 0.768002 0.776730
0.542107 0.799344 0.798367
0.637995 0.818814 0.812589
0.706233 0.831052 0.822904
0.782193 0.846098 0.835782
0.860655 0.865538 0.854337
0.919249 0.882261 0.872343
