LUT color transfer/LUTs/4.cube
LUT_3D_SIZE 16
-0.089722 -0.088045 -0.057131
-0.067879 -0.087726 -0.056535
0.041136 -0.087088 -0.055346
0.115516 -0.085362 -0.051994
0.202994 -0.080904 -0.042120
0.300478 -0.071109 0.024646
0.406500 -0.048171 0.060767
0.517435 0.054844 0.121295
0.620718 0.087977 0.154214
0.713247 0.110950 0.176082
0.794196 0.129107 0.193176
0.862445 0.143616 0.206768
0.917257 0.154926 0.217335
0.957611 0.163084 0.224954
0.981996 0.167975 0.229503
0.997606 0.171078 0.232408
-0.088705 -0.065625 -0.055194
-0.066371 -0.065136 -0.054566
0.041888 -0.075463 -0.054220
0.115833 -0.072767 -0.050714
0.203210 -0.062324 -0.039858
0.300673 -0.035537 0.029769
0.406614 0.058947 0.062770
0.517533 0.089550 0.124199
0.620869 0.111976 0.155736
0.713280 0.130019 0.177183
0.794308 0.144907 0.194063
0.862501 0.156965 0.207510
0.917332 0.166288 0.217961
0.957582 0.172830 0.225476
0.981958 0.176325 0.229956
0.997687 0.178244 0.232792
-0.086680 0.067007 -0.051098
-0.074845 0.067282 -0.050709
0.044988 0.068422 -0.048997
0.117194 0.073944 -0.044628
0.204119 0.095875 -0.027049
0.301396 0.117869 0.044034
0.407261 0.138796 0.070473
0.518060 0.158350 0.134499
0.621289 0.173741 0.161821
0.713763 0.185586 0.181796
0.794637 0.194749 0.197783
0.862769 0.201416 0.210605
0.917552 0.205781 0.220577
0.957789 0.207686 0.227703
0.982154 0.206943 0.231860
0.997797 0.205178 0.234405
-0.080930 0.142797 -0.036974
-0.066981 0.142893 -0.036329
0.053686 0.143306 -0.033386
0.119899 0.144146 -0.025887
0.205957 0.165836 0.036987
0.302824 0.189291 0.061596
0.408447 0.211806 0.114899
0.519072 0.232200 0.149940
0.622186 0.246610 0.172605
0.714460 0.255951 0.190355
0.795198 0.261515 0.204875
0.863354 0.263917 0.216586
0.918042 0.263572 0.225668
0.958192 0.260584 0.232061
0.982509 0.254809 0.235588
0.998086 0.248345 0.237646
-0.063576 0.226953 0.048111
-0.029821 0.227020 0.048671
0.079666 0.227277 0.050970
0.145695 0.227848 0.055238
0.208836 0.228740 0.061232
0.305113 0.256915 0.106377
0.410376 0.283639 0.143320
0.520739 0.307217 0.167931
0.623595 0.322680 0.186979
0.715709 0.331304 0.202443
0.796263 0.334809 0.215212
0.864276 0.334123 0.225475
0.918845 0.329983 0.233351
0.958830 0.322639 0.238715
0.983129 0.312145 0.241324
0.998564 0.301037 0.242616
0.028713 0.320969 0.119858
0.052602 0.321009 0.120531
0.109642 0.321211 0.123272
0.174934 0.321665 0.128251
0.241404 0.322356 0.135043
0.308344 0.323356 0.143138
0.413052 0.355081 0.166573
0.523062 0.382702 0.187171
0.625615 0.400074 0.203761
0.717459 0.408712 0.217232
0.797807 0.410873 0.228255
0.865503 0.407816 0.236972
0.919887 0.400503 0.243446
0.959824 0.389282 0.247542
0.983890 0.374356 0.249041
0.999241 0.358844 0.249343
0.075073 0.423244 0.169539
0.091152 0.423294 0.169818
0.140944 0.423464 0.171049
0.204928 0.423833 0.173490
0.273824 0.424440 0.177176
0.344750 0.425246 0.182149
0.416653 0.426346 0.188255
0.526144 0.458372 0.207084
0.628264 0.477986 0.222099
0.719748 0.487061 0.233992
0.799795 0.488327 0.243420
0.867186 0.483292 0.250614
0.921351 0.473087 0.255618
0.961096 0.458360 0.258351
0.984978 0.439266 0.258556
0.999965 0.419589 0.257729
0.115734 0.530305 0.206869
0.128721 0.530369 0.207090
0.172411 0.530516 0.207991
0.234396 0.530801 0.209799
0.304354 0.531333 0.212635
0.377981 0.532044 0.216522
0.453458 0.532992 0.221458
0.530000 0.534204 0.227358
0.631585 0.556257 0.241432
0.722590 0.566010 0.252123
0.802240 0.566573 0.260203
0.869344 0.559744 0.265954
0.923163 0.546916 0.269517
0.962683 0.528817 0.270836
0.986418 0.505743 0.269671
1.000574 0.482029 0.267617
0.150819 0.630109 0.238389
0.161524 0.630133 0.238557
0.200051 0.630260 0.239293
0.258605 0.630538 0.240774
0.327468 0.630952 0.243086
0.401416 0.631546 0.246323
0.478121 0.632337 0.250467
0.556413 0.633402 0.255513
0.635619 0.634638 0.261434
0.726074 0.645139 0.271218
0.805243 0.645178 0.278149
0.871895 0.636732 0.282600
0.925479 0.621416 0.284781
0.964631 0.600107 0.284693
0.988016 0.573128 0.282130
1.001958 0.545476 0.278759
0.180914 0.719381 0.265410
0.189951 0.719457 0.265552
0.223808 0.719486 0.266170
0.277981 0.719792 0.267413
0.343989 0.720085 0.269368
0.416445 0.720686 0.272100
0.492419 0.721400 0.275630
0.570565 0.722272 0.279972
0.649908 0.723289 0.285116
0.730162 0.724649 0.291018
0.808791 0.724099 0.296977
0.874995 0.714104 0.300237
0.928088 0.696441 0.301139
0.966871 0.672016 0.299683
0.989964 0.641138 0.295717
1.003603 0.609650 0.291045
0.206662 0.797515 0.288548
0.214368 0.797517 0.288649
0.244041 0.797662 0.289187
0.293452 0.797844 0.290222
0.355542 0.798130 0.291898
0.425120 0.798654 0.294213
0.499000 0.799206 0.297243
0.575528 0.799994 0.300996
0.653655 0.800943 0.305455
0.732838 0.802004 0.310635
0.812915 0.803291 0.316479
0.878604 0.791779 0.318695
0.931190 0.771716 0.318378
0.969643 0.744179 0.315586
0.992265 0.709586 0.310244
1.005523 0.674321 0.304246
0.228111 0.863427 0.307757
0.234708 0.863460 0.307867
0.260633 0.863512 0.308315
0.305141 0.863693 0.309204
0.362771 0.863971 0.310631
0.428510 0.864377 0.312656
0.499193 0.864889 0.315234
0.573049 0.865522 0.318469
0.648786 0.866313 0.322350
0.725831 0.867321 0.326861
0.803973 0.868373 0.331990
0.882705 0.869632 0.337740
0.934761 0.847275 0.336278
0.972613 0.816662 0.332240
0.994952 0.778385 0.325524
1.007723 0.739240 0.318202
0.245191 0.916353 0.323096
0.250852 0.916385 0.323194
0.273442 0.916446 0.323557
0.313294 0.916633 0.324339
0.366026 0.916861 0.325548
0.427349 0.917146 0.327293
0.494107 0.917603 0.329535
0.564405 0.918196 0.332314
0.636879 0.918869 0.335684
0.710917 0.919699 0.339618
0.786149 0.920706 0.344117
0.862182 0.921706 0.349150
0.938751 0.922968 0.354712
0.976156 0.889381 0.349477
0.997889 0.847408 0.341423
1.010214 0.804468 0.332820
0.257691 0.955270 0.334325
0.262551 0.955282 0.334387
0.282193 0.955358 0.334697
0.317483 0.955514 0.335379
0.365287 0.955705 0.336447
0.421804 0.955977 0.337897
0.484051 0.956375 0.339828
0.550124 0.956867 0.342248
0.618710 0.957466 0.345144
0.689038 0.958138 0.348567
0.760660 0.958926 0.352490
0.833138 0.959900 0.356899
0.906341 0.960962 0.361769
0.979948 0.962193 0.367146
1.000433 0.916551 0.357786
1.013002 0.869833 0.347943
0.265228 0.978809 0.341071
0.269410 0.978835 0.341148
0.286395 0.978878 0.341432
0.317424 0.978984 0.341978
0.360264 0.979165 0.342911
0.411651 0.979431 0.344157
0.468989 0.979757 0.345820
0.530362 0.980218 0.347897
0.594334 0.980675 0.350428
0.660279 0.981262 0.353375
0.727715 0.981961 0.356759
0.796024 0.982860 0.360597
0.865107 0.983759 0.364862
0.934693 0.984748 0.369525
1.004018 0.985934 0.374654
1.016099 0.935514 0.363521
0.270064 0.993877 0.345411
0.273647 0.993901 0.345453
0.288373 0.994003 0.345702
0.315641 0.994073 0.346181
0.353864 0.994269 0.346972
0.400471 0.994470 0.348068
0.452963 0.994762 0.349495
0.509601 0.995086 0.351285
0.569128 0.995502 0.353477
0.630622 0.996015 0.356000
0.693743 0.996615 0.358964
0.757926 0.997300 0.362300
0.822831 0.998169 0.366032
0.888349 0.999025 0.370123
0.954524 0.999965 0.374610
1.019498 1.000340 0.379483
-0.089613 -0.087934 0.040861
-0.067718 -0.087612 0.041792
0.041218 -0.087023 -0.023292
0.115552 -0.085293 0.016003
0.203015 -0.080809 0.046346
0.300511 -0.070961 0.068047
0.406526 -0.047865 0.126094
0.517458 0.055153 0.156046
0.620729 0.088146 0.177292
0.713273 0.111079 0.194241
0.794208 0.129211 0.208150
0.862457 0.143707 0.219386
0.917269 0.154986 0.228075
0.957621 0.163147 0.234136
0.981955 0.168042 0.237393
0.997615 0.171126 0.239170
-0.088593 -0.065456 0.043745
-0.066207 -0.064965 0.044588
0.042613 -0.063991 0.046186
0.116122 -0.061291 0.050087
0.203312 -0.053838 0.058206
0.300691 -0.032232 0.070561
0.406633 0.052613 0.121455
0.517525 0.082020 0.149711
0.620812 0.104721 0.171067
0.713275 0.123630 0.188716
0.794276 0.139571 0.203555
0.862476 0.152718 0.215793
0.917341 0.163176 0.225496
0.957568 0.170776 0.232566
0.981955 0.175378 0.236835
0.997695 0.178278 0.239544
-0.086616 0.067103 0.015768
-0.063093 0.067655 0.049450
0.045127 0.068582 0.050834
0.117399 0.080438 0.055100
0.204214 0.099390 0.063685
0.301413 0.118407 0.076034
0.407250 0.137157 0.131005
0.518039 0.155274 0.155904
0.621261 0.170052 0.175904
0.713690 0.181886 0.192699
0.794625 0.191328 0.206914
0.862760 0.198514 0.218649
0.917562 0.203482 0.227933
0.957776 0.206144 0.234665
0.982152 0.206200 0.238603
0.997805 0.205208 0.241065
-0.080858 0.142834 0.042545
-0.053543 0.143023 0.059898
0.059066 0.143410 0.061184
0.119957 0.144201 0.063686
0.206011 0.166869 0.073154
0.302837 0.189515 0.120378
0.408439 0.211015 0.145357
0.519066 0.230566 0.166754
0.622159 0.244529 0.184849
0.714462 0.253732 0.200270
0.795168 0.259361 0.213373
0.863326 0.262002 0.224194
0.918034 0.262016 0.232723
0.958200 0.259482 0.238767
0.982507 0.254265 0.242137
0.998094 0.248374 0.244120
-0.063446 0.226969 0.072110
0.013067 0.227066 0.099355
0.082658 0.227328 0.104132
0.146731 0.227894 0.111366
0.208868 0.228770 0.119830
0.305122 0.257015 0.142239
0.410375 0.283254 0.162126
0.520741 0.306326 0.181065
0.623583 0.321415 0.197325
0.715647 0.329871 0.211169
0.796249 0.333395 0.222909
0.864250 0.332806 0.232500
0.918823 0.328905 0.239928
0.958882 0.321864 0.245051
0.983127 0.311737 0.247577
0.998543 0.301055 0.248834
0.028899 0.320984 0.147014
0.053531 0.321026 0.148229
0.110092 0.321240 0.149657
0.175158 0.321696 0.152444
0.241504 0.322372 0.156640
0.308348 0.323386 0.162103
0.413061 0.354899 0.180089
0.523045 0.382230 0.197611
0.625568 0.399267 0.212431
0.717452 0.407793 0.224814
0.797782 0.409912 0.235106
0.865498 0.406912 0.243344
0.919905 0.399683 0.249507
0.959813 0.388709 0.253460
0.983889 0.374039 0.254912
0.999249 0.358875 0.255247
0.075179 0.423260 0.184717
0.088932 0.423301 0.182790
0.139636 0.423471 0.183824
0.204197 0.423841 0.185862
0.273435 0.424449 0.189032
0.344590 0.425258 0.193311
0.416651 0.426361 0.198690
0.526142 0.458168 0.215565
0.628253 0.477537 0.229405
0.719707 0.486495 0.240531
0.799790 0.487684 0.249488
0.867194 0.482628 0.256328
0.921335 0.472532 0.261141
0.961084 0.457941 0.263787
0.984977 0.439040 0.264019
0.999965 0.419581 0.263260
0.115814 0.530327 0.218583
0.125284 0.530367 0.215563
0.170088 0.530514 0.216409
0.232941 0.530801 0.218076
0.303489 0.531336 0.220693
0.377489 0.532021 0.224313
0.453245 0.533002 0.228905
0.530017 0.534220 0.234447
0.631583 0.556047 0.247682
0.722565 0.565668 0.257819
0.802225 0.566139 0.265545
0.869327 0.559266 0.271073
0.923149 0.546498 0.274517
0.962673 0.528525 0.275806
0.986418 0.505601 0.274727
1.000578 0.482034 0.272760
0.150881 0.630120 0.248040
0.157998 0.630129 0.244927
0.197403 0.630257 0.245627
0.256802 0.630535 0.247031
0.326233 0.630951 0.249249
0.400682 0.631546 0.252326
0.477675 0.632339 0.256303
0.556269 0.633406 0.261133
0.635627 0.634625 0.266814
0.726069 0.645025 0.276202
0.805233 0.644901 0.282881
0.871883 0.636384 0.287173
0.925468 0.621097 0.289288
0.964624 0.599885 0.289234
0.988017 0.573015 0.286759
1.001962 0.545492 0.283556
0.180956 0.719409 0.273569
0.186752 0.719447 0.270735
0.221267 0.719476 0.271332
0.276126 0.719737 0.272526
0.342720 0.720078 0.274417
0.415538 0.720680 0.277057
0.491840 0.721399 0.280482
0.570223 0.722276 0.284695
0.649759 0.723299 0.289674
0.730179 0.724599 0.295423
0.808789 0.724087 0.301203
0.874989 0.713848 0.304361
0.928081 0.696221 0.305236
0.966867 0.671756 0.303812
0.989966 0.641065 0.299981
1.003607 0.609658 0.295449
0.206721 0.797509 0.295472
0.211685 0.797512 0.293110
0.241780 0.797658 0.293596
0.291724 0.797840 0.294620
0.354252 0.798126 0.296233
0.424210 0.798652 0.298486
0.498358 0.799205 0.301472
0.575082 0.799994 0.305127
0.653401 0.800946 0.309488
0.732793 0.802009 0.314544
0.812922 0.803299 0.320245
0.878604 0.791738 0.322395
0.931188 0.771590 0.322079
0.969641 0.744004 0.319355
0.992267 0.709576 0.314155
1.005527 0.674329 0.308304
0.228147 0.863438 0.313708
0.232541 0.863456 0.311798
0.258759 0.863509 0.312252
0.303680 0.863690 0.313136
0.361608 0.863968 0.314512
0.427661 0.864375 0.316450
0.498606 0.864888 0.319012
0.572606 0.865522 0.322192
0.648474 0.866315 0.325989
0.725753 0.867324 0.330412
0.803854 0.868378 0.335471
0.882665 0.869591 0.341079
0.934763 0.847185 0.339635
0.972614 0.816628 0.335684
0.994956 0.778325 0.329114
1.007726 0.739235 0.321953
0.245229 0.916364 0.328212
0.249256 0.916383 0.326810
0.272027 0.916445 0.327174
0.312102 0.916632 0.327937
0.365075 0.916860 0.329134
0.426631 0.917145 0.330801
0.493585 0.917603 0.333018
0.563964 0.918197 0.335769
0.636592 0.918871 0.339075
0.710670 0.919702 0.342932
0.786072 0.920690 0.347356
0.862146 0.921712 0.352283
0.938759 0.922976 0.357780
0.976161 0.889356 0.352590
0.997894 0.847362 0.344700
1.010218 0.804475 0.336269
0.257723 0.955283 0.338697
0.261513 0.955283 0.337788
0.281252 0.955359 0.338126
0.316698 0.955516 0.338768
0.364628 0.955706 0.339793
0.421275 0.955979 0.341261
0.483637 0.956378 0.343161
0.549809 0.956870 0.345527
0.618457 0.957469 0.348378
0.688873 0.958142 0.351726
0.760499 0.958930 0.355604
0.833037 0.959906 0.359928
0.906282 0.960969 0.364785
0.979957 0.962200 0.370057
1.000436 0.916561 0.360849
1.013006 0.869840 0.351132
0.265269 0.978818 0.344829
0.268926 0.978840 0.344414
0.285948 0.978883 0.344702
0.317061 0.978989 0.345269
0.359921 0.979170 0.346155
0.411423 0.979436 0.347417
0.468780 0.979762 0.349045
0.530186 0.980174 0.351075
0.594209 0.980680 0.353540
0.660199 0.981268 0.356435
0.727661 0.981967 0.359782
0.795960 0.982814 0.363576
0.865058 0.983718 0.367775
0.934695 0.984756 0.372431
1.004022 0.985942 0.377447
1.016102 0.935522 0.366511
0.270084 0.993885 0.348637
0.273665 0.993909 0.348691
0.288396 0.993956 0.348938
0.315689 0.994081 0.349414
0.353868 0.994278 0.350173
0.400464 0.994478 0.351240
0.452973 0.994770 0.352644
0.509617 0.995094 0.354387
0.569135 0.995510 0.356530
0.630695 0.996023 0.359064
0.693752 0.996623 0.361978
0.757933 0.997308 0.365290
0.822839 0.998177 0.368935
0.888357 0.999033 0.372966
0.954533 0.999965 0.377415
1.019502 1.000343 0.382208
-0.089397 -0.087721 0.134777
-0.078164 -0.087539 0.135040
0.041560 -0.086754 0.136151
0.115697 -0.085002 0.141524
0.203125 -0.080405 0.162591
0.300584 -0.070341 0.183365
0.406594 -0.046521 0.202993
0.517507 0.056445 0.221270
0.620794 0.088884 0.235571
0.713240 0.111618 0.246587
0.794260 0.129652 0.255044
0.862457 0.144064 0.261201
0.917318 0.155304 0.265194
0.957583 0.163407 0.266933
0.981970 0.168250 0.266194
0.997650 0.171320 0.264503
-0.088838 -0.076230 0.135615
-0.065880 -0.064631 0.136717
0.042893 -0.063648 0.137591
0.116258 -0.060853 0.148841
0.203406 -0.053130 0.166672
0.300753 -0.030291 0.184447
0.406689 0.053790 0.201916
0.517557 0.082756 0.218763
0.620890 0.105299 0.232489
0.713321 0.124103 0.243412
0.794327 0.139963 0.252134
0.862472 0.153062 0.258751
0.917359 0.163445 0.263331
0.957613 0.171021 0.265740
0.981996 0.175582 0.265758
0.997644 0.178462 0.264802
-0.086343 0.067497 0.139032
-0.062746 0.067976 0.139461
0.045390 0.068897 0.140279
0.117301 0.071265 0.142394
0.203925 0.076636 0.147220
0.301075 0.085770 0.155470
0.406880 0.098508 0.167054
0.517707 0.113940 0.181163
0.620960 0.129553 0.195464
0.713440 0.144176 0.208913
0.794361 0.157347 0.221021
0.862541 0.168616 0.231418
0.917394 0.177771 0.239852
0.957673 0.184561 0.246112
0.982043 0.188700 0.249910
0.997723 0.191346 0.252357
-0.080538 0.142976 0.148312
-0.053015 0.143160 0.154084
0.051532 0.143459 0.146750
0.120061 0.144315 0.148609
0.205877 0.161088 0.154651
0.302590 0.178185 0.163578
0.408140 0.195357 0.175283
0.518761 0.211799 0.189066
0.621889 0.224281 0.202717
0.714138 0.233258 0.215380
0.794965 0.239556 0.226721
0.863142 0.243465 0.236400
0.917863 0.245192 0.244204
0.958056 0.244685 0.249880
0.982381 0.241757 0.253159
0.997985 0.238102 0.255150
-0.062877 0.227070 0.174132
0.014238 0.227166 0.177088
0.064488 0.227279 0.159879
0.141013 0.227879 0.161843
0.208940 0.228843 0.164823
0.305011 0.252842 0.174690
0.410131 0.275569 0.186698
0.520501 0.295959 0.200292
0.623333 0.309499 0.213235
0.715457 0.317216 0.224935
0.796049 0.320616 0.235279
0.864036 0.320478 0.243951
0.918642 0.317374 0.250829
0.958752 0.311453 0.255653
0.983053 0.302728 0.258170
0.998467 0.293473 0.259497
0.029698 0.321042 0.201564
0.054012 0.321115 0.202071
0.084829 0.321166 0.179330
0.164341 0.321621 0.181198
0.237347 0.322358 0.184076
0.308377 0.323430 0.187967
0.412956 0.351824 0.200562
0.522876 0.376629 0.214155
0.625411 0.392031 0.226461
0.717155 0.399571 0.237196
0.797590 0.401310 0.246393
0.865339 0.398352 0.253941
0.919770 0.391538 0.259686
0.959688 0.381146 0.263455
0.983823 0.367388 0.264974
0.999151 0.353194 0.265420
0.075623 0.423335 0.229681
0.089314 0.423376 0.228586
0.111631 0.423413 0.203583
0.189780 0.423776 0.205272
0.265957 0.424390 0.207903
0.341471 0.425236 0.211522
0.416670 0.426388 0.216104
0.526082 0.455765 0.229952
0.628111 0.473417 0.241803
0.719521 0.481247 0.251646
0.799608 0.481863 0.259718
0.867052 0.476589 0.266036
0.921228 0.466572 0.270569
0.960980 0.452330 0.273133
0.984931 0.433995 0.273476
0.999965 0.415241 0.272911
0.116165 0.530373 0.257932
0.125610 0.530431 0.255903
0.141893 0.530436 0.230696
0.216323 0.530740 0.232196
0.293591 0.531272 0.234582
0.371937 0.531995 0.237834
0.450833 0.532974 0.242020
0.530028 0.534222 0.247122
0.631500 0.554232 0.258718
0.722432 0.562591 0.267809
0.802100 0.562303 0.274841
0.869214 0.555008 0.279952
0.923092 0.542187 0.283196
0.962594 0.524331 0.284474
0.986302 0.501744 0.283558
1.000517 0.478644 0.281818
0.151155 0.630142 0.282745
0.158272 0.630160 0.280418
0.171041 0.630168 0.256808
0.239623 0.630443 0.258117
0.315110 0.630881 0.260198
0.393630 0.631510 0.263075
0.473583 0.632321 0.266805
0.554401 0.633402 0.271386
0.635622 0.634640 0.276774
0.726035 0.643634 0.285253
0.805150 0.642660 0.291355
0.871828 0.633580 0.295304
0.925340 0.618018 0.297286
0.964564 0.596735 0.297238
0.987997 0.570056 0.294975
1.001906 0.542845 0.292022
0.181196 0.719480 0.304041
0.186977 0.719454 0.301784
0.197578 0.719469 0.280601
0.259484 0.719677 0.281742
0.331220 0.720085 0.283545
0.407749 0.720639 0.286061
0.486740 0.721284 0.289317
0.567159 0.722199 0.293371
0.648404 0.723300 0.298157
0.730214 0.724631 0.303683
0.808752 0.722949 0.308945
0.874898 0.712164 0.311811
0.928046 0.694119 0.312595
0.966835 0.669537 0.311235
0.989884 0.638849 0.307605
1.003558 0.607600 0.303342
0.206924 0.797545 0.322177
0.211876 0.797562 0.320177
0.221046 0.797569 0.301630
0.276216 0.797817 0.302605
0.343135 0.798121 0.304165
0.416178 0.798581 0.306353
0.492752 0.799179 0.309199
0.571339 0.800020 0.312745
0.651116 0.800916 0.316958
0.731736 0.802000 0.321863
0.812924 0.803313 0.327418
0.878574 0.790926 0.329310
0.931166 0.770295 0.328886
0.969576 0.742528 0.326218
0.992211 0.707894 0.321213
1.005484 0.672787 0.315643
0.228310 0.863437 0.337046
0.232721 0.863455 0.335395
0.240930 0.863464 0.319442
0.289726 0.863634 0.320295
0.351121 0.863916 0.321632
0.419839 0.864304 0.323528
0.492847 0.864825 0.326001
0.568453 0.865489 0.329111
0.645654 0.866304 0.332786
0.724089 0.867301 0.337089
0.803077 0.868372 0.341989
0.882680 0.869627 0.347515
0.934720 0.846631 0.345984
0.972592 0.815601 0.342053
0.994927 0.777276 0.335684
1.007692 0.738092 0.328815
0.245376 0.916411 0.348527
0.249397 0.916431 0.347305
0.256976 0.916411 0.333818
0.299863 0.916572 0.334552
0.355519 0.916787 0.335737
0.419303 0.917110 0.337356
0.488007 0.917575 0.339489
0.559849 0.918177 0.342184
0.633541 0.918861 0.345400
0.708609 0.919671 0.349189
0.784743 0.920693 0.353491
0.861559 0.921710 0.358321
0.938774 0.922924 0.363685
0.976128 0.888896 0.358552
0.997893 0.846671 0.350855
1.010192 0.803656 0.342658
0.257841 0.955306 0.356318
0.261636 0.955287 0.355527
0.268793 0.955304 0.344406
0.306257 0.955449 0.345057
0.356229 0.955661 0.346065
0.414672 0.955919 0.347463
0.478486 0.956367 0.349324
0.545832 0.956819 0.351616
0.615452 0.957471 0.354409
0.686729 0.958109 0.357699
0.758978 0.958951 0.361471
0.832115 0.959894 0.365734
0.905824 0.960970 0.370432
0.979974 0.962173 0.375638
1.000426 0.916218 0.366594
1.012990 0.869357 0.357081
0.265366 0.978835 0.360133
0.269037 0.978808 0.359752
0.275964 0.978830 0.350864
0.308506 0.978938 0.351374
0.352856 0.979194 0.352224
0.405725 0.979390 0.353453
0.464223 0.979718 0.355054
0.526582 0.980184 0.357059
0.591412 0.980646 0.359441
0.658061 0.981238 0.362292
0.726028 0.982020 0.365572
0.794885 0.982852 0.369233
0.864372 0.983763 0.373373
0.934374 0.984760 0.377887
1.004029 0.985958 0.382825
1.016097 0.935273 0.372076
0.270172 0.993922 0.361891
0.273766 0.993945 0.361941
0.280573 0.993972 0.354966
0.308799 0.994042 0.355405
0.348155 0.994241 0.356142
0.395713 0.994442 0.357190
0.449113 0.994737 0.358587
0.506508 0.995119 0.360330
0.566622 0.995481 0.362371
0.628716 0.996055 0.364824
0.692286 0.996604 0.367689
0.756716 0.997295 0.370881
0.822016 0.998170 0.374465
0.887854 0.999033 0.378463
0.954284 0.999965 0.382765
1.019509 1.000350 0.387455
-0.088836 -0.087134 0.206930
-0.076941 -0.086944 0.207021
0.045233 -0.086118 0.207408
0.115995 -0.084406 0.208182
0.203305 -0.079576 0.228475
0.300744 -0.069056 0.250381
0.406693 -0.043612 0.271353
0.517601 0.058945 0.290353
0.620904 0.090344 0.303714
0.713366 0.112724 0.312368
0.794331 0.130534 0.317481
0.862506 0.144800 0.319667
0.917339 0.155912 0.319281
0.957632 0.163952 0.316430
0.982002 0.168701 0.311008
0.997639 0.171708 0.304958
-0.088237 -0.074973 0.207224
-0.065004 -0.063734 0.207577
0.052353 -0.062519 0.207939
0.116541 -0.059951 0.208656
0.203613 -0.051651 0.229800
0.300915 -0.025688 0.250890
0.406818 0.056072 0.270878
0.517702 0.084232 0.289048
0.620957 0.106453 0.301974
0.713445 0.125054 0.310479
0.794363 0.140762 0.315668
0.862536 0.153738 0.318041
0.917379 0.164035 0.318004
0.957665 0.171529 0.315589
0.982074 0.176000 0.310714
0.997719 0.178823 0.305184
-0.085616 0.071629 0.208435
-0.061116 0.078665 0.208718
0.046087 0.069729 0.208827
0.117597 0.072058 0.209600
0.204146 0.077581 0.225129
0.301236 0.086788 0.240958
0.406989 0.099525 0.256822
0.517814 0.114915 0.272017
0.621046 0.130435 0.283558
0.713536 0.144961 0.291837
0.794467 0.158021 0.297607
0.862618 0.169239 0.301181
0.917482 0.178281 0.302699
0.957722 0.185026 0.302190
0.982077 0.189095 0.299421
0.997799 0.191673 0.295988
-0.079899 0.143264 0.210870
-0.051910 0.143426 0.211022
0.052155 0.143756 0.211297
0.120354 0.144599 0.212061
0.205553 0.146657 0.213893
0.302069 0.150531 0.217356
0.407599 0.156729 0.222919
0.518206 0.165310 0.230629
0.621372 0.175019 0.239415
0.713809 0.184969 0.248434
0.794694 0.194478 0.257076
0.862849 0.202985 0.264846
0.917580 0.210157 0.271350
0.957886 0.215547 0.276302
0.982257 0.218886 0.279350
0.997896 0.221051 0.281288
-0.061700 0.227270 0.234053
0.016403 0.227355 0.235049
0.065182 0.227495 0.230077
0.126854 0.227895 0.217818
0.209079 0.228985 0.219567
0.304743 0.243808 0.223996
0.409708 0.259125 0.230335
0.520039 0.273845 0.238518
0.622873 0.284224 0.247273
0.715079 0.290861 0.255858
0.795707 0.294645 0.263913
0.863753 0.295968 0.271009
0.918436 0.295140 0.276842
0.958516 0.292193 0.281120
0.982913 0.286955 0.283525
0.998383 0.281302 0.284938
0.031264 0.321191 0.260309
0.054967 0.321248 0.260577
0.085517 0.321322 0.250989
0.138465 0.321532 0.228179
0.228357 0.322347 0.230076
0.308495 0.323503 0.232752
0.412748 0.345406 0.240065
0.522568 0.365149 0.248892
0.625028 0.377416 0.257602
0.716874 0.383314 0.265734
0.797230 0.384568 0.273088
0.865046 0.381958 0.279351
0.919517 0.376235 0.284308
0.959539 0.367571 0.287709
0.983648 0.356023 0.289274
0.999073 0.344212 0.289930
0.076517 0.423441 0.287246
0.090096 0.423481 0.286649
0.112289 0.423525 0.273799
0.155702 0.423643 0.243550
0.249946 0.424298 0.245527
0.335020 0.425211 0.248283
0.416724 0.426463 0.251827
0.525861 0.450985 0.261397
0.627865 0.465269 0.270132
0.719206 0.471091 0.277792
0.799298 0.470683 0.284355
0.866807 0.465221 0.289693
0.921023 0.455666 0.293648
0.960790 0.442390 0.296021
0.984824 0.425538 0.296558
0.999965 0.408422 0.296321
0.116871 0.530514 0.313703
0.126253 0.530527 0.312428
0.142481 0.530559 0.297579
0.177739 0.530594 0.263232
