LUT color transfer/LUTs/4.cube
LUT_3D_SIZE 6
-0.089722 -0.088045 -0.057131
0.115516 -0.085362 -0.051994
0.406500 -0.048171 0.060767
0.713247 0.110950 0.176082
0.917257 0.154926 0.217335
0.997606 0.171078 0.232408
-0.080930 0.142797 -0.036974
0.119899 0.144146 -0.025887
0.408447 0.211806 0.114899
0.714460 0.255951 0.190355
0.918042 0.263572 0.225668
0.998086 0.248345 0.237646
0.075073 0.423244 0.169539
0.204928 0.423833 0.173490
0.416653 0.426346 0.188255
0.719748 0.487061 0.233992
0.921351 0.473087 0.255618
0.999965 0.419589 0.257729
0.180914 0.719381 0.265410
0.277981 0.719792 0.267413
0.492419 0.721400 0.275630
0.730162 0.724649 0.291018
0.928088 0.696441 0.301139
1.003603 0.609650 0.291045
0.245191 0.916353 0.323096
0.313294 0.916633 0.324339
0.494107 0.917603 0.329535
0.710917 0.919699 0.339618
0.938751 0.922968 0.354712
1.010214 0.804468 0.332820
0.270064 0.993877 0.345411
0.315641 0.994073 0.346181
0.452963 0.994762 0.349495
0.630622 0.996015 0.356000
0.822831 0.998169 0.366032
1.019498 1.000340 0.379483
-0.088836 -0.087134 0.206930
0.115995 -0.084406 0.208182
0.406693 -0.043612 0.271353
0.713366 0.112724 0.312368
0.917339 0.155912 0.319281
0.997639 0.171708 0.304958
-0.079899 0.143264 0.210870
0.120354 0.144599 0.212061
0.407599 0.156729 0.222919
0.713809 0.184969 0.248434
0.917580 0.210157 0.271350
0.997896 0.221051 0.281288
0.076517 0.423441 0.287246
0.155702 0.423643 0.243550
0.416724 0.426463 0.251827
0.719206 0.471091 0.277792
0.921023 0.455666 0.293648
0.999965 0.408422 0.296321
0.181675 0.719495 0.352776
0.223362 0.719512 0.304014
0.476777 0.721195 0.310814
0.730181 0.724635 0.323869
0.927947 0.690293 0.331068
1.003490 0.604485 0.323039
0.245672 0.916431 0.384337
0.276194 0.916527 0.351297
0.477816 0.917524 0.355918
0.704913 0.919661 0.364916
0.938818 0.922965 0.378604
1.010160 0.802442 0.358872
0.270371 0.993992 0.386457
0.297892 0.993999 0.370716
0.443105 0.994705 0.373661
0.625681 0.996038 0.379587
0.820771 0.998177 0.388608
1.019528 1.000370 0.400859
-0.079500 -0.077501 0.468401
0.181520 -0.070740 0.468953
0.407610 0.021284 0.471258
0.713914 0.119899 0.527658
0.917694 0.160082 0.514602
0.997864 0.174296 0.464670
-0.054661 0.206264 0.470146
0.124716 0.148937 0.469527
0.408563 0.160593 0.472108
0.714312 0.188808 0.513457
0.917985 0.212969 0.499039
0.998150 0.222891 0.455106
0.082430 0.424317 0.477457
0.158984 0.424627 0.477705
0.417671 0.427417 0.480218
0.718650 0.435109 0.487074
0.921106 0.443294 0.494432
1.000219 0.447228 0.497937
0.184927 0.720078 0.545505
0.226032 0.720140 0.531566
0.441804 0.721415 0.501670
0.730711 0.725145 0.508074
0.928073 0.686406 0.511064
1.004286 0.623164 0.509060
0.247683 0.916782 0.546915
0.277998 0.916892 0.532412
0.466356 0.917788 0.523562
0.700995 0.919954 0.528366
0.939089 0.923311 0.535958
1.010742 0.810066 0.526055
0.271641 0.994209 0.509913
0.299037 0.994306 0.501197
0.477772 0.995197 0.533741
0.643806 0.996438 0.536867
0.828410 0.998480 0.541811
1.019819 1.000661 0.548726
-0.036036 -0.029214 0.743849
0.217187 0.037957 0.744235
0.466409 0.087359 0.745718
0.715109 0.132852 0.748619
0.918477 0.168105 0.722384
0.998360 0.179404 0.641594
0.042924 0.240689 0.744994
0.136038 0.160153 0.744467
0.450299 0.173277 0.745934
0.715511 0.196294 0.748994
0.918729 0.218531 0.717135
0.998544 0.226591 0.637260
0.116059 0.481104 0.749681
0.174544 0.464995 0.749286
0.420342 0.430098 0.749604
0.719907 0.437721 0.752932
0.921832 0.445355 0.717150
1.000658 0.448587 0.658926
0.191328 0.721194 0.759050
0.231305 0.721302 0.759206
0.444300 0.722635 0.760375
0.731940 0.726454 0.763679
0.930633 0.730391 0.767259
1.008538 0.732469 0.769054
0.251731 0.917472 0.741675
0.281563 0.917567 0.736372
0.468223 0.918489 0.733668
0.744888 0.921351 0.775106
0.940042 0.924240 0.778619
1.013552 0.858475 0.776021
0.274220 0.994661 0.669583
0.301351 0.994768 0.665189
0.478986 0.995623 0.682378
0.750991 0.998391 0.780564
0.876847 0.999893 0.782747
1.020612 1.001474 0.785749
0.047819 0.075208 0.927078
0.212886 0.082741 0.927321
0.446493 0.107464 0.928225
0.682730 0.141701 0.930136
0.919553 0.179869 0.933102
0.999074 0.187204 0.822884
0.067832 0.236617 0.927730
0.147303 0.171302 0.927443
0.428575 0.181823 0.928385
0.676836 0.200943 0.930373
0.919885 0.227052 0.933453
0.999270 0.232324 0.821310
0.123252 0.461909 0.930761
0.178978 0.444003 0.930507
0.423271 0.432990 0.931134
0.676913 0.439094 0.933092
0.923050 0.448596 0.936215
1.001359 0.450739 0.831406
0.189327 0.689954 0.936802
0.228267 0.683877 0.936661
0.442541 0.680742 0.937400
0.733387 0.727771 0.941272
0.931661 0.731840 0.943877
1.009080 0.733246 0.883692
0.258017 0.918653 0.946321
0.287175 0.918719 0.946405
0.471217 0.919732 0.947249
0.746156 0.922325 0.949624
0.940984 0.925218 0.952232
1.017536 0.926642 0.953449
0.278270 0.995386 0.842150
0.304968 0.995424 0.840424
0.480933 0.996336 0.847908
0.751871 0.998835 0.893099
0.945500 1.001102 0.956224
1.021471 1.002362 0.957458
0.061345 0.089806 0.999199
0.186751 0.094119 0.999318
0.385757 0.110039 0.999838
0.589691 0.134987 1.000492
0.794762 0.164972 1.002572
0.999965 0.197546 1.005514
0.073821 0.211506 0.999599
0.152453 0.176384 0.999499
0.374465 0.183575 0.999967
0.584766 0.197104 1.000727
0.792945 0.216359 1.002825
0.999965 0.240126 1.005793
0.114042 0.403308 1.000933
0.174641 0.391729 1.000839
0.424675 0.434406 1.002322
0.609436 0.438484 1.003590
0.804349 0.444888 1.005615
1.002354 0.453784 1.008480
0.167203 0.600147 1.005088
0.211581 0.595000 1.005033
0.437657 0.615204 1.006377
0.734024 0.728392 1.012139
0.863220 0.730930 1.013703
1.009846 0.734363 1.015910
0.224671 0.798069 1.011689
0.258033 0.796074 1.011691
0.457401 0.804625 1.012817
0.741947 0.855327 1.017124
0.941559 0.925723 1.022732
1.017959 0.927157 1.023960
0.283888 0.996337 1.020956
0.310045 0.996476 1.021047
0.483655 0.997309 1.021861
0.753011 0.999643 1.024150
0.945985 1.001537 1.026641
1.021892 1.002795 1.027864
