LUT color transfer/LUTs/40.cube
# (C) 2014 VisionColor & Patchflyer [www.vision-color.com]
# Generator: VC Patchmatch v.2.1.1 [64/53]
# All work and no play makes Jack a dull boy.
# LUT generated from: Kodak Vision3 500T 5219 (NEG)_FC
LUT_3D_SIZE 17
0.027466 0.027466 0.027466
0.097719 0.026307 0.024445
0.160586 0.033570 0.023682
0.253422 0.059937 0.038056
0.347570 0.082612 0.051820
0.456352 0.105501 0.068727
0.559915 0.123537 0.085756
0.644923 0.131441 0.097780
0.707240 0.135134 0.107362
0.743923 0.134890 0.111849
0.763424 0.132448 0.114076
0.776944 0.124697 0.120089
0.776822 0.114992 0.130709
0.750210 0.104494 0.143130
0.722622 0.093904 0.149264
0.702419 0.088197 0.145510
0.693385 0.085542 0.141451
0.053071 0.053651 0.022217
0.084474 0.049317 0.024262
0.143282 0.055879 0.027893
0.244175 0.079438 0.043885
0.325902 0.106325 0.056519
0.403021 0.130648 0.068208
0.485374 0.149722 0.081697
0.569421 0.160616 0.091890
0.629786 0.166140 0.099794
0.675532 0.168185 0.104433
0.693111 0.176303 0.107454
0.706416 0.176852 0.110079
0.722774 0.174441 0.114351
0.730343 0.161196 0.112001
0.731655 0.145205 0.105501
0.735286 0.134188 0.103120
0.735714 0.124178 0.101717
0.066621 0.111025 0.036957
0.101045 0.121065 0.040894
0.147036 0.108766 0.044038
0.245914 0.128237 0.056031
0.337163 0.153841 0.071870
0.413123 0.172854 0.083131
0.496574 0.194827 0.096193
0.581674 0.217807 0.108888
0.650202 0.234409 0.119112
0.697444 0.248966 0.129641
0.713252 0.249088 0.129915
0.723781 0.248142 0.131563
0.729946 0.239017 0.130495
0.725612 0.223209 0.123476
0.721462 0.209751 0.118379
0.721675 0.205539 0.117250
0.717983 0.198672 0.114595
0.068666 0.176852 0.054536
0.109285 0.184298 0.060273
0.199100 0.205264 0.073671
0.257694 0.185763 0.073701
0.349065 0.208774 0.087495
0.437385 0.234379 0.101839
0.520058 0.255924 0.114321
0.602090 0.277348 0.127565
0.671611 0.302068 0.140383
0.720760 0.324071 0.152010
0.738674 0.327672 0.155520
0.746883 0.328374 0.157565
0.752773 0.323522 0.158511
0.749508 0.309300 0.151614
0.742855 0.292760 0.145663
0.744533 0.290745 0.146151
0.741207 0.285008 0.144472
0.082612 0.246220 0.075715
0.129183 0.250736 0.080171
0.223880 0.275639 0.095338
0.336309 0.305272 0.112764
0.370184 0.275853 0.108186
0.462852 0.303960 0.123140
0.549203 0.326238 0.136477
0.629618 0.342473 0.148745
0.691432 0.361944 0.162356
0.737575 0.380621 0.174197
0.759487 0.390417 0.179995
0.768582 0.395605 0.183474
0.769009 0.392615 0.182528
0.765957 0.382239 0.177920
0.767239 0.379644 0.177707
0.768246 0.375708 0.176730
0.764584 0.369787 0.175387
0.116243 0.352163 0.107637
0.168063 0.333547 0.106813
0.265324 0.358099 0.122469
0.371588 0.383673 0.137697
0.455283 0.391333 0.147677
0.490715 0.366674 0.143099
0.578378 0.388952 0.157778
0.660166 0.404181 0.170901
0.712657 0.420386 0.183017
0.754238 0.439399 0.194797
0.773709 0.455940 0.202792
0.786465 0.464027 0.208499
0.791165 0.464546 0.210208
0.787259 0.456886 0.207095
0.789120 0.459632 0.209140
0.788266 0.454994 0.206058
0.784115 0.449592 0.204623
0.161746 0.493370 0.148959
0.218357 0.441825 0.140230
0.320882 0.453971 0.154452
0.413077 0.469108 0.166690
0.504631 0.481209 0.180117
0.570687 0.471580 0.184268
0.608682 0.446494 0.180362
0.696513 0.468772 0.198764
0.745785 0.486595 0.212711
0.779477 0.511406 0.226291
0.794125 0.523766 0.232517
0.801419 0.532067 0.236667
0.808530 0.536889 0.240818
0.807370 0.535546 0.240787
0.808103 0.543816 0.244724
0.807462 0.540291 0.242161
0.801572 0.525460 0.234226
0.202731 0.612863 0.183474
0.282490 0.565377 0.182040
0.388724 0.570321 0.195895
0.466606 0.574746 0.205844
0.525673 0.557931 0.206668
0.612284 0.563088 0.220706
0.681956 0.567178 0.233539
0.735271 0.551034 0.236484
0.779965 0.566110 0.249271
0.805051 0.584115 0.260227
0.814939 0.592782 0.265019
0.822446 0.604746 0.272312
0.826505 0.614664 0.277440
0.827054 0.619547 0.281468
0.828367 0.624430 0.285374
0.832425 0.633402 0.290501
0.830289 0.625345 0.285649
0.241489 0.726574 0.216281
0.344533 0.678386 0.223789
0.457603 0.685344 0.242954
0.529732 0.689189 0.256397
0.603586 0.682963 0.269795
0.650462 0.658671 0.268025
0.747295 0.701823 0.308949
0.811658 0.709422 0.330007
0.816831 0.667216 0.304646
0.838376 0.684733 0.316747
0.840543 0.685832 0.318517
0.850767 0.701732 0.328466
0.856626 0.714397 0.335332
0.858183 0.727245 0.340764
0.857572 0.726055 0.341558
0.858000 0.727367 0.342718
0.859281 0.726299 0.341863
0.273198 0.820325 0.244968
0.399329 0.781140 0.263432
0.525139 0.789807 0.293767
0.600000 0.797772 0.313909
0.700771 0.818280 0.345983
0.750744 0.799207 0.351156
0.795316 0.797513 0.364599
0.880796 0.859449 0.426734
0.886091 0.833432 0.412375
0.872099 0.782635 0.376410
0.871916 0.779309 0.377325
0.876158 0.784222 0.381567
0.885039 0.798138 0.391058
0.887236 0.806683 0.395758
0.887816 0.812634 0.399420
0.888884 0.813703 0.402228
0.891478 0.815961 0.403967
0.286137 0.870207 0.259129
0.428382 0.844602 0.289708
0.565789 0.842588 0.326146
0.658534 0.857023 0.355505
0.751186 0.871427 0.390082
0.833768 0.888502 0.429938
0.861906 0.877882 0.433173
0.906401 0.901122 0.460548
0.920348 0.910414 0.472175
0.915679 0.885313 0.455634
0.906462 0.866865 0.441840
0.907927 0.866865 0.442573
0.910369 0.869566 0.444038
0.910796 0.872648 0.445106
0.909819 0.873014 0.444495
0.910704 0.876707 0.446723
0.912779 0.876860 0.447578
0.298222 0.898802 0.268284
0.457191 0.880583 0.307622
0.602594 0.872038 0.349035
0.705135 0.887968 0.385229
0.792081 0.900206 0.420447
0.863188 0.913176 0.453285
0.895079 0.916960 0.467781
0.916228 0.917296 0.474495
0.925963 0.922393 0.481910
0.933288 0.928313 0.488014
0.926848 0.916167 0.478370
0.926604 0.910277 0.475349
0.925689 0.905180 0.471992
0.923735 0.904173 0.471992
0.923125 0.903105 0.468330
0.923522 0.905943 0.470039
0.922118 0.904875 0.470954
0.319463 0.915251 0.278202
0.483528 0.901854 0.317845
0.625666 0.897734 0.362799
0.738247 0.904265 0.403174
0.827420 0.916442 0.442329
0.885527 0.924743 0.467231
0.908598 0.925994 0.477089
0.922637 0.926513 0.483345
0.929625 0.928801 0.487953
0.932616 0.930083 0.489479
0.932616 0.932372 0.489479
0.934905 0.931975 0.490425
0.937255 0.930144 0.490913
0.933013 0.925963 0.489174
0.931609 0.923888 0.486610
0.931182 0.923247 0.485328
0.929625 0.922972 0.485969
0.340764 0.919707 0.284611
0.506004 0.910277 0.324620
0.644770 0.907591 0.369055
0.758389 0.912596 0.412299
0.849149 0.926055 0.453376
0.900938 0.932403 0.478096
0.917357 0.932403 0.484413
0.928649 0.933379 0.489845
0.933745 0.935668 0.492622
0.935058 0.934356 0.492226
0.932006 0.932006 0.490730
0.934325 0.934325 0.493050
0.936675 0.934478 0.494697
0.937255 0.934478 0.495277
0.936370 0.933562 0.494759
0.934844 0.932952 0.493843
0.934142 0.933471 0.494270
0.362005 0.923613 0.290593
0.523247 0.915129 0.331212
0.666621 0.915007 0.376471
0.792721 0.922301 0.427649
0.868650 0.932677 0.463539
0.911955 0.937255 0.485420
0.925872 0.937255 0.491951
0.936370 0.939788 0.496651
0.942504 0.942840 0.499702
0.941253 0.941253 0.500053
0.937438 0.937438 0.498146
0.937865 0.937865 0.498665
0.936919 0.936919 0.497719
0.935302 0.935302 0.496101
0.937316 0.937316 0.498054
0.934936 0.934691 0.495491
0.934142 0.933471 0.494270
0.385382 0.924315 0.297673
0.549767 0.919371 0.339757
0.695399 0.919219 0.386633
0.819181 0.927581 0.438727
0.883299 0.934569 0.470710
0.915221 0.937255 0.488014
0.928557 0.937255 0.494392
0.935821 0.939300 0.497230
0.942657 0.942718 0.500603
0.941588 0.941588 0.500664
0.939269 0.939269 0.498177
0.938231 0.938231 0.497017
0.935576 0.935576 0.496376
0.936645 0.936645 0.497444
0.938293 0.938293 0.499092
0.939574 0.939574 0.499092
0.936065 0.936065 0.496864
0.416876 0.926696 0.305821
0.579522 0.924041 0.351110
0.717525 0.920378 0.394110
0.831449 0.930053 0.444160
0.892088 0.935637 0.474983
0.920043 0.936584 0.489204
0.932006 0.936767 0.496468
0.937591 0.939025 0.499825
0.940520 0.940520 0.501305
0.940520 0.940520 0.501305
0.939666 0.939666 0.499641
0.937346 0.937346 0.494972
0.937316 0.937316 0.496559
0.937835 0.937835 0.498573
0.937835 0.937835 0.498573
0.939208 0.939208 0.500008
0.940429 0.940429 0.500542
0.035645 0.018433 0.065583
0.063874 0.019776 0.057740
0.144045 0.021180 0.070069
0.268467 0.036622 0.088106
0.370581 0.050141 0.103090
0.453712 0.061250 0.122408
0.530495 0.073976 0.137057
0.630182 0.093416 0.163882
0.695430 0.107668 0.185306
0.744656 0.120943 0.207797
0.752865 0.118868 0.219974
0.728878 0.108370 0.217716
0.707454 0.096742 0.226352
0.673091 0.086854 0.219272
0.654231 0.080842 0.211032
0.664454 0.081666 0.204837
0.668971 0.081727 0.192203
0.035645 0.048585 0.054963
0.070222 0.062379 0.054536
0.195102 0.065583 0.059388
0.325505 0.083589 0.069856
0.417487 0.103609 0.083742
0.498146 0.122377 0.097261
0.580911 0.137484 0.112093
0.678431 0.145754 0.128115
0.741115 0.151064 0.139498
0.787930 0.154849 0.153475
0.813230 0.155184 0.167666
0.817136 0.149569 0.176669
0.809964 0.143038 0.190707
0.791928 0.132937 0.205814
0.765011 0.116976 0.210269
0.741512 0.104128 0.209598
0.726589 0.096712 0.199863
0.041779 0.120790 0.058503
0.078889 0.131319 0.045960
0.161013 0.121828 0.051972
0.284245 0.142580 0.066438
0.377203 0.157321 0.081605
0.461524 0.170047 0.090608
0.545449 0.186740 0.102419
0.644770 0.207980 0.118166
0.703243 0.219730 0.127169
0.748348 0.224399 0.134798
0.772946 0.224887 0.138735
0.789059 0.215305 0.142123
0.797452 0.203128 0.144167
0.801633 0.183139 0.142245
0.813138 0.157748 0.142672
0.816617 0.140566 0.142367
0.809842 0.136751 0.140963
0.055177 0.182559 0.072541
0.086030 0.208255 0.065034
0.185824 0.213565 0.074800
0.271305 0.204349 0.079316
0.367559 0.223545 0.093050
0.453834 0.242466 0.105745
0.540536 0.263035 0.118502
0.619257 0.277592 0.131411
0.673228 0.293126 0.140200
0.716548 0.301274 0.147127
0.750698 0.304723 0.152132
0.764004 0.297581 0.153109
0.771359 0.285252 0.152743
0.776059 0.267704 0.149599
0.768948 0.240970 0.139895
0.773098 0.219577 0.135470
0.776730 0.208560 0.133486
0.074281 0.242130 0.099092
0.102907 0.298222 0.087709
0.212039 0.301183 0.099306
0.327123 0.317540 0.114961
0.383642 0.298436 0.114961
0.461952 0.310094 0.124910
0.542550 0.327703 0.136812
0.616709 0.344610 0.151583
0.680522 0.362646 0.161746
0.732082 0.373175 0.169924
0.755489 0.370886 0.174929
0.765469 0.365545 0.175357
0.772824 0.360082 0.172976
0.780331 0.352758 0.171817
0.778103 0.334600 0.165438
0.773678 0.312261 0.157626
0.779446 0.299138 0.155795
0.094606 0.309514 0.129702
0.130251 0.387457 0.111147
0.248997 0.392889 0.125887
0.365698 0.407630 0.143160
0.459251 0.417533 0.155734
0.497246 0.387976 0.152529
0.572610 0.398352 0.161379
0.647715 0.411109 0.173465
0.699718 0.418280 0.182315
0.746700 0.428992 0.190280
0.768582 0.433539 0.195193
0.777066 0.431312 0.196689
0.785367 0.433356 0.198367
0.788571 0.430304 0.197055
0.786343 0.419104 0.192966
0.786404 0.410376 0.189944
0.789334 0.395911 0.186526
0.130434 0.426902 0.168826
0.164096 0.481621 0.136904
0.293660 0.483543 0.155703
0.407614 0.500526 0.174197
0.510506 0.523964 0.192752
0.581247 0.514534 0.200198
0.612711 0.476036 0.191653
0.687388 0.488426 0.204318
0.732097 0.492241 0.212253
0.769131 0.499519 0.220676
0.787350 0.508446 0.227298
0.794705 0.510674 0.229313
0.802029 0.516381 0.232700
0.803464 0.514183 0.231632
0.801022 0.509194 0.228946
0.800992 0.504585 0.226780
0.803800 0.499596 0.225101
0.174105 0.579263 0.213809
0.209995 0.581765 0.165530
0.356893 0.599619 0.197391
0.463615 0.613321 0.216037
0.547646 0.623758 0.232761
0.644236 0.634226 0.252064
0.700633 0.615244 0.254383
0.735821 0.582712 0.247898
0.774548 0.581338 0.253178
0.800107 0.579812 0.257542
0.811673 0.591745 0.266514
0.818784 0.597818 0.271702
0.822751 0.598276 0.271977
0.826352 0.603647 0.275090
0.829190 0.614511 0.281834
0.827024 0.610208 0.278325
0.827848 0.606790 0.275975
0.205234 0.695994 0.241917
0.268666 0.699229 0.207370
0.416953 0.695323 0.238132
0.522408 0.716533 0.265202
0.613718 0.733501 0.288808
0.701274 0.744396 0.317098
0.776074 0.757122 0.340322
0.818036 0.740612 0.344594
0.816876 0.702007 0.322896
0.837827 0.697398 0.324941
0.841978 0.696239 0.323827
0.849821 0.702708 0.329229
0.852872 0.702770 0.328862
0.851865 0.706035 0.328984
0.857206 0.722789 0.338964
0.858946 0.724620 0.340368
0.856291 0.713512 0.332250
0.238041 0.801770 0.273259
0.324651 0.803662 0.247318
0.465736 0.773312 0.273320
0.570672 0.799496 0.308659
0.668269 0.821805 0.338201
0.754452 0.832944 0.369970
0.821439 0.846159 0.398718
0.877806 0.862623 0.424689
0.881498 0.837476 0.412680
0.875517 0.805005 0.391821
0.875212 0.793133 0.384558
0.877928 0.789746 0.382666
0.880247 0.788098 0.383185
0.879820 0.791669 0.386175
0.880278 0.794903 0.387457
0.885405 0.805127 0.395575
0.886229 0.803326 0.394446
0.258732 0.859129 0.300298
0.356146 0.869261 0.269780
0.503197 0.842985 0.308537
0.609430 0.850095 0.338354
0.704372 0.868742 0.372869
0.786038 0.877775 0.404334
0.849241 0.889464 0.433417
0.897337 0.903502 0.458076
0.915709 0.909606 0.469581
0.914397 0.892241 0.458320
0.907439 0.873747 0.444434
0.908446 0.869688 0.440864
0.907134 0.866697 0.438483
0.906859 0.865049 0.439399
0.905089 0.863005 0.437049
0.904967 0.862303 0.436011
0.909087 0.868040 0.440925
0.267887 0.891814 0.314519
0.381323 0.900847 0.285710
0.530083 0.873838 0.326085
0.636255 0.873625 0.356542
0.730983 0.889708 0.393133
0.810941 0.898833 0.425177
0.863981 0.908141 0.449226
0.906310 0.919615 0.471931
0.923491 0.923491 0.482063
0.929015 0.925353 0.484382
0.924620 0.912932 0.474830
0.924651 0.907988 0.472480
0.922698 0.901762 0.468025
0.925475 0.904601 0.471992
0.921935 0.902617 0.469673
0.920867 0.901152 0.467842
0.923125 0.903136 0.469001
0.275029 0.911070 0.317601
0.405859 0.918578 0.300969
0.542473 0.895567 0.331304
0.661616 0.894224 0.373541
0.761013 0.905852 0.412360
0.837644 0.915007 0.444251
0.885069 0.922881 0.465766
0.907408 0.925994 0.476692
0.924407 0.928557 0.485420
0.928557 0.928557 0.486000
0.930327 0.930327 0.487190
0.932067 0.929046 0.487495
0.933562 0.928985 0.489784
0.933745 0.926787 0.489998
0.932738 0.924346 0.487648
0.930632 0.923644 0.486610
0.930938 0.922454 0.485115
0.281254 0.924224 0.316411
0.430426 0.932708 0.319280
0.555261 0.904326 0.336248
0.685298 0.907897 0.384497
0.784665 0.916472 0.424994
0.858824 0.926146 0.457496
0.898100 0.931029 0.474678
0.914733 0.931823 0.481666
0.924804 0.932525 0.486244
0.930114 0.932525 0.488563
0.932891 0.932891 0.489754
0.937530 0.937530 0.494423
0.937133 0.936736 0.495094
0.934447 0.933318 0.494118
0.936217 0.933135 0.494026
0.937255 0.934691 0.495491
0.936797 0.936797 0.497566
0.290990 0.933562 0.321965
0.455573 0.937926 0.332006
0.590112 0.918639 0.351598
0.713466 0.916686 0.395911
0.799283 0.917601 0.431128
0.866911 0.925017 0.461036
0.904326 0.929931 0.478157
0.920165 0.933440 0.486061
0.930694 0.935668 0.491554
0.937591 0.940215 0.496132
0.938079 0.938079 0.495583
0.933867 0.933867 0.493141
0.936614 0.936614 0.495888
0.936217 0.935729 0.496437
0.936309 0.935729 0.494118
0.937255 0.936065 0.495491
0.936797 0.936797 0.497566
0.295140 0.937163 0.315496
0.479042 0.939666 0.343420
0.622187 0.928283 0.367193
0.738918 0.923522 0.406409
0.821805 0.924407 0.441535
0.873716 0.925505 0.464332
0.908263 0.929992 0.480598
0.924468 0.933196 0.488014
0.935302 0.937804 0.494667
0.941070 0.942412 0.499275
0.942321 0.942321 0.499245
0.935302 0.935302 0.494087
0.935119 0.935119 0.495918
0.937194 0.937194 0.497993
0.937194 0.937194 0.496651
0.938628 0.938628 0.495552
0.938537 0.938537 0.498116
0.299382 0.940002 0.309545
0.500237 0.937591 0.351110
0.651148 0.932311 0.381292
0.759976 0.925475 0.414008
0.839261 0.927062 0.448188
0.889525 0.930236 0.471778
0.913634 0.932647 0.483833
0.927275 0.935790 0.490394
0.937865 0.937865 0.494331
0.942473 0.942473 0.498939
0.941955 0.941955 0.498909
0.934936 0.934936 0.491890
0.935790 0.935790 0.494270
0.936797 0.936797 0.497566
0.936797 0.936797 0.497566
0.938537 0.938537 0.497719
0.940368 0.940368 0.497292
0.011200 0.007843 0.115511
0.019471 0.006378 0.109712
0.074434 0.012329 0.102083
0.168765 0.024018 0.127321
0.242893 0.031617 0.139864
0.311742 0.041260 0.158328
0.387091 0.050355 0.185367
0.499001 0.067262 0.237369
0.588846 0.087373 0.274662
0.692088 0.107881 0.312901
0.706233 0.105867 0.310002
0.659510 0.094667 0.275547
0.613672 0.080568 0.254459
0.591516 0.075532 0.231479
0.595117 0.075685 0.219516
0.615930 0.077699 0.212436
0.627131 0.077852 0.201328
0.012696 0.026368 0.123415
0.039887 0.040803 0.170962
0.126375 0.044617 0.151339
0.265354 0.059571 0.162295
0.361761 0.073030 0.167636
0.441962 0.087465 0.180362
0.508202 0.099214 0.199435
0.572076 0.106142 0.217136
0.635065 0.114900 0.238315
0.687831 0.120790 0.254368
0.712337 0.119234 0.267033
0.716731 0.112978 0.270878
0.714565 0.105165 0.275486
0.710048 0.099733 0.273686
0.685389 0.090425 0.256168
0.661219 0.083650 0.235630
0.639277 0.079988 0.213657
0.033051 0.100038 0.118898
0.047303 0.117983 0.132570
0.137545 0.126284 0.125765
0.284977 0.135683 0.128237
0.396979 0.149630 0.139895
0.482948 0.157046 0.148836
0.564569 0.162570 0.159396
0.643641 0.174411 0.174228
0.716899 0.183291 0.189578
0.773281 0.186923 0.201572
0.806668 0.184878 0.211093
0.827298 0.181125 0.217075
0.828092 0.173709 0.220462
0.823636 0.164706 0.225925
0.810483 0.151644 0.224582
0.798825 0.143404 0.219425
0.787930 0.136965 0.208957
0.050202 0.155978 0.136904
0.059937 0.192355 0.143252
0.142061 0.217990 0.122469
0.271153 0.216342 0.116274
0.388830 0.222263 0.120699
0.477729 0.228428 0.130220
0.566583 0.238102 0.140017
0.661921 0.254948 0.154025
0.730648 0.260716 0.164920
0.779873 0.260624 0.171206
0.806729 0.256718 0.175448
0.822873 0.249088 0.178103
0.834623 0.238254 0.181064
0.840330 0.226261 0.182345
0.843565 0.206668 0.181094
0.845762 0.194827 0.179202
0.848081 0.186923 0.174746
0.071077 0.221042 0.162631
0.085054 0.277653 0.159060
0.153353 0.312840 0.128756
0.295903 0.322698 0.131624
0.379400 0.301793 0.126162
0.474739 0.314153 0.138064
0.565774 0.325261 0.149874
0.652995 0.333928 0.162753
0.724468 0.337255 0.172885
0.776455 0.338384 0.179812
0.798642 0.337987 0.183688
0.813291 0.331548 0.183444
0.819028 0.322850 0.183444
0.827359 0.311833 0.183200
0.829801 0.288243 0.179049
0.830594 0.273106 0.176974
0.831052 0.265110 0.175235
0.091310 0.289769 0.191012
0.107637 0.360082 0.178073
0.180697 0.399969 0.144076
0.320684 0.413336 0.149935
0.425940 0.416266 0.155612
0.490455 0.391608 0.156191
0.582376 0.403174 0.167971
0.671458 0.412085 0.180575
0.730632 0.409308 0.189425
0.778683 0.411658 0.197330
0.798642 0.418280 0.203647
0.811063 0.411719 0.200717
0.816068 0.408026 0.201511
0.819974 0.401587 0.200656
0.822049 0.381308 0.195865
0.822324 0.368322 0.193942
0.820706 0.356695 0.190585
0.116609 0.372488 0.226139
0.130739 0.451835 0.200351
0.216434 0.490959 0.162509
0.349645 0.506600 0.170596
0.466880 0.525002 0.186709
0.560708 0.523110 0.201083
0.609110 0.489250 0.197543
0.698222 0.499809 0.210330
0.750561 0.497246 0.219394
0.790311 0.498894 0.225803
0.808591 0.506676 0.230991
0.814267 0.503502 0.230686
0.819272 0.501488 0.231846
0.824857 0.499413 0.232456
0.826902 0.481895 0.225711
0.827146 0.470756 0.223301
0.825498 0.464408 0.221805
0.149691 0.477195 0.272831
0.155428 0.559396 0.216953
0.258549 0.591928 0.184909
0.392020 0.616373 0.201755
0.507332 0.645426 0.230594
0.629252 0.663767 0.257877
0.703044 0.647105 0.265888
0.734447 0.601205 0.253788
0.779385 0.593210 0.260288
0.806973 0.586984 0.263859
0.825162 0.591775 0.269200
0.832761 0.593118 0.271519
0.835477 0.592264 0.272435
0.839536 0.593088 0.274327
0.841093 0.589487 0.274510
0.842680 0.583627 0.271092
0.839963 0.576608 0.267491
0.192264 0.606210 0.315770
0.194369 0.685008 0.246830
0.305882 0.699351 0.215854
0.443351 0.725933 0.243595
0.552651 0.748791 0.274296
0.669718 0.767315 0.312001
0.769879 0.782452 0.345846
0.811017 0.752392 0.344350
0.806668 0.698528 0.314061
0.832212 0.690196 0.317143
0.845518 0.692210 0.320958
0.855100 0.697032 0.324041
0.858915 0.697063 0.325292
0.857664 0.691051 0.321965
0.858701 0.691722 0.324926
0.860471 0.693065 0.325750
0.860716 0.689403 0.321324
0.234379 0.730236 0.359625
0.229282 0.795270 0.263462
0.356512 0.794903 0.248234
0.490669 0.810880 0.282414
0.594812 0.826261 0.315007
0.707149 0.844083 0.355230
0.801572 0.858610 0.394659
0.861601 0.861769 0.415686
0.869200 0.827100 0.400290
0.862303 0.788464 0.375830
0.872923 0.787732 0.379187
0.880430 0.788922 0.382605
0.886015 0.790509 0.385840
0.885344 0.785718 0.383978
0.886320 0.785962 0.384710
0.886961 0.788739 0.386908
0.886015 0.786053 0.383459
0.266178 0.808942 0.387091
0.253086 0.869047 0.276371
0.405554 0.867796 0.281224
0.526879 0.867185 0.313634
0.634485 0.873289 0.348424
0.730282 0.881071 0.381659
0.820951 0.894286 0.422644
0.874571 0.902373 0.447639
0.907561 0.910369 0.465156
0.910918 0.892668 0.455787
0.902281 0.870726 0.437385
0.908446 0.871000 0.440314
0.909728 0.866148 0.437446
0.909178 0.862364 0.436164
0.908537 0.859312 0.434852
0.907469 0.857176 0.432776
0.906249 0.855375 0.430549
0.292699 0.869566 0.414374
0.277745 0.903319 0.286015
0.433600 0.893462 0.296666
0.554437 0.886992 0.331243
0.660090 0.892271 0.367529
0.752651 0.900572 0.401434
0.829831 0.905943 0.434028
0.880156 0.914427 0.458503
0.913848 0.922210 0.476204
0.926482 0.926421 0.483986
0.922393 0.912810 0.472847
0.917723 0.903532 0.465858
0.920562 0.900999 0.464576
0.923156 0.901976 0.466468
0.922545 0.900786 0.467018
0.921508 0.898772 0.465034
0.920287 0.895171 0.460975
0.294621 0.894316 0.415290
0.298772 0.924437 0.298131
0.457954 0.913390 0.310399
0.582757 0.901610 0.344610
0.684382 0.902129 0.379980
0.772854 0.910613 0.415015
0.846342 0.917784 0.447089
0.886961 0.923522 0.466163
0.920073 0.929808 0.483375
0.928313 0.931365 0.488258
0.931914 0.932677 0.489876
0.930327 0.927214 0.486732
0.928710 0.921965 0.482765
0.931243 0.922393 0.483619
0.930175 0.922484 0.484382
0.928161 0.919738 0.481117
0.926970 0.916533 0.477455
0.294438 0.905058 0.409308
0.325200 0.937896 0.312261
0.487556 0.926543 0.325383
0.609583 0.910460 0.355810
0.712642 0.909331 0.391821
0.796231 0.914885 0.425422
0.862242 0.927092 0.457191
0.897002 0.931212 0.473915
0.921569 0.933104 0.486000
0.926665 0.933227 0.488624
0.931090 0.933867 0.491341
0.935760 0.936187 0.496010
0.936095 0.934508 0.494850
0.933227 0.929656 0.490455
0.933776 0.932647 0.493446
0.932891 0.932891 0.492134
0.931121 0.930388 0.487282
0.298894 0.915526 0.414466
0.348119 0.942779 0.327459
0.514946 0.923003 0.331029
0.635615 0.914611 0.366613
0.733028 0.917113 0.405554
0.811337 0.920287 0.436133
0.873442 0.927245 0.462531
0.902556 0.934997 0.479530
0.924804 0.938323 0.491707
0.929412 0.933715 0.491707
0.934020 0.935149 0.494759
0.938689 0.939300 0.499428
0.938354 0.938354 0.497353
0.936278 0.935149 0.493446
0.938781 0.937652 0.498451
0.936736 0.936736 0.497169
0.933623 0.932891 0.492317
0.302678 0.924163 0.416022
0.372930 0.946441 0.343847
0.543664 0.925200 0.341466
0.657038 0.915953 0.373724
0.751095 0.915953 0.410407
0.824948 0.923033 0.443549
0.884428 0.928618 0.468055
0.908568 0.933104 0.479957
0.927306 0.939300 0.492042
0.935485 0.940642 0.496803
0.936370 0.936370 0.496315
0.939086 0.939086 0.499519
0.941222 0.941222 0.501335
0.938628 0.938628 0.496834
0.937621 0.937621 0.497169
0.940826 0.940826 0.501579
0.937285 0.937285 0.498085
0.308171 0.931456 0.417914
0.399878 0.948669 0.358007
0.573022 0.931579 0.355077
0.677028 0.918975 0.381476
0.767483 0.916197 0.415717
0.841245 0.920836 0.447242
0.895140 0.930144 0.473060
0.913329 0.932708 0.481758
0.927123 0.934264 0.487129
0.938628 0.941161 0.496345
0.942168 0.942168 0.499733
0.937499 0.937499 0.497414
0.940368 0.940368 0.500328
0.940398 0.940398 0.501091
0.935332 0.935332 0.496071
0.935851 0.935851 0.496620
0.938903 0.938903 0.499702
0.007843 0.007843 0.151431
0.007965 0.005402 0.147280
0.035645 0.010132 0.151278
0.108797 0.017182 0.147494
0.190982 0.026825 0.167819
0.249516 0.032898 0.183536
0.307958 0.041810 0.208682
0.379828 0.052277 0.245274
0.492119 0.068055 0.295689
0.601907 0.085237 0.338659
0.621958 0.087861 0.333043
0.586358 0.080262 0.297185
0.522179 0.068574 0.247288
