LUT color transfer/LUTs/40.cube
# (C) 2014 VisionColor & Patchflyer [www.vision-color.com]
# Generator: VC Patchmatch v.2.1.1 [64/53]
# All work and no play makes Jack a dull boy.
# LUT generated from: Kodak Vision3 500T 5219 (NEG)_FC
LUT_3D_SIZE 9
0.027466 0.027466 0.027466
0.160586 0.033570 0.023682
0.347570 0.082612 0.051820
0.559915 0.123537 0.085756
0.707240 0.135134 0.107362
0.763424 0.132448 0.114076
0.776822 0.114992 0.130709
0.722622 0.093904 0.149264
0.693385 0.085542 0.141451
0.066621 0.111025 0.036957
0.147036 0.108766 0.044038
0.337163 0.153841 0.071870
0.496574 0.194827 0.096193
0.650202 0.234409 0.119112
0.713252 0.249088 0.129915
0.729946 0.239017 0.130495
0.721462 0.209751 0.118379
0.717983 0.198672 0.114595
0.082612 0.246220 0.075715
0.223880 0.275639 0.095338
0.370184 0.275853 0.108186
0.549203 0.326238 0.136477
0.691432 0.361944 0.162356
0.759487 0.390417 0.179995
0.769009 0.392615 0.182528
0.767239 0.379644 0.177707
0.764584 0.369787 0.175387
0.161746 0.493370 0.148959
0.320882 0.453971 0.154452
0.504631 0.481209 0.180117
0.608682 0.446494 0.180362
0.745785 0.486595 0.212711
0.794125 0.523766 0.232517
0.808530 0.536889 0.240818
0.808103 0.543816 0.244724
0.801572 0.525460 0.234226
0.241489 0.726574 0.216281
0.457603 0.685344 0.242954
0.603586 0.682963 0.269795
0.747295 0.701823 0.308949
0.816831 0.667216 0.304646
0.840543 0.685832 0.318517
0.856626 0.714397 0.335332
0.857572 0.726055 0.341558
0.859281 0.726299 0.341863
0.286137 0.870207 0.259129
0.565789 0.842588 0.326146
0.751186 0.871427 0.390082
0.861906 0.877882 0.433173
0.920348 0.910414 0.472175
0.906462 0.866865 0.441840
0.910369 0.869566 0.444038
0.909819 0.873014 0.444495
0.912779 0.876860 0.447578
0.319463 0.915251 0.278202
0.625666 0.897734 0.362799
0.827420 0.916442 0.442329
0.908598 0.925994 0.477089
0.929625 0.928801 0.487953
0.932616 0.932372 0.489479
0.937255 0.930144 0.490913
0.931609 0.923888 0.486610
0.929625 0.922972 0.485969
0.362005 0.923613 0.290593
0.666621 0.915007 0.376471
0.868650 0.932677 0.463539
0.925872 0.937255 0.491951
0.942504 0.942840 0.499702
0.937438 0.937438 0.498146
0.936919 0.936919 0.497719
0.937316 0.937316 0.498054
0.934142 0.933471 0.494270
0.416876 0.926696 0.305821
0.717525 0.920378 0.394110
0.892088 0.935637 0.474983
0.932006 0.936767 0.496468
0.940520 0.940520 0.501305
0.939666 0.939666 0.499641
0.937316 0.937316 0.496559
0.937835 0.937835 0.498573
0.940429 0.940429 0.500542
0.011200 0.007843 0.115511
0.074434 0.012329 0.102083
0.242893 0.031617 0.139864
0.387091 0.050355 0.185367
0.588846 0.087373 0.274662
0.706233 0.105867 0.310002
0.613672 0.080568 0.254459
0.595117 0.075685 0.219516
0.627131 0.077852 0.201328
0.033051 0.100038 0.118898
0.137545 0.126284 0.125765
0.396979 0.149630 0.139895
0.564569 0.162570 0.159396
0.716899 0.183291 0.189578
0.806668 0.184878 0.211093
0.828092 0.173709 0.220462
0.810483 0.151644 0.224582
0.787930 0.136965 0.208957
0.071077 0.221042 0.162631
0.153353 0.312840 0.128756
0.379400 0.301793 0.126162
0.565774 0.325261 0.149874
0.724468 0.337255 0.172885
0.798642 0.337987 0.183688
0.819028 0.322850 0.183444
0.829801 0.288243 0.179049
0.831052 0.265110 0.175235
0.116609 0.372488 0.226139
0.216434 0.490959 0.162509
0.466880 0.525002 0.186709
0.609110 0.489250 0.197543
0.750561 0.497246 0.219394
0.808591 0.506676 0.230991
0.819272 0.501488 0.231846
0.826902 0.481895 0.225711
0.825498 0.464408 0.221805
0.192264 0.606210 0.315770
0.305882 0.699351 0.215854
0.552651 0.748791 0.274296
0.769879 0.782452 0.345846
0.806668 0.698528 0.314061
0.845518 0.692210 0.320958
0.858915 0.697063 0.325292
0.858701 0.691722 0.324926
0.860716 0.689403 0.321324
0.266178 0.808942 0.387091
0.405554 0.867796 0.281224
0.634485 0.873289 0.348424
0.820951 0.894286 0.422644
0.907561 0.910369 0.465156
0.902281 0.870726 0.437385
0.909728 0.866148 0.437446
0.908537 0.859312 0.434852
0.906249 0.855375 0.430549
0.294621 0.894316 0.415290
0.457954 0.913390 0.310399
0.684382 0.902129 0.379980
0.846342 0.917784 0.447089
0.920073 0.929808 0.483375
0.931914 0.932677 0.489876
0.928710 0.921965 0.482765
0.930175 0.922484 0.484382
0.926970 0.916533 0.477455
0.298894 0.915526 0.414466
0.514946 0.923003 0.331029
0.733028 0.917113 0.405554
0.873442 0.927245 0.462531
0.924804 0.938323 0.491707
0.934020 0.935149 0.494759
0.938354 0.938354 0.497353
0.938781 0.937652 0.498451
0.933623 0.932891 0.492317
0.308171 0.931456 0.417914
0.573022 0.931579 0.355077
0.767483 0.916197 0.415717
0.895140 0.930144 0.473060
0.927123 0.934264 0.487129
0.942168 0.942168 0.499733
0.940368 0.940368 0.500328
0.935332 0.935332 0.496071
0.938903 0.938903 0.499702
0.009522 0.009522 0.189548
0.018494 0.007904 0.180880
0.140719 0.022248 0.178927
0.276921 0.039857 0.228153
0.376928 0.053407 0.273228
0.464561 0.064210 0.276585
0.439216 0.057588 0.226047
0.474067 0.059815 0.206851
0.524407 0.066011 0.204166
0.026429 0.076020 0.198856
0.070161 0.116579 0.314183
0.265782 0.110231 0.282414
0.405737 0.101717 0.286625
0.512016 0.107729 0.296605
0.602747 0.106142 0.294774
0.632593 0.100587 0.275425
0.627741 0.091676 0.245243
0.563653 0.077424 0.192325
0.066224 0.200565 0.240879
0.094697 0.268132 0.304265
0.313909 0.293675 0.293034
0.490272 0.299290 0.288090
0.644266 0.298680 0.289799
0.773739 0.303227 0.295048
0.844663 0.299077 0.283391
0.855070 0.285985 0.258518
0.837797 0.268864 0.222080
0.110384 0.340063 0.331701
0.145296 0.446693 0.350713
0.345312 0.501289 0.310369
0.533959 0.477638 0.283482
0.706462 0.470466 0.292241
0.822080 0.463828 0.296971
0.862821 0.451560 0.286046
0.864530 0.436530 0.261265
0.850401 0.409918 0.234073
0.163943 0.513313 0.407355
0.208774 0.642618 0.384253
0.399252 0.714549 0.328649
0.621836 0.731975 0.342779
0.755871 0.679637 0.343618
0.846372 0.672740 0.361944
0.872099 0.657267 0.350545
0.877714 0.635203 0.327581
0.870604 0.599924 0.302434
0.230350 0.685802 0.476020
0.274479 0.838788 0.396460
0.482216 0.877867 0.373053
0.697963 0.878630 0.402258
0.847044 0.883436 0.446815
0.886107 0.850156 0.443336
0.908354 0.840299 0.441901
0.910796 0.813199 0.422492
0.906828 0.803479 0.410712
0.291600 0.814023 0.549187
0.306188 0.912627 0.368811
0.549432 0.926146 0.389197
0.756497 0.925078 0.439002
0.881407 0.932708 0.481331
0.928222 0.932555 0.496406
0.929442 0.920409 0.489937
0.936126 0.910826 0.484230
0.932464 0.905119 0.475593
0.330358 0.884672 0.597498
0.363165 0.944396 0.342596
0.605982 0.938323 0.389990
0.805447 0.941772 0.453285
0.901305 0.943328 0.495003
0.934844 0.946014 0.503929
0.944610 0.945678 0.502251
0.943755 0.943175 0.500053
0.947021 0.939910 0.500328
0.335607 0.898680 0.600336
0.425055 0.949828 0.369512
0.657984 0.938018 0.395636
0.823026 0.936309 0.452003
0.910063 0.945281 0.492195
0.940551 0.948547 0.507774
0.945464 0.948302 0.505180
0.943816 0.943816 0.500664
0.945342 0.945342 0.501091
0.007843 0.007843 0.221714
0.010285 0.007965 0.204318
0.087739 0.018402 0.190951
0.211170 0.028565 0.219181
0.295079 0.042969 0.252018
0.298131 0.041566 0.211154
0.337774 0.045533 0.200168
0.393561 0.051270 0.202304
0.437903 0.055970 0.202426
0.020813 0.047089 0.216892
0.037781 0.086152 0.337285
0.156191 0.066163 0.356268
0.288945 0.062135 0.293767
0.376471 0.057923 0.286778
0.434180 0.062501 0.274754
0.438270 0.061006 0.243168
0.406317 0.052735 0.195132
0.368170 0.046845 0.156527
0.063783 0.185580 0.280919
0.076692 0.228794 0.342168
0.227237 0.265049 0.387457
0.384344 0.254582 0.368078
0.515251 0.241520 0.365332
0.616571 0.233127 0.357244
0.683986 0.225864 0.335424
0.718471 0.219455 0.300999
0.714900 0.201236 0.254185
0.107729 0.323613 0.379156
0.125399 0.380102 0.409674
0.251774 0.426459 0.442695
0.455146 0.451789 0.440009
0.609064 0.447150 0.426795
0.732113 0.441871 0.408560
0.805081 0.437003 0.375021
0.850675 0.427100 0.341924
0.854978 0.418463 0.318791
0.146975 0.443976 0.466407
0.182498 0.544701 0.504875
0.304356 0.622019 0.493217
0.503029 0.670054 0.468162
0.659251 0.636484 0.446891
0.789761 0.620096 0.441550
0.850919 0.604593 0.411368
0.878111 0.570535 0.373770
0.880156 0.548531 0.340352
0.192813 0.572122 0.554345
0.251804 0.721477 0.575860
0.384558 0.819837 0.522301
0.581109 0.838727 0.499336
0.750240 0.837568 0.498390
0.837400 0.805737 0.507744
0.885008 0.783749 0.488197
0.904143 0.765393 0.462898
0.905669 0.744549 0.439246
0.274632 0.747326 0.643549
0.315160 0.860777 0.594446
0.443122 0.912383 0.531014
0.661799 0.922301 0.545800
0.807279 0.918456 0.549035
0.896330 0.918425 0.561761
0.916838 0.901854 0.541863
0.932647 0.893950 0.536278
0.933532 0.881346 0.521935
0.332921 0.842802 0.704585
0.337804 0.906920 0.575204
0.493507 0.946624 0.521523
0.718196 0.949004 0.584268
0.855406 0.949798 0.592767
0.921691 0.951080 0.597681
0.942107 0.946929 0.580102
0.952483 0.944640 0.572869
0.953735 0.941772 0.567803
0.365148 0.873594 0.756741
0.378454 0.926665 0.576516
0.528710 0.954253 0.509896
0.748714 0.948394 0.587472
0.876280 0.954314 0.613138
0.933532 0.957977 0.619745
0.952514 0.957061 0.604334
0.955444 0.954711 0.582269
0.956054 0.954192 0.574243
0.007843 0.007843 0.225315
0.009857 0.009857 0.200320
0.059693 0.013947 0.179477
0.213199 0.030732 0.221988
0.372839 0.057008 0.310491
0.239322 0.033051 0.195865
0.278752 0.036744 0.194522
0.333074 0.045563 0.200626
0.368841 0.050080 0.204685
0.015595 0.027649 0.223362
0.024109 0.056153 0.270756
0.062623 0.037781 0.349462
0.194797 0.041657 0.287022
0.267002 0.041260 0.248997
0.290318 0.039918 0.210880
0.286442 0.040375 0.181460
0.277989 0.036194 0.159274
0.277562 0.036255 0.150423
0.059144 0.174868 0.302739
0.066499 0.190890 0.326879
0.156741 0.237064 0.441505
0.287572 0.218204 0.421027
0.419471 0.195956 0.394263
0.493172 0.167483 0.375616
0.540795 0.152926 0.348241
0.574762 0.152956 0.325200
0.578912 0.141451 0.289525
0.106233 0.310918 0.408301
0.114992 0.343267 0.436637
0.191928 0.378454 0.516060
0.373632 0.412085 0.535561
0.507225 0.408942 0.503960
0.603143 0.378042 0.470573
0.693233 0.377050 0.436118
0.761776 0.374334 0.407950
0.811765 0.377050 0.399893
0.134890 0.401221 0.493202
0.155795 0.460121 0.528817
0.243534 0.537469 0.595254
0.408804 0.567178 0.597086
0.590127 0.601663 0.590127
0.716304 0.603922 0.571176
0.802152 0.585733 0.527199
0.855924 0.583230 0.492760
0.879637 0.580514 0.489525
0.163027 0.478645 0.606683
0.211887 0.593194 0.665431
0.325628 0.717479 0.683131
0.489876 0.760662 0.674250
0.675288 0.792248 0.651118
0.784009 0.774762 0.618647
0.855009 0.750164 0.579797
0.889433 0.731167 0.544732
0.900664 0.699870 0.510185
0.247440 0.670481 0.705989
0.307164 0.760403 0.775418
0.407874 0.850614 0.727733
0.571221 0.884215 0.705455
0.740932 0.897765 0.694240
0.856031 0.905638 0.685237
0.898772 0.885985 0.647639
0.926085 0.875914 0.627344
0.931914 0.863737 0.601129
0.333654 0.812589 0.773739
0.378698 0.871366 0.815183
0.472267 0.916869 0.745617
0.640070 0.932555 0.740887
0.801572 0.942901 0.750622
0.895048 0.948699 0.735546
0.939269 0.949950 0.710430
0.946044 0.936980 0.674342
0.952148 0.930449 0.661402
0.363226 0.852079 0.808377
0.412451 0.899535 0.824369
0.505791 0.934539 0.742199
0.676143 0.944518 0.755932
0.840299 0.954253 0.782544
0.914061 0.956909 0.760571
0.947509 0.961883 0.741436
0.958221 0.958221 0.711955
0.963104 0.958160 0.695155
0.008453 0.008453 0.227268
0.007843 0.007843 0.196750
0.022614 0.009400 0.165591
0.103746 0.017884 0.176242
0.246082 0.038911 0.236454
0.252552 0.037751 0.216709
0.240665 0.035584 0.196902
0.285557 0.039063 0.200748
0.326329 0.045472 0.206577
0.011810 0.017548 0.241001
0.015961 0.034150 0.218509
0.022797 0.022126 0.271687
0.109148 0.022889 0.257984
0.195239 0.030274 0.228428
0.228305 0.031617 0.193973
0.207736 0.029694 0.159152
0.201114 0.029480 0.141482
0.247074 0.032959 0.167910
0.056611 0.154818 0.318761
0.057801 0.163790 0.320348
0.114900 0.216281 0.473365
0.187945 0.175509 0.465644
0.326894 0.160830 0.432868
0.407355 0.132342 0.391608
0.448249 0.109010 0.371832
0.469932 0.110292 0.343816
0.489982 0.105074 0.320714
0.105287 0.308370 0.455207
0.105379 0.312001 0.459693
0.159350 0.346883 0.581384
0.308400 0.373373 0.618311
0.414023 0.355093 0.569482
0.517052 0.350210 0.528527
0.600992 0.323751 0.492256
0.681254 0.324392 0.468788
0.741192 0.332296 0.458564
0.138979 0.406561 0.553826
0.149325 0.435996 0.591546
0.217334 0.493217 0.699062
0.349630 0.509621 0.708095
0.515999 0.550027 0.683742
0.621881 0.546700 0.640192
0.734676 0.538979 0.601160
0.808896 0.542916 0.579675
0.846830 0.555734 0.574212
0.157351 0.452827 0.624689
0.184482 0.516777 0.694179
0.282383 0.643488 0.760464
0.422004 0.691402 0.769863
0.574594 0.719722 0.750668
0.729732 0.737575 0.727657
0.817044 0.733364 0.694179
0.868162 0.738186 0.675074
0.889128 0.735866 0.661814
0.227695 0.614496 0.725551
0.273503 0.680812 0.807065
0.374151 0.784176 0.830228
0.514382 0.830014 0.831510
0.662089 0.858213 0.816831
0.813443 0.878782 0.805692
0.876554 0.873137 0.764218
0.907652 0.864195 0.730892
0.924529 0.849638 0.703700
0.320195 0.780911 0.794369
0.378759 0.846189 0.862791
0.448249 0.875578 0.859739
0.589258 0.904906 0.868681
0.737011 0.922179 0.851865
0.862150 0.934325 0.849699
0.923613 0.942199 0.831083
0.936217 0.930938 0.790738
0.948974 0.927428 0.773312
0.358831 0.834775 0.828885
0.410254 0.883085 0.878264
0.492256 0.911559 0.879118
0.629282 0.928374 0.870542
0.769177 0.937713 0.871275
0.895872 0.952392 0.886900
0.941680 0.956512 0.865904
0.957244 0.960540 0.839048
0.958831 0.954803 0.807767
0.011566 0.011566 0.243137
0.008362 0.008362 0.209689
0.004791 0.004639 0.162722
0.018677 0.007660 0.143282
0.079637 0.014466 0.145541
0.142885 0.022553 0.148531
0.193912 0.028168 0.178836
0.250156 0.034363 0.202121
0.293126 0.042390 0.207004
0.012512 0.015961 0.249546
0.012573 0.023163 0.207614
0.012055 0.012909 0.216693
0.033875 0.012207 0.207492
0.102617 0.019623 0.180819
0.163973 0.025055 0.176699
0.178775 0.025360 0.158938
0.156100 0.023621 0.144625
0.222171 0.032105 0.186740
0.046204 0.123964 0.334081
0.049958 0.137850 0.314214
0.087678 0.187747 0.518151
0.119524 0.139986 0.528161
0.236194 0.126192 0.493446
0.336675 0.117952 0.448493
0.388495 0.097353 0.395605
0.390249 0.083589 0.355169
0.442466 0.090791 0.351904
0.110292 0.316701 0.531746
0.098482 0.280873 0.466789
0.136019 0.324163 0.642237
0.266682 0.351965 0.710292
0.336141 0.320882 0.672236
0.440101 0.308400 0.604761
0.526299 0.297627 0.551873
0.618051 0.279316 0.521782
0.684459 0.294759 0.501793
0.170230 0.475288 0.688594
0.144472 0.416281 0.638605
0.192599 0.463004 0.757046
0.312367 0.473655 0.792996
0.469291 0.523507 0.782010
0.556664 0.512032 0.732296
0.656153 0.502693 0.664363
0.758160 0.500618 0.642451
0.807858 0.513252 0.634699
0.183841 0.518029 0.695369
0.188937 0.524071 0.730159
0.261845 0.608240 0.811795
0.384405 0.637079 0.836454
0.513649 0.659846 0.827726
0.671336 0.704341 0.802243
0.752010 0.697429 0.754482
0.832822 0.701946 0.743191
0.865415 0.716228 0.738705
0.226322 0.611475 0.731899
0.262394 0.660273 0.808957
0.335302 0.741146 0.844602
0.456123 0.777554 0.863828
0.592081 0.805051 0.862821
0.735622 0.842863 0.856107
0.857114 0.864561 0.845335
0.898772 0.864103 0.828397
0.923522 0.874540 0.833371
0.307195 0.756710 0.800351
0.359594 0.817014 0.861265
0.407385 0.838773 0.876646
0.533654 0.869688 0.897307
0.655772 0.888365 0.894774
0.802121 0.909483 0.892515
0.900267 0.925383 0.893950
0.929747 0.924376 0.876249
0.942870 0.920623 0.855222
0.356512 0.824735 0.841215
0.400702 0.874388 0.878386
0.449317 0.884611 0.894499
0.576883 0.908141 0.911070
0.708171 0.924895 0.914549
0.844053 0.940826 0.914855
0.923796 0.949401 0.915953
0.952819 0.958160 0.908141
0.957000 0.953063 0.891386
0.007904 0.007904 0.246952
0.008911 0.008911 0.223728
0.007904 0.007904 0.186221
0.007843 0.007843 0.165774
0.025849 0.009339 0.153719
0.086946 0.016114 0.149874
0.139620 0.020630 0.165805
0.204227 0.031312 0.202243
0.263493 0.039033 0.205600
0.012604 0.015534 0.271702
0.011688 0.017762 0.205783
0.007843 0.008972 0.178714
0.007660 0.005554 0.172320
0.041688 0.010376 0.159274
0.091432 0.014984 0.150118
0.113405 0.016876 0.134188
0.142306 0.020813 0.151827
0.209598 0.032837 0.210605
0.043702 0.109346 0.363378
0.048005 0.127291 0.320348
0.080354 0.182528 0.556252
0.078462 0.120516 0.576715
0.164874 0.101686 0.549157
0.268315 0.097780 0.484001
0.325994 0.085115 0.428000
0.367285 0.082948 0.385382
0.415305 0.082918 0.383001
0.101778 0.291066 0.548531
0.091951 0.262272 0.479942
0.118563 0.300969 0.665965
0.232563 0.332662 0.775051
0.280293 0.291798 0.746365
0.384833 0.291310 0.697215
0.476173 0.282490 0.631006
0.562860 0.274739 0.573053
0.641611 0.267353 0.548119
0.169345 0.466911 0.731807
0.138186 0.389303 0.663935
0.176852 0.431479 0.771939
0.287556 0.456046 0.837308
0.433555 0.501472 0.841581
0.491676 0.477562 0.805692
0.600122 0.483024 0.745113
0.702480 0.474876 0.686091
0.779232 0.480308 0.673701
0.202090 0.549706 0.737514
0.178103 0.490822 0.736660
0.237552 0.570459 0.816526
0.351598 0.597681 0.861845
0.478096 0.626215 0.859373
0.630198 0.676921 0.839536
0.705562 0.665965 0.810666
0.786465 0.663615 0.775387
0.840635 0.677714 0.773098
0.245212 0.644343 0.768826
0.252018 0.650294 0.789975
0.309972 0.705715 0.845640
0.429694 0.744381 0.876860
0.558740 0.778988 0.885344
0.699718 0.809323 0.877470
0.819120 0.836088 0.873259
0.870237 0.841154 0.858885
0.899290 0.841672 0.855131
0.303014 0.744808 0.808713
0.352758 0.811002 0.856474
0.384283 0.822446 0.872709
0.486854 0.842985 0.895659
0.615122 0.866270 0.904112
0.756924 0.886931 0.907408
0.860288 0.907134 0.911162
0.921782 0.921782 0.913390
0.936858 0.921233 0.906371
0.348394 0.808499 0.841215
0.386389 0.857481 0.868254
0.416419 0.860533 0.884184
0.538872 0.889616 0.911162
0.656321 0.908660 0.920104
0.798489 0.925383 0.926513
0.895781 0.939178 0.931121
0.942535 0.951446 0.934691
0.954620 0.954070 0.929503
0.007904 0.007904 0.256992
0.007935 0.007935 0.233463
0.009461 0.009461 0.219181
0.007843 0.007843 0.201358
0.008606 0.007996 0.189334
0.038239 0.012665 0.182834
0.097322 0.016724 0.186526
0.161715 0.024964 0.205234
0.218387 0.033906 0.211521
0.011780 0.011780 0.294072
0.011902 0.023774 0.229191
0.008698 0.010376 0.190036
0.009094 0.009735 0.195621
0.019471 0.009522 0.185519
0.040528 0.010285 0.157565
0.072786 0.015015 0.145815
0.112917 0.017365 0.154238
0.183261 0.028168 0.207614
0.044068 0.113039 0.410468
0.048066 0.128573 0.343938
0.072114 0.176059 0.583719
0.059693 0.106386 0.588724
0.112657 0.091035 0.601495
0.202426 0.078645 0.518013
0.283909 0.077394 0.474998
0.350500 0.081300 0.440223
0.382712 0.077699 0.402899
0.093477 0.262608 0.550378
0.090303 0.254520 0.506539
0.116152 0.297276 0.697749
0.221576 0.336004 0.809964
0.245441 0.284001 0.796628
0.334874 0.268299 0.759777
0.441047 0.273365 0.707195
0.528405 0.271748 0.639445
0.597375 0.261707 0.587457
0.141665 0.402136 0.679347
0.132052 0.370947 0.667964
0.160128 0.412314 0.763333
0.268666 0.439689 0.848753
0.410605 0.493584 0.868070
0.450202 0.458488 0.849851
0.542596 0.459770 0.807980
0.657801 0.469261 0.761135
0.735103 0.472007 0.719112
0.184787 0.512108 0.730312
0.168368 0.462806 0.736996
0.220371 0.546624 0.810147
0.329381 0.575036 0.864958
0.457069 0.608362 0.876738
0.607919 0.668925 0.868437
0.654856 0.637949 0.840543
0.745083 0.645792 0.814694
0.808865 0.650065 0.790555
0.235447 0.624292 0.773129
0.230808 0.604059 0.782437
0.288090 0.682185 0.835508
0.410010 0.725002 0.880125
0.532830 0.759609 0.894316
0.666728 0.789609 0.892149
0.797848 0.822019 0.888518
0.836851 0.811887 0.877165
0.879881 0.822141 0.873228
0.297154 0.731106 0.811124
0.318456 0.763302 0.826902
0.357946 0.793942 0.866911
0.471015 0.824491 0.896605
0.588617 0.844450 0.907195
0.723857 0.870909 0.913817
0.842771 0.893553 0.918303
0.907713 0.911650 0.924987
0.926757 0.910552 0.919432
0.339330 0.797482 0.838682
0.370092 0.838224 0.858824
0.402167 0.847623 0.881468
0.504479 0.872496 0.906950
0.631312 0.898039 0.921477
0.772335 0.914672 0.927703
0.871000 0.931121 0.936187
0.931731 0.946288 0.944915
0.956847 0.956847 0.949004
