LUT color transfer/LUTs/40.cube
# (C) 2014 VisionColor & Patchflyer [www.vision-color.com]
# Generator: VC Patchmatch v.2.1.1 [64/53]
# All work and no play makes Jack a dull boy.
# LUT generated from: Kodak Vision3 500T 5219 (NEG)_FC
LUT_3D_SIZE 5
0.027466 0.027466 0.027466
0.347570 0.082612 0.051820
0.707240 0.135134 0.107362
0.776822 0.114992 0.130709
0.693385 0.085542 0.141451
0.082612 0.246220 0.075715
0.370184 0.275853 0.108186
0.691432 0.361944 0.162356
0.769009 0.392615 0.182528
0.764584 0.369787 0.175387
0.241489 0.726574 0.216281
0.603586 0.682963 0.269795
0.816831 0.667216 0.304646
0.856626 0.714397 0.335332
0.859281 0.726299 0.341863
0.319463 0.915251 0.278202
0.827420 0.916442 0.442329
0.929625 0.928801 0.487953
0.937255 0.930144 0.490913
0.929625 0.922972 0.485969
0.416876 0.926696 0.305821
0.892088 0.935637 0.474983
0.940520 0.940520 0.501305
0.937316 0.937316 0.496559
0.940429 0.940429 0.500542
0.009522 0.009522 0.189548
0.140719 0.022248 0.178927
0.376928 0.053407 0.273228
0.439216 0.057588 0.226047
0.524407 0.066011 0.204166
0.066224 0.200565 0.240879
0.313909 0.293675 0.293034
0.644266 0.298680 0.289799
0.844663 0.299077 0.283391
0.837797 0.268864 0.222080
0.163943 0.513313 0.407355
0.399252 0.714549 0.328649
0.755871 0.679637 0.343618
0.872099 0.657267 0.350545
0.870604 0.599924 0.302434
0.291600 0.814023 0.549187
0.549432 0.926146 0.389197
0.881407 0.932708 0.481331
0.929442 0.920409 0.489937
0.932464 0.905119 0.475593
0.335607 0.898680 0.600336
0.657984 0.938018 0.395636
0.910063 0.945281 0.492195
0.945464 0.948302 0.505180
0.945342 0.945342 0.501091
0.007843 0.007843 0.225315
0.059693 0.013947 0.179477
0.372839 0.057008 0.310491
0.278752 0.036744 0.194522
0.368841 0.050080 0.204685
0.059144 0.174868 0.302739
0.156741 0.237064 0.441505
0.419471 0.195956 0.394263
0.540795 0.152926 0.348241
0.578912 0.141451 0.289525
0.134890 0.401221 0.493202
0.243534 0.537469 0.595254
0.590127 0.601663 0.590127
0.802152 0.585733 0.527199
0.879637 0.580514 0.489525
0.247440 0.670481 0.705989
0.407874 0.850614 0.727733
0.740932 0.897765 0.694240
0.898772 0.885985 0.647639
0.931914 0.863737 0.601129
0.363226 0.852079 0.808377
0.505791 0.934539 0.742199
0.840299 0.954253 0.782544
0.947509 0.961883 0.741436
0.963104 0.958160 0.695155
0.011566 0.011566 0.243137
0.004791 0.004639 0.162722
0.079637 0.014466 0.145541
0.193912 0.028168 0.178836
0.293126 0.042390 0.207004
0.046204 0.123964 0.334081
0.087678 0.187747 0.518151
0.236194 0.126192 0.493446
0.388495 0.097353 0.395605
0.442466 0.090791 0.351904
0.170230 0.475288 0.688594
0.192599 0.463004 0.757046
0.469291 0.523507 0.782010
0.656153 0.502693 0.664363
0.807858 0.513252 0.634699
0.226322 0.611475 0.731899
0.335302 0.741146 0.844602
0.592081 0.805051 0.862821
0.857114 0.864561 0.845335
0.923522 0.874540 0.833371
0.356512 0.824735 0.841215
0.449317 0.884611 0.894499
0.708171 0.924895 0.914549
0.923796 0.949401 0.915953
0.957000 0.953063 0.891386
0.007904 0.007904 0.256992
0.009461 0.009461 0.219181
0.008606 0.007996 0.189334
0.097322 0.016724 0.186526
0.218387 0.033906 0.211521
0.044068 0.113039 0.410468
0.072114 0.176059 0.583719
0.112657 0.091035 0.601495
0.283909 0.077394 0.474998
0.382712 0.077699 0.402899
0.141665 0.402136 0.679347
0.160128 0.412314 0.763333
0.410605 0.493584 0.868070
0.542596 0.459770 0.807980
0.735103 0.472007 0.719112
0.235447 0.624292 0.773129
0.288090 0.682185 0.835508
0.532830 0.759609 0.894316
0.797848 0.822019 0.888518
0.879881 0.822141 0.873228
0.339330 0.797482 0.838682
0.402167 0.847623 0.881468
0.631312 0.898039 0.921477
0.871000 0.931121 0.936187
0.956847 0.956847 0.949004
