LUT color transfer/LUTs/42.cube
# (C) 2014 VisionColor & Patchflyer [www.vision-color.com]
# Generator: VC Patchmatch v.2.1.1 [64/53]
# All work and no play makes Jack a dull boy.
# LUT generated from: Kodak Vision3 500T 5219 (NEG)_VisionSpace
LUT_3D_SIZE 9
0.031373 0.031373 0.031373
0.155612 0.042145 0.034516
0.308537 0.107790 0.072389
0.428840 0.148989 0.103883
0.512169 0.164431 0.128725
0.557702 0.168368 0.149172
0.567834 0.146456 0.162203
0.518822 0.101564 0.164706
0.497963 0.093385 0.153201
0.090150 0.149325 0.054139
0.189639 0.150607 0.069642
0.343389 0.197787 0.103731
0.462684 0.245914 0.130892
0.537774 0.275639 0.148592
0.583001 0.293034 0.162448
0.589624 0.278538 0.158450
0.575738 0.250523 0.145602
0.572442 0.235111 0.141970
0.094942 0.278447 0.091402
0.275303 0.320195 0.125460
0.394171 0.324071 0.145174
0.514641 0.359625 0.172457
0.593042 0.394537 0.193179
0.638788 0.417273 0.211063
0.643000 0.415747 0.209476
0.637507 0.407568 0.205905
0.633021 0.395483 0.200687
0.161776 0.448920 0.151003
0.361791 0.464561 0.179690
0.506889 0.490669 0.210941
0.570092 0.462837 0.214267
0.636622 0.491707 0.236301
0.672877 0.522820 0.261387
0.681178 0.527916 0.264866
0.681453 0.533257 0.266911
0.679011 0.529290 0.264683
0.256870 0.593317 0.219883
0.466560 0.618830 0.243809
0.575509 0.615610 0.272160
0.656291 0.630289 0.306813
0.686213 0.608530 0.305425
0.713985 0.632898 0.327855
0.721401 0.643458 0.337346
0.721736 0.649378 0.340826
0.723293 0.649500 0.338842
0.316686 0.682918 0.283513
0.536126 0.704250 0.295781
0.669123 0.727901 0.357244
0.724056 0.733791 0.387335
0.760952 0.755276 0.418158
0.754086 0.727382 0.399603
0.754147 0.728023 0.399786
0.754299 0.728267 0.400275
0.756252 0.729519 0.402228
0.379522 0.736294 0.329595
0.598413 0.744472 0.354589
0.707179 0.756741 0.394598
0.753597 0.766903 0.424170
0.769772 0.770687 0.433661
0.776028 0.773068 0.438788
0.774075 0.770657 0.436835
0.771572 0.764950 0.428687
0.768704 0.760983 0.425971
0.422858 0.751492 0.355688
0.640101 0.760037 0.411627
0.730343 0.769711 0.420813
0.766354 0.774624 0.432380
0.770169 0.770535 0.433021
0.773220 0.773220 0.436042
0.776211 0.776211 0.440803
0.776272 0.776272 0.439033
0.772549 0.772000 0.434760
0.465248 0.758785 0.375708
0.674495 0.767208 0.440650
0.744228 0.772549 0.435920
0.768582 0.776455 0.438788
0.776608 0.776608 0.439368
0.778653 0.778653 0.442298
0.776455 0.776455 0.440772
0.778927 0.778927 0.441749
0.775876 0.775876 0.441901
0.011780 0.011780 0.093690
0.080385 0.022187 0.105989
0.224033 0.048646 0.155154
0.309972 0.065919 0.193484
0.411688 0.098970 0.251408
0.474739 0.124117 0.282383
0.433722 0.088930 0.241642
0.440131 0.089296 0.227268
0.450935 0.090272 0.213840
0.050752 0.129152 0.145022
0.183536 0.170596 0.170077
0.402594 0.196689 0.184726
0.529168 0.220310 0.214298
0.594995 0.233829 0.240116
0.617761 0.239780 0.262333
0.611109 0.227634 0.268620
0.590875 0.203525 0.269688
0.559228 0.172488 0.238102
0.100221 0.264775 0.207431
0.207919 0.351019 0.175814
0.394873 0.341070 0.196445
0.505302 0.365454 0.215885
0.584253 0.375647 0.233463
0.625605 0.379858 0.245640
0.638148 0.363745 0.245121
0.642359 0.340368 0.244938
0.641718 0.320012 0.238132
0.139498 0.385657 0.272343
0.276371 0.487388 0.223484
0.480385 0.513191 0.261265
0.558679 0.499611 0.260655
0.628473 0.501579 0.272862
0.658076 0.499947 0.280095
0.674617 0.512810 0.293248
0.676326 0.495277 0.289067
0.673030 0.476753 0.277531
0.194919 0.540078 0.339971
0.376013 0.618051 0.286534
0.553948 0.651667 0.326329
0.670192 0.677913 0.360174
0.684810 0.638086 0.344274
0.707790 0.635401 0.351324
0.714412 0.635554 0.352697
0.713314 0.631098 0.344121
0.714687 0.627070 0.342626
0.246098 0.647639 0.392218
0.452338 0.704524 0.341070
0.609644 0.724330 0.366857
0.701747 0.737850 0.398260
0.750271 0.751492 0.423316
0.748562 0.727779 0.410925
0.749538 0.718990 0.406012
0.751736 0.719081 0.405310
0.746883 0.711147 0.396307
0.306706 0.707088 0.435981
0.498085 0.739864 0.378180
0.640650 0.748898 0.383062
0.720394 0.760616 0.411231
0.757107 0.768734 0.432898
0.772549 0.772549 0.440040
0.769741 0.766903 0.437232
0.767178 0.757778 0.429847
0.769284 0.758236 0.432837
0.348028 0.743008 0.454139
0.544823 0.756069 0.403906
0.665553 0.759243 0.392309
0.733333 0.763882 0.416693
0.762997 0.772763 0.438697
0.772549 0.774350 0.444648
0.770932 0.770932 0.437537
0.775265 0.775265 0.441871
0.775662 0.773800 0.444251
0.365332 0.764218 0.460212
0.578820 0.770871 0.417945
0.689632 0.765255 0.409400
0.749569 0.772641 0.430945
0.769406 0.776516 0.448859
0.778012 0.778012 0.470161
0.779507 0.779507 0.454963
0.777035 0.777035 0.446052
0.777340 0.777340 0.441840
0.015686 0.015686 0.161288
0.022492 0.017731 0.161257
0.154849 0.040314 0.184268
0.257023 0.059815 0.226871
0.321660 0.072450 0.257603
0.357916 0.077852 0.253452
0.367834 0.080232 0.234348
0.383856 0.080751 0.218357
0.404547 0.084047 0.215396
0.047822 0.100832 0.210758
0.109133 0.153841 0.274449
0.273533 0.147555 0.285435
0.350591 0.142733 0.282109
0.400854 0.140291 0.282567
0.437781 0.135714 0.283635
0.446113 0.123751 0.266819
0.436835 0.107759 0.239139
0.414832 0.097444 0.206516
0.097597 0.243015 0.274388
0.141970 0.293004 0.312596
0.350500 0.338079 0.337438
0.486458 0.344732 0.336645
0.598993 0.346502 0.336919
0.670832 0.350286 0.346349
0.698634 0.341009 0.326574
0.697169 0.328283 0.306157
0.663172 0.317357 0.279484
0.142733 0.365209 0.359380
0.199313 0.430091 0.370520
0.393713 0.502770 0.366644
0.534997 0.496162 0.344244
0.632136 0.487098 0.349981
0.679835 0.482033 0.355505
0.697261 0.470802 0.344152
0.693568 0.461921 0.330297
0.668055 0.441352 0.310582
0.185946 0.493385 0.420142
0.263584 0.567895 0.412146
0.442481 0.647425 0.384497
0.596490 0.655360 0.396765
0.669001 0.630884 0.403479
0.704219 0.620600 0.410010
0.725399 0.621393 0.412940
0.724422 0.606653 0.399481
0.709499 0.586572 0.385657
0.230045 0.604059 0.475959
0.320165 0.674952 0.423774
0.502953 0.727993 0.411780
0.647852 0.734249 0.440345
0.719722 0.739071 0.468818
0.740505 0.723903 0.467079
0.750973 0.710811 0.461097
0.754604 0.706325 0.454322
0.750118 0.696681 0.452918
0.271061 0.671168 0.519463
0.353185 0.745113 0.410407
0.554772 0.768704 0.428809
0.684718 0.767666 0.466651
0.743648 0.773007 0.485634
0.772396 0.775357 0.495277
0.771511 0.761440 0.486488
0.772671 0.756222 0.489570
0.769619 0.751095 0.486366
0.321691 0.709651 0.559350
0.404303 0.782742 0.386725
0.592676 0.775784 0.430854
0.705074 0.777981 0.469001
0.756863 0.784543 0.493050
0.777005 0.784237 0.500145
0.780392 0.780392 0.501671
0.782773 0.779446 0.500023
0.783413 0.778561 0.502892
0.361913 0.725978 0.578820
0.460822 0.786709 0.415351
0.632929 0.775296 0.440558
0.718624 0.781308 0.477424
0.763668 0.785916 0.497810
0.780819 0.789700 0.510735
0.784726 0.785458 0.511070
0.784573 0.784573 0.502525
0.780697 0.780697 0.494850
0.019379 0.019379 0.183871
0.015412 0.015320 0.168032
0.101625 0.030854 0.179721
0.210849 0.051606 0.216831
0.263798 0.061585 0.237003
0.274022 0.061799 0.217350
0.298405 0.065644 0.211490
0.333623 0.070588 0.210544
0.357580 0.075593 0.211765
0.037354 0.064485 0.211460
0.058137 0.105440 0.244053
0.164370 0.090028 0.267552
0.245274 0.082582 0.247196
0.287907 0.072267 0.241794
0.324620 0.075746 0.240421
0.333837 0.072541 0.225071
0.333074 0.073182 0.205356
0.301274 0.064271 0.168032
0.095521 0.224948 0.301946
0.107362 0.254826 0.324315
0.277287 0.311864 0.405188
0.409094 0.307469 0.398260
0.503563 0.293767 0.394110
0.555779 0.287877 0.380591
0.587762 0.280125 0.366217
0.601190 0.259281 0.328893
0.597955 0.251926 0.298436
0.139590 0.347723 0.386938
0.150027 0.376471 0.396307
0.308049 0.444434 0.456611
0.471992 0.470314 0.464149
0.568566 0.471839 0.456153
0.634638 0.465919 0.441749
0.676295 0.459998 0.416175
0.708064 0.450690 0.387121
0.709255 0.447761 0.370398
0.176547 0.447486 0.461494
0.210636 0.493385 0.471901
0.365972 0.593988 0.506615
0.538994 0.622065 0.511345
0.625330 0.608087 0.486549
0.677272 0.597742 0.479347
0.712184 0.585138 0.447318
0.723476 0.566796 0.419104
0.726040 0.549157 0.393622
0.219669 0.542489 0.531640
0.278508 0.606195 0.530602
0.429664 0.692073 0.532097
0.591913 0.708949 0.542718
0.680232 0.720241 0.525750
0.715908 0.700618 0.513359
0.738643 0.691798 0.502647
0.754116 0.682612 0.483650
0.754452 0.667597 0.463111
0.271366 0.636042 0.584649
0.338598 0.680110 0.556939
0.484901 0.748775 0.548363
0.640314 0.760861 0.567193
0.703517 0.760830 0.546654
0.753475 0.768704 0.548333
0.762570 0.753079 0.528588
0.775631 0.751949 0.523430
0.778561 0.742428 0.511620
0.313939 0.689082 0.620356
0.395026 0.731014 0.568536
0.530968 0.777279 0.552636
0.670222 0.782528 0.585473
0.731319 0.787747 0.573632
0.768002 0.792233 0.570367
0.788510 0.792294 0.555566
0.788968 0.784451 0.544549
0.792142 0.781888 0.541619
0.338689 0.710536 0.645808
0.418738 0.762020 0.565972
0.551904 0.784360 0.537118
0.689235 0.787778 0.593957
0.740749 0.788876 0.587213
0.775448 0.798123 0.587488
0.792142 0.796078 0.570672
0.797513 0.797513 0.558831
0.793851 0.792599 0.545525
0.015747 0.015747 0.180606
0.013642 0.013642 0.164858
0.069734 0.025086 0.167056
0.199619 0.047150 0.206455
0.272862 0.066896 0.243626
0.231571 0.054902 0.201938
0.257725 0.058625 0.201022
0.292363 0.063447 0.210056
0.325139 0.069917 0.215641
0.025605 0.033661 0.196231
0.038819 0.067475 0.216464
0.068971 0.047517 0.218631
0.182254 0.058625 0.230716
0.230411 0.055909 0.217777
0.255406 0.059419 0.208865
0.261814 0.057862 0.193851
0.255650 0.057984 0.174929
0.251194 0.051881 0.165805
0.093812 0.219120 0.312627
0.098390 0.230320 0.322087
0.213779 0.285374 0.416236
0.324895 0.267704 0.427436
0.416846 0.252049 0.401160
0.445869 0.215854 0.370672
0.463325 0.199039 0.347326
0.478798 0.201450 0.330053
0.476143 0.194583 0.308873
0.140536 0.342199 0.411109
0.147372 0.354711 0.413703
0.261997 0.404730 0.491768
0.408026 0.435065 0.517205
0.506340 0.436988 0.502678
0.569055 0.419196 0.480201
0.616938 0.420996 0.461616
0.653651 0.411749 0.435615
0.679438 0.416022 0.429145
0.170199 0.413214 0.476631
0.185153 0.446296 0.488746
0.321538 0.526482 0.557214
0.452766 0.566125 0.580896
0.580285 0.583947 0.580255
0.634699 0.589624 0.569436
0.675227 0.580591 0.544106
0.703334 0.569711 0.513741
0.719173 0.572381 0.510231
0.198337 0.476753 0.546563
0.235142 0.528649 0.567498
0.389319 0.632685 0.617029
0.522087 0.674647 0.631189
0.648188 0.689204 0.639857
0.692317 0.689204 0.617670
0.715846 0.671046 0.580499
0.735195 0.660883 0.549096
0.745876 0.647150 0.527001
0.259983 0.590112 0.609674
0.310063 0.626062 0.632654
0.448646 0.710353 0.654017
0.587152 0.738277 0.662501
0.683070 0.742245 0.664332
0.730617 0.751461 0.651789
0.747524 0.742061 0.619135
0.767361 0.739284 0.602380
0.772244 0.731624 0.583154
0.315740 0.672145 0.651942
0.397864 0.702785 0.676234
0.482612 0.755337 0.664973
0.632990 0.768612 0.685786
0.718959 0.774685 0.695735
0.754818 0.781491 0.678187
0.782712 0.788998 0.659632
0.787259 0.781338 0.636133
0.789425 0.774166 0.624231
0.343633 0.703883 0.678279
0.443885 0.737026 0.697169
0.522515 0.773953 0.674525
0.653956 0.780819 0.695979
0.734218 0.786831 0.709865
0.769131 0.797421 0.700801
0.789853 0.799588 0.680812
0.796292 0.797421 0.658045
0.801297 0.797391 0.642603
0.015076 0.015076 0.180209
0.014710 0.014710 0.167239
0.029694 0.017426 0.152712
0.109850 0.032593 0.169131
0.209766 0.051423 0.204318
0.222568 0.055116 0.203220
0.231022 0.052491 0.201022
0.267216 0.060487 0.207980
0.297246 0.065949 0.213230
0.021424 0.030274 0.199710
0.027985 0.045960 0.191562
0.027802 0.025177 0.182254
0.100786 0.033204 0.191867
0.177615 0.046540 0.199496
0.215000 0.049256 0.193668
0.204776 0.045380 0.169650
0.202121 0.046143 0.159182
0.232425 0.051789 0.179477
0.086702 0.192111 0.317723
0.087251 0.198917 0.313848
0.161822 0.253819 0.407294
0.234455 0.224643 0.427405
0.336355 0.212833 0.404028
0.370657 0.176074 0.359823
0.366506 0.145373 0.325002
0.385641 0.151659 0.314366
0.392538 0.143969 0.301030
0.139437 0.330266 0.426551
0.140169 0.331945 0.427527
0.217639 0.366140 0.500496
0.352132 0.403220 0.576226
0.429343 0.391501 0.540612
0.514946 0.384207 0.516686
0.567956 0.367330 0.496681
0.618006 0.366476 0.479561
0.642176 0.373861 0.467231
0.173342 0.417884 0.507805
0.180087 0.427436 0.516930
0.285389 0.483970 0.584497
0.400320 0.517006 0.629175
0.529824 0.550607 0.614160
0.588373 0.549569 0.597162
0.634058 0.540536 0.580194
0.667811 0.542275 0.566613
0.693172 0.557168 0.571588
0.192660 0.457740 0.553338
0.213840 0.489448 0.579065
0.348608 0.590906 0.638819
0.453651 0.624201 0.668147
0.582452 0.653407 0.667964
0.663844 0.665888 0.663844
0.696559 0.670588 0.651453
0.719661 0.670710 0.643061
0.729000 0.666285 0.634760
0.250736 0.565393 0.618677
0.282933 0.575647 0.640681
0.412665 0.672999 0.692164
0.516075 0.707607 0.708858
0.633051 0.722560 0.706752
0.710109 0.732174 0.709255
0.739193 0.738338 0.695827
0.754818 0.730282 0.676966
0.764523 0.723903 0.660060
0.312749 0.655756 0.662684
0.372717 0.678828 0.692287
0.456855 0.725246 0.718837
0.567086 0.749386 0.731472
0.677943 0.764218 0.731197
0.744564 0.772885 0.742000
0.769619 0.780758 0.729000
0.777310 0.774746 0.711971
0.784054 0.769985 0.699519
0.337407 0.687007 0.684993
0.422095 0.716396 0.715480
0.486061 0.754116 0.738186
0.602548 0.773068 0.741482
0.699855 0.779934 0.742702
0.766506 0.794461 0.762844
0.781521 0.791989 0.745205
0.795407 0.797208 0.735409
0.794675 0.794553 0.723201
0.018891 0.018891 0.196994
0.013703 0.013703 0.173098
0.011780 0.011597 0.140993
0.022705 0.009979 0.127169
0.089769 0.025238 0.142977
0.153933 0.037934 0.159274
0.193698 0.046845 0.189151
0.239506 0.055146 0.206088
0.264683 0.058228 0.208164
0.020356 0.023072 0.205356
0.020417 0.029908 0.182681
0.015167 0.017853 0.163516
0.036591 0.018219 0.164797
0.114031 0.032868 0.174228
0.170138 0.043427 0.178347
0.182864 0.042756 0.169497
0.164950 0.040406 0.156649
0.217655 0.051637 0.192508
0.079164 0.160555 0.322454
0.080446 0.174350 0.311528
0.130068 0.223148 0.392233
0.162554 0.181765 0.409079
0.254658 0.166140 0.409735
0.310094 0.154803 0.370199
0.325170 0.131395 0.328710
0.323018 0.115541 0.300542
0.349447 0.121172 0.305119
0.144045 0.327062 0.454536
0.131960 0.311254 0.435157
0.188586 0.337636 0.499977
0.314565 0.385229 0.624445
0.376547 0.364981 0.602533
0.455024 0.355398 0.572015
0.524651 0.348409 0.538354
0.568353 0.331014 0.507530
0.601221 0.344656 0.499123
0.205661 0.448707 0.555016
0.177340 0.412238 0.536187
0.254231 0.445548 0.583764
0.366140 0.490745 0.667872
0.490074 0.525856 0.656825
0.542901 0.516152 0.624903
0.602960 0.510170 0.603967
0.646265 0.508797 0.594903
0.678431 0.528145 0.599420
0.216678 0.499733 0.588678
0.217105 0.494850 0.598535
0.320104 0.552361 0.641566
0.424475 0.597498 0.700313
0.534112 0.620935 0.695796
0.634699 0.649042 0.684443
0.673274 0.648157 0.673701
0.701808 0.652888 0.669032
0.717586 0.666194 0.673640
0.251133 0.565423 0.621088
0.277165 0.564996 0.643153
0.379675 0.636988 0.690120
0.475135 0.677485 0.728115
0.577020 0.697566 0.723995
0.669825 0.714473 0.721798
0.726894 0.730617 0.726680
0.744137 0.731197 0.718837
0.760128 0.736873 0.720150
0.306432 0.641657 0.667323
0.358618 0.659937 0.689998
0.434272 0.700160 0.725978
0.519493 0.728725 0.748806
0.624506 0.744411 0.748745
0.704341 0.752163 0.747005
0.756405 0.765042 0.752499
0.766049 0.766049 0.745327
0.780423 0.767452 0.740505
0.335058 0.676295 0.689662
0.387732 0.700343 0.709804
0.461097 0.728969 0.740597
0.552300 0.757046 0.763272
0.655787 0.768338 0.764096
0.734462 0.777768 0.766995
0.775692 0.790982 0.774227
0.790677 0.795895 0.771511
0.793698 0.787320 0.755276
0.015686 0.015686 0.194217
0.015839 0.015839 0.181582
0.013611 0.013611 0.156588
0.012512 0.012512 0.144472
0.029603 0.017090 0.141207
0.102815 0.029877 0.154330
0.155093 0.039277 0.175082
0.202365 0.047059 0.200229
0.241550 0.054841 0.205600
0.018677 0.019532 0.211887
0.019440 0.021698 0.179995
0.014496 0.015595 0.152987
0.013519 0.012818 0.149081
0.050874 0.022309 0.153140
0.103212 0.029786 0.153292
0.130983 0.033783 0.147921
0.154574 0.038178 0.158633
0.210910 0.052430 0.207309
0.067597 0.140261 0.325750
0.076753 0.164553 0.312657
0.115755 0.212955 0.401587
0.110582 0.149660 0.376455
0.187854 0.137972 0.398413
0.256962 0.133455 0.370718
0.284306 0.117464 0.334585
0.302922 0.109926 0.313939
0.321187 0.106081 0.303349
0.138521 0.316075 0.469093
0.129946 0.301274 0.449317
0.171817 0.324956 0.505943
0.290181 0.368139 0.622095
0.327779 0.338796 0.642206
0.410193 0.335470 0.616541
0.479805 0.331350 0.581201
0.536339 0.330800 0.542779
0.563653 0.322225 0.513176
0.201328 0.439643 0.567376
0.172457 0.398657 0.550164
0.242908 0.434409 0.596857
0.341268 0.464775 0.674739
0.460533 0.511025 0.689876
0.504173 0.494347 0.664546
0.572900 0.500069 0.640772
0.627955 0.502968 0.624781
0.659632 0.498527 0.615808
0.229435 0.514122 0.607996
0.215122 0.481147 0.609430
0.308568 0.535515 0.647395
0.404334 0.575860 0.714504
0.504753 0.598321 0.713527
0.611322 0.636408 0.699367
0.648280 0.633051 0.685695
0.682124 0.634363 0.679408
0.704433 0.637263 0.678492
0.263676 0.578820 0.638178
0.271580 0.575555 0.652735
0.365637 0.615961 0.683833
0.458564 0.662165 0.735012
0.555474 0.681025 0.738308
0.649592 0.698543 0.730312
0.708217 0.716487 0.730312
0.726131 0.716518 0.726131
0.748592 0.726802 0.732906
0.304479 0.638056 0.671077
0.342443 0.649348 0.687922
0.416785 0.677119 0.714137
0.487739 0.712612 0.747158
0.594171 0.732723 0.757076
0.686397 0.744564 0.755154
0.734066 0.753750 0.758297
0.766506 0.766506 0.759182
0.778042 0.771023 0.764736
0.332158 0.670008 0.692317
0.362921 0.685298 0.705592
0.445869 0.712367 0.734218
0.521752 0.743160 0.762753
0.619867 0.756710 0.771084
0.710140 0.770108 0.772091
0.757778 0.780728 0.777981
0.784024 0.788479 0.780118
0.788266 0.787717 0.774868
0.016358 0.016358 0.203342
0.018280 0.018280 0.190249
0.015106 0.015106 0.175174
0.015686 0.015686 0.170016
0.013245 0.012818 0.156100
0.043183 0.019959 0.164370
0.112398 0.032471 0.182681
0.172519 0.043854 0.204349
0.216373 0.050324 0.207126
0.020203 0.023377 0.232975
0.025940 0.034760 0.199405
0.017365 0.018158 0.160830
0.015900 0.016480 0.156100
0.024170 0.014282 0.154879
0.046540 0.016541 0.144991
0.083406 0.025940 0.143160
0.124392 0.032532 0.156008
0.184115 0.043946 0.199893
0.073365 0.143069 0.356481
0.076417 0.161318 0.326360
0.103151 0.208774 0.410346
0.084352 0.132967 0.360189
0.142016 0.123415 0.404578
0.210849 0.110780 0.367575
0.253330 0.105287 0.345083
0.291661 0.110323 0.334447
0.303487 0.099519 0.314427
0.131685 0.298283 0.481910
0.129397 0.293065 0.457618
0.155398 0.312779 0.510796
0.282612 0.367559 0.623362
0.294820 0.324315 0.645075
0.369696 0.318395 0.642390
0.445777 0.321981 0.605005
0.501305 0.321309 0.564355
0.538964 0.315724 0.531548
0.173922 0.403601 0.554376
0.168063 0.385473 0.555474
0.213428 0.407126 0.585992
0.331441 0.453605 0.672145
0.446189 0.506935 0.710109
0.472450 0.479362 0.689815
0.541283 0.478172 0.666377
0.603723 0.489891 0.650660
0.644617 0.496574 0.640070
0.218509 0.494057 0.609155
0.199619 0.449134 0.602533
0.285527 0.512718 0.644862
0.389258 0.558801 0.709377
0.489204 0.591669 0.725338
0.593378 0.624353 0.709590
0.624781 0.616785 0.695979
0.664179 0.623926 0.690669
0.693019 0.630274 0.692470
0.263920 0.571191 0.647120
0.255070 0.548638 0.645136
0.345159 0.598505 0.678645
0.441932 0.647181 0.736294
0.533288 0.667353 0.744595
0.632868 0.682887 0.737179
0.700801 0.711147 0.738033
0.717098 0.709529 0.734127
0.736599 0.714656 0.734005
0.301793 0.628229 0.673609
0.314733 0.639307 0.684016
0.398230 0.661433 0.705684
0.475227 0.699886 0.747402
0.573053 0.717189 0.756863
0.669306 0.733120 0.759487
0.723934 0.745480 0.761135
0.759274 0.761471 0.767605
0.764797 0.759793 0.763668
0.324315 0.660975 0.688930
0.340612 0.669795 0.692592
0.432807 0.697963 0.723720
0.501518 0.733333 0.762478
0.595331 0.749020 0.768734
0.695918 0.759518 0.771481
0.743526 0.767971 0.775692
0.773739 0.780545 0.781216
0.792142 0.792142 0.788235
