LUT color transfer/LUTs/42.cube
# (C) 2014 VisionColor & Patchflyer [www.vision-color.com]
# Generator: VC Patchmatch v.2.1.1 [64/53]
# All work and no play makes Jack a dull boy.
# LUT generated from: Kodak Vision3 500T 5219 (NEG)_VisionSpace
LUT_3D_SIZE 17
0.031373 0.031373 0.031373
0.093050 0.032868 0.030976
0.155612 0.042145 0.034516
0.239322 0.075929 0.054536
0.308537 0.107790 0.072389
0.371435 0.131716 0.087343
0.428840 0.148989 0.103883
0.476265 0.159792 0.117525
0.512169 0.164431 0.128725
0.537163 0.165438 0.139010
0.557702 0.168368 0.149172
0.568933 0.160494 0.155886
0.567834 0.146456 0.162203
0.544671 0.125277 0.167605
0.518822 0.101564 0.164706
0.504112 0.094453 0.157290
0.497963 0.093385 0.153201
0.069520 0.073274 0.034730
0.102632 0.065034 0.037354
0.166567 0.077546 0.045075
0.253117 0.106172 0.063355
0.320958 0.138888 0.081483
0.378759 0.167483 0.095552
0.436622 0.188937 0.110933
0.478553 0.200320 0.121096
0.506340 0.203586 0.124239
0.528283 0.204654 0.127077
0.547417 0.213321 0.132509
0.556023 0.212619 0.133455
0.562280 0.210239 0.136355
0.561639 0.197910 0.136355
0.557275 0.177829 0.128817
0.556909 0.161837 0.125582
0.554314 0.141573 0.118532
0.090150 0.149325 0.054139
0.138643 0.158938 0.063416
0.189639 0.150607 0.069642
0.276219 0.173068 0.085756
0.343389 0.197787 0.103731
0.406043 0.222232 0.118013
0.462684 0.245914 0.130892
0.502983 0.260014 0.138918
0.537774 0.275639 0.148592
0.568627 0.290501 0.158572
0.583001 0.293034 0.162448
0.587243 0.289433 0.161135
0.589624 0.278538 0.158450
0.584222 0.265965 0.152621
0.575738 0.250523 0.145602
0.572961 0.241184 0.143404
0.572442 0.235111 0.141970
0.087526 0.217960 0.074342
0.149783 0.226810 0.084596
0.246281 0.251316 0.104707
0.294896 0.235813 0.105867
0.366522 0.257420 0.121828
0.430365 0.280461 0.138643
0.489265 0.303258 0.153048
0.530968 0.321843 0.161715
0.566857 0.341497 0.171817
0.599359 0.362463 0.183688
0.619410 0.369055 0.191501
0.624567 0.368231 0.191470
0.621241 0.358679 0.186160
0.616205 0.348028 0.180911
0.610224 0.334722 0.177035
0.605798 0.327398 0.174411
0.605829 0.324834 0.171939
0.094942 0.278447 0.091402
0.169070 0.292088 0.105409
0.275303 0.320195 0.125460
0.371801 0.347692 0.148775
0.394171 0.324071 0.145174
0.459327 0.343359 0.159274
0.514641 0.359625 0.172457
0.557763 0.375463 0.182193
0.593042 0.394537 0.193179
0.621241 0.410895 0.203464
0.638788 0.417273 0.211063
0.644251 0.419165 0.212100
0.643000 0.415747 0.209476
0.640040 0.410407 0.207218
0.637507 0.407568 0.205905
0.634668 0.399817 0.204227
0.633021 0.395483 0.200687
0.120577 0.356237 0.118074
0.209628 0.365484 0.130465
0.312963 0.388434 0.150942
0.405829 0.415930 0.172763
0.466926 0.421820 0.184390
0.488289 0.399420 0.180850
0.541650 0.412940 0.192447
0.582605 0.427710 0.202274
0.611994 0.437415 0.211887
0.635493 0.450996 0.221439
0.650172 0.465705 0.230991
0.658045 0.468208 0.233036
0.659602 0.465553 0.231601
0.658534 0.463783 0.231296
0.658351 0.466590 0.232364
0.657313 0.464485 0.232242
0.657343 0.461707 0.230900
0.161776 0.448920 0.151003
0.259861 0.446403 0.160983
0.361791 0.464561 0.179690
0.441016 0.482918 0.198428
0.506889 0.490669 0.210941
0.548516 0.482551 0.216220
0.570092 0.462837 0.214267
0.610742 0.481636 0.226413
0.636622 0.491707 0.236301
0.658900 0.508202 0.250584
0.672877 0.522820 0.261387
0.677943 0.526757 0.264256
0.681178 0.527916 0.264866
0.679774 0.529992 0.266148
0.681453 0.533257 0.266911
0.680934 0.532006 0.266484
0.679011 0.529290 0.264683
0.212284 0.525841 0.184390
0.319921 0.535103 0.195102
0.418921 0.548989 0.213352
0.478752 0.556161 0.227543
0.525109 0.539666 0.228702
0.577935 0.547021 0.245060
0.615747 0.551705 0.256809
0.635340 0.536614 0.255375
0.659632 0.546548 0.264958
0.680781 0.562890 0.279698
0.695369 0.579400 0.292973
0.700984 0.585931 0.298375
0.702846 0.587854 0.300267
0.701320 0.590936 0.303075
0.700282 0.590784 0.302342
0.702571 0.591882 0.302373
0.701228 0.590021 0.300572
0.256870 0.593317 0.219883
0.368811 0.601572 0.222599
0.466560 0.618830 0.243809
0.524880 0.622843 0.259281
0.575509 0.615610 0.272160
0.602487 0.599405 0.274510
0.656291 0.630289 0.306813
0.684153 0.630411 0.318868
0.686213 0.608530 0.305425
0.705898 0.624018 0.320348
0.713985 0.632898 0.327855
0.719570 0.640681 0.334569
0.721401 0.643458 0.337346
0.724330 0.651392 0.342779
0.721736 0.649378 0.340826
0.721065 0.649836 0.339391
0.723293 0.649500 0.338842
0.295109 0.648585 0.254856
0.414435 0.658564 0.253849
0.506615 0.673030 0.272892
0.573236 0.682765 0.296941
0.637049 0.695918 0.324773
0.662501 0.683116 0.330602
0.684840 0.684260 0.342077
0.733791 0.721187 0.386236
0.738247 0.709545 0.380575
0.731472 0.683345 0.360754
0.735653 0.685908 0.365026
0.737057 0.687312 0.367163
0.738033 0.688869 0.369848
0.738033 0.691646 0.371283
0.740841 0.695521 0.376013
0.739467 0.695003 0.374975
0.741695 0.695521 0.375616
0.316686 0.682918 0.283513
0.447608 0.696132 0.292515
0.536126 0.704250 0.295781
0.607569 0.716121 0.324895
0.669123 0.727901 0.357244
0.706142 0.736446 0.380041
0.724056 0.733791 0.387335
0.753964 0.750607 0.411170
0.760952 0.755276 0.418158
0.758694 0.741176 0.408789
0.754086 0.727382 0.399603
0.754788 0.728084 0.400305
0.754147 0.728023 0.399786
0.752499 0.727382 0.397864
0.754299 0.728267 0.400275
0.754818 0.730709 0.403967
0.756252 0.729519 0.402228
0.344305 0.712123 0.307134
0.479011 0.721279 0.322942
0.568689 0.725551 0.321386
0.634089 0.734798 0.347478
0.691066 0.746365 0.379309
0.726284 0.756069 0.401770
0.742580 0.756466 0.410986
0.759823 0.761227 0.421912
0.766781 0.765866 0.427466
0.771450 0.768277 0.432074
0.768948 0.758633 0.426337
0.766140 0.753719 0.422522
0.764675 0.751553 0.419562
0.764126 0.750607 0.416449
0.764157 0.747921 0.415290
0.763699 0.749050 0.417639
0.763272 0.748196 0.416236
0.379522 0.736294 0.329595
0.507927 0.740780 0.352117
0.598413 0.744472 0.354589
0.663417 0.750454 0.373144
0.707179 0.756741 0.394598
0.740383 0.767788 0.416724
0.753597 0.766903 0.424170
0.762753 0.766049 0.428901
0.769772 0.770687 0.433661
0.773709 0.773068 0.436469
0.776028 0.773068 0.438788
0.774380 0.770962 0.437140
0.774075 0.770657 0.436835
0.774411 0.769436 0.432898
0.771572 0.764950 0.428687
0.770016 0.761410 0.426703
0.768704 0.760983 0.425971
0.402319 0.742061 0.341772
0.534661 0.750546 0.376226
0.620172 0.753292 0.385168
0.682826 0.760983 0.398749
0.722835 0.767056 0.410163
0.747616 0.771786 0.423438
0.758907 0.770474 0.428595
0.767391 0.770748 0.431647
0.770626 0.771267 0.434028
0.773922 0.773922 0.436683
0.774563 0.773861 0.437324
0.774258 0.773556 0.437995
0.776822 0.776120 0.441413
0.780362 0.779660 0.443122
0.775479 0.774624 0.437446
0.773648 0.771115 0.435157
0.772549 0.769497 0.432258
0.422858 0.751492 0.355688
0.554589 0.756008 0.391577
0.640101 0.760037 0.411627
0.696071 0.762234 0.418250
0.730343 0.769711 0.420813
0.751614 0.772915 0.428199
0.766354 0.774624 0.432380
0.769436 0.772122 0.432197
0.770169 0.770535 0.433021
0.772488 0.772488 0.435309
0.773220 0.773220 0.436042
0.777157 0.777157 0.440467
0.776211 0.776211 0.440803
0.775876 0.775876 0.439124
0.776272 0.776272 0.439033
0.773831 0.772549 0.436591
0.772549 0.772000 0.434760
0.442664 0.757259 0.366125
0.570977 0.760678 0.403449
0.659266 0.765225 0.428870
0.708278 0.766812 0.431250
0.735195 0.768582 0.428412
0.755032 0.773220 0.430243
0.769100 0.775662 0.434760
0.773098 0.775479 0.435859
0.772000 0.772061 0.435981
0.774227 0.774227 0.438270
0.773404 0.773404 0.438056
0.775753 0.775753 0.440497
0.777127 0.777127 0.439887
0.775814 0.775814 0.439765
0.775906 0.775906 0.439948
0.774868 0.774868 0.438666
0.774502 0.774502 0.439277
0.465248 0.758785 0.375708
0.587488 0.763333 0.414710
0.674495 0.767208 0.440650
0.718563 0.770535 0.437995
0.744228 0.772549 0.435920
0.759060 0.774197 0.436377
0.768582 0.776455 0.438788
0.773617 0.776455 0.439307
0.776608 0.776608 0.439368
0.778927 0.778927 0.441688
0.778653 0.778653 0.442298
0.773983 0.773983 0.439979
0.776455 0.776455 0.440772
0.778927 0.778927 0.441749
0.778927 0.778927 0.441749
0.778286 0.778286 0.443000
0.775876 0.775876 0.441901
0.034485 0.022553 0.059937
0.067201 0.028351 0.062379
0.132692 0.029664 0.078584
0.211521 0.044068 0.095552
0.271214 0.058381 0.111543
0.320531 0.070497 0.132540
0.381323 0.091463 0.154879
0.436042 0.111086 0.181369
0.477363 0.126986 0.205783
0.516594 0.146914 0.232120
0.521752 0.144594 0.239078
0.503838 0.125856 0.228885
0.483589 0.103304 0.222202
0.472816 0.095094 0.220005
0.468330 0.092287 0.216831
0.472541 0.094118 0.212039
0.474769 0.094057 0.201419
0.051911 0.065583 0.073121
0.098512 0.086732 0.076204
0.203952 0.087709 0.081514
0.287022 0.117189 0.099489
0.348424 0.142336 0.118807
0.408698 0.163424 0.139895
0.467445 0.184634 0.159243
0.514519 0.194766 0.173190
0.550927 0.199741 0.186404
0.577111 0.202701 0.200809
0.594079 0.205631 0.217014
0.595819 0.199771 0.225193
0.588922 0.188266 0.232883
0.573754 0.170413 0.237675
0.541741 0.142428 0.229038
0.519799 0.120790 0.220005
0.512474 0.110018 0.209567
0.063264 0.146761 0.083894
0.120821 0.166812 0.080079
0.201144 0.167086 0.087343
0.289921 0.183444 0.098665
0.352392 0.199130 0.113527
0.411475 0.221714 0.130556
0.465888 0.240482 0.143862
0.515770 0.254643 0.153017
0.545220 0.262882 0.160220
0.567346 0.265415 0.169436
0.585779 0.269413 0.178775
0.599054 0.262882 0.185214
0.607538 0.251194 0.187259
0.608484 0.234897 0.185428
0.614130 0.206638 0.187930
0.612787 0.184543 0.187564
0.605188 0.178225 0.185397
0.073487 0.214176 0.096712
0.125643 0.241276 0.096834
0.230442 0.254185 0.109804
0.305577 0.250828 0.118959
0.370886 0.269841 0.131716
0.427161 0.284916 0.140810
0.482429 0.303990 0.153109
0.530205 0.320562 0.163455
0.562707 0.333745 0.171237
0.588739 0.343053 0.180941
0.603693 0.344244 0.188998
0.610132 0.336553 0.190951
0.614160 0.325139 0.192630
0.617945 0.313481 0.194278
0.611841 0.290776 0.185122
0.608392 0.271183 0.179538
0.604547 0.263645 0.175570
0.090517 0.272435 0.122133
0.143893 0.313359 0.122927
0.262150 0.329534 0.139376
0.355169 0.345617 0.150851
0.398352 0.335576 0.153017
0.451270 0.348424 0.161227
0.505669 0.364599 0.172702
0.550439 0.374273 0.180301
0.580743 0.384741 0.189517
0.604944 0.392035 0.199985
0.621759 0.397864 0.206607
0.629999 0.396338 0.209934
0.633844 0.392279 0.210910
0.636988 0.386206 0.211734
0.635340 0.372045 0.208621
0.629664 0.353033 0.200809
0.626368 0.342809 0.197879
0.109773 0.329320 0.155581
0.169009 0.370764 0.147555
0.303563 0.404913 0.169924
0.391241 0.418372 0.176394
0.465339 0.438605 0.190433
0.487800 0.413672 0.185458
0.536187 0.423346 0.194156
0.577905 0.432624 0.204196
0.602289 0.435676 0.208133
0.623804 0.440894 0.216098
0.637964 0.446204 0.223758
0.647822 0.449042 0.228855
0.652949 0.448493 0.230777
0.654994 0.447547 0.231449
0.655268 0.440955 0.231479
0.652308 0.431952 0.227481
0.648890 0.420752 0.224643
0.142000 0.412131 0.199313
0.215396 0.446220 0.182315
0.344396 0.474769 0.195651
0.430213 0.492485 0.204257
0.511131 0.519005 0.222385
0.556176 0.510735 0.226291
0.570764 0.484016 0.220829
0.608301 0.493080 0.232486
0.630793 0.497871 0.239292
0.647974 0.500999 0.244755
0.661128 0.508995 0.253391
0.669520 0.514885 0.258305
0.674342 0.516625 0.260197
0.674769 0.514183 0.258671
0.676570 0.513878 0.261845
0.673793 0.507622 0.258701
0.668177 0.497902 0.253574
0.179202 0.505684 0.241123
0.270604 0.530404 0.214389
0.390234 0.545129 0.214481
0.479805 0.574151 0.233768
0.540368 0.581079 0.247288
0.600580 0.592371 0.265782
0.629664 0.581964 0.271061
0.640040 0.558846 0.266697
0.661311 0.562951 0.273869
0.676753 0.565820 0.280919
0.688258 0.572229 0.288457
0.694240 0.576562 0.292210
0.694179 0.577386 0.293614
0.695521 0.577569 0.293706
0.698970 0.580774 0.298619
0.699428 0.581628 0.300542
0.694331 0.575051 0.295293
0.217746 0.577325 0.269444
0.324132 0.598520 0.246769
0.430945 0.605203 0.237919
0.517845 0.633051 0.262089
0.584314 0.646708 0.285893
0.631113 0.651316 0.305333
0.672358 0.660227 0.324773
0.688563 0.646799 0.328161
0.689540 0.628122 0.317266
0.703578 0.630167 0.323430
0.709773 0.632471 0.326329
0.713802 0.634730 0.327855
0.714015 0.634516 0.328374
0.717006 0.639765 0.332067
0.721157 0.644923 0.337530
0.721981 0.646113 0.339055
0.720699 0.646082 0.339025
0.250462 0.636042 0.297215
0.371466 0.655512 0.278813
0.465553 0.654719 0.261509
0.549340 0.679866 0.289342
0.619989 0.698665 0.321355
0.663569 0.702052 0.341833
0.696101 0.706783 0.359258
0.724575 0.714076 0.378424
0.729915 0.703685 0.374975
0.728542 0.687160 0.363165
0.730312 0.683986 0.361486
0.732235 0.682643 0.363348
0.732418 0.679927 0.362890
0.735409 0.684901 0.366583
0.735225 0.684657 0.367742
0.738094 0.687526 0.370153
0.739132 0.689876 0.371283
0.279179 0.675959 0.331701
0.404364 0.696345 0.314214
0.500481 0.697688 0.296452
0.576989 0.712489 0.314183
0.642420 0.726925 0.346716
0.685725 0.734096 0.370703
0.715328 0.737942 0.385626
0.739803 0.742550 0.401740
0.754391 0.750240 0.413977
0.755611 0.741543 0.407538
0.753292 0.730007 0.398260
0.754604 0.728450 0.400244
0.754025 0.726070 0.400488
0.751492 0.723964 0.397101
0.750362 0.721492 0.395941
0.750210 0.720455 0.396582
0.752621 0.723629 0.396948
0.306401 0.705745 0.358038
0.431769 0.722927 0.343542
0.526665 0.719417 0.321752
0.598321 0.729854 0.331640
0.659480 0.742947 0.362097
0.702235 0.751247 0.385779
0.728969 0.755642 0.402258
0.749264 0.757351 0.415137
0.760861 0.760861 0.424781
0.768246 0.766384 0.429847
0.767269 0.759030 0.423377
0.765316 0.754055 0.420722
0.764096 0.750057 0.419837
0.763119 0.749538 0.418036
0.763790 0.748898 0.416938
0.763302 0.747585 0.417609
0.761959 0.747036 0.418036
0.324041 0.733730 0.370489
0.457160 0.746181 0.366064
0.550866 0.737789 0.358434
0.622034 0.745937 0.355200
0.675380 0.753750 0.377508
0.716396 0.761837 0.399207
0.740902 0.765499 0.414008
0.754086 0.766323 0.422034
0.765652 0.768368 0.432349
0.771359 0.771359 0.437171
0.772580 0.772580 0.436103
0.771908 0.770352 0.434669
0.771084 0.767971 0.433845
0.770138 0.765621 0.430457
0.771420 0.765957 0.430671
0.770657 0.762631 0.428962
0.768765 0.760922 0.429603
0.331884 0.748531 0.367315
0.474250 0.765774 0.375860
0.573968 0.752071 0.387732
0.640742 0.757443 0.379278
0.689387 0.762997 0.393194
0.723598 0.766506 0.406195
0.745724 0.768917 0.418494
0.757870 0.769497 0.426795
0.768002 0.771847 0.433936
0.771695 0.772549 0.437659
0.773587 0.773587 0.438819
0.775937 0.775937 0.438819
0.774258 0.773831 0.436988
0.774685 0.774289 0.437446
0.776303 0.776211 0.438972
0.775479 0.774319 0.438453
0.772702 0.769314 0.435584
0.334569 0.762142 0.366705
0.490700 0.772061 0.385870
0.595239 0.758328 0.414038
0.660670 0.761685 0.403540
0.700038 0.764340 0.401953
0.730404 0.766537 0.411109
0.750729 0.768978 0.423346
0.761746 0.771725 0.435431
0.771420 0.774899 0.444862
0.773831 0.774960 0.444923
0.774899 0.774899 0.443946
0.773678 0.773678 0.436805
0.777676 0.777676 0.440436
0.781216 0.781216 0.443976
0.774289 0.774289 0.439429
0.776455 0.776455 0.441901
0.777737 0.776852 0.443122
0.343633 0.775814 0.364233
0.508324 0.779049 0.396124
0.614832 0.763638 0.432471
0.674861 0.764096 0.422675
0.712062 0.766079 0.416632
0.736812 0.768154 0.416938
0.755856 0.770962 0.427955
0.765774 0.773770 0.439948
0.773861 0.777737 0.453010
0.775021 0.777737 0.457588
0.776425 0.776883 0.451270
0.774533 0.774533 0.440528
0.772274 0.772274 0.435004
0.779110 0.779110 0.441871
0.777371 0.777371 0.441474
0.772549 0.772549 0.437812
0.777462 0.777462 0.442451
0.355566 0.784817 0.361730
0.527184 0.782895 0.404944
0.633722 0.768734 0.442023
0.687190 0.765286 0.435889
0.720577 0.767330 0.428443
0.744564 0.770748 0.429114
0.761440 0.775570 0.433936
0.769741 0.777707 0.444099
0.776883 0.780728 0.457740
0.776883 0.780728 0.466957
0.776883 0.779599 0.465217
0.776883 0.777249 0.448829
0.773465 0.773465 0.439033
0.769680 0.769680 0.432898
0.774685 0.774685 0.437903
0.775235 0.775235 0.437995
0.773007 0.773007 0.436164
0.011780 0.011780 0.093690
0.023651 0.013916 0.101015
0.080385 0.022187 0.105989
0.169558 0.038239 0.140932
0.224033 0.048646 0.155154
0.266911 0.057801 0.170932
0.309972 0.065919 0.193484
0.359838 0.077058 0.220066
0.411688 0.098970 0.251408
0.461646 0.122835 0.281376
0.474739 0.124117 0.282383
0.458717 0.110079 0.261173
0.433722 0.088930 0.241642
0.432929 0.089113 0.234195
0.440131 0.089296 0.227268
0.448005 0.089998 0.221530
0.450935 0.090272 0.213840
0.022675 0.035462 0.112490
0.053803 0.055268 0.159792
0.137819 0.065126 0.151766
0.230808 0.082856 0.169039
0.298711 0.104524 0.187228
0.347204 0.118776 0.202335
0.394476 0.133761 0.223789
0.435523 0.143435 0.240452
0.464942 0.149447 0.254337
0.488136 0.152010 0.264012
0.494301 0.146700 0.268040
0.489387 0.133791 0.264012
0.479957 0.117556 0.260746
0.471412 0.107607 0.253666
0.467720 0.100252 0.246006
0.464424 0.095491 0.234592
0.458808 0.091829 0.218112
0.050752 0.129152 0.145022
0.072999 0.146761 0.157351
0.183536 0.170596 0.170077
0.318364 0.181277 0.173434
0.402594 0.196689 0.184726
0.468238 0.209934 0.199802
0.529168 0.220310 0.214298
0.573816 0.228550 0.227695
0.594995 0.233829 0.240116
0.609857 0.239322 0.252872
0.617761 0.239780 0.262333
0.612146 0.234653 0.264286
0.611109 0.227634 0.268620
0.603937 0.217746 0.274601
0.590875 0.203525 0.269688
0.576684 0.188449 0.256626
0.559228 0.172488 0.238102
0.076356 0.199161 0.179324
0.091463 0.221683 0.184909
0.187381 0.262608 0.162203
0.308537 0.259678 0.160983
0.381933 0.272465 0.179049
0.436377 0.283299 0.190707
0.489845 0.295964 0.203586
0.544549 0.309087 0.220249
0.574670 0.312871 0.227024
0.596368 0.312200 0.230320
0.613886 0.309972 0.236973
0.622797 0.302586 0.238621
0.632166 0.294255 0.242527
0.634913 0.284031 0.244511
0.634730 0.267582 0.242374
0.634852 0.253788 0.235569
0.632349 0.241276 0.226230
0.100221 0.264775 0.207431
0.119814 0.296147 0.206760
0.207919 0.351019 0.175814
0.333715 0.353491 0.192966
0.394873 0.341070 0.196445
0.453925 0.355535 0.206729
0.505302 0.365454 0.215885
0.550622 0.368933 0.223331
0.584253 0.375647 0.233463
0.610315 0.380133 0.241154
0.625605 0.379858 0.245640
0.632868 0.371923 0.244327
0.638148 0.363745 0.245121
0.644770 0.355261 0.247623
0.642359 0.340368 0.244938
0.643305 0.328710 0.242710
0.641718 0.320012 0.238132
0.118135 0.323735 0.237644
0.146731 0.358770 0.229465
0.237339 0.419318 0.197330
0.365393 0.425086 0.222232
0.439216 0.431739 0.227054
0.478462 0.421057 0.225559
0.531853 0.432197 0.235203
0.577142 0.435004 0.243320
0.599237 0.430854 0.244511
0.623804 0.434760 0.250889
0.640528 0.438514 0.258366
0.644465 0.430213 0.254368
0.652430 0.432410 0.261173
0.657099 0.427710 0.263584
0.654475 0.414435 0.260960
0.653193 0.404944 0.257603
0.653773 0.397711 0.255619
0.139498 0.385657 0.272343
0.178347 0.423758 0.255283
0.276371 0.487388 0.223484
0.400732 0.495659 0.252476
0.480385 0.513191 0.261265
0.536446 0.518471 0.267399
0.558679 0.499611 0.260655
0.606592 0.505272 0.271122
0.628473 0.501579 0.272862
0.644099 0.497536 0.273289
0.658076 0.499947 0.280095
0.666712 0.508995 0.286412
0.674617 0.512810 0.293248
0.679103 0.510826 0.295354
0.676326 0.495277 0.289067
0.674495 0.484504 0.283330
0.673030 0.476753 0.277531
0.166842 0.462760 0.309667
0.213993 0.505470 0.284916
0.328771 0.559228 0.259800
0.440650 0.575677 0.283116
0.517143 0.594842 0.296513
0.591546 0.613703 0.314855
0.628351 0.606683 0.316991
0.635584 0.577722 0.304936
0.656306 0.572351 0.306493
0.670283 0.566995 0.307408
0.681270 0.567895 0.313176
0.687984 0.573205 0.318090
0.693568 0.575372 0.319646
0.696681 0.572961 0.320226
0.695430 0.568597 0.317418
0.695064 0.562585 0.315221
0.693965 0.555276 0.309575
0.194919 0.540078 0.339971
0.245945 0.578378 0.306920
0.376013 0.618051 0.286534
0.480690 0.634531 0.311803
0.553948 0.651667 0.326329
0.618280 0.664454 0.343145
0.670192 0.677913 0.360174
0.686793 0.661372 0.357916
0.684810 0.638086 0.344274
0.698299 0.634256 0.345403
0.707790 0.635401 0.351324
0.711482 0.635370 0.353155
0.714412 0.635554 0.352697
0.713771 0.631586 0.346105
0.713314 0.631098 0.344121
0.713710 0.629908 0.343969
0.714687 0.627070 0.342626
0.218601 0.606287 0.368170
0.273869 0.644617 0.315251
0.419745 0.667201 0.313939
0.511467 0.679713 0.332128
0.582269 0.693874 0.348089
0.644617 0.704982 0.365972
0.688624 0.715694 0.381567
0.722408 0.722835 0.397070
0.727382 0.708751 0.389746
0.722774 0.689021 0.377997
0.730129 0.686305 0.382177
0.730770 0.681483 0.378973
0.733394 0.681117 0.379919
0.734493 0.678035 0.376165
0.736324 0.681697 0.380926
0.733211 0.678248 0.376104
0.730800 0.673152 0.370245
0.246098 0.647639 0.392218
0.299443 0.694911 0.322911
0.452338 0.704524 0.341070
0.533715 0.710506 0.345129
0.609644 0.724330 0.366857
0.663325 0.728206 0.385138
0.701747 0.737850 0.398260
0.728115 0.743496 0.409918
0.750271 0.751492 0.423316
0.753170 0.742184 0.422980
0.748562 0.727779 0.410925
0.748409 0.722011 0.405707
0.749538 0.718990 0.406012
0.751614 0.717281 0.403479
0.751736 0.719081 0.405310
0.751980 0.718715 0.405585
0.746883 0.711147 0.396307
0.271611 0.679927 0.415991
0.327092 0.724300 0.331975
0.474434 0.721157 0.356054
0.556298 0.728847 0.356390
0.626307 0.739956 0.375708
0.675319 0.742855 0.392309
0.710018 0.750332 0.402441
0.733089 0.755062 0.413275
0.752621 0.761440 0.425879
0.764981 0.765652 0.434302
0.764675 0.756863 0.426612
0.762325 0.752224 0.424262
0.761959 0.746883 0.423835
0.760922 0.740597 0.419776
0.759274 0.742428 0.419837
0.760952 0.744106 0.422095
0.763272 0.743893 0.422034
0.306706 0.707088 0.435981
0.347173 0.753048 0.346532
0.498085 0.739864 0.378180
0.579248 0.743099 0.372015
0.640650 0.748898 0.383062
0.687343 0.753964 0.399878
0.720394 0.760616 0.411231
0.740536 0.765408 0.423651
0.757107 0.768734 0.432898
0.766659 0.769589 0.437110
0.772549 0.772549 0.440040
0.770993 0.769436 0.438483
0.769741 0.766903 0.437232
0.768032 0.759152 0.431769
0.767178 0.757778 0.429847
0.767758 0.758633 0.432685
0.769284 0.758236 0.432837
0.336126 0.728145 0.449348
0.369146 0.777951 0.355657
0.523125 0.754788 0.393652
0.601862 0.755245 0.385260
0.656977 0.757015 0.388617
0.697902 0.759091 0.400427
0.727230 0.764004 0.415076
0.744686 0.768246 0.425727
0.758053 0.772366 0.434943
0.767330 0.772366 0.437446
0.772549 0.772549 0.439124
0.772549 0.772549 0.439124
0.772885 0.772793 0.439033
0.772457 0.772366 0.438605
0.772763 0.770260 0.436835
0.773892 0.769314 0.438605
0.775662 0.768765 0.441718
0.348028 0.743008 0.454139
0.398932 0.790005 0.377600
0.544823 0.756069 0.403906
0.616632 0.756222 0.394263
0.665553 0.759243 0.392309
0.704219 0.760739 0.402136
0.733333 0.763882 0.416693
0.750118 0.768460 0.428809
0.762997 0.772763 0.438697
0.767605 0.775082 0.445594
0.772549 0.774350 0.444648
0.772549 0.772549 0.439216
0.770932 0.770932 0.437537
0.770260 0.770260 0.436835
0.775265 0.775265 0.441871
0.775204 0.774319 0.442451
0.775662 0.773800 0.444251
0.358953 0.754788 0.458412
0.419226 0.793088 0.393042
0.563348 0.762539 0.411597
0.631281 0.758541 0.405707
0.678981 0.762875 0.401648
0.713069 0.765469 0.408392
0.741604 0.767880 0.422858
0.754513 0.770657 0.433387
0.767056 0.774594 0.445197
0.771664 0.775723 0.456886
0.774594 0.776822 0.456855
0.774594 0.774990 0.449348
0.775631 0.775631 0.443763
0.773190 0.773190 0.440589
0.774685 0.774685 0.442084
0.777188 0.777188 0.443641
0.776608 0.776608 0.443732
0.365332 0.764218 0.460212
0.429389 0.788174 0.398016
0.578820 0.770871 0.417945
0.643305 0.761379 0.417609
0.689632 0.765255 0.409400
0.723476 0.770230 0.416724
0.749569 0.772641 0.430945
0.761654 0.774960 0.440314
0.769406 0.776516 0.448859
0.774014 0.776547 0.464942
0.778012 0.778012 0.470161
0.778012 0.778012 0.460792
0.779507 0.779507 0.454963
0.779568 0.779568 0.448554
0.777035 0.777035 0.446052
0.776608 0.776608 0.443000
0.777340 0.777340 0.441840
0.011566 0.011566 0.132540
0.012634 0.011902 0.132937
0.041840 0.018463 0.140810
0.118868 0.031159 0.153140
0.191928 0.043214 0.176059
0.236454 0.052491 0.195285
0.275334 0.060914 0.215579
0.313481 0.068757 0.232181
0.361242 0.079957 0.257603
0.405737 0.093751 0.279576
0.422950 0.101137 0.284245
0.420356 0.097810 0.270207
0.401312 0.084627 0.243442
