LUT color transfer/LUTs/42.cube
# (C) 2014 VisionColor & Patchflyer [www.vision-color.com]
# Generator: VC Patchmatch v.2.1.1 [64/53]
# All work and no play makes Jack a dull boy.
# LUT generated from: Kodak Vision3 500T 5219 (NEG)_VisionSpace
LUT_3D_SIZE 5
0.031373 0.031373 0.031373
0.308537 0.107790 0.072389
0.512169 0.164431 0.128725
0.567834 0.146456 0.162203
0.497963 0.093385 0.153201
0.094942 0.278447 0.091402
0.394171 0.324071 0.145174
0.593042 0.394537 0.193179
0.643000 0.415747 0.209476
0.633021 0.395483 0.200687
0.256870 0.593317 0.219883
0.575509 0.615610 0.272160
0.686213 0.608530 0.305425
0.721401 0.643458 0.337346
0.723293 0.649500 0.338842
0.379522 0.736294 0.329595
0.707179 0.756741 0.394598
0.769772 0.770687 0.433661
0.774075 0.770657 0.436835
0.768704 0.760983 0.425971
0.465248 0.758785 0.375708
0.744228 0.772549 0.435920
0.776608 0.776608 0.439368
0.776455 0.776455 0.440772
0.775876 0.775876 0.441901
0.015686 0.015686 0.161288
0.154849 0.040314 0.184268
0.321660 0.072450 0.257603
0.367834 0.080232 0.234348
0.404547 0.084047 0.215396
0.097597 0.243015 0.274388
0.350500 0.338079 0.337438
0.598993 0.346502 0.336919
0.698634 0.341009 0.326574
0.663172 0.317357 0.279484
0.185946 0.493385 0.420142
0.442481 0.647425 0.384497
0.669001 0.630884 0.403479
0.725399 0.621393 0.412940
0.709499 0.586572 0.385657
0.271061 0.671168 0.519463
0.554772 0.768704 0.428809
0.743648 0.773007 0.485634
0.771511 0.761440 0.486488
0.769619 0.751095 0.486366
0.361913 0.725978 0.578820
0.632929 0.775296 0.440558
0.763668 0.785916 0.497810
0.784726 0.785458 0.511070
0.780697 0.780697 0.494850
0.015747 0.015747 0.180606
0.069734 0.025086 0.167056
0.272862 0.066896 0.243626
0.257725 0.058625 0.201022
0.325139 0.069917 0.215641
0.093812 0.219120 0.312627
0.213779 0.285374 0.416236
0.416846 0.252049 0.401160
0.463325 0.199039 0.347326
0.476143 0.194583 0.308873
0.170199 0.413214 0.476631
0.321538 0.526482 0.557214
0.580285 0.583947 0.580255
0.675227 0.580591 0.544106
0.719173 0.572381 0.510231
0.259983 0.590112 0.609674
0.448646 0.710353 0.654017
0.683070 0.742245 0.664332
0.747524 0.742061 0.619135
0.772244 0.731624 0.583154
0.343633 0.703883 0.678279
0.522515 0.773953 0.674525
0.734218 0.786831 0.709865
0.789853 0.799588 0.680812
0.801297 0.797391 0.642603
0.018891 0.018891 0.196994
0.011780 0.011597 0.140993
0.089769 0.025238 0.142977
0.193698 0.046845 0.189151
0.264683 0.058228 0.208164
0.079164 0.160555 0.322454
0.130068 0.223148 0.392233
0.254658 0.166140 0.409735
0.325170 0.131395 0.328710
0.349447 0.121172 0.305119
0.205661 0.448707 0.555016
0.254231 0.445548 0.583764
0.490074 0.525856 0.656825
0.602960 0.510170 0.603967
0.678431 0.528145 0.599420
0.251133 0.565423 0.621088
0.379675 0.636988 0.690120
0.577020 0.697566 0.723995
0.726894 0.730617 0.726680
0.760128 0.736873 0.720150
0.335058 0.676295 0.689662
0.461097 0.728969 0.740597
0.655787 0.768338 0.764096
0.775692 0.790982 0.774227
0.793698 0.787320 0.755276
0.016358 0.016358 0.203342
0.015106 0.015106 0.175174
0.013245 0.012818 0.156100
0.112398 0.032471 0.182681
0.216373 0.050324 0.207126
0.073365 0.143069 0.356481
0.103151 0.208774 0.410346
0.142016 0.123415 0.404578
0.253330 0.105287 0.345083
0.303487 0.099519 0.314427
0.173922 0.403601 0.554376
0.213428 0.407126 0.585992
0.446189 0.506935 0.710109
0.541283 0.478172 0.666377
0.644617 0.496574 0.640070
0.263920 0.571191 0.647120
0.345159 0.598505 0.678645
0.533288 0.667353 0.744595
0.700801 0.711147 0.738033
0.736599 0.714656 0.734005
0.324315 0.660975 0.688930
0.432807 0.697963 0.723720
0.595331 0.749020 0.768734
0.743526 0.767971 0.775692
0.792142 0.792142 0.788235
