LUT color transfer/LUTs/43.cube
# (C) 2014 VisionColor & Patchflyer [www.vision-color.com]
# Generator: VC Patchmatch v.2.1.1 [64/53]
# All work and no play makes Jack a dull boy.
# LUT generated from: Kodak Vision3 50D 5203 (NEG)_FC
LUT_3D_SIZE 5
0.020325 0.020325 0.020325
0.314397 0.029999 0.030091
0.558618 0.041108 0.037201
0.755184 0.059602 0.048463
0.891020 0.075135 0.061433
0.029023 0.314214 0.038148
0.237308 0.324559 0.025360
0.517632 0.363317 0.041901
0.745632 0.436072 0.071046
0.871977 0.429847 0.087160
0.037293 0.555230 0.056031
0.196719 0.554742 0.047852
0.425238 0.570733 0.052949
0.687984 0.581964 0.077790
0.859007 0.539635 0.086641
0.046540 0.741543 0.095796
0.195377 0.730098 0.105196
0.416327 0.728573 0.101869
0.676204 0.743954 0.136477
0.872221 0.735775 0.146914
0.093935 0.873289 0.186831
0.350134 0.858091 0.259403
0.588373 0.871824 0.241459
0.778744 0.877531 0.282078
0.891997 0.880217 0.284398
0.028046 0.021302 0.314580
0.249027 0.021790 0.218570
0.527886 0.034699 0.202823
0.735286 0.045472 0.182986
0.881285 0.057740 0.148806
0.014557 0.242924 0.308751
0.292607 0.294560 0.308171
0.609430 0.196170 0.170352
0.769924 0.132052 0.106081
0.884184 0.159762 0.125124
0.044953 0.595834 0.299565
0.296544 0.629908 0.267445
0.591409 0.618189 0.294743
0.768643 0.524056 0.160769
0.875731 0.484611 0.177066
0.091463 0.776608 0.326757
0.406561 0.780056 0.441474
0.702663 0.808438 0.408484
0.818875 0.806271 0.418341
0.887785 0.745205 0.293858
0.190188 0.867765 0.469184
0.424903 0.867918 0.538018
0.680507 0.886900 0.573785
0.836118 0.897581 0.569177
0.912932 0.899809 0.570062
0.029114 0.029175 0.706920
0.293584 0.027253 0.509972
0.556741 0.035859 0.404334
0.744747 0.047822 0.364950
0.873503 0.058717 0.267338
0.017823 0.166781 0.623774
0.124269 0.110048 0.663783
0.599756 0.149142 0.517479
0.760281 0.102998 0.295827
0.884703 0.144961 0.285969
0.028626 0.501122 0.554253
0.237461 0.565911 0.573816
0.585016 0.586206 0.586175
0.794400 0.443412 0.409812
0.893462 0.453819 0.370962
0.148867 0.773068 0.601740
0.378882 0.777859 0.600305
0.703731 0.824552 0.649042
0.831876 0.815549 0.628931
0.907439 0.776425 0.527184
0.327642 0.872740 0.671778
0.480629 0.875639 0.678828
0.712062 0.896452 0.727169
0.860044 0.909972 0.731319
0.923858 0.912474 0.725063
0.031739 0.034638 0.936370
0.297887 0.033539 0.784390
0.601511 0.044831 0.674617
0.758450 0.054566 0.606744
0.866819 0.064118 0.531426
0.025330 0.106905 0.881926
0.073518 0.068940 0.897246
0.481102 0.084291 0.754269
0.767788 0.141299 0.675288
0.866239 0.174929 0.572076
0.031769 0.393057 0.773281
0.082612 0.221912 0.820966
0.335790 0.262776 0.766445
0.778775 0.480156 0.740841
0.886717 0.473289 0.685817
0.087709 0.711666 0.746700
0.283024 0.747555 0.760922
0.573190 0.776028 0.776730
0.799435 0.800046 0.793149
0.922454 0.767819 0.759762
0.269505 0.869078 0.770809
0.539818 0.882811 0.798825
0.717983 0.899962 0.816953
0.868070 0.919524 0.832334
0.931731 0.924010 0.832975
0.036988 0.040009 0.978546
0.230777 0.037903 0.941436
0.542473 0.050172 0.860960
0.758144 0.063539 0.815518
0.870451 0.075593 0.782193
0.031800 0.091402 0.971099
0.098390 0.077699 0.963623
0.401358 0.094301 0.890959
0.728756 0.167697 0.828946
0.854978 0.292332 0.819028
0.032715 0.216571 0.935119
0.109865 0.153384 0.932036
0.357473 0.169497 0.883879
0.740749 0.398627 0.851957
0.879789 0.575601 0.861387
0.062745 0.572442 0.877867
0.187198 0.513085 0.869230
0.465461 0.567910 0.865232
0.759945 0.645884 0.884489
0.910338 0.793729 0.897581
0.176364 0.845975 0.859586
0.384527 0.861570 0.864683
0.641611 0.892760 0.891203
0.828214 0.917632 0.910002
0.947967 0.944915 0.938170
