LUT color transfer/LUTs/43.cube
# (C) 2014 VisionColor & Patchflyer [www.vision-color.com]
# Generator: VC Patchmatch v.2.1.1 [64/53]
# All work and no play makes Jack a dull boy.
# LUT generated from: Kodak Vision3 50D 5203 (NEG)_FC
LUT_3D_SIZE 17
0.020325 0.020325 0.020325
0.085420 0.022705 0.020661
0.159335 0.024079 0.024292
0.236057 0.027405 0.027832
0.314397 0.029999 0.030091
0.387060 0.032013 0.031739
0.450416 0.034241 0.033265
0.505669 0.037140 0.034943
0.558618 0.041108 0.037201
0.611078 0.045167 0.039490
0.662165 0.050050 0.042298
0.710536 0.054871 0.045228
0.755184 0.059602 0.048463
0.797299 0.063874 0.051820
0.832212 0.067689 0.055146
0.863767 0.071229 0.058442
0.891020 0.075135 0.061433
0.032441 0.068238 0.027161
0.088045 0.071809 0.014710
0.162875 0.079072 0.015625
0.230961 0.084138 0.020050
0.297002 0.091432 0.023529
0.361517 0.097627 0.026246
0.421302 0.101259 0.028229
0.475410 0.103426 0.030457
0.528435 0.108064 0.033204
0.580316 0.112825 0.036164
0.631647 0.124361 0.040101
0.681697 0.137331 0.044404
0.726558 0.145937 0.048371
0.767544 0.154879 0.052522
0.803830 0.157290 0.056184
0.838468 0.158602 0.059602
0.868406 0.154482 0.062501
0.030640 0.148836 0.036835
0.067414 0.151339 0.026459
0.136721 0.155093 0.019959
0.213718 0.159640 0.018402
0.278691 0.164004 0.020142
0.343847 0.171847 0.023072
0.407324 0.178103 0.026062
0.468055 0.184237 0.029175
0.522545 0.190555 0.032685
0.578851 0.202853 0.037079
0.631678 0.218387 0.042145
0.683131 0.236606 0.047852
0.728756 0.251682 0.053223
0.771023 0.268132 0.059297
0.804837 0.270298 0.062898
0.836576 0.269657 0.066377
0.861875 0.254154 0.067781
0.029145 0.235080 0.038544
0.063630 0.238102 0.028779
0.114931 0.241398 0.024475
0.186130 0.242374 0.022095
0.257328 0.244907 0.022492
0.324376 0.249119 0.024262
0.393835 0.257633 0.027558
0.463142 0.270207 0.031861
0.523125 0.281590 0.036469
0.584833 0.298222 0.042023
0.640192 0.315618 0.048127
0.693812 0.336309 0.055268
0.740444 0.356542 0.062776
0.782712 0.377783 0.071046
0.815213 0.382086 0.075776
0.844846 0.379461 0.079133
0.867552 0.354742 0.078187
0.029023 0.314214 0.038148
0.066316 0.318517 0.029969
0.111971 0.319921 0.026612
0.169528 0.323400 0.025910
0.237308 0.324559 0.025360
0.306615 0.328771 0.028016
0.377905 0.336553 0.031617
0.450935 0.349432 0.036286
0.517632 0.363317 0.041901
0.582727 0.379797 0.047883
0.641535 0.397375 0.054963
0.696925 0.416907 0.062531
0.745632 0.436072 0.071046
0.787991 0.455299 0.079652
0.820890 0.459052 0.084901
0.850156 0.455573 0.088533
0.871977 0.429847 0.087160
0.031006 0.384222 0.038788
0.066621 0.387579 0.032227
0.111727 0.388586 0.029236
0.162509 0.392279 0.029145
0.222904 0.397467 0.029603
0.289006 0.400946 0.030243
0.358221 0.406958 0.034730
0.430060 0.418769 0.040467
0.500114 0.428809 0.046418
0.565988 0.442908 0.052583
0.629511 0.454505 0.059052
0.687556 0.470954 0.066285
0.739284 0.486671 0.074495
0.784848 0.503868 0.083253
0.819333 0.505730 0.088411
0.850889 0.502556 0.092500
0.872953 0.478126 0.091218
0.033722 0.445228 0.042145
0.066529 0.447974 0.036622
0.109010 0.448341 0.033692
0.157168 0.450782 0.033570
0.212314 0.456977 0.034211
0.273503 0.462806 0.035035
0.336889 0.467323 0.035981
0.407904 0.476661 0.042603
0.478767 0.484596 0.049256
0.545357 0.493660 0.055421
0.609354 0.500664 0.061738
0.670344 0.507378 0.067140
0.724300 0.517479 0.074250
0.774472 0.526726 0.081361
0.812070 0.528222 0.086824
0.845853 0.525200 0.091035
0.870451 0.506432 0.091035
0.035828 0.503471 0.048737
0.063539 0.506249 0.043671
0.104005 0.505608 0.040314
0.151431 0.503838 0.039490
0.202914 0.508202 0.040070
0.260410 0.514122 0.040894
0.319890 0.518975 0.041718
0.380011 0.523095 0.042939
0.451728 0.530541 0.050080
0.520729 0.539178 0.057130
0.586954 0.541466 0.063630
0.648402 0.545007 0.069398
0.708156 0.546624 0.074525
0.761288 0.552697 0.080995
0.802884 0.548577 0.085084
0.839200 0.542412 0.088716
0.864683 0.522545 0.088563
0.037293 0.555230 0.056031
0.062165 0.557702 0.051850
0.099519 0.557366 0.049409
0.145602 0.554192 0.048035
0.196719 0.554742 0.047852
0.249393 0.558648 0.048554
0.304723 0.563409 0.049287
0.362646 0.567285 0.050416
0.425238 0.570733 0.052949
0.495201 0.579065 0.060548
0.563363 0.582361 0.067475
0.626810 0.582544 0.072847
0.687984 0.581964 0.077790
0.746792 0.580102 0.081544
0.790677 0.572931 0.084810
0.831083 0.561639 0.087251
0.859007 0.539635 0.086641
0.038697 0.607630 0.063874
0.059419 0.610651 0.061128
0.095888 0.611292 0.059846
0.141115 0.605982 0.057923
0.190005 0.602869 0.057008
0.241337 0.604639 0.057313
0.293706 0.606317 0.057252
0.347311 0.609766 0.057954
0.409598 0.613062 0.060670
0.470466 0.616571 0.063508
0.542321 0.620966 0.072175
0.610529 0.624170 0.079713
0.676509 0.622614 0.086610
0.738033 0.621820 0.091463
0.788205 0.614038 0.092622
0.830930 0.602258 0.094179
0.859464 0.578088 0.091493
0.039887 0.654688 0.071534
0.060334 0.656886 0.070192
0.094850 0.656245 0.070436
0.139864 0.652216 0.069856
0.186587 0.647120 0.068452
0.235172 0.644678 0.067689
0.287266 0.645747 0.067506
0.339788 0.647791 0.067781
0.401266 0.650935 0.070863
0.463661 0.654688 0.074678
0.530968 0.659480 0.081331
0.599939 0.663966 0.089052
0.667628 0.665278 0.096406
0.729183 0.662562 0.100313
0.781369 0.655482 0.102571
0.829343 0.646357 0.103853
0.861631 0.623713 0.101534
0.041962 0.699397 0.081117
0.061341 0.699428 0.082460
0.093904 0.697688 0.085451
0.139925 0.694789 0.085542
0.187106 0.690028 0.083558
0.234379 0.687373 0.081422
0.286748 0.686030 0.079866
0.340490 0.687343 0.080323
0.401526 0.689418 0.082551
0.466178 0.693263 0.088838
0.533928 0.698024 0.096376
0.599756 0.701900 0.104524
0.671412 0.706020 0.116030
0.736507 0.708797 0.124300
0.786648 0.705165 0.123812
0.834562 0.698726 0.124666
0.867826 0.683375 0.120363
0.046540 0.741543 0.095796
0.067292 0.739712 0.101411
0.099214 0.736049 0.107668
0.144320 0.732265 0.109529
0.195377 0.730098 0.105196
0.241154 0.727169 0.101503
0.298070 0.726741 0.098512
0.355322 0.727169 0.100038
0.416327 0.728573 0.101869
0.481529 0.732021 0.109957
0.550286 0.736629 0.119631
0.614130 0.740475 0.128817
0.676204 0.743954 0.136477
0.742977 0.749020 0.147250
0.794339 0.749996 0.150332
0.838834 0.747250 0.150179
0.872221 0.735775 0.146914
0.053193 0.782223 0.112367
0.077211 0.777981 0.125277
0.109529 0.771695 0.136934
0.154482 0.766690 0.139742
0.207675 0.765347 0.133883
0.256565 0.763424 0.128176
0.318761 0.764584 0.122164
0.378820 0.765866 0.124269
0.444160 0.768124 0.127169
0.509590 0.771786 0.137942
0.576928 0.775296 0.147250
0.639094 0.779660 0.158450
0.699336 0.783413 0.166476
0.753964 0.786221 0.171847
0.805356 0.790555 0.177737
0.850309 0.791897 0.180850
0.876799 0.786587 0.177035
0.064576 0.815915 0.134371
0.095491 0.809842 0.153811
0.135683 0.802121 0.172885
0.185397 0.796994 0.180911
0.242405 0.797391 0.174289
0.296239 0.797421 0.166354
0.358679 0.800839 0.156466
0.418921 0.803006 0.157473
0.483864 0.805753 0.160403
0.546090 0.809323 0.173220
0.610895 0.812467 0.182895
0.667872 0.816464 0.194308
0.724392 0.820157 0.202731
0.776333 0.822873 0.208377
0.812009 0.823941 0.209598
0.856260 0.828458 0.217105
0.882689 0.827848 0.217380
0.077241 0.847654 0.157900
0.115480 0.839719 0.182223
0.165042 0.830869 0.209110
0.224033 0.826688 0.221439
0.286809 0.828031 0.216281
0.345006 0.830014 0.205692
0.408484 0.834592 0.194247
0.466987 0.837430 0.192966
0.532616 0.841367 0.196811
0.589929 0.844144 0.210361
0.649500 0.847135 0.221744
0.702480 0.850492 0.233036
0.751675 0.852872 0.240421
0.800778 0.855680 0.246738
0.831479 0.856504 0.247135
0.863981 0.857603 0.247868
0.887785 0.858305 0.251804
0.093935 0.873289 0.186831
0.140658 0.864683 0.212100
0.203952 0.856199 0.244907
0.278264 0.855070 0.261814
0.350134 0.858091 0.259403
0.415534 0.862150 0.251316
0.476478 0.866636 0.240482
0.532952 0.869627 0.239353
0.588373 0.871824 0.241459
0.639979 0.873320 0.254185
0.690425 0.874601 0.265232
0.735683 0.876127 0.275761
0.778744 0.877531 0.282078
0.819455 0.878904 0.286961
0.847745 0.879698 0.286961
0.873350 0.880095 0.286320
0.891997 0.880217 0.284398
0.028687 0.016419 0.056214
0.075074 0.019318 0.049866
0.143618 0.021607 0.054353
0.213657 0.024567 0.057038
0.286839 0.027131 0.060883
0.360693 0.029389 0.063233
0.428351 0.031525 0.063844
0.488655 0.034302 0.062745
0.544182 0.037476 0.062989
0.599023 0.040558 0.062165
0.653681 0.043580 0.063874
0.706203 0.046540 0.065003
0.753658 0.049775 0.067506
0.797909 0.053223 0.069703
0.831571 0.056641 0.072572
0.862608 0.059998 0.075135
0.888212 0.063142 0.077668
0.029419 0.053407 0.064576
0.069520 0.058534 0.058045
0.191104 0.051972 0.035981
0.278538 0.048554 0.039368
0.354772 0.048005 0.041932
0.424353 0.048951 0.043214
0.484993 0.051118 0.044556
0.542840 0.053986 0.046357
0.594842 0.058442 0.048920
0.643305 0.063569 0.051881
0.687984 0.068788 0.054963
0.730190 0.072724 0.058259
0.770443 0.076722 0.061494
0.805692 0.080079 0.064881
0.835843 0.083711 0.068177
0.863828 0.087068 0.071260
0.889128 0.089784 0.074311
0.026520 0.133455 0.080842
0.053925 0.166995 0.062623
0.155764 0.173068 0.042634
0.260380 0.156588 0.034241
0.333928 0.148287 0.036316
0.399878 0.144747 0.038270
0.459785 0.143740 0.040436
0.517052 0.144411 0.042725
0.571618 0.154116 0.046876
0.621088 0.161776 0.051118
0.666194 0.170871 0.055390
0.707027 0.178408 0.059846
0.745998 0.183139 0.063661
0.781125 0.183658 0.067231
0.812741 0.177707 0.070130
0.842588 0.169070 0.072786
0.869932 0.158358 0.075502
0.024628 0.223178 0.083864
0.054231 0.277714 0.054353
0.129915 0.284855 0.043610
0.218448 0.281773 0.041871
0.315312 0.265476 0.039429
0.392279 0.260777 0.041352
0.461585 0.260685 0.044007
0.524193 0.262760 0.046998
0.580285 0.272679 0.052186
0.631342 0.282811 0.058137
0.678645 0.296605 0.064698
0.720027 0.309270 0.071382
0.757870 0.316503 0.076570
0.790005 0.315007 0.080049
0.814817 0.293095 0.079744
0.839475 0.268559 0.079469
0.862852 0.241245 0.079194
0.024170 0.314000 0.083925
0.057496 0.368017 0.052827
0.123995 0.373144 0.044984
0.200320 0.378424 0.044221
0.279332 0.378363 0.046754
0.369512 0.370489 0.049775
0.448585 0.371527 0.053590
0.522942 0.376043 0.056764
0.584497 0.384100 0.062531
0.639765 0.391516 0.068757
0.688594 0.403143 0.075959
0.730739 0.414588 0.083589
0.768887 0.422827 0.090150
0.799649 0.420661 0.094179
0.822995 0.397101 0.093019
0.843565 0.360845 0.089631
0.864195 0.322637 0.086885
0.026123 0.405249 0.080018
0.058259 0.437171 0.057771
0.118074 0.440406 0.050752
0.190707 0.443793 0.048829
0.260349 0.451514 0.051453
0.332982 0.455756 0.054108
0.416266 0.453223 0.059480
0.494972 0.455573 0.063905
0.565820 0.459052 0.068879
0.626062 0.464546 0.075105
0.683101 0.471992 0.082094
0.728176 0.484749 0.090761
0.770413 0.492683 0.097871
0.802915 0.491188 0.102754
0.827115 0.468910 0.101839
0.847898 0.436561 0.098390
0.866117 0.391760 0.093629
0.029541 0.476783 0.081270
0.059022 0.495857 0.064820
0.112428 0.498512 0.058625
0.182376 0.498604 0.055268
0.248081 0.505516 0.056947
0.313634 0.512078 0.059968
0.380743 0.516838 0.062409
0.462348 0.517601 0.068574
0.535607 0.518853 0.074403
0.603403 0.517388 0.079438
0.663905 0.519188 0.085603
0.716854 0.520806 0.090944
0.761624 0.525902 0.097627
0.798428 0.524681 0.103029
0.825315 0.508659 0.103731
0.847410 0.480354 0.101137
0.866972 0.443885 0.097414
0.033387 0.537987 0.084718
0.059052 0.548119 0.073732
0.104616 0.549859 0.069215
0.171633 0.547692 0.064729
0.237491 0.547753 0.063661
0.298283 0.555993 0.066377
0.361273 0.561975 0.069123
0.426062 0.566491 0.072511
0.501289 0.566888 0.078492
0.573434 0.563836 0.084016
0.640742 0.559564 0.090211
0.697475 0.557061 0.093996
0.749966 0.553368 0.097505
0.789731 0.549889 0.102419
0.818967 0.531579 0.101991
0.843534 0.509575 0.100679
0.864073 0.480354 0.098268
0.036011 0.586877 0.092348
0.060121 0.595758 0.083986
0.102754 0.596216 0.081392
0.165652 0.593652 0.076448
0.228824 0.590875 0.072999
0.289891 0.594202 0.074342
0.350591 0.600549 0.077821
0.413886 0.605249 0.081453
0.480797 0.609552 0.087953
0.555428 0.607507 0.095155
0.624369 0.604974 0.101503
0.683253 0.596277 0.101106
0.737026 0.589319 0.103059
0.781338 0.576349 0.102754
0.811490 0.556207 0.101442
0.838071 0.533013 0.099367
0.860502 0.512871 0.098756
0.039155 0.635950 0.099397
0.063569 0.639399 0.100008
0.102022 0.637934 0.100282
0.161532 0.636042 0.093507
0.223087 0.631067 0.087739
0.286168 0.632532 0.086397
0.350774 0.636957 0.090455
0.412161 0.642084 0.094881
0.480919 0.647272 0.103975
0.545739 0.651026 0.111574
0.619989 0.650477 0.121859
0.678462 0.646418 0.121401
0.734859 0.637751 0.121065
0.780880 0.626398 0.118868
0.812863 0.602014 0.111391
0.838468 0.575494 0.106752
0.859617 0.551476 0.103304
0.042512 0.679591 0.109560
0.067994 0.681727 0.116976
0.104402 0.678065 0.120638
0.160555 0.674708 0.114443
0.223056 0.670954 0.106813
0.284642 0.668971 0.100862
0.353826 0.673732 0.106203
0.418357 0.678767 0.111879
0.489616 0.685389 0.123720
0.553185 0.689235 0.132204
0.620874 0.693080 0.142092
0.679225 0.691402 0.142428
0.735042 0.687434 0.143069
0.782193 0.676356 0.139010
0.815702 0.655207 0.131228
0.842283 0.628046 0.120882
0.861662 0.600458 0.114687
0.047456 0.719692 0.122652
0.077363 0.718898 0.141329
0.115419 0.713924 0.153140
0.167483 0.709255 0.149233
0.231052 0.707515 0.137942
0.292851 0.707210 0.127901
0.366308 0.709895 0.127504
0.433097 0.714992 0.135164
0.505196 0.721248 0.148501
0.572290 0.727291 0.161898
0.640162 0.731685 0.173342
0.692439 0.734585 0.178836
0.749325 0.734951 0.183169
0.794430 0.731838 0.179568
0.826200 0.716609 0.164401
0.851713 0.691371 0.149783
0.868955 0.663417 0.135164
0.054444 0.757687 0.139498
0.088014 0.755032 0.164492
0.129854 0.748959 0.183383
0.182132 0.743709 0.184298
0.245274 0.743770 0.171603
0.308751 0.744839 0.157626
0.385107 0.748745 0.154665
0.452476 0.751705 0.160586
0.525277 0.757717 0.175082
0.590051 0.763088 0.189944
0.658747 0.768582 0.204410
0.707912 0.771664 0.210361
0.760037 0.774594 0.215579
0.805142 0.774533 0.215000
0.836362 0.767819 0.206760
0.859190 0.752438 0.189548
0.874449 0.725185 0.172213
0.063722 0.792172 0.161196
0.103822 0.787472 0.191440
0.153384 0.779965 0.221073
0.210422 0.774868 0.228702
0.275212 0.776272 0.215579
0.341558 0.780179 0.199283
0.416785 0.785519 0.190188
0.484871 0.789151 0.195682
0.555261 0.793851 0.208042
0.616815 0.798917 0.224460
0.679377 0.803800 0.239475
0.728328 0.807767 0.248142
0.776638 0.810727 0.253574
0.816800 0.812802 0.254887
0.847379 0.811856 0.250462
0.869108 0.803952 0.239414
0.880491 0.786892 0.218906
0.076570 0.821469 0.187381
0.122347 0.815183 0.220462
0.182925 0.807797 0.253605
0.251652 0.804501 0.272007
0.323888 0.807584 0.264561
0.392432 0.813046 0.248508
0.462043 0.819486 0.236912
0.525231 0.823636 0.239048
0.592187 0.828244 0.249271
0.645228 0.832120 0.263737
0.702235 0.836240 0.278416
0.747341 0.838651 0.287785
0.790921 0.841123 0.292760
0.829770 0.842954 0.294163
0.853056 0.843320 0.291417
0.875669 0.842405 0.287510
0.888457 0.833921 0.275151
0.089723 0.848417 0.216587
0.142153 0.840879 0.250187
0.210727 0.833890 0.283238
0.290166 0.832486 0.305608
0.371954 0.836789 0.306981
0.443824 0.842405 0.297490
0.510430 0.848905 0.285832
0.567254 0.852995 0.286320
0.626764 0.857237 0.293523
0.675959 0.860166 0.306523
0.723262 0.863096 0.318639
0.766323 0.864927 0.328008
0.803220 0.866209 0.331762
0.838437 0.867491 0.332830
0.861204 0.867948 0.330266
0.880674 0.868070 0.327245
0.894682 0.865965 0.324956
0.104860 0.871763 0.249912
0.162570 0.864256 0.280949
0.233524 0.858152 0.309575
0.318486 0.857969 0.333074
0.404700 0.862058 0.339269
0.480720 0.867063 0.339452
0.544640 0.871489 0.332952
0.598688 0.875181 0.334752
0.648768 0.878202 0.338018
0.694514 0.880156 0.349401
0.736202 0.881895 0.358801
0.775296 0.883391 0.367193
0.809201 0.884367 0.369970
0.840757 0.885191 0.370855
0.864164 0.885832 0.368780
0.883238 0.886168 0.366155
0.899321 0.886229 0.363622
0.027771 0.016724 0.132998
0.069795 0.016754 0.115877
0.126192 0.018555 0.103822
0.193454 0.021729 0.106905
0.267552 0.024903 0.109194
0.342351 0.027832 0.110567
0.411933 0.030488 0.109071
0.473762 0.033051 0.106630
0.531762 0.035981 0.103731
0.588403 0.038636 0.101839
0.643824 0.041596 0.100496
0.696956 0.044556 0.098207
0.745815 0.047486 0.097871
0.791897 0.050538 0.096834
0.827329 0.053620 0.096986
0.860105 0.056733 0.097139
0.887114 0.059693 0.097322
0.023133 0.048066 0.150027
0.049836 0.035584 0.165805
0.146853 0.038880 0.131441
0.246098 0.039307 0.108125
0.330602 0.040406 0.096468
0.404822 0.042176 0.089723
0.470588 0.044678 0.084504
0.531884 0.047211 0.079866
0.587579 0.050141 0.078584
0.639063 0.053285 0.077394
0.687068 0.056519 0.078187
0.730983 0.059693 0.078981
0.772152 0.062776 0.080995
0.807675 0.065919 0.082826
0.836271 0.069245 0.085115
0.862394 0.072572 0.087373
0.886351 0.076295 0.090028
0.022309 0.109285 0.143618
0.043641 0.131746 0.169924
0.134371 0.123201 0.133547
0.264530 0.106233 0.086702
0.355169 0.093660 0.075776
0.426978 0.087190 0.069642
0.490425 0.082979 0.064790
0.549981 0.083162 0.064363
0.601526 0.084382 0.064454
0.650477 0.086549 0.065827
0.695735 0.089967 0.068299
0.736629 0.091920 0.071138
0.773434 0.094636 0.074495
0.806180 0.096956 0.077790
0.834226 0.099245 0.080812
0.861295 0.101320 0.084016
0.886503 0.105226 0.087922
0.020691 0.205844 0.150393
0.045808 0.253819 0.127810
0.118288 0.258244 0.102205
0.231540 0.251957 0.105074
0.339513 0.230747 0.081270
0.414862 0.215732 0.072602
0.478645 0.204868 0.066499
0.534966 0.200351 0.065644
0.585473 0.199100 0.065797
0.633021 0.198642 0.067201
0.679255 0.203494 0.071015
0.719326 0.204746 0.074495
0.755947 0.204868 0.078309
0.789548 0.200870 0.081483
0.818936 0.186191 0.083558
0.846647 0.176638 0.086305
0.872618 0.169986 0.090028
0.020447 0.299229 0.151553
0.048310 0.363134 0.104219
0.126894 0.384466 0.081209
0.243778 0.386267 0.076051
0.308324 0.361761 0.094484
0.401984 0.346136 0.085328
0.477058 0.336553 0.079744
0.543481 0.330907 0.077729
0.597162 0.328130 0.077638
0.647852 0.327520 0.079194
0.692988 0.332891 0.084199
0.731533 0.333288 0.088441
0.764340 0.330083 0.092500
0.794522 0.319646 0.094942
0.816678 0.286351 0.091768
0.841611 0.260502 0.092042
0.866819 0.244846 0.095003
0.022980 0.392828 0.147921
0.050355 0.449256 0.102174
0.122316 0.467445 0.083253
0.229953 0.468849 0.074281
0.307713 0.462287 0.082704
0.370886 0.452552 0.098482
0.455695 0.441718 0.093874
0.528618 0.435584 0.093507
0.593835 0.431525 0.090944
0.648737 0.430121 0.091493
0.700038 0.433936 0.095766
0.738766 0.434943 0.100618
0.773342 0.431708 0.105623
0.800626 0.416693 0.107332
0.821164 0.380468 0.103243
0.842161 0.345464 0.100587
0.864897 0.320104 0.102541
0.027619 0.476692 0.142306
0.053346 0.519615 0.104646
0.114504 0.529870 0.092500
0.211734 0.529564 0.081117
0.297856 0.528283 0.080812
0.365576 0.528008 0.092012
0.426154 0.524681 0.106874
0.506706 0.518181 0.109010
0.576043 0.511650 0.107485
0.638407 0.505119 0.104067
0.693294 0.504692 0.105776
0.736721 0.498909 0.107027
0.772885 0.496468 0.112123
0.802274 0.483223 0.114351
0.823392 0.450660 0.111543
0.844602 0.416999 0.109224
0.867185 0.392340 0.110506
0.032959 0.548119 0.138796
0.055146 0.573327 0.114076
0.110597 0.576898 0.108095
0.197360 0.576074 0.095521
0.284428 0.570306 0.086732
0.355871 0.576745 0.094240
0.416678 0.578820 0.108431
0.477958 0.581048 0.121370
0.549599 0.572351 0.120302
0.615869 0.562768 0.117678
0.677241 0.554101 0.116396
0.723903 0.543328 0.112856
0.766262 0.532128 0.113497
0.798306 0.520836 0.116091
0.821164 0.493782 0.113344
0.844388 0.470558 0.113466
0.866758 0.449744 0.115969
0.037415 0.602411 0.143465
0.059236 0.619440 0.125887
0.111452 0.618769 0.132265
0.187869 0.617090 0.118410
0.272038 0.612390 0.106111
0.354253 0.613855 0.105348
0.421347 0.622095 0.118471
0.483986 0.626245 0.131014
0.539528 0.627466 0.144930
0.605097 0.618189 0.141054
0.664973 0.609461 0.137514
0.714321 0.591165 0.124941
0.758267 0.576043 0.121645
0.793210 0.553948 0.117342
0.817777 0.530968 0.115297
0.842313 0.512688 0.115663
0.866239 0.503624 0.121218
0.043427 0.657038 0.147677
0.066682 0.659724 0.145388
0.118135 0.658259 0.163790
0.182620 0.655116 0.151217
0.267613 0.652491 0.133577
0.351400 0.653468 0.127199
0.428351 0.658991 0.137087
0.495613 0.667109 0.149874
0.555077 0.670344 0.165103
0.606043 0.671412 0.173709
0.668635 0.663355 0.172671
0.714870 0.650660 0.157504
0.760861 0.633173 0.146731
0.796963 0.611963 0.137423
0.819120 0.579248 0.124971
0.842588 0.559197 0.123018
0.865446 0.548333 0.126345
0.048829 0.697749 0.159243
0.075593 0.697322 0.166567
0.127687 0.695949 0.195224
0.187991 0.691463 0.185397
0.267796 0.690852 0.166384
0.353506 0.691493 0.149691
0.436698 0.696803 0.159396
0.507179 0.703365 0.172000
0.575051 0.710445 0.191165
0.626856 0.712612 0.200961
0.680507 0.714168 0.209049
0.724544 0.704219 0.192996
0.767056 0.693172 0.183139
0.803464 0.670954 0.166873
0.825559 0.641108 0.150698
0.845396 0.613825 0.138430
0.866911 0.601984 0.140291
0.055909 0.734737 0.174411
0.089021 0.730587 0.193149
0.148775 0.728115 0.234409
0.210422 0.723293 0.235477
0.288121 0.724575 0.213931
0.368841 0.726558 0.194034
0.451987 0.732174 0.190585
0.524666 0.738857 0.205142
0.595773 0.746303 0.225589
0.654322 0.752255 0.240146
0.709987 0.755367 0.250156
0.745327 0.755520 0.250065
0.785733 0.749020 0.239384
0.817868 0.736080 0.221561
0.837186 0.710048 0.191379
0.855009 0.682033 0.171572
0.872068 0.663081 0.160494
0.064515 0.768765 0.194614
0.101778 0.763516 0.218448
0.168948 0.759396 0.266667
0.237644 0.755398 0.278325
0.312322 0.757321 0.262638
0.392126 0.762539 0.237644
0.472389 0.768551 0.229740
0.542580 0.773251 0.237278
0.614069 0.780423 0.258549
0.669154 0.785763 0.274022
0.725856 0.791074 0.287541
0.762966 0.792203 0.289219
0.801144 0.793179 0.289158
0.831540 0.785275 0.273838
0.849271 0.770626 0.252598
0.862333 0.747189 0.221866
0.876951 0.724880 0.205142
0.075410 0.798154 0.221164
0.117311 0.791959 0.246647
0.193393 0.787747 0.298497
0.271153 0.785122 0.321508
0.350713 0.789059 0.311925
0.427832 0.795712 0.293217
0.502251 0.802792 0.277256
0.570092 0.808255 0.282750
0.636072 0.813535 0.296086
0.687373 0.818479 0.312200
0.737667 0.822965 0.325658
0.778439 0.826078 0.330968
0.814267 0.827268 0.331334
0.845060 0.827268 0.327947
0.861418 0.819699 0.312016
0.873167 0.805631 0.290288
0.882994 0.786282 0.261112
0.088045 0.823850 0.250614
0.133150 0.817258 0.276646
0.212650 0.813169 0.323461
0.300206 0.812222 0.352880
0.386816 0.817563 0.357153
0.464118 0.825193 0.343389
0.535363 0.833432 0.329259
0.596216 0.838346 0.329778
0.656580 0.843076 0.339635
0.702663 0.845731 0.352605
0.747951 0.849119 0.364446
0.786160 0.850980 0.370123
0.820584 0.852567 0.370825
0.850309 0.852842 0.367834
0.867887 0.852476 0.362707
0.880827 0.847349 0.350683
0.892027 0.838315 0.332708
0.102388 0.847959 0.282994
0.148531 0.841337 0.307530
0.229038 0.838041 0.348699
0.316564 0.837461 0.377874
0.406439 0.841886 0.389380
0.485847 0.848417 0.390143
0.555627 0.856687 0.378637
0.612390 0.861357 0.378302
0.666957 0.865446 0.382330
0.712032 0.867979 0.392828
0.752987 0.870085 0.402502
0.790249 0.871611 0.408667
0.822110 0.872465 0.409430
0.851499 0.873411 0.407965
0.870695 0.873503 0.403754
0.887083 0.873198 0.400153
0.898802 0.869718 0.393133
0.118898 0.870359 0.318883
0.164675 0.864012 0.339269
0.241733 0.860533 0.374914
0.326726 0.859983 0.401526
0.415106 0.862943 0.415930
0.493263 0.867643 0.423529
0.563104 0.873899 0.421637
0.620050 0.878325 0.424231
0.670893 0.882383 0.423926
0.714900 0.884794 0.432044
0.754269 0.886931 0.437659
0.790677 0.888579 0.445106
0.822202 0.889433 0.446540
0.850431 0.890105 0.446601
0.871427 0.890745 0.443458
0.888884 0.890990 0.441199
0.904418 0.890837 0.439155
0.028138 0.019074 0.220005
0.064515 0.017395 0.196872
0.117678 0.018036 0.175418
0.180240 0.019745 0.162417
0.255558 0.023102 0.164034
0.333837 0.026551 0.163943
0.405615 0.029755 0.160800
0.467720 0.032441 0.156588
0.525872 0.035035 0.152621
0.581811 0.037507 0.150088
0.637629 0.040375 0.146792
0.690455 0.043214 0.143404
0.739254 0.046204 0.139254
