LUT color transfer/LUTs/43.cube
# (C) 2014 VisionColor & Patchflyer [www.vision-color.com]
# Generator: VC Patchmatch v.2.1.1 [64/53]
# All work and no play makes Jack a dull boy.
# LUT generated from: Kodak Vision3 50D 5203 (NEG)_FC
LUT_3D_SIZE 9
0.020325 0.020325 0.020325
0.159335 0.024079 0.024292
0.314397 0.029999 0.030091
0.450416 0.034241 0.033265
0.558618 0.041108 0.037201
0.662165 0.050050 0.042298
0.755184 0.059602 0.048463
0.832212 0.067689 0.055146
0.891020 0.075135 0.061433
0.030640 0.148836 0.036835
0.136721 0.155093 0.019959
0.278691 0.164004 0.020142
0.407324 0.178103 0.026062
0.522545 0.190555 0.032685
0.631678 0.218387 0.042145
0.728756 0.251682 0.053223
0.804837 0.270298 0.062898
0.861875 0.254154 0.067781
0.029023 0.314214 0.038148
0.111971 0.319921 0.026612
0.237308 0.324559 0.025360
0.377905 0.336553 0.031617
0.517632 0.363317 0.041901
0.641535 0.397375 0.054963
0.745632 0.436072 0.071046
0.820890 0.459052 0.084901
0.871977 0.429847 0.087160
0.033722 0.445228 0.042145
0.109010 0.448341 0.033692
0.212314 0.456977 0.034211
0.336889 0.467323 0.035981
0.478767 0.484596 0.049256
0.609354 0.500664 0.061738
0.724300 0.517479 0.074250
0.812070 0.528222 0.086824
0.870451 0.506432 0.091035
0.037293 0.555230 0.056031
0.099519 0.557366 0.049409
0.196719 0.554742 0.047852
0.304723 0.563409 0.049287
0.425238 0.570733 0.052949
0.563363 0.582361 0.067475
0.687984 0.581964 0.077790
0.790677 0.572931 0.084810
0.859007 0.539635 0.086641
0.039887 0.654688 0.071534
0.094850 0.656245 0.070436
0.186587 0.647120 0.068452
0.287266 0.645747 0.067506
0.401266 0.650935 0.070863
0.530968 0.659480 0.081331
0.667628 0.665278 0.096406
0.781369 0.655482 0.102571
0.861631 0.623713 0.101534
0.046540 0.741543 0.095796
0.099214 0.736049 0.107668
0.195377 0.730098 0.105196
0.298070 0.726741 0.098512
0.416327 0.728573 0.101869
0.550286 0.736629 0.119631
0.676204 0.743954 0.136477
0.794339 0.749996 0.150332
0.872221 0.735775 0.146914
0.064576 0.815915 0.134371
0.135683 0.802121 0.172885
0.242405 0.797391 0.174289
0.358679 0.800839 0.156466
0.483864 0.805753 0.160403
0.610895 0.812467 0.182895
0.724392 0.820157 0.202731
0.812009 0.823941 0.209598
0.882689 0.827848 0.217380
0.093935 0.873289 0.186831
0.203952 0.856199 0.244907
0.350134 0.858091 0.259403
0.476478 0.866636 0.240482
0.588373 0.871824 0.241459
0.690425 0.874601 0.265232
0.778744 0.877531 0.282078
0.847745 0.879698 0.286961
0.891997 0.880217 0.284398
0.027771 0.016724 0.132998
0.126192 0.018555 0.103822
0.267552 0.024903 0.109194
0.411933 0.030488 0.109071
0.531762 0.035981 0.103731
0.643824 0.041596 0.100496
0.745815 0.047486 0.097871
0.827329 0.053620 0.096986
0.887114 0.059693 0.097322
0.022309 0.109285 0.143618
0.134371 0.123201 0.133547
0.355169 0.093660 0.075776
0.490425 0.082979 0.064790
0.601526 0.084382 0.064454
0.695735 0.089967 0.068299
0.773434 0.094636 0.074495
0.834226 0.099245 0.080812
0.886503 0.105226 0.087922
0.020447 0.299229 0.151553
0.126894 0.384466 0.081209
0.308324 0.361761 0.094484
0.477058 0.336553 0.079744
0.597162 0.328130 0.077638
0.692988 0.332891 0.084199
0.764340 0.330083 0.092500
0.816678 0.286351 0.091768
0.866819 0.244846 0.095003
0.027619 0.476692 0.142306
0.114504 0.529870 0.092500
0.297856 0.528283 0.080812
0.426154 0.524681 0.106874
0.576043 0.511650 0.107485
0.693294 0.504692 0.105776
0.772885 0.496468 0.112123
0.823392 0.450660 0.111543
0.867185 0.392340 0.110506
0.037415 0.602411 0.143465
0.111452 0.618769 0.132265
0.272038 0.612390 0.106111
0.421347 0.622095 0.118471
0.539528 0.627466 0.144930
0.664973 0.609461 0.137514
0.758267 0.576043 0.121645
0.817777 0.530968 0.115297
0.866239 0.503624 0.121218
0.048829 0.697749 0.159243
0.127687 0.695949 0.195224
0.267796 0.690852 0.166384
0.436698 0.696803 0.159396
0.575051 0.710445 0.191165
0.680507 0.714168 0.209049
0.767056 0.693172 0.183139
0.825559 0.641108 0.150698
0.866911 0.601984 0.140291
0.064515 0.768765 0.194614
0.168948 0.759396 0.266667
0.312322 0.757321 0.262638
0.472389 0.768551 0.229740
0.614069 0.780423 0.258549
0.725856 0.791074 0.287541
0.801144 0.793179 0.289158
0.849271 0.770626 0.252598
0.876951 0.724880 0.205142
0.088045 0.823850 0.250614
0.212650 0.813169 0.323461
0.386816 0.817563 0.357153
0.535363 0.833432 0.329259
0.656580 0.843076 0.339635
0.747951 0.849119 0.364446
0.820584 0.852567 0.370825
0.867887 0.852476 0.362707
0.892027 0.838315 0.332708
0.118898 0.870359 0.318883
0.241733 0.860533 0.374914
0.415106 0.862943 0.415930
0.563104 0.873899 0.421637
0.670893 0.882383 0.423926
0.754269 0.886931 0.437659
0.822202 0.889433 0.446540
0.871427 0.890745 0.443458
0.904418 0.890837 0.439155
0.028046 0.021302 0.314580
0.118685 0.018982 0.253208
0.249027 0.021790 0.218570
0.406897 0.028870 0.214572
0.527886 0.034699 0.202823
0.636316 0.039857 0.193362
0.735286 0.045472 0.182986
0.817624 0.051453 0.166140
0.881285 0.057740 0.148806
0.018708 0.085267 0.343267
0.071168 0.059358 0.382879
0.336187 0.066133 0.284398
0.482551 0.059663 0.214511
0.592859 0.061341 0.171664
0.692287 0.065644 0.143801
0.773251 0.071748 0.126650
0.833921 0.078279 0.120668
0.885405 0.089296 0.125399
0.014557 0.242924 0.308751
0.079316 0.305241 0.333684
0.292607 0.294560 0.308171
0.494514 0.241184 0.232547
0.609430 0.196170 0.170352
0.696834 0.156924 0.124208
0.769924 0.132052 0.106081
0.832547 0.130220 0.109071
0.884184 0.159762 0.125124
0.023682 0.441047 0.298863
0.102754 0.502129 0.208927
0.289067 0.494392 0.249485
0.467506 0.479805 0.278111
0.601312 0.448463 0.219821
0.696284 0.399161 0.160067
0.761959 0.339071 0.126345
0.819913 0.301183 0.123995
0.874357 0.315053 0.146853
0.044953 0.595834 0.299565
0.119448 0.629602 0.238529
0.296544 0.629908 0.267445
0.504616 0.637781 0.244800
0.591409 0.618189 0.294743
0.695521 0.583993 0.225879
0.768643 0.524056 0.160769
0.824796 0.479881 0.149691
0.875731 0.484611 0.177066
0.065949 0.707057 0.301762
0.149111 0.710323 0.305943
0.347753 0.717647 0.349401
0.548989 0.732143 0.306493
0.661799 0.734646 0.319951
0.713130 0.725612 0.348516
0.781613 0.681361 0.256687
0.836179 0.627680 0.197513
0.881437 0.624018 0.212528
0.091463 0.776608 0.326757
0.185000 0.766934 0.366064
0.406561 0.780056 0.441474
0.576638 0.798367 0.409644
0.702663 0.808438 0.408484
0.774380 0.812467 0.419867
0.818875 0.806271 0.418341
0.856413 0.769131 0.333532
0.887785 0.745205 0.293858
0.134768 0.824216 0.392248
0.212863 0.815457 0.419501
0.420630 0.829007 0.497383
0.576440 0.846128 0.503288
0.694118 0.857420 0.494728
0.779019 0.861875 0.495521
0.840452 0.864622 0.499947
0.878294 0.863066 0.494118
0.901427 0.851591 0.448646
0.190188 0.867765 0.469184
0.250156 0.861112 0.476143
0.424903 0.867918 0.538018
0.564721 0.875090 0.564477
0.680507 0.886900 0.573785
0.767025 0.894560 0.565057
0.836118 0.897581 0.569177
0.881590 0.899626 0.572137
0.912932 0.899809 0.570062
0.028290 0.025727 0.519722
0.124331 0.022370 0.426490
0.280980 0.024262 0.359564
0.417029 0.027893 0.318334
0.541695 0.034668 0.302007
0.645869 0.040497 0.287633
0.736843 0.046021 0.267674
0.813260 0.051667 0.234226
0.877165 0.057557 0.199252
0.020569 0.077119 0.537011
0.053895 0.049134 0.603632
0.276188 0.050080 0.481270
0.511101 0.057710 0.390265
0.605859 0.060395 0.319524
0.689357 0.063447 0.257023
0.767483 0.068940 0.205722
0.830045 0.075410 0.175937
0.882475 0.087098 0.176699
0.015503 0.204349 0.475502
0.050599 0.181155 0.550500
0.198367 0.184817 0.488197
0.473854 0.208194 0.432380
0.596735 0.159487 0.351171
0.687861 0.119844 0.249866
0.766293 0.103029 0.177096
0.831449 0.109499 0.157931
0.889158 0.146090 0.186160
0.014801 0.377478 0.440772
0.081331 0.459388 0.479591
0.235508 0.441779 0.458778
0.455085 0.454749 0.461250
0.607385 0.402014 0.403784
0.707424 0.316152 0.292531
0.779355 0.227436 0.189715
0.836545 0.200809 0.160708
0.887510 0.283803 0.210880
0.045319 0.566629 0.446326
0.126589 0.604089 0.394995
0.308476 0.605371 0.385916
0.453361 0.595026 0.437797
0.599039 0.597772 0.450446
0.711666 0.561990 0.369223
0.785245 0.487785 0.254932
0.835966 0.426230 0.205310
0.886046 0.473899 0.261433
0.085969 0.699947 0.466987
0.152804 0.704433 0.404059
0.357580 0.716823 0.465522
0.528679 0.730159 0.492378
0.672206 0.737270 0.454780
0.726650 0.722408 0.484718
0.800015 0.678676 0.367864
0.852110 0.627314 0.274296
0.891814 0.636988 0.314672
0.131106 0.775601 0.486427
0.184970 0.768826 0.450996
0.394080 0.782834 0.531731
0.589899 0.809049 0.557946
0.718471 0.820768 0.527276
0.785336 0.817441 0.510521
0.828336 0.814023 0.538598
0.867857 0.777493 0.423590
0.897887 0.763668 0.403479
0.192630 0.825284 0.529961
0.229679 0.818418 0.508019
0.403998 0.830839 0.573022
0.586755 0.852171 0.620600
0.702205 0.864897 0.615198
0.792264 0.870329 0.598199
0.851072 0.872831 0.602106
0.885313 0.872068 0.604547
0.909117 0.859922 0.546899
0.260197 0.869413 0.584375
0.299443 0.864927 0.570916
0.448188 0.871733 0.615290
0.590631 0.882048 0.648432
0.693111 0.890867 0.662348
0.779782 0.900450 0.661524
0.849088 0.904326 0.660975
0.887999 0.906584 0.664485
0.918639 0.906523 0.658564
0.029114 0.029175 0.706920
0.116274 0.025666 0.601633
0.293584 0.027253 0.509972
0.458656 0.031708 0.449073
0.556741 0.035859 0.404334
0.658442 0.042176 0.386725
0.744747 0.047822 0.364950
0.813077 0.053040 0.321187
0.873503 0.058717 0.267338
0.023590 0.069398 0.704509
0.048585 0.048249 0.762463
0.212100 0.046204 0.644800
0.495857 0.056947 0.546227
0.627832 0.062867 0.479042
0.702602 0.067475 0.405478
0.764126 0.070710 0.318349
0.824308 0.076478 0.258442
0.876707 0.089113 0.255772
0.017823 0.166781 0.623774
0.044526 0.115084 0.719966
0.124269 0.110048 0.663783
0.386938 0.132723 0.580743
0.599756 0.149142 0.517479
0.689937 0.122408 0.418357
0.760281 0.102998 0.295827
0.826230 0.108339 0.248157
0.884703 0.144961 0.285969
0.015991 0.326482 0.572198
0.053651 0.318059 0.635554
0.150454 0.306828 0.604456
0.368170 0.352941 0.584100
0.589685 0.385260 0.562310
0.695247 0.301411 0.481529
0.772519 0.205310 0.340536
0.837247 0.181735 0.263905
0.889342 0.267582 0.324422
0.028626 0.501122 0.554253
0.103029 0.577478 0.595666
0.237461 0.565911 0.573816
0.411566 0.566949 0.578332
0.585016 0.586206 0.586175
0.708339 0.533852 0.536446
0.794400 0.443412 0.409812
0.850980 0.374899 0.303395
0.893462 0.453819 0.370962
0.078920 0.679606 0.571374
0.195132 0.700160 0.568215
0.330846 0.693477 0.547448
0.518486 0.711971 0.571435
0.619928 0.712276 0.584009
0.716548 0.708186 0.587488
0.807736 0.671061 0.504616
0.862974 0.621439 0.397009
0.901457 0.643320 0.446998
0.148867 0.773068 0.601740
0.267369 0.773587 0.593011
0.378882 0.777859 0.600305
0.583307 0.805234 0.643091
0.703731 0.824552 0.649042
0.788022 0.817960 0.585718
0.831876 0.815549 0.628931
0.875090 0.785702 0.531914
0.907439 0.776425 0.527184
0.240726 0.829099 0.638514
0.316533 0.827390 0.623102
0.409674 0.833341 0.637873
0.589014 0.855131 0.686061
0.711025 0.868803 0.702754
0.801633 0.875975 0.685115
0.858579 0.877165 0.676417
0.889464 0.877775 0.687495
0.915740 0.865873 0.636378
0.327642 0.872740 0.671778
0.369207 0.869810 0.656641
0.480629 0.875639 0.678828
0.609400 0.885771 0.707027
0.712062 0.896452 0.727169
0.794339 0.905608 0.732357
0.860044 0.909972 0.731319
0.894347 0.912413 0.731136
0.923858 0.912474 0.725063
0.030274 0.032044 0.858122
0.114534 0.028931 0.757885
0.304051 0.030488 0.654856
0.479042 0.035584 0.588174
0.591577 0.040620 0.542275
0.669642 0.044526 0.500206
0.751644 0.051057 0.481971
0.815183 0.055970 0.444007
0.868101 0.060334 0.382605
0.026184 0.064179 0.836301
0.047425 0.049256 0.866056
0.173251 0.046540 0.778302
0.438102 0.054749 0.680735
0.628092 0.066163 0.624430
0.716793 0.073548 0.575616
0.771023 0.077241 0.497444
0.818967 0.080140 0.402533
0.869383 0.093050 0.365148
0.021363 0.131136 0.769574
0.043641 0.086976 0.843381
0.087587 0.076661 0.809155
0.278706 0.081483 0.719493
0.557290 0.109651 0.645823
0.698238 0.128237 0.592737
0.763729 0.115785 0.489113
0.818021 0.116548 0.396429
0.875212 0.153323 0.418860
0.020020 0.277394 0.703746
0.045624 0.198627 0.773358
0.093385 0.171099 0.760052
0.217700 0.184222 0.706035
0.498497 0.246387 0.664363
0.687099 0.298878 0.631739
0.765957 0.227497 0.535821
0.827634 0.193973 0.433814
0.880705 0.273716 0.475563
0.025849 0.449149 0.666102
0.068086 0.443839 0.714534
0.136400 0.404150 0.696513
0.281361 0.424140 0.675044
0.506813 0.485145 0.679957
0.694911 0.536690 0.674647
0.786679 0.450645 0.602686
0.846494 0.365103 0.489601
0.893523 0.443015 0.531701
0.053559 0.618128 0.659297
0.137118 0.671656 0.692988
0.253574 0.668849 0.678187
0.415106 0.672633 0.678584
0.564858 0.681971 0.685664
0.696223 0.697902 0.694148
0.804776 0.652583 0.651698
0.868498 0.597910 0.555673
0.907591 0.633463 0.588663
0.124941 0.759823 0.677180
0.278813 0.773129 0.697536
0.397131 0.774319 0.686244
0.538994 0.787961 0.692195
0.687022 0.814542 0.708766
0.764828 0.819272 0.708736
0.818998 0.807187 0.702296
0.879362 0.782315 0.649210
0.917449 0.777188 0.654307
0.223056 0.827298 0.703304
0.395880 0.837369 0.721157
0.461311 0.840726 0.714382
0.587701 0.855802 0.737362
0.715877 0.870298 0.758816
0.807706 0.881285 0.763638
0.861845 0.878508 0.728206
0.890837 0.879911 0.747494
0.922026 0.869139 0.718959
0.338689 0.873716 0.731075
0.436713 0.875456 0.734279
0.517205 0.880095 0.738949
0.623957 0.888945 0.757473
0.721645 0.899077 0.775967
0.803647 0.910491 0.787198
0.865049 0.914885 0.786496
0.899107 0.916777 0.780819
0.928130 0.917876 0.780362
0.031739 0.034638 0.936370
0.106722 0.031678 0.870024
0.297887 0.033539 0.784390
0.472358 0.038911 0.717556
0.601511 0.044831 0.674617
0.693049 0.049897 0.638300
0.758450 0.054566 0.606744
0.818875 0.060517 0.581262
0.866819 0.064118 0.531426
0.028351 0.062104 0.918853
0.048646 0.050996 0.925322
0.148653 0.047852 0.868162
0.368521 0.053712 0.788418
0.577676 0.064668 0.732204
0.713161 0.077424 0.697658
0.779477 0.086427 0.664607
0.821836 0.090669 0.590631
0.864439 0.103059 0.521385
0.025330 0.106905 0.881926
0.044282 0.078645 0.911528
0.073518 0.068940 0.897246
0.214343 0.067628 0.833585
0.481102 0.084291 0.754269
0.682704 0.112825 0.709316
0.767788 0.141299 0.675288
0.816678 0.143435 0.592279
0.866239 0.174929 0.572076
0.024720 0.216541 0.826932
0.043946 0.136324 0.878660
0.069398 0.108217 0.882719
0.136019 0.104555 0.843030
0.367269 0.127398 0.767300
0.634791 0.198337 0.721279
0.760739 0.269459 0.700496
0.820554 0.240848 0.626581
0.870359 0.305150 0.631281
0.031769 0.393057 0.773281
0.052369 0.296071 0.812375
0.082612 0.221912 0.820966
0.161120 0.225086 0.791913
0.335790 0.262776 0.766445
0.622919 0.384848 0.751064
0.778775 0.480156 0.740841
0.840116 0.416312 0.681270
0.886717 0.473289 0.685817
0.047791 0.563348 0.749630
0.089235 0.548089 0.778134
0.139345 0.493431 0.770077
0.249577 0.499947 0.754940
0.437186 0.541497 0.760586
0.634806 0.600961 0.772580
0.792599 0.666773 0.774411
0.864439 0.615641 0.730800
0.905638 0.639750 0.727077
0.087709 0.711666 0.746700
0.187076 0.742794 0.763790
0.283024 0.747555 0.760922
0.423224 0.759426 0.766415
0.573190 0.776028 0.776730
0.693446 0.785855 0.783139
0.799435 0.800046 0.793149
0.880461 0.763668 0.762081
0.922454 0.767819 0.759762
0.170413 0.813993 0.756191
0.317968 0.824277 0.771328
0.459022 0.839261 0.782742
0.566552 0.852232 0.789059
0.681620 0.863828 0.798276
0.795041 0.878264 0.808652
0.862181 0.885161 0.805936
0.889647 0.881163 0.804044
0.928557 0.869047 0.796384
0.269505 0.869078 0.770809
0.432380 0.874266 0.788815
0.539818 0.882811 0.798825
0.629511 0.891020 0.806241
0.717983 0.899962 0.816953
0.802579 0.911254 0.826993
0.868070 0.919524 0.832334
0.901701 0.919799 0.824704
0.931731 0.924010 0.832975
0.033906 0.037171 0.965545
0.097993 0.034180 0.932036
0.256870 0.035340 0.883970
0.432685 0.041230 0.821439
0.571908 0.047089 0.780819
0.689113 0.053742 0.750301
0.769375 0.060273 0.725551
0.823514 0.065309 0.702968
0.868833 0.069703 0.669306
0.030549 0.062318 0.952972
0.052338 0.053986 0.956847
0.146548 0.050874 0.925597
0.321981 0.055299 0.865019
0.529122 0.066072 0.811643
0.676814 0.078340 0.782040
0.772244 0.092012 0.758633
0.824369 0.103304 0.737148
0.864958 0.122957 0.685969
0.028504 0.095674 0.941253
0.047608 0.078096 0.952056
0.076326 0.071351 0.943603
0.193393 0.068940 0.902953
0.421103 0.082521 0.835874
0.634226 0.108949 0.792813
0.754971 0.144045 0.767361
0.814054 0.189029 0.750454
0.860197 0.221927 0.719142
0.027710 0.164675 0.916106
0.046601 0.111788 0.938140
0.070893 0.095705 0.940520
0.122866 0.091279 0.918486
0.310353 0.102754 0.854856
0.573556 0.153567 0.803006
0.739101 0.231968 0.779721
0.819272 0.329809 0.777127
0.865660 0.365301 0.756619
0.032776 0.303578 0.861692
0.049561 0.195636 0.897032
0.077729 0.154604 0.903746
0.130831 0.142550 0.889525
0.251484 0.144472 0.853422
0.534981 0.231846 0.810452
0.744808 0.380301 0.802274
0.838590 0.498650 0.806760
0.882322 0.528786 0.794491
0.048219 0.495003 0.828489
0.067689 0.390433 0.849393
0.103059 0.324025 0.850614
0.177981 0.316426 0.839780
0.311650 0.317647 0.826474
0.521889 0.366995 0.821988
0.757290 0.554482 0.831205
0.856535 0.652796 0.835203
0.899748 0.678553 0.826932
0.071412 0.650568 0.815122
0.119692 0.629786 0.825132
0.180026 0.598077 0.822049
0.275578 0.603113 0.819364
0.436393 0.636286 0.828153
0.612711 0.667338 0.839872
0.765805 0.715877 0.851865
0.871733 0.781216 0.859190
0.917021 0.785428 0.849668
0.130495 0.784237 0.809323
0.237827 0.802823 0.816190
0.330175 0.811276 0.821225
0.440986 0.826535 0.834195
0.583505 0.847135 0.849546
0.709133 0.862028 0.857847
0.803281 0.877165 0.869261
0.886595 0.885710 0.877653
0.937682 0.874174 0.874357
0.209659 0.861021 0.814786
0.352911 0.865354 0.826413
0.496071 0.876982 0.843534
0.609552 0.889220 0.853758
0.699062 0.899351 0.858701
0.785367 0.910063 0.862364
0.859922 0.920623 0.865446
0.905882 0.925170 0.868040
0.935180 0.930632 0.879545
0.036988 0.040009 0.978546
0.101289 0.037415 0.967468
0.230777 0.037903 0.941436
0.395422 0.044099 0.896544
0.542473 0.050172 0.860960
0.658900 0.056214 0.836728
0.758144 0.063539 0.815518
0.826841 0.070985 0.798886
0.870451 0.075593 0.782193
0.033387 0.063722 0.973297
0.061006 0.058991 0.976287
0.150637 0.056214 0.957488
0.297215 0.060060 0.915740
0.493278 0.072847 0.874876
0.644190 0.086854 0.846922
0.745968 0.102480 0.826444
0.815518 0.122835 0.809903
0.860258 0.151247 0.798001
0.031800 0.091402 0.971099
0.056214 0.080720 0.971252
0.098390 0.077699 0.963623
0.212375 0.077852 0.935637
0.401358 0.094301 0.890959
0.599619 0.125826 0.852201
0.728756 0.167697 0.828946
0.805203 0.220218 0.818204
0.854978 0.292332 0.819028
0.030976 0.131716 0.958831
0.055848 0.105440 0.966461
0.096559 0.099886 0.955932
0.191989 0.103212 0.930022
0.365438 0.125429 0.890684
0.575174 0.185702 0.855100
0.728511 0.271855 0.838041
0.814878 0.361913 0.838041
0.865629 0.445411 0.841550
0.032715 0.216571 0.935119
0.060487 0.158755 0.943694
0.109865 0.153384 0.932036
0.198703 0.149905 0.910765
0.357473 0.169497 0.883879
0.572549 0.255955 0.857847
0.740749 0.398627 0.851957
0.831662 0.513619 0.858640
0.879789 0.575601 0.861387
0.041749 0.379538 0.898070
0.072724 0.286946 0.908476
0.137881 0.289662 0.895964
0.243015 0.294728 0.880217
0.382605 0.296529 0.870787
0.575540 0.346914 0.863127
0.748898 0.520455 0.869596
0.846830 0.647974 0.878874
0.893828 0.690547 0.878660
0.062745 0.572442 0.877867
0.106813 0.502998 0.880308
0.187198 0.513085 0.869230
0.320623 0.550805 0.862211
0.465461 0.567910 0.865232
0.621592 0.587777 0.874510
0.759945 0.645884 0.884489
0.859739 0.756558 0.895354
0.910338 0.793729 0.897581
0.097230 0.724910 0.866209
0.172641 0.713588 0.863645
0.272038 0.729427 0.860655
0.406317 0.758083 0.868193
0.548165 0.784634 0.881132
0.677150 0.806607 0.892607
0.785336 0.829068 0.902983
0.875364 0.861418 0.914153
0.927581 0.878752 0.916655
0.176364 0.845975 0.859586
0.282872 0.853391 0.859159
0.384527 0.861570 0.864683
0.514733 0.876524 0.877562
0.641611 0.892760 0.891203
0.746761 0.906645 0.901946
0.828214 0.917632 0.910002
0.896727 0.932921 0.923888
0.947967 0.944915 0.938170
