LUT color transfer/LUTs/46.cube
TITLE "Generate by Resolve"
LUT_3D_SIZE 5
0 0 0
0.276234 0 0
0.672328 0 0
1 0 0
1 0 0
0 0.28452 0
0.266011 0.266011 0
0.660014 0.277531 0
0.951949 0.296864 0
1 0.316472 0
0 0.725658 0
0.254658 0.637125 0
0.616342 0.616327 0
0.887373 0.614755 0
1 0.619165 0
0 1 0
0.248585 0.90367 0
0.599405 0.872007 0
0.86154 0.86154 0
1 0.858473 0
0 1 0
0.243885 1 0
0.588632 1 0
0.845457 1 0
1 1 0
0 0 0.323201
0.25156 0 0.25156
0.657221 0 0.274754
1 0 0.450156
1 0 0.539818
0 0.286503 0.286503
0.245594 0.245594 0.245594
0.633112 0.250629 0.250629
0.921553 0.266453 0.266453
1 0.283772 0.283772
0 0.694331 0.311849
0.221286 0.603769 0.221286
0.58146 0.58146 0.198978
0.851316 0.578698 0.196216
1 0.582147 0.199664
0 0.969558 0.314458
0.211261 0.866346 0.211261
0.561318 0.833921 0.178836
0.822812 0.822812 0.167712
1 0.819181 0.164096
0 1 0.31429
0.204395 1 0.204395
0.548669 1 0.166186
0.805066 1 0.149981
1 1 0.141833
0 0 0.703609
0.254948 0 0.63743
0.675334 0 0.675334
1 0 0.861967
1 0 0.927886
0 0.30164 0.684123
0.248173 0.248173 0.63064
0.630594 0.248112 0.630594
0.916045 0.26096 0.643442
1 0.276234 0.658717
0 0.687999 0.687999
0.213138 0.595621 0.595621
0.571939 0.571939 0.571939
0.840681 0.568078 0.568078
1 0.570626 0.570626
0 0.958587 0.685969
0.199451 0.854536 0.581918
0.548791 0.821393 0.548775
0.809659 0.809659 0.537057
1 0.805493 0.532891
0 1 0.683421
0.190524 1 0.573007
0.534325 1 0.534325
0.790326 1 0.517708
1 1 0.509194
0 0 0.983825
0.269657 0 0.924743
0.720241 0 0.992844
1 0 1
1 0 1
0 0.318898 0.973983
0.256855 0.256855 0.91194
0.635142 0.252659 0.907759
0.917998 0.262913 0.917998
1 0.276356 0.931441
0 0.689219 0.961822
0.212711 0.595193 0.867796
0.57023 0.57023 0.842847
0.837964 0.565347 0.837964
1 0.567056 0.839658
0 0.955535 0.955535
0.19559 0.850675 0.850675
0.544259 0.816861 0.816861
0.804532 0.804532 0.804532
1 0.799863 0.799863
0 1 0.950698
0.18471 1 0.839796
0.528069 1 0.800687
0.783673 1 0.783673
1 1 0.774792
0 0 1
0.292119 0 1
0.82826 0 1
1 0 1
1 0 1
0 0.335546 1
0.267124 0.267124 1
0.641947 0.259464 1
0.922515 0.26743 1
1 0.27921 1
0 0.69308 1
0.215076 0.597559 1
0.57142 0.57142 1
0.838178 0.565576 1
1 0.566476 1
0 0.955444 1
0.194751 0.849851 1
0.542763 0.815381 1
0.802487 0.802487 1
1 0.797314 1
0 1 1
0.181994 1 1
0.524941 1 1
0.780148 1 1
1 1 1
