LUT color transfer/LUTs/46.cube
TITLE "Generate by Resolve"
LUT_3D_SIZE 9
0 0 0
0 0 0
0.276234 0 0
0.490471 0 0
0.672328 0 0
0.845624 0 0
1 0 0
1 0 0
1 0 0
0 0 0
0 0 0
0.278767 0 0
0.592416 0 0
0.824537 0 0
1 0 0
1 0.0221103 0
1 0.0423438 0
1 0.0600748 0
0 0.28452 0
0 0.309377 0
0.266011 0.266011 0
0.484733 0.269291 0
0.660014 0.277531 0
0.813169 0.287022 0
0.951949 0.296864 0
1 0.306722 0
1 0.316472 0
0 0.54757 0
0 0.536583 0
0.2589 0.474342 0
0.464988 0.464973 0
0.630884 0.463844 0
0.776715 0.466011 0
0.909514 0.469871 0
1 0.474723 0
1 0.480201 0
0 0.725658 0
0 0.706157 0
0.254658 0.637125 0
0.455146 0.622171 0
0.616342 0.616327 0
0.758099 0.614435 0
0.887373 0.614755 0
1 0.61648 0
1 0.619165 0
0 0.874342 0
0 0.850385 0
0.251362 0.777508 0
0.448478 0.759167 0
0.606668 0.750317 0
0.745739 0.745739 0
0.872572 0.743618 0
0.9906 0.743145 0
1 0.743801 0
0 1 0
0 0.979141 0
0.248585 0.90367 0
0.443351 0.882979 0
0.599405 0.872007 0
0.736507 0.865446 0
0.86154 0.86154 0
0.97789 0.859373 0
1 0.858473 0
0 1 0
0 1 0
0.246128 1 0
0.439124 0.997269 0
0.593545 0.984665 0
0.729137 0.976593 0
0.85275 0.971252 0
0.967773 0.967773 0
1 0.965621 0
0 1 0
0 1 0
0.243885 1 0
0.435508 1 0
0.588632 1 0
0.723003 1 0
0.845457 1 0
0.959396 1 0
1 1 0
0 0 0
0 0 0
0.272099 0 0
0.488014 0 0
0.672541 0 0
0.851316 0 0
1 0 0
1 0 0.0407263
1 0 0.0804608
0 0 0
0 0 0
0.288685 0 0
0.618402 0 0
0.828962 0 0
1 0 0
1 0.0193484 0.0193484
1 0.0379797 0.0379797
1 0.0545815 0.0545815
0 0.296391 0
0 0.311604 0
0.264652 0.264652 0
0.481315 0.265873 0
0.655192 0.272709 0
0.807324 0.281178 0
0.945312 0.290227 0
1 0.299443 0
1 0.308659 0
0 0.543587 0
0 0.531365 0
0.25275 0.468208 0
0.458091 0.458091 0
0.623392 0.456367 0
0.768719 0.458015 0
0.901091 0.461448 0
1 0.465919 0
1 0.471077 0
0 0.718547 0
0 0.698466 0
0.246494 0.628977 0
0.446571 0.613596 0
0.607401 0.607401 0
0.748852 0.605188 0
0.877836 0.605219 0
0.997818 0.606699 0
1 0.60914 0
0 0.865644 0
0 0.841337 0
0.242008 0.768154 0
0.438849 0.749538 0
0.59678 0.740444 0
0.735637 0.735637 0
0.862272 0.733318 0
0.980102 0.732647 0
1 0.733135 0
0 0.996262 0
0 0.969177 0
0.238407 0.893492 0
0.432975 0.872602 0
0.58883 0.861448 0
0.72578 0.854719 0
0.850645 0.850645 0
0.966857 0.848341 0
1 0.847303 0
0 1 0
0 1 0
0.235325 1 0
0.428183 0.986328 0
0.582452 0.973571 0
0.717922 0.965362 0
0.841398 0.959915 0
0.956313 0.956298 0
1 0.95404 0
0 1 0
0 1 0
0.232609 1 0
0.424109 1 0
0.577111 1 0
0.711376 1 0
0.833722 1 0
0.947555 1 0
1 1 0
0 0 0.323201
0 0 0.309575
0.25156 0 0.25156
0.469413 0 0.253971
0.657221 0 0.274754
0.843976 0 0.31783
1 0 0.450156
1 0 0.504936
1 0 0.539818
0 0 0.294591
0 0 0.302129
0.289952 0 0.289952
0.613886 0 0.398428
0.81442 0 0.431937
0.981994 0 0.455863
1 0 0.475563
1 0.0162966 0.492805
1 0.0318608 0.50837
0 0.286503 0.286503
0 0.29543 0.29543
0.245594 0.245594 0.245594
0.460472 0.245029 0.245029
0.633112 0.250629 0.250629
0.784298 0.258152 0.258152
0.921553 0.266453 0.266453
1 0.275074 0.275074
1 0.283772 0.283772
0 0.522255 0.306798
0 0.508904 0.293462
0.229435 0.444892 0.229435
0.434089 0.434089 0.218647
0.598825 0.4318 0.216342
0.743664 0.432959 0.217517
0.875624 0.435981 0.220539
0.99826 0.440101 0.224659
1 0.444938 0.22948
0 0.694331 0.311849
0 0.673716 0.291234
0.221286 0.603769 0.221286
0.420966 0.588006 0.205524
0.58146 0.58146 0.198978
0.722606 0.578943 0.19646
0.851316 0.578698 0.196216
0.971038 0.579919 0.197452
1 0.582147 0.199664
0 0.839918 0.313771
0 0.815274 0.289128
0.215656 0.741802 0.215656
0.412222 0.722927 0.19678
0.569924 0.713588 0.187457
0.708568 0.708568 0.182422
0.834989 0.70605 0.179904
0.952651 0.705196 0.179049
1 0.705501 0.17937
0 0.969558 0.314458
0 0.942245 0.287144
0.211261 0.866346 0.211261
0.405631 0.845273 0.190173
0.561318 0.833921 0.178836
0.698085 0.827039 0.171954
0.822812 0.822812 0.167712
0.938872 0.820356 0.16527
1 0.819181 0.164096
0 1 0.314549
0 1 0.285283
0.207584 0.981186 0.207584
0.40029 0.958434 0.184833
0.554421 0.945541 0.171939
0.689754 0.937209 0.163607
0.813107 0.931624 0.158022
0.927901 0.927901 0.154299
1 0.925521 0.151919
0 1 0.31429
0 1 0.283513
0.204395 1 0.204395
0.395773 1 0.180331
0.548669 1 0.166186
0.682811 1 0.156664
0.805066 1 0.149981
0.918807 1 0.145205
1 1 0.141833
0 0 0.535637
0 0 0.523095
0.251118 0 0.46656
0.471244 0 0.471244
0.663218 0 0.496178
0.863859 0 0.55317
1 0 0.681132
1 0 0.72549
1 0 0.756664
0 0 0.513039
0 0 0.526284
0.355612 0 0.571054
0.623789 0 0.623789
0.817868 0 0.650843
0.982513 0 0.671824
1 0 0.689738
1 0.0137636 0.705715
1 0.0283818 0.720333
0 0.293263 0.508705
0 0.297612 0.513054
0.245365 0.245365 0.460807
0.458686 0.243244 0.458686
0.630198 0.247715 0.463172
0.780529 0.254383 0.469841
0.917098 0.261997 0.477455
1 0.270039 0.485496
1 0.278264 0.493721
0 0.520012 0.520012
0 0.505669 0.505669
0.225406 0.440848 0.440848
0.429419 0.429419 0.429419
0.593622 0.426581 0.426581
0.738003 0.427298 0.427298
0.869566 0.429923 0.429923
0.991852 0.433692 0.433707
1 0.438224 0.438224
0 0.689448 0.522408
0 0.66833 0.501305
0.215473 0.597955 0.430915
0.414786 0.581811 0.414786
0.574945 0.574945 0.407904
0.715785 0.572122 0.405081
0.844236 0.571618 0.404593
0.963729 0.57261 0.40557
1 0.574609 0.407584
0 0.8336 0.522896
0 0.808637 0.497948
0.208743 0.73489 0.424186
0.405051 0.715755 0.405051
0.562524 0.706188 0.395499
0.700954 0.700954 0.390249
0.827192 0.698238 0.387549
0.944656 0.6972 0.386511
1 0.697353 0.386664
0 0.962295 0.522652
0 0.934752 0.495109
0.203571 0.858656 0.419013
0.397757 0.8374 0.397757
0.553262 0.825879 0.386236
0.689876 0.81883 0.379187
0.81445 0.81445 0.374807
0.930373 0.811856 0.372213
1 0.810544 0.370916
0 1 0.522057
0 1 0.492622
0.199329 0.972915 0.414771
0.391867 0.950027 0.391867
0.545876 0.93698 0.378836
0.681071 0.928527 0.370367
0.804303 0.92282 0.36466
0.918975 0.918975 0.36083
1 0.916503 0.358343
0 1 0.521263
0 1 0.490349
0.195666 1 0.411124
0.386923 1 0.386923
0.539712 1 0.372671
0.673747 1 0.363058
0.795895 1 0.356252
0.909545 1 0.351385
1 1 0.347921
0 0 0.703609
0 0 0.692256
0.254948 0 0.63743
0.477791 0 0.644816
0.675334 0 0.675334
0.931823 0 0.788174
1 0 0.861967
1 0 0.899702
1 0 0.927886
0 0 0.688106
0 0 0.709789
0.386343 0 0.768826
0.634333 0 0.801358
0.823743 0 0.823743
0.985962 0 0.842298
1 0 0.85864
1 0.0145113 0.873487
1 0.0282597 0.887251
0 0.30164 0.684123
0 0.302449 0.684932
0.248173 0.248173 0.63064
0.460105 0.244663 0.627146
0.630594 0.248112 0.630594
0.780133 0.254002 0.636469
0.916045 0.26096 0.643442
1 0.268467 0.65095
1 0.276234 0.658717
0 0.521035 0.68806
0 0.50576 0.672786
0.224765 0.440208 0.607233
0.428168 0.428168 0.595209
0.591867 0.424826 0.591867
0.735805 0.425116 0.592157
0.867002 0.427359 0.5944
0.988968 0.430808 0.597848
1 0.435035 0.602075
0 0.687999 0.687999
0 0.666423 0.666423
0.213138 0.595621 0.595621
0.4121 0.579126 0.579126
0.571939 0.571939 0.571939
0.712505 0.568841 0.568841
0.840681 0.568078 0.568078
0.959945 0.568826 0.568826
1 0.570626 0.570626
0 0.830793 0.687129
0 0.805539 0.66186
0.205356 0.731502 0.587839
0.401434 0.712123 0.56846
0.558679 0.702342 0.558679
0.696895 0.696895 0.553231
0.822934 0.693996 0.550332
0.940246 0.69279 0.549126
1 0.692775 0.549111
0 0.958587 0.685969
0 0.930831 0.658213
0.199451 0.854536 0.581918
0.393439 0.833082 0.560479
0.548791 0.821393 0.548775
0.685237 0.814191 0.541573
0.809659 0.809659 0.537057
0.925444 0.806928 0.534325
1 0.805493 0.532891
0 1 0.684718
0 1 0.655116
0.194629 0.968231 0.577111
0.38703 0.94519 0.55407
0.540902 0.932021 0.540902
0.675975 0.923415 0.532311
0.799084 0.917601 0.526482
0.913649 0.913649 0.52253
1 0.911055 0.519936
0 1 0.683421
0 1 0.652369
0.190524 1 0.573007
0.381659 1 0.548699
0.534325 1 0.534325
0.668269 1 0.524605
0.790326 1 0.517708
0.903868 1 0.512749
1 1 0.509194
0 0 0.850324
0 0 0.840314
0.261295 0 0.787442
0.487449 0 0.798154
0.693172 0 0.836835
0.966278 0 0.966278
1 0 1
1 0 1
1 0 1
0 0 0.843397
0 0 0.8804
0.406332 0 0.932479
0.644587 0 0.955291
0.830396 0 0.97406
0.990555 0 0.990555
1 0.00285344 1
1 0.0166781 1
1 0.029633 1
0 0.310307 0.836439
0 0.308248 0.834394
0.252186 0.252201 0.778332
0.462898 0.247456 0.773602
0.632456 0.249973 0.77612
0.781262 0.255116 0.781262
0.916564 0.261479 0.787625
1 0.268467 0.794614
1 0.275807 0.801953
0 0.523461 0.83415
0 0.507332 0.818021
0.22565 0.441093 0.751781
0.428489 0.428489 0.739193
0.591714 0.424674 0.735378
0.735241 0.424552 0.735241
0.866072 0.426429 0.737133
0.987716 0.429557 0.740261
1 0.433509 0.744198
0 0.688151 0.8318
0 0.666102 0.809766
0.212436 0.594919 0.738582
0.411048 0.578088 0.721736
0.570581 0.570581 0.714244
0.710872 0.567208 0.710872
0.838819 0.566201 0.709865
0.957855 0.566735 0.710399
1 0.568322 0.711986
0 0.829633 0.829618
0 0.804074 0.804074
0.203632 0.729778 0.729778
0.399466 0.71017 0.71017
0.556497 0.70016 0.70016
0.694514 0.694514 0.694514
0.820386 0.691432 0.691432
0.937514 0.690059 0.690059
1 0.689876 0.689876
0 0.956542 0.827588
0 0.928573 0.799634
0.196994 0.852094 0.72314
0.390814 0.830457 0.701518
0.545998 0.818601 0.689662
0.682292 0.811246 0.682292
0.806577 0.806577 0.677623
0.92221 0.803708 0.674754
1 0.802152 0.673198
0 1 0.825696
0 1 0.795926
0.191623 0.965225 0.717769
0.383902 0.942046 0.694591
0.537621 0.92874 0.681285
0.672572 0.920027 0.672572
0.795575 0.914076 0.666636
0.910018 0.910018 0.662562
1 0.907332 0.659876
0 1 0.823896
0 1 0.792706
0.187091 1 0.713237
0.378119 1 0.688807
0.530678 1 0.674327
0.664515 1 0.664515
0.786465 1 0.657511
0.899916 1 0.652461
1 1 0.648814
0 0 0.983825
0 0 0.975326
0.269657 0 0.924743
0.500023 0 0.939666
0.720241 0 0.992844
0.987869 0 1
1 0 1
1 0 1
1 0 1
0 0 0.987716
0 0 1
0.422507 0 1
0.654444 0 1
0.837354 0 1
0.995712 0 1
1 0.00677501 1
1 0.0196536 1
1 0.0318761 1
0 0.318898 0.973983
0 0.314458 0.969543
0.256855 0.256855 0.91194
0.466438 0.250996 0.906096
0.635142 0.252659 0.907759
0.783261 0.257115 0.9122
0.917998 0.262913 0.917998
1 0.269429 0.924514
1 0.276356 0.931441
0 0.526665 0.966308
0 0.509743 0.949386
0.227436 0.442878 0.882521
0.42974 0.42974 0.869383
0.592508 0.425467 0.86511
0.735653 0.424949 0.864591
0.866133 0.42649 0.866133
0.987472 0.429313 0.868955
1 0.432975 0.872633
0 0.689219 0.961822
0 0.666758 0.939361
0.212711 0.595193 0.867796
0.410986 0.578027 0.850629
0.57023 0.57023 0.842847
0.710262 0.566598 0.8392
0.837964 0.565347 0.837964
0.956786 0.565667 0.83827
1 0.567056 0.839658
0 0.829465 0.958404
0 0.803632 0.93257
0.20293 0.729076 0.85803
0.398535 0.709224 0.838178
0.555352 0.699016 0.82797
0.693172 0.693172 0.822126
0.81886 0.689921 0.81886
0.935821 0.688365 0.817319
1 0.688045 0.816983
0 0.955535 0.955535
0 0.927367 0.927352
0.19559 0.850675 0.850675
0.389242 0.828885 0.82887
0.544259 0.816861 0.816861
0.6804 0.809354 0.809354
0.804532 0.804532 0.804532
0.920058 0.801541 0.801541
1 0.799863 0.799863
0 1 0.953002
0 1 0.923079
0.189685 0.963287 0.84477
0.381811 0.939971 0.821454
0.535409 0.926528 0.808026
0.670237 0.917693 0.799191
0.793133 0.911635 0.793133
0.907469 0.907469 0.788952
1 0.904677 0.78616
0 1 0.950698
0 1 0.919402
0.18471 1 0.839796
0.375631 1 0.815259
0.528069 1 0.800687
0.661814 1 0.790753
0.783673 1 0.783673
0.897032 1 0.778515
1 1 0.774792
0 0 1
0 0 1
0.279896 0 1
0.515953 0 1
0.792905 0 1
1 0 1
1 0 1
1 0 1
1 0 1
0 0 1
0 0 1
0.436561 0 1
0.66389 0 1
0.844388 0 1
1 0 1
1 0.0111238 1
1 0.0231479 1
1 0.0346685 1
0 0.327321 1
0 0.320867 1
0.261891 0.261891 1
0.470451 0.255009 1
0.638361 0.255894 1
0.78584 0.259693 1
0.920043 0.264958 1
1 0.271015 1
1 0.277546 1
0 0.530373 1
0 0.512718 1
0.229801 0.445258 1
0.431617 0.431617 0.989761
0.593942 0.426917 0.985061
0.736706 0.426017 0.984161
0.866865 0.427222 0.985382
0.9879 0.429755 0.9879
1 0.433158 0.991302
0 0.690929 1
0 0.668055 1
0.213657 0.596139 0.987243
0.411612 0.578653 0.969772
0.570565 0.570565 0.961685
0.710338 0.566674 0.957794
0.837812 0.565209 0.956329
0.95642 0.565301 0.95642
1 0.566491 0.95761
0 0.829969 1
0 0.803876 1
0.20293 0.729076 0.976532
0.398306 0.70901 0.956451
0.554925 0.698589 0.946044
0.692561 0.692561 0.940017
0.818067 0.689128 0.936584
0.934874 0.687419 0.934874
1 0.686931 0.934386
0 0.95523 1
0 0.926863 1
0.194903 0.850004 0.968505
0.388373 0.828031 0.946532
0.543236 0.815854 0.934356
0.67924 0.808194 0.926696
0.803235 0.803235 0.921752
0.918624 0.800107 0.918624
1 0.798306 0.916823
0 1 1
0 1 1
0.188464 0.962066 0.962066
0.380468 0.938613 0.938613
0.533944 0.925063 0.925063
0.66865 0.916106 0.916106
0.791424 0.909926 0.909926
0.905653 0.905653 0.905653
1 0.902754 0.902754
0 1 1
0 1 1
0.183078 1 0.95668
0.373877 1 0.932036
0.526223 1 0.917342
0.659861 1 0.907317
0.781628 1 0.90013
0.894896 1 0.894896
1 1 0.891081
0 0 1
0 0 1
0.292119 0 1
0.536553 0 1
0.82826 0 1
1 0 1
1 0 1
1 0 1
1 0 1
0 0 1
0.00570687 0.00570687 1
0.449195 0 1
0.672969 0 1
0.851423 0 1
1 0.00419623 1
1 0.0157473 1
1 0.026978 1
1 0.0378576 1
0 0.335546 1
0 0.327337 1
0.267124 0.267124 1
0.474769 0.259327 1
0.641947 0.259464 1
0.788815 0.262684 1
0.922515 0.26743 1
1 0.27306 1
1 0.27921 1
0 0.534401 1
0 0.516075 1
0.232593 0.448035 1
0.433921 0.433921 1
0.59585 0.428809 1
0.738247 0.427558 1
0.868086 0.428458 1
0.988846 0.430686 1
1 0.433845 1
0 0.69308 1
0 0.66981 1
0.215076 0.597559 1
0.412726 0.579767 1
0.57142 0.57142 1
0.710933 0.567269 1
0.838178 0.565576 1
0.956588 0.565469 1
1 0.566476 1
0 0.830991 1
0 0.804623 1
0.203449 0.729595 1
0.398596 0.7093 1
0.555016 0.69868 1
0.69247 0.69247 1
0.817807 0.688869 1
0.934447 0.686992 1
1 0.686366 1
0 0.955444 1
0 0.926894 1
0.194751 0.849851 1
0.388067 0.82771 1
0.542763 0.815381 1
0.67863 0.807568 1
0.802487 0.802487 1
0.917739 0.799237 1
1 0.797314 1
0 1 1
0 1 1
0.187808 0.96141 1
0.379675 0.937819 1
0.533013 0.924132 1
0.667613 0.915068 1
0.79028 0.908782 1
0.904402 0.904402 1
1 0.901411 1
0 1 1
0 1 1
0.181994 1 1
0.372686 1 1
0.524941 1 1
0.658473 1 1
0.780148 1 1
0.893324 1 1
1 1 1
