LUT color transfer/LUTs/46.cube
TITLE "Generate by Resolve"
LUT_3D_SIZE 33
0 0 0
0 0 0
0 0 0
0 0 0
0 0 0
0 0 0
0.126131 0 0
0.209262 0 0
0.276234 0 0
0.335546 0 0
0.390143 0 0
0.441489 0 0
0.490471 0 0
0.537667 0 0
0.583505 0 0
0.62829 0 0
0.672328 0 0
0.715831 0 0
0.759045 0 0
0.802213 0 0
0.845624 0 0
0.889647 0 0
0.934798 0 0
0.982071 0 0
1 0 0
1 0 0
1 0 0
1 0 0
1 0 0
1 0 0
1 0 0
1 0 0
1 0 0
0 0 0
0 0 0
0 0 0
0 0 0
0 0 0
0 0 0
0.124254 0 0
0.208225 0 0
0.276097 0 0
0.3364 0 0
0.392096 0 0
0.444648 0 0
0.494987 0 0
0.543725 0 0
0.591333 0 0
0.638178 0 0
0.684642 0 0
0.731121 0 0
0.778088 0 0
0.82623 0 0
0.876814 0 0
0.933227 0 0
1 0 0
1 0 0
1 0 0
1 0 0
1 0 0
1 0 0
1 0 0
1 0 0
1 0 0
1 0 0
1 0 0
0 0 0
0 0 0
0 0 0
0 0 0
0 0 0
0 0 0
0.12195 0 0
0.20705 0 0
0.276188 0 0
0.337911 0 0
0.395224 0 0
0.449638 0 0
0.502174 0 0
0.553521 0 0
0.604334 0 0
0.655314 0 0
0.707393 0 0
0.762371 0 0
0.826246 0 0
0.922255 0 0
0.980301 0 0
1 0 0
1 0 0
1 0 0
1 0 0
1 0 0
1 0 0
1 0 0
1 0 0
1 0 0
1 0 0
1 0 0
1 0 0
0 0 0
0 0 0
0 0 0
0 0 0
0 0 0
0 0 0
0.118868 0 0
0.205661 0 0
0.276768 0 0
0.340825 0 0
0.400931 0 0
0.458854 0 0
0.515969 0 0
0.573739 0 0
0.634913 0 0
0.721233 0 0
0.802792 0 0
0.860059 0 0
0.911208 0 0
0.958694 0 0
1 0 0
1 0 0
1 0 0
1 0 0
1 0 0
1 0 0
1 0 0
1 0 0
1 0 0
1 0 0
1 0 0
1 0 0
1 0.00364691 0
0 0 0
0 0 0
0 0 0
0 0 0
0 0 0
0 0 0
0.114 0 0
0.20383 0 0
0.278767 0 0
0.347936 0 0
0.415534 0 0
0.486732 0 0
0.592416 0 0
0.66273 0 0
0.721508 0 0
0.774838 0 0
0.824537 0 0
0.871489 0 0
0.916228 0 0
0.959152 0 0
1 0 0
1 0.00444038 0
1 0.0106508 0
1 0.0165255 0
1 0.0221103 0
1 0.0274662 0
1 0.0326085 0
1 0.0375525 0
1 0.0423438 0
1 0.0469673 0
1 0.0514534 0
1 0.0558175 0
1 0.0600748 0
0 0 0
0 0 0
0 0 0
0 0 0
0 0 0
0 0 0
0.101442 0 0
0.200183 0 0
0.293889 0 0
0.409461 0 0
0.483085 0 0
0.5467 0.00984207 0
0.604425 0.0200809 0
0.657954 0.0288396 0
0.708278 0.0366217 0
0.756008 0.0436866 0
0.801587 0.0502022 0
0.845319 0.0562905 0
0.887465 0.0620279 0
0.928206 0.0674601 0
0.967697 0.0726482 0
1 0.0776226 0
1 0.0823987 0
1 0.0870222 0
1 0.0914778 0
1 0.0958114 0
1 0.100008 0
1 0.104112 0
1 0.108095 0
1 0.112001 0
1 0.115816 0
1 0.119539 0
1 0.123201 0
0 0.0230259 0
0 0.0299229 0
0 0.0376898 0
0 0.0468452 0
0 0.0589761 0
0 0.098146 0
0.097673 0.097673 0
0.197513 0.104982 0
0.276173 0.11191 0
0.344244 0.118288 0
0.405554 0.124224 0
0.462028 0.129793 0
0.514778 0.135073 0
0.564584 0.140093 0
0.611933 0.1449 0
0.657221 0.149538 0
0.70074 0.153994 0
0.742718 0.158328 0
0.783322 0.162524 0
0.822705 0.166598 0
0.860975 0.170581 0
0.898268 0.174456 0
0.93463 0.178241 0
0.970169 0.181949 0
1 0.18558 0
1 0.189151 0
1 0.192645 0
1 0.196078 0
1 0.199451 0
1 0.202777 0
1 0.206043 0
1 0.209262 0
1 0.212436 0
0 0.119768 0
0 0.140963 0
0 0.197635 0
0 0.217395 0
0 0.225895 0
0 0.224094 0
0.106889 0.19942 0
0.196948 0.196948 0
0.269429 0.197696 0
0.333059 0.199634 0
0.390951 0.202136 0
0.444663 0.204959 0
0.49514 0.20795 0
0.542992 0.211032 0
0.588678 0.214176 0
0.632502 0.217334 0
0.674708 0.220493 0
0.715526 0.223651 0
0.755077 0.226795 0
0.7935 0.229923 0
0.8309 0.233021 0
0.867384 0.236088 0
0.903014 0.239139 0
0.93785 0.242161 0
0.971969 0.245151 0
1 0.248112 0
1 0.251041 0
1 0.253941 0
1 0.256825 0
1 0.259663 0
1 0.262486 0
1 0.265293 0
1 0.268055 0
0 0.28452 0
0 0.296574 0
0 0.304524 0
0 0.308949 0
0 0.309377 0
0 0.302144 0
0.109194 0.273442 0
0.196094 0.267826 0
0.266011 0.266011 0
0.327504 0.265812 0
0.383551 0.266484 0
0.435676 0.267704 0
0.484733 0.269291 0
0.53135 0.271122 0
0.575906 0.273136 0
0.618723 0.275288 0
0.660014 0.277531 0
0.699962 0.279835 0
0.738735 0.2822 0
0.77644 0.284596 0
0.813169 0.287022 0
0.849012 0.289464 0
0.884062 0.29192 0
0.918349 0.294392 0
0.951949 0.296864 0
0.984909 0.299336 0
1 0.301793 0
1 0.304265 0
1 0.306722 0
1 0.309178 0
1 0.31162 0
1 0.314046 0
1 0.316472 0
0 0.369802 0
0 0.374975 0
0 0.378103 0
0 0.378882 0
0 0.376379 0
0 0.366751 0
0.110079 0.336034 0
0.195254 0.328679 0
0.263645 0.325338 0
0.323796 0.323796 0
0.378653 0.323262 0
0.429679 0.323415 0
0.477775 0.32401 0
0.523476 0.324956 0
0.567224 0.326146 0
0.609262 0.327535 0
0.649851 0.329061 0
0.689158 0.330724 0
0.727306 0.332464 0
0.764431 0.334295 0
0.800626 0.336172 0
0.835966 0.338109 0
0.870527 0.340093 0
0.904372 0.342107 0
0.937545 0.344137 0
0.970092 0.346197 0
1 0.348287 0
1 0.350378 0
1 0.352483 0
1 0.354589 0
1 0.35671 0
1 0.358831 0
1 0.360952 0
0 0.436774 0
0 0.439246 0
0 0.440131 0
0 0.438987 0
0 0.434852 0
0 0.423758 0
0.11043 0.39176 0
0.194446 0.383246 0
0.261799 0.378866 0
0.320989 0.376364 0
0.374975 0.374975 0
0.425208 0.374319 0
0.472557 0.374182 0
0.517586 0.374441 0
0.560678 0.37499 0
0.602136 0.375769 0
0.642161 0.376745 0
0.680934 0.377874 0
0.718593 0.379126 0
0.755245 0.380484 0
0.790997 0.381918 0
0.82591 0.383429 0
0.860075 0.385 0
0.893523 0.386633 0
0.926329 0.388312 0
0.958526 0.390021 0
0.990158 0.39176 0
1 0.39353 0
1 0.395331 0
1 0.397147 0
1 0.398978 0
1 0.400824 0
1 0.402686 0
0 0.494972 0
0 0.495872 0
0 0.495369 0
0 0.492988 0
0 0.487739 0
0 0.475639 0
0.110506 0.442725 0
0.193668 0.433371 0
0.260258 0.428214 0
0.31873 0.424994 0
0.372045 0.422934 0
0.421653 0.421653 0
0.468421 0.420935 0
0.512901 0.42063 0
0.555474 0.420676 0
0.596445 0.420966 0
0.636011 0.421485 0
0.674342 0.422171 0
0.711589 0.423011 0
0.747845 0.423957 0
0.783215 0.425025 0
0.817777 0.426184 0
0.851591 0.427405 0
0.884703 0.428717 0
0.917205 0.43006 0
0.949096 0.431479 0
0.980438 0.432929 0
1 0.434409 0
1 0.435935 0
1 0.437491 0
1 0.439078 0
1 0.440681 0
1 0.442298 0
0 0.54757 0
0 0.547402 0
0 0.545922 0
0 0.542657 0
0 0.536583 0
0 0.523751 0
0.110414 0.49012 0
0.192935 0.48011 0
0.2589 0.474342 0
0.316808 0.470558 0
0.369589 0.467964 0
0.418692 0.466178 0
0.464988 0.464973 0
0.50901 0.464225 0
0.551156 0.463844 0
0.591714 0.463722 0
0.630884 0.463844 0
0.668849 0.464164 0
0.705745 0.464652 0
0.741665 0.465263 0
0.776715 0.466011 0
0.810956 0.46685 0
0.844465 0.467781 0
0.877302 0.468788 0
0.909514 0.469871 0
0.941146 0.471015 0
0.972229 0.472206 0
1 0.473442 0
1 0.474723 0
1 0.476051 0
1 0.477409 0
1 0.478798 0
1 0.480201 0
0 0.596155 0
0 0.595193 0
0 0.592981 0
0 0.589044 0
0 0.58233 0
0 0.568887 0
0.110231 0.534707 0
0.192233 0.524178 0
0.25771 0.517922 0
0.315145 0.513664 0
0.367468 0.510613 0
0.416159 0.508415 0
0.462043 0.506813 0
0.505684 0.505684 0
0.547478 0.504921 0
0.587686 0.504463 0
0.62652 0.504265 0
0.664164 0.50425 0
0.700755 0.504433 0
0.73637 0.504753 0
0.77113 0.505211 0
0.805112 0.505776 0
0.838361 0.506447 0
0.870939 0.507195 0
0.902907 0.508034 0
0.934295 0.508934 0
0.965148 0.509896 0
0.995499 0.510918 0
1 0.511986 0
1 0.5131 0
1 0.51426 0
1 0.51545 0
1 0.51667 0
0 0.641657 0
0 0.640085 0
0 0.637278 0
0 0.632792 0
0 0.625574 0
0 0.611643 0
0.109987 0.577005 0
0.191546 0.566033 0
0.256611 0.559365 0
0.313649 0.554711 0
0.365606 0.551293 0
0.413931 0.54873 0
0.45948 0.546792 0
0.5028 0.545327 0
0.544259 0.544259 0
0.584161 0.543496 0
0.622721 0.542992 0
0.66009 0.542718 0
0.696391 0.542626 0
0.731762 0.542687 0
0.766278 0.542885 0
0.8 0.543221 0
0.833021 0.543648 0
0.86537 0.544182 0
0.897124 0.544793 0
0.928298 0.54548 0
0.958953 0.546242 0
0.98909 0.547051 0
1 0.547936 0
1 0.548852 0
1 0.549828 0
1 0.550835 0
1 0.551888 0
0 0.684688 0
0 0.682597 0
0 0.679332 0
0 0.674388 0
0 0.666743 0
0 0.652415 0
0.109697 0.61738 0
0.19089 0.606043 0
0.255604 0.599023 0
0.312306 0.594034 0
0.363943 0.590295 0
0.411948 0.587411 0
0.457191 0.585168 0
0.500221 0.583429 0
0.541421 0.582086 0
0.581064 0.581048 0
0.619348 0.580301 0
0.656474 0.579767 0
0.692546 0.579431 0
0.727672 0.579263 0
0.761959 0.579248 0
0.795483 0.579355 0
0.82829 0.579583 0
0.860441 0.579904 0
0.891981 0.580316 0
0.922972 0.580819 0
0.953429 0.581384 0
0.983398 0.582025 0
1 0.582727 0
1 0.583474 0
1 0.584268 0
1 0.585122 0
1 0.586007 0
0 0.725658 0
0 0.723156 0
0 0.719493 0
0 0.714168 0
0 0.706157 0
0 0.691478 0
0.109377 0.656123 0
0.190249 0.644465 0
0.254658 0.637125 0
0.31107 0.631846 0
0.362417 0.627832 0
0.410163 0.624674 0
0.455146 0.622171 0
0.497917 0.620172 0
0.538872 0.618585 0
0.578271 0.617319 0
0.616342 0.616327 0
0.653239 0.615579 0
0.689082 0.61503 0
0.72401 0.614649 0
0.758099 0.614435 0
0.791424 0.614343 0
0.824033 0.614374 0
0.856001 0.614511 0
0.887373 0.614755 0
0.918181 0.615076 0
0.94847 0.615473 0
0.978271 0.615946 0
1 0.61648 0
1 0.617075 0
1 0.617731 0
1 0.618418 0
1 0.619165 0
0 0.764904 0
0 0.762036 0
0 0.758022 0
0 0.752392 0
0 0.74406 0
0 0.729076 0
0.109041 0.693431 0
0.189639 0.681498 0
0.253773 0.673899 0
0.309926 0.668345 0
0.361028 0.664073 0
0.40853 0.660685 0
0.453269 0.657954 0
0.495827 0.655726 0
0.536553 0.65391 0
0.575738 0.65243 0
0.613596 0.65124 0
0.650294 0.650294 0
0.685954 0.649546 0
0.720699 0.648981 0
0.754604 0.648585 0
0.787732 0.64831 0
0.820188 0.648173 0
0.851972 0.648142 0
0.883177 0.648219 0
0.913832 0.648371 0
0.943969 0.648615 0
0.973602 0.648936 0
1 0.649332 0
1 0.649775 0
1 0.650278 0
1 0.650843 0
1 0.651438 0
0 0.80264 0
0 0.799481 0
0 0.795163 0
0 0.789242 0
0 0.780621 0
0 0.765393 0
0.10869 0.729488 0
0.189029 0.717296 0
0.252934 0.709468 0
0.308858 0.703685 0
0.359731 0.699184 0
0.407019 0.695583 0
0.45156 0.692638 0
0.493904 0.690211 0
0.534432 0.688197 0
0.573434 0.686534 0
0.611109 0.685145 0
0.647623 0.684016 0
0.683101 0.683101 0
0.717662 0.682368 0
0.7514 0.681788 0
0.784375 0.681361 0
0.816663 0.681056 0
0.84831 0.680873 0
0.879362 0.680797 0
0.909865 0.680812 0
0.939849 0.680903 0
0.969345 0.681086 0
0.998398 0.681331 0
1 0.681651 0
1 0.682017 0
1 0.68246 0
1 0.682933 0
0 0.839078 0
0 0.83563 0
0 0.831067 0
0 0.824887 0
0 0.816022 0
0 0.800549 0
0.108324 0.764416 0
0.188449 0.75201 0
0.252125 0.743969 0
0.307851 0.737987 0
0.358526 0.733288 0
0.405615 0.729473 0
0.449958 0.726345 0
0.492119 0.723735 0
0.532479 0.721538 0
0.571298 0.719707 0
0.608804 0.718151 0
0.645151 0.716854 0
0.680476 0.71577 0
0.714885 0.71487 0
0.748455 0.714153 0
0.781292 0.713573 0
0.813428 0.71313 0
0.844923 0.712795 0
0.875837 0.712581 0
0.906203 0.712459 0
0.936049 0.712413 0
0.965423 0.712474 0
0.994354 0.712581 0
1 0.712779 0
1 0.713024 0
1 0.713344 0
1 0.713695 0
0 0.874342 0
0 0.870665 0
0 0.865858 0
0 0.859449 0
0 0.850385 0
0 0.834699 0
0.107958 0.798352 0
0.187884 0.785748 0
0.251362 0.777508 0
0.306889 0.771344 0
0.357382 0.766461 0
0.404303 0.762478 0
0.448478 0.759167 0
0.490471 0.75639 0
0.530648 0.754025 0
0.569314 0.752026 0
0.606668 0.750317 0
0.642863 0.748867 0
0.678035 0.747646 0
0.712306 0.746609 0
0.745739 0.745739 0
0.778424 0.745022 0
0.810422 0.744442 0
0.841794 0.743969 0
0.872572 0.743618 0
0.902815 0.743374 0
0.93254 0.743221 0
0.961791 0.743145 0
0.9906 0.743145 0
1 0.743221 0
1 0.743358 0
1 0.743542 0
1 0.743801 0
0 0.908583 0
0 0.904677 0
0 0.899672 0
0 0.89305 0
0 0.883787 0
0 0.867903 0
0.107576 0.831388 0
0.18732 0.818601 0
0.250629 0.810178 0
0.305989 0.80383 0
0.356313 0.798795 0
0.403067 0.794644 0
0.447074 0.79118 0
0.488914 0.788235 0
0.528954 0.785733 0
0.567468 0.783581 0
0.604669 0.781735 0
0.640726 0.780148 0
0.675761 0.778775 0
0.709895 0.7776 0
0.743206 0.776608 0
0.775769 0.775753 0
0.807645 0.775051 0
0.83888 0.774472 0
0.869551 0.773999 0
0.899657 0.773632 0
0.929274 0.773358 0
0.958419 0.773159 0
0.987106 0.773053 0
1 0.773022 0
1 0.773053 0
1 0.773144 0
1 0.773281 0
0 0.941878 0
0 0.937774 0
0 0.93257 0
0 0.92578 0
0 0.916335 0
0 0.900282 0
0.107195 0.863584 0
0.18677 0.850645 0
0.249928 0.842054 0
0.305119 0.835554 0
0.355291 0.83035 0
0.401892 0.826062 0
0.445762 0.822446 0
0.487465 0.819364 0
0.527367 0.816724 0
0.565744 0.814435 0
0.602808 0.812451 0
0.638727 0.810727 0
0.67364 0.809232 0
0.707652 0.807935 0
0.740841 0.806821 0
0.773266 0.805844 0
0.805035 0.80502 0
0.836164 0.804334 0
0.866712 0.803738 0
0.896712 0.803265 0
0.926223 0.802884 0
0.955261 0.802579 0
0.983841 0.802365 0
1 0.802228 0
1 0.802167 0
1 0.802152 0
1 0.802213 0
0 0.974319 0
0 0.970047 0
0 0.964675 0
0 0.957702 0
0 0.948089 0
0 0.931884 0
0.106813 0.895033 0
0.186252 0.881926 0
0.249241 0.873198 0
0.304295 0.86656 0
0.35433 0.861219 0
0.400793 0.856779 0
0.444526 0.85304 0
0.486091 0.849821 0
0.525856 0.847044 0
0.564111 0.844633 0
0.601053 0.842527 0
0.636866 0.840681 0
0.671656 0.839063 0
0.705531 0.837659 0
0.738613 0.836423 0
0.770932 0.83534 0
0.802579 0.834409 0
0.8336 0.8336 0
0.864042 0.832914 0
0.89395 0.832334 0
0.923354 0.831846 0
0.952285 0.831449 0
0.980774 0.831128 0
1 0.8309 0
1 0.830732 0
1 0.830625 0
1 0.830594 0
0 1 0
0 1 0
0 0.996017 0
0 0.988891 0
0 0.979141 0
0 0.962783 0
0.106432 0.92578 0
0.185718 0.912535 0
0.248585 0.90367 0
0.303502 0.896895 0
0.353399 0.891417 0
0.399741 0.886854 0
0.443351 0.882979 0
0.484779 0.879652 0
0.524437 0.876753 0
0.56257 0.87422 0
0.599405 0.872007 0
0.635081 0.870039 0
0.669764 0.868315 0
0.703548 0.866789 0
0.736507 0.865446 0
0.768734 0.864271 0
0.800275 0.863233 0
0.831189 0.862318 0
0.86154 0.86154 0
0.89134 0.860853 0
0.920653 0.860273 0
0.949493 0.859785 0
0.97789 0.859373 0
1 0.859052 0
1 0.858793 0
1 0.85861 0
1 0.858473 0
0 1 0
0 1 0
0 1 0
0 1 0
0 1 0
0 0.993011 0
0.10605 0.955886 0
0.185214 0.942519 0
0.247944 0.933516 0
0.302739 0.926619 0
0.352514 0.921019 0
0.398733 0.916335 0
0.442222 0.912352 0
0.483543 0.908904 0
0.523079 0.905898 0
0.561105 0.903243 0
0.597833 0.900923 0
0.633417 0.898848 0
0.667994 0.897017 0
0.701656 0.895399 0
0.734524 0.89395 0
0.766644 0.892668 0
0.798093 0.891539 0
0.828916 0.890532 0
0.859174 0.889647 0
0.888884 0.888884 0
0.918105 0.888212 0
0.946853 0.887633 0
0.975158 0.887129 0
1 0.886717 0
1 0.886381 0
1 0.886107 0
1 0.885893 0
0 1 0
0 1 0
0 1 0
0 1 0
0 1 0
0 1 0
0.105669 0.985397 0
0.18471 0.971893 0
0.247318 0.962783 0
0.301991 0.955764 0
0.351659 0.950057 0
0.397757 0.945266 0
0.441154 0.941161 0
0.482368 0.937606 0
0.521798 0.934493 0
0.559716 0.931746 0
0.596338 0.929305 0
0.631815 0.927153 0
0.6663 0.925216 0
0.69987 0.923491 0
0.732647 0.921965 0
0.764675 0.920577 0
0.796033 0.919356 0
0.826764 0.918257 0
0.856916 0.917296 0
0.886549 0.916442 0
0.915679 0.915679 0
0.94435 0.915007 0
0.97258 0.914443 0
1 0.913939 0
1 0.913527 0
1 0.913161 0
1 0.912886 0
0 1 0
0 1 0
0 1 0
0 1 0
0 1 0
0 1 0
0.105287 1 0
0.184207 1 0
0.246708 0.991501 0
