LUT color transfer/LUTs/53.cube
LUT_3D_SIZE 16
-0.088562 -0.083875 -0.088562
-0.065352 -0.083875 -0.088562
0.125787 -0.083875 -0.088562
0.235244 -0.083875 -0.088563
0.355079 -0.083876 -0.088564
0.475825 -0.083877 -0.088565
0.584174 -0.083879 -0.088567
0.673077 -0.083880 -0.088569
0.745467 -0.083882 -0.088572
0.804635 -0.083889 -0.088569
0.853982 -0.083889 -0.088573
0.895887 -0.083892 -0.088577
0.932080 -0.083895 -0.088581
0.963142 -0.083898 -0.088585
0.988326 -0.083901 -0.088585
1.008709 -0.083901 -0.088588
-0.088562 -0.057848 -0.088562
-0.065352 -0.057848 -0.088562
0.125787 -0.052353 -0.088562
0.235243 -0.049430 -0.088563
0.355079 -0.047468 -0.088564
0.475825 -0.046086 -0.088565
0.584174 -0.045214 -0.088567
0.673077 -0.044864 -0.088569
0.745467 -0.044987 -0.088572
0.804635 -0.045569 -0.088570
0.853982 -0.046556 -0.088573
0.895887 -0.047957 -0.088577
0.932080 -0.049729 -0.088581
0.963142 -0.051907 -0.088585
0.988326 -0.054620 -0.088586
1.008709 -0.057890 -0.088588
-0.088563 0.036885 -0.088563
-0.060805 0.036885 -0.088563
0.125785 0.036885 -0.088563
0.235243 0.053777 -0.088564
0.355079 0.071213 -0.088565
0.475825 0.082744 -0.088566
0.584173 0.086588 -0.088568
0.673077 0.083834 -0.088570
0.745467 0.077630 -0.088567
0.804635 0.069786 -0.088571
0.853982 0.061366 -0.088574
0.895887 0.052913 -0.088578
0.932080 0.044651 -0.088582
0.963142 0.036904 -0.088583
0.988326 0.036885 -0.088586
1.008709 0.036885 -0.088589
-0.088565 0.158265 -0.088565
-0.058461 0.158265 -0.088565
0.142091 0.158265 -0.088565
0.235241 0.158264 -0.088566
0.355078 0.185818 -0.088567
0.475824 0.203933 -0.088568
0.584173 0.209743 -0.088570
0.673076 0.205059 -0.088572
0.745467 0.194978 -0.088569
0.804635 0.182410 -0.088573
0.853982 0.169116 -0.088576
0.895887 0.155957 -0.088580
0.932080 0.143343 -0.088584
0.963142 0.131247 -0.088585
0.988326 0.119194 -0.088588
1.008709 0.107519 -0.088591
-0.088568 0.292387 -0.088568
-0.056931 0.292387 -0.088568
0.157628 0.292387 -0.088568
0.259826 0.292386 -0.088569
0.355076 0.292386 -0.088570
0.475823 0.316793 -0.088571
0.584173 0.324529 -0.088567
0.673076 0.318151 -0.088570
0.745467 0.304468 -0.088573
0.804635 0.287455 -0.088576
0.853982 0.269490 -0.088579
0.895887 0.251800 -0.088583
0.932080 0.234928 -0.088584
0.963142 0.218787 -0.088588
0.988326 0.202909 -0.088591
1.008709 0.187777 -0.088593
-0.088573 0.426673 -0.088573
-0.055868 0.426673 -0.088573
0.167911 0.426673 -0.088567
0.275998 0.426673 -0.088568
0.376967 0.426673 -0.088569
0.475822 0.426672 -0.088570
0.584173 0.436321 -0.088572
0.673075 0.428265 -0.088574
0.745466 0.411083 -0.088577
0.804634 0.389796 -0.088580
0.853982 0.367327 -0.088584
0.895886 0.345248 -0.088584
0.932080 0.324136 -0.088588
0.963142 0.304037 -0.088592
0.988326 0.284319 -0.088595
1.008709 0.265640 -0.088591
-0.088573 0.546285 -0.088573
-0.055210 0.546285 -0.088573
0.171329 0.546285 -0.088573
0.281175 0.546285 -0.088574
0.383920 0.546285 -0.088575
0.484533 0.546285 -0.088576
0.584172 0.546284 -0.088578
0.673075 0.536637 -0.088581
0.745465 0.516077 -0.088583
0.804634 0.490598 -0.088583
0.853981 0.463679 -0.088587
0.895886 0.437242 -0.088590
0.932079 0.412025 -0.088594
0.963142 0.388006 -0.088591
0.988326 0.364485 -0.088594
1.008709 0.342274 -0.088593
-0.088581 0.643840 -0.088581
-0.054955 0.643840 -0.088581
0.168874 0.643840 -0.088581
0.277013 0.643840 -0.088582
0.378219 0.643840 -0.088583
0.477255 0.643840 -0.088584
0.575366 0.643831 -0.088583
0.673066 0.643831 -0.088585
0.745465 0.619909 -0.088588
0.804634 0.590315 -0.088591
0.853981 0.559062 -0.088594
0.895886 0.528304 -0.088592
0.932079 0.499043 -0.088592
0.963142 0.471155 -0.088595
0.988325 0.443880 -0.088598
1.008709 0.418120 -0.088598
-0.088587 0.723007 -0.088587
-0.055056 0.723007 -0.088587
0.163344 0.723007 -0.088588
0.268017 0.723007 -0.088588
0.365922 0.723007 -0.088589
0.461752 0.723007 -0.088591
0.556722 0.723006 -0.088592
0.651210 0.723006 -0.088589
0.745463 0.723006 -0.088592
0.804633 0.689154 -0.088592
0.853980 0.653584 -0.088595
0.895886 0.618578 -0.088598
0.932079 0.585260 -0.088601
0.963141 0.553544 -0.088604
0.988325 0.522542 -0.088605
1.008709 0.493310 -0.088606
-0.088593 0.787540 -0.088593
-0.055506 0.787540 -0.088593
0.156352 0.787540 -0.088593
0.256783 0.787540 -0.088594
0.350702 0.787540 -0.088591
0.442574 0.787539 -0.088593
0.533638 0.787539 -0.088595
0.624248 0.787539 -0.088597
0.714371 0.787539 -0.088600
0.804632 0.787539 -0.088603
0.853980 0.747605 -0.088606
0.895885 0.708309 -0.088609
0.932079 0.671016 -0.088608
0.963141 0.635420 -0.088611
0.988325 0.600652 -0.088612
1.008709 0.567989 -0.088611
-0.088602 0.841220 -0.088602
-0.056268 0.841220 -0.088602
0.148848 0.841220 -0.088602
0.244902 0.841220 -0.088603
0.334606 0.841220 -0.088604
0.422343 0.841219 -0.088605
0.509246 0.841219 -0.088607
0.595760 0.841219 -0.088609
0.681969 0.841219 -0.088609
0.767967 0.841219 -0.088612
0.853979 0.841219 -0.088616
0.895885 0.797670 -0.088618
0.932078 0.756382 -0.088620
0.963140 0.716928 -0.088622
0.988324 0.678541 -0.088623
1.008708 0.642341 -0.088621
-0.088612 0.886817 -0.088612
-0.057365 0.886817 -0.088612
0.141307 0.886817 -0.088612
0.233161 0.886817 -0.088613
0.318758 0.886817 -0.088614
0.402536 0.886817 -0.088615
0.485348 0.886817 -0.088617
0.567813 0.886817 -0.088619
0.650024 0.886817 -0.088621
0.732064 0.886817 -0.088622
0.813906 0.886817 -0.088625
0.895884 0.886816 -0.088630
0.932077 0.841355 -0.088626
0.963140 0.798112 -0.088627
0.988324 0.755957 -0.088627
1.008708 0.716294 -0.088630
-0.088622 0.926201 -0.088622
-0.058767 0.926201 -0.088622
0.133944 0.926201 -0.088623
0.221916 0.926201 -0.088623
0.303670 0.926201 -0.088624
0.383567 0.926201 -0.088625
0.462606 0.926201 -0.088627
0.541290 0.926201 -0.088629
0.619603 0.926201 -0.088626
0.697898 0.926201 -0.088629
0.776037 0.926201 -0.088633
0.854070 0.926201 -0.088631
0.932077 0.926200 -0.088636
0.963139 0.879070 -0.088636
0.988323 0.833148 -0.088635
1.008708 0.789938 -0.088631
-0.088630 0.959908 -0.088630
-0.060521 0.959908 -0.088630
0.126686 0.959907 -0.088630
0.211117 0.959907 -0.088631
0.289248 0.959907 -0.088632
0.365530 0.959907 -0.088633
0.440952 0.959907 -0.088629
0.516001 0.959907 -0.088631
0.590736 0.959907 -0.088633
0.665379 0.959907 -0.088636
0.739882 0.959907 -0.088639
0.814371 0.959907 -0.088643
0.888711 0.959906 -0.088645
0.963139 0.959906 -0.088650
0.988323 0.910199 -0.088648
1.008708 0.863504 -0.088643
-0.088636 0.987256 -0.088636
-0.062739 0.987256 -0.088636
0.119177 0.987256 -0.088636
0.200367 0.987256 -0.088637
0.275082 0.987256 -0.088638
0.347874 0.987256 -0.088639
0.419819 0.987256 -0.088640
0.491344 0.987256 -0.088642
0.562572 0.987256 -0.088645
0.633662 0.987256 -0.088644
0.704732 0.987256 -0.088648
0.775650 0.987256 -0.088651
0.846527 0.987256 -0.088656
0.917364 0.987255 -0.088660
0.988322 0.987255 -0.088663
1.008707 0.937035 -0.088659
-0.088645 1.008707 -0.088645
-0.065471 1.008707 -0.088645
0.111409 1.008707 -0.088645
0.189959 1.008707 -0.088643
0.261558 1.008707 -0.088644
0.331137 1.008707 -0.088645
0.399882 1.008707 -0.088646
0.468100 1.008707 -0.088648
0.536071 1.008707 -0.088650
0.603906 1.008706 -0.088652
0.671702 1.008706 -0.088655
0.739308 1.008706 -0.088659
0.806873 1.008706 -0.088660
0.874395 1.008706 -0.088664
0.942012 1.008706 -0.088663
1.008707 1.008706 -0.088669
-0.088562 -0.083875 -0.065352
-0.065352 -0.083875 -0.065352
0.125787 -0.083875 -0.060804
0.235244 -0.083876 -0.058459
0.355079 -0.083876 -0.056925
0.475825 -0.083877 -0.055858
0.584174 -0.083879 -0.055198
0.673077 -0.083880 -0.054934
0.745467 -0.083882 -0.055024
0.804635 -0.083889 -0.055465
0.853982 -0.083889 -0.056218
0.895887 -0.083892 -0.057303
0.932080 -0.083895 -0.058698
0.963142 -0.083898 -0.060443
0.988326 -0.083901 -0.062656
1.008709 -0.083901 -0.065388
-0.088562 -0.057848 -0.065352
-0.065352 -0.057848 -0.065352
0.125787 -0.057849 -0.065352
0.235243 -0.057850 -0.065353
0.355079 -0.057850 -0.065354
0.475825 -0.057851 -0.065354
0.584174 -0.057853 -0.065357
0.673077 -0.057856 -0.065359
0.745467 -0.057860 -0.065363
0.804635 -0.057864 -0.065365
0.853982 -0.057868 -0.065370
0.895887 -0.057873 -0.065373
0.932080 -0.057876 -0.065378
0.963142 -0.057882 -0.065380
0.988326 -0.057886 -0.065384
1.008709 -0.057889 -0.065388
-0.088563 0.036885 -0.060805
-0.065353 0.036885 -0.065353
0.125785 0.036885 -0.065353
0.235243 0.051593 -0.065354
0.355079 0.067714 -0.065354
0.475825 0.078406 -0.065356
0.584173 0.081801 -0.065358
0.673076 0.078966 -0.065361
0.745467 0.072884 -0.065363
0.804635 0.065329 -0.065366
0.853982 0.057291 -0.065371
0.895887 0.049334 -0.065375
0.932080 0.041672 -0.065379
0.963142 0.036885 -0.065381
0.988326 0.036885 -0.065385
1.008709 0.036885 -0.065388
-0.088565 0.158265 -0.058461
-0.065354 0.158265 -0.065354
0.140150 0.158265 -0.065354
0.235241 0.158264 -0.065355
0.355078 0.184758 -0.065356
0.475824 0.202244 -0.065358
0.584173 0.207681 -0.065360
0.673076 0.202874 -0.065363
0.745467 0.192801 -0.065365
0.804635 0.180320 -0.065369
0.853982 0.167183 -0.065372
0.895887 0.154273 -0.065377
0.932080 0.141931 -0.065382
0.963142 0.130158 -0.065383
0.988326 0.118572 -0.065387
1.008709 0.107519 -0.065390
-0.088568 0.292387 -0.056931
-0.065358 0.292387 -0.065358
0.154515 0.292387 -0.065358
0.258880 0.292386 -0.065359
0.355076 0.292386 -0.065360
0.475824 0.316162 -0.065362
0.584173 0.323506 -0.065363
0.673076 0.316954 -0.065366
0.745467 0.303159 -0.065369
0.804635 0.286209 -0.065373
0.853982 0.268331 -0.065376
0.895887 0.250747 -0.065381
0.932080 0.234043 -0.065382
0.963142 0.218129 -0.065387
0.988326 0.202529 -0.065391
1.008709 0.187777 -0.065392
-0.088573 0.426673 -0.055868
-0.065364 0.426674 -0.065364
0.164048 0.426673 -0.065362
0.274487 0.426673 -0.065363
0.376422 0.426673 -0.065364
0.475822 0.426673 -0.065366
0.584173 0.435909 -0.065368
0.673075 0.427631 -0.065371
0.745466 0.410382 -0.065373
0.804634 0.389019 -0.065377
0.853982 0.366561 -0.065382
0.895886 0.344518 -0.065383
0.932080 0.323512 -0.065387
0.963142 0.303540 -0.065390
0.988326 0.284045 -0.065394
1.008709 0.265640 -0.065396
-0.088573 0.546285 -0.055210
-0.065370 0.546285 -0.065370
0.167062 0.546285 -0.065370
0.279343 0.546285 -0.065371
0.383023 0.546285 -0.065372
0.484142 0.546285 -0.065372
0.584172 0.546284 -0.065375
0.673075 0.536346 -0.065378
0.745465 0.515640 -0.065381
0.804634 0.490117 -0.065382
0.853981 0.463183 -0.065386
0.895886 0.436755 -0.065390
0.932079 0.411593 -0.065393
0.963142 0.387676 -0.065397
0.988326 0.364295 -0.065399
1.008709 0.342274 -0.065400
-0.088581 0.643840 -0.054955
-0.065378 0.643840 -0.065378
0.164545 0.643840 -0.065379
0.275049 0.643840 -0.065379
0.377135 0.643840 -0.065380
0.476677 0.643831 -0.065382
0.575113 0.643831 -0.065381
0.673066 0.643831 -0.065384
0.745465 0.619704 -0.065387
0.804634 0.589994 -0.065389
0.853981 0.558701 -0.065394
0.895886 0.527986 -0.065398
0.932079 0.498761 -0.065400
0.963141 0.470925 -0.065404
0.988326 0.443726 -0.065407
1.008709 0.418120 -0.065408
-0.088587 0.723007 -0.055056
-0.065386 0.723007 -0.065386
0.159112 0.723007 -0.065387
0.266050 0.723007 -0.065388
0.364755 0.723007 -0.065389
0.461089 0.723007 -0.065390
0.556352 0.723006 -0.065391
0.651044 0.723006 -0.065394
0.745463 0.723006 -0.065398
0.804633 0.689027 -0.065400
0.853980 0.653371 -0.065403
0.895885 0.618322 -0.065408
0.932079 0.585050 -0.065408
0.963141 0.553354 -0.065411
0.988325 0.522417 -0.065413
1.008709 0.493310 -0.065414
-0.088593 0.787540 -0.055506
-0.065398 0.787540 -0.065398
0.152377 0.787540 -0.065399
0.254914 0.787540 -0.065399
0.349568 0.787540 -0.065399
0.441866 0.787540 -0.065401
0.533189 0.787539 -0.065403
0.623971 0.787539 -0.065406
0.714311 0.787539 -0.065410
0.804633 0.787539 -0.065411
0.853980 0.747470 -0.065414
0.895885 0.708207 -0.065418
0.932078 0.670855 -0.065419
0.963141 0.635249 -0.065422
0.988325 0.600594 -0.065423
1.008709 0.567990 -0.065423
-0.088602 0.841220 -0.056268
-0.065409 0.841220 -0.065409
0.145209 0.841220 -0.065409
0.243182 0.841220 -0.065410
0.333564 0.841220 -0.065411
0.421664 0.841220 -0.065413
0.508808 0.841219 -0.065415
0.595463 0.841219 -0.065418
0.681758 0.841219 -0.065420
0.767892 0.841219 -0.065424
0.853979 0.841219 -0.065427
0.895885 0.797605 -0.065430
0.932078 0.756262 -0.065432
0.963140 0.716885 -0.065434
0.988325 0.678442 -0.065434
1.008708 0.642341 -0.065433
-0.088612 0.886817 -0.057365
-0.065423 0.886817 -0.065423
0.138116 0.886817 -0.065424
0.231656 0.886817 -0.065424
0.317825 0.886817 -0.065426
0.401864 0.886817 -0.065427
0.484925 0.886817 -0.065428
0.567515 0.886817 -0.065430
0.649780 0.886817 -0.065434
0.731912 0.886817 -0.065434
0.813920 0.886817 -0.065439
0.895884 0.886816 -0.065444
0.932078 0.841313 -0.065445
0.963140 0.798105 -0.065446
0.988324 0.755900 -0.065445
1.008708 0.716294 -0.065444
-0.088622 0.926201 -0.058767
-0.065434 0.926201 -0.065434
0.131289 0.926201 -0.065435
0.220660 0.926201 -0.065436
0.302873 0.926201 -0.065437
0.383024 0.926201 -0.065439
0.462225 0.926201 -0.065441
0.541009 0.926201 -0.065443
0.619406 0.926201 -0.065445
0.697701 0.926201 -0.065449
0.775923 0.926201 -0.065453
0.854066 0.926200 -0.065457
0.932077 0.926200 -0.065462
0.963139 0.879099 -0.065463
0.988323 0.833121 -0.065461
1.008708 0.789938 -0.065457
-0.088630 0.959908 -0.060521
-0.065450 0.959907 -0.065450
0.124658 0.959907 -0.065450
0.210155 0.959907 -0.065451
0.288664 0.959907 -0.065452
0.365058 0.959907 -0.065453
0.440654 0.959907 -0.065454
0.515823 0.959907 -0.065456
0.590584 0.959907 -0.065459
0.665225 0.959907 -0.065463
0.739851 0.959907 -0.065464
0.814316 0.959907 -0.065469
0.888737 0.959906 -0.065473
0.963139 0.959906 -0.065479
0.988323 0.910177 -0.065477
1.008708 0.863504 -0.065472
-0.088636 0.987256 -0.062739
-0.065463 0.987256 -0.065463
0.118004 0.987256 -0.065463
0.199813 0.987256 -0.065461
0.274726 0.987256 -0.065462
0.347622 0.987256 -0.065463
0.419626 0.987256 -0.065465
0.491208 0.987256 -0.065468
0.562469 0.987256 -0.065471
0.633611 0.987256 -0.065472
0.704613 0.987256 -0.065476
0.775600 0.987256 -0.065481
0.846505 0.987256 -0.065484
0.917343 0.987255 -0.065490
0.988322 0.987255 -0.065493
1.008707 0.937035 -0.065489
-0.088645 1.008707 -0.065471
-0.065471 1.008707 -0.065471
0.111410 1.008707 -0.065472
0.189959 1.008707 -0.065472
0.261558 1.008707 -0.065471
0.331138 1.008707 -0.065473
0.399882 1.008707 -0.065474
0.468100 1.008707 -0.065477
0.536071 1.008707 -0.065479
0.603907 1.008706 -0.065481
0.671702 1.008706 -0.065484
0.739308 1.008706 -0.065488
0.806873 1.008706 -0.065490
0.874395 1.008706 -0.065495
0.942012 1.008706 -0.065500
1.008707 1.008706 -0.065507
-0.088562 -0.083875 0.081536
-0.060804 -0.083875 0.081536
0.125787 -0.083875 0.081536
0.235244 -0.083876 0.092374
0.355079 -0.083876 0.102786
0.475825 -0.083877 0.109730
0.584174 -0.083879 0.112055
0.673077 -0.083880 0.110388
0.745467 -0.083882 0.106647
0.804635 -0.083889 0.101933
0.853982 -0.083889 0.096897
0.895887 -0.083892 0.091860
0.932080 -0.083895 0.086962
0.963142 -0.083898 0.082151
0.988326 -0.083901 0.077196
1.008709 -0.083901 0.072085
-0.088562 -0.052352 0.081536
-0.065352 -0.057849 0.081536
0.125786 -0.057849 0.081535
0.235243 -0.057850 0.091079
0.355079 -0.057850 0.100693
0.475825 -0.057851 0.107114
0.584174 -0.057853 0.109162
0.673077 -0.057856 0.107451
0.745467 -0.057860 0.103795
0.804635 -0.057864 0.099267
0.853982 -0.057868 0.094471
0.895887 -0.057873 0.089735
0.932080 -0.057877 0.085197
0.963142 -0.057882 0.080816
0.988326 -0.057886 0.076421
1.008709 -0.057889 0.072085
-0.088563 0.036885 0.081535
-0.065353 0.036885 0.081535
0.125785 0.036885 0.081535
0.288339 0.036885 0.060988
0.412549 0.036885 0.044714
0.520545 0.036885 0.037147
0.614726 0.036885 0.034168
0.693979 0.036885 0.033179
0.760041 0.036885 0.032983
0.815378 0.036885 0.033099
0.862226 0.036885 0.033345
0.902626 0.036885 0.033639
0.937880 0.036885 0.033952
0.968144 0.036885 0.034254
0.992941 0.036885 0.034512
1.008710 0.036885 0.081523
-0.088565 0.158265 0.092373
-0.065354 0.158265 0.091078
0.064476 0.169643 0.041477
0.237338 0.160616 0.038517
0.374838 0.178738 0.035743
0.499048 0.185927 0.034042
0.603780 0.183228 0.033234
0.688288 0.174096 0.032991
0.757056 0.162354 0.033038
0.813583 0.149835 0.033228
0.861144 0.137546 0.033495
0.901889 0.125957 0.033790
0.937291 0.115234 0.034096
0.967797 0.105245 0.034384
0.992669 0.095638 0.034637
1.008709 0.115505 0.081518
-0.088568 0.292387 0.102784
-0.065358 0.292387 0.100691
0.052733 0.301089 0.033889
0.243473 0.298000 0.033576
0.356619 0.294107 0.033264
0.485044 0.313464 0.033041
0.594919 0.315308 0.032984
0.682875 0.304779 0.033061
0.753686 0.288691 0.033236
0.811522 0.270691 0.033472
0.859772 0.252586 0.033740
0.900945 0.235316 0.034029
0.936561 0.219212 0.034315
0.967296 0.204111 0.034595
0.992240 0.189516 0.034830
1.008709 0.192841 0.081517
-0.088573 0.426673 0.109726
-0.065362 0.426673 0.107110
0.051327 0.432662 0.032983
0.250123 0.431471 0.032987
0.369022 0.429818 0.033015
0.476911 0.427896 0.033082
0.588796 0.433851 0.033203
0.678685 0.422458 0.033374
0.750844 0.403004 0.033583
0.809533 0.380383 0.033823
0.858371 0.357304 0.034087
0.899910 0.335109 0.034356
0.935805 0.314305 0.034630
0.966646 0.294690 0.034886
0.991800 0.275734 0.035095
1.008709 0.269167 0.081515
-0.088573 0.546285 0.112043
-0.065370 0.546285 0.109160
0.051818 0.550151 0.033298
0.250602 0.549673 0.033344
0.370465 0.548931 0.033417
0.479793 0.548059 0.033524
0.584848 0.547076 0.033663
0.675699 0.534746 0.033846
0.748543 0.512150 0.034057
0.807864 0.485255 0.034285
0.857153 0.457609 0.034528
0.898954 0.430815 0.034781
0.935088 0.405611 0.035027
0.966044 0.381806 0.035259
0.991230 0.358726 0.035445
1.008709 0.344876 0.081512
-0.088581 0.643840 0.110384
-0.065378 0.643840 0.107446
0.052746 0.646454 0.033896
0.244874 0.646181 0.033944
0.362030 0.645793 0.034020
0.469165 0.645398 0.034127
0.572359 0.644907 0.034262
0.673551 0.644366 0.034432
0.746944 0.618568 0.034631
0.806616 0.587555 0.034840
0.856106 0.555432 0.035064
0.898147 0.524196 0.035294
0.934404 0.494822 0.035516
0.965429 0.466977 0.035717
0.990621 0.439923 0.035868
1.008709 0.420103 0.081513
-0.088587 0.723007 0.106641
-0.065387 0.723007 0.103787
0.053833 0.724651 0.034597
0.236059 0.724606 0.034642
0.348759 0.724330 0.034714
0.451927 0.724187 0.034812
0.551476 0.723905 0.034939
0.649196 0.723614 0.035097
0.745761 0.723283 0.035294
0.805658 0.688097 0.035488
0.855292 0.651567 0.035689
0.897387 0.616044 0.035895
0.933776 0.582479 0.036090
0.964872 0.550695 0.036258
0.990140 0.519840 0.036371
1.008709 0.494822 0.081512
-0.088593 0.787540 0.101924
-0.065399 0.787540 0.099255
0.055008 0.788787 0.035357
0.226002 0.788732 0.035398
0.333492 0.788640 0.035466
0.432069 0.788553 0.035557
0.527198 0.788376 0.035674
0.620667 0.788158 0.035823
0.712982 0.787976 0.036008
0.804905 0.787803 0.036219
0.854666 0.746773 0.036402
0.896819 0.706885 0.036581
0.933226 0.669305 0.036747
0.964441 0.633541 0.036880
0.989650 0.598835 0.036956
1.008709 0.569153 0.081510
-0.088602 0.841220 0.096890
-0.065409 0.841220 0.094457
0.056244 0.842173 0.036154
0.215784 0.842175 0.036193
0.317939 0.842115 0.036254
0.411741 0.842015 0.036338
0.502402 0.841988 0.036451
0.591384 0.841816 0.036594
0.679427 0.841720 0.036767
0.766942 0.841543 0.036967
0.854113 0.841415 0.037202
0.896400 0.797122 0.037355
0.932797 0.755327 0.037487
0.964014 0.715734 0.037585
0.989324 0.677238 0.037614
1.008708 0.643227 0.081504
-0.088612 0.886817 0.091852
-0.065424 0.886817 0.089720
0.057513 0.887542 0.036974
0.206022 0.887532 0.037009
0.302972 0.887503 0.037068
0.392171 0.887443 0.037147
0.478357 0.887409 0.037253
0.563091 0.887283 0.037387
0.646931 0.887249 0.037545
0.730157 0.887149 0.037737
0.813240 0.887049 0.037956
0.895995 0.886916 0.038204
0.932443 0.841011 0.038306
0.963743 0.797510 0.038370
0.989004 0.755226 0.038349
1.008708 0.716882 0.081501
-0.088622 0.926201 0.086947
-0.065435 0.926201 0.085186
0.058781 0.926856 0.037794
0.196911 0.926837 0.037826
0.288958 0.926802 0.037878
0.373791 0.926751 0.037955
0.455835 0.926737 0.038053
0.536508 0.926696 0.038173
0.616317 0.926587 0.038324
0.695698 0.926566 0.038503
0.774709 0.926492 0.038709
0.853558 0.926388 0.038945
0.932169 0.926303 0.039211
0.963474 0.878867 0.039231
0.988729 0.832745 0.039163
1.008708 0.790396 0.081500
-0.088630 0.959907 0.082129
-0.065450 0.959907 0.080794
0.059991 0.960521 0.038576
0.188393 0.960500 0.038604
0.275766 0.960450 0.038653
0.356445 0.960464 0.038722
0.434543 0.960375 0.038810
0.511402 0.960390 0.038924
0.587419 0.960308 0.039066
0.662953 0.960276 0.039232
0.738374 0.960213 0.039423
0.813472 0.960133 0.039640
0.888429 0.960124 0.039889
0.963209 0.960032 0.040156
0.988517 0.910064 0.040037
1.008708 0.863759 0.081495
-0.088636 0.987256 0.077173
-0.065463 0.987256 0.076395
0.061040 0.987821 0.039253
0.180163 0.987794 0.039281
0.263013 0.987748 0.039326
0.339694 0.987751 0.039387
0.413967 0.987728 0.039465
0.487060 0.987706 0.039570
0.559405 0.987648 0.039701
0.631370 0.987668 0.039857
0.703059 0.987592 0.040028
0.774563 0.987588 0.040228
0.845932 0.987493 0.040457
0.917116 0.987383 0.040713
0.988415 0.987360 0.040991
1.008707 0.937163 0.081494
-0.088645 1.008707 0.072058
-0.065471 1.008707 0.072055
0.125722 1.008707 0.081495
0.197081 1.008707 0.081495
0.266076 1.008707 0.081494
0.334269 1.008707 0.081494
0.402194 1.008707 0.081493
0.469860 1.008707 0.081492
0.537467 1.008707 0.081491
0.604954 1.008707 0.081489
0.672504 1.008706 0.081496
0.739876 1.008706 0.081494
0.807257 1.008706 0.081492
0.874658 1.008706 0.081489
0.942125 1.008706 0.081487
1.008707 1.008706 0.081488
-0.088562 -0.083875 0.156459
-0.058458 -0.083875 0.156459
0.142093 -0.083875 0.156459
0.235243 -0.083876 0.156458
0.355079 -0.083876 0.174170
0.475825 -0.083877 0.186022
0.584174 -0.083879 0.189872
0.673077 -0.083880 0.186768
0.745467 -0.083883 0.180149
0.804635 -0.083890 0.171956
0.853982 -0.083890 0.163377
0.895887 -0.083892 0.154988
0.932080 -0.083895 0.147031
0.963142 -0.083898 0.139459
0.988326 -0.083901 0.131984
1.008709 -0.083901 0.124803
-0.088562 -0.049428 0.156459
-0.065352 -0.057849 0.156459
0.140152 -0.057849 0.156458
0.235243 -0.057850 0.156458
0.355079 -0.057850 0.173486
0.475825 -0.057852 0.184911
0.584174 -0.057854 0.188501
0.673077 -0.057857 0.185331
0.745467 -0.057860 0.178712
0.804635 -0.057864 0.170617
0.853982 -0.057869 0.162141
0.895887 -0.057873 0.153923
0.932080 -0.057877 0.146139
0.963142 -0.057882 0.138778
0.988326 -0.057886 0.131605
1.008709 -0.057890 0.124803
-0.088563 0.053777 0.156458
-0.065354 0.051594 0.156458
0.115418 0.036885 0.204959
0.278974 0.036885 0.188226
0.406137 0.036885 0.185441
0.517356 0.036885 0.181348
0.613281 0.036885 0.175462
0.693218 0.036885 0.167879
0.759729 0.036885 0.159653
0.815153 0.036885 0.151405
0.862153 0.036885 0.143543
0.902525 0.036885 0.136253
0.937785 0.036885 0.129582
0.968126 0.036885 0.123429
0.992892 0.036885 0.117555
1.008709 0.036885 0.129711
-0.088565 0.158265 0.156457
-0.065354 0.158265 0.156457
0.062665 0.166160 0.161489
0.235241 0.158264 0.156457
0.419833 0.125284 0.135756
0.566554 0.080182 0.108185
0.662385 0.047044 0.088381
0.733811 0.036885 0.075610
0.791519 0.036885 0.067785
0.840198 0.036885 0.063181
0.882311 0.036885 0.060553
0.919510 0.036885 0.059104
0.952590 0.036885 0.058340
0.981454 0.036885 0.057970
0.999497 0.068330 0.101060
1.008709 0.158263 0.156451
-0.088568 0.292387 0.174169
-0.065358 0.292387 0.173485
0.052544 0.299952 0.163206
0.149282 0.314178 0.097176
0.359442 0.297248 0.088516
0.514339 0.300683 0.079641
0.628184 0.285984 0.072284
0.712645 0.264739 0.066840
0.778501 0.243104 0.063127
0.831926 0.222888 0.060738
0.876875 0.204678 0.059300
0.915748 0.188525 0.058471
0.949847 0.174181 0.058035
0.979353 0.161198 0.057834
0.999447 0.170391 0.093592
1.008709 0.222062 0.156450
-0.088567 0.426673 0.186019
-0.065362 0.426673 0.184908
0.051328 0.432260 0.167400
0.109939 0.446263 0.071092
0.342082 0.439140 0.068705
0.479525 0.430787 0.066099
0.603121 0.427574 0.063563
0.695615 0.407563 0.061527
0.767095 0.382285 0.060033
0.824172 0.356298 0.059014
0.871380 0.331617 0.058366
0.911707 0.309063 0.057996
