LUT color transfer/LUTs/53.cube
LUT_3D_SIZE 6
-0.088562 -0.083875 -0.088562
0.235244 -0.083875 -0.088563
0.584174 -0.083879 -0.088567
0.804635 -0.083889 -0.088569
0.932080 -0.083895 -0.088581
1.008709 -0.083901 -0.088588
-0.088565 0.158265 -0.088565
0.235241 0.158264 -0.088566
0.584173 0.209743 -0.088570
0.804635 0.182410 -0.088573
0.932080 0.143343 -0.088584
1.008709 0.107519 -0.088591
-0.088573 0.546285 -0.088573
0.281175 0.546285 -0.088574
0.584172 0.546284 -0.088578
0.804634 0.490598 -0.088583
0.932079 0.412025 -0.088594
1.008709 0.342274 -0.088593
-0.088593 0.787540 -0.088593
0.256783 0.787540 -0.088594
0.533638 0.787539 -0.088595
0.804632 0.787539 -0.088603
0.932079 0.671016 -0.088608
1.008709 0.567989 -0.088611
-0.088622 0.926201 -0.088622
0.221916 0.926201 -0.088623
0.462606 0.926201 -0.088627
0.697898 0.926201 -0.088629
0.932077 0.926200 -0.088636
1.008708 0.789938 -0.088631
-0.088645 1.008707 -0.088645
0.189959 1.008707 -0.088643
0.399882 1.008707 -0.088646
0.603906 1.008706 -0.088652
0.806873 1.008706 -0.088660
1.008707 1.008706 -0.088669
-0.088562 -0.083875 0.156459
0.235243 -0.083876 0.156458
0.584174 -0.083879 0.189872
0.804635 -0.083890 0.171956
0.932080 -0.083895 0.147031
1.008709 -0.083901 0.124803
-0.088565 0.158265 0.156457
0.235241 0.158264 0.156457
0.662385 0.047044 0.088381
0.840198 0.036885 0.063181
0.952590 0.036885 0.058340
1.008709 0.158263 0.156451
-0.088573 0.546285 0.189869
0.095737 0.559899 0.061786
0.586672 0.549039 0.059606
0.817573 0.472566 0.058079
0.943717 0.389532 0.057767
1.008709 0.360592 0.156446
-0.088593 0.787540 0.171956
0.089675 0.792207 0.057832
0.511039 0.790810 0.057928
0.805505 0.788495 0.058193
0.936561 0.665269 0.058502
1.008709 0.576171 0.156446
-0.088623 0.926201 0.147030
0.091747 0.928742 0.059181
0.438068 0.928299 0.059332
0.690240 0.927596 0.059632
0.932550 0.926705 0.060095
1.008708 0.793089 0.156448
-0.088645 1.008707 0.124784
0.235212 1.008707 0.156441
0.416323 1.008707 0.156440
0.611342 1.008706 0.156437
0.809733 1.008706 0.156443
1.008707 1.008706 0.156436
-0.088564 -0.083876 0.459940
0.281180 -0.083877 0.459940
0.584173 -0.083880 0.459939
0.804635 -0.083891 0.407254
0.932080 -0.083896 0.339073
1.008709 -0.083902 0.283822
-0.088567 0.209745 0.459940
0.190287 0.107863 0.603396
0.644861 0.036885 0.528178
0.836135 0.036885 0.402914
0.951355 0.036885 0.323903
1.008709 0.158262 0.297892
-0.088575 0.546285 0.459938
0.094314 0.555639 0.469175
0.584172 0.546284 0.459937
0.880113 0.446578 0.368191
0.985844 0.419916 0.345607
1.008709 0.546280 0.459934
-0.088594 0.787540 0.407249
0.089715 0.791628 0.385336
0.332964 0.809764 0.229363
0.809098 0.792396 0.203920
0.964221 0.638793 0.185461
1.008708 0.675768 0.459931
-0.088624 0.926201 0.339068
0.091819 0.928577 0.317015
0.242862 0.940773 0.161908
0.646914 0.935682 0.157044
0.934798 0.929201 0.151406
1.008708 0.834326 0.459927
-0.088643 1.008707 0.283831
0.235211 1.008707 0.297890
0.584162 1.008707 0.459925
0.702258 1.008706 0.459924
0.847581 1.008706 0.459923
1.008707 1.008706 0.459922
-0.088566 -0.083878 0.729515
0.256796 -0.083879 0.729515
0.533643 -0.083882 0.729514
0.804635 -0.083890 0.729514
0.932080 -0.083898 0.591917
1.008709 -0.083904 0.481543
-0.088570 0.182413 0.729514
0.135499 0.046369 0.846886
0.543191 0.036885 0.800636
0.829889 0.036885 0.763487
0.949054 0.036885 0.596693
1.008709 0.158261 0.489846
-0.088578 0.490599 0.729513
0.092487 0.479514 0.760125
0.557119 0.516506 0.847151
0.872561 0.408469 0.821740
0.985422 0.393340 0.623954
1.008709 0.546279 0.597302
-0.088594 0.787539 0.729511
0.089825 0.790759 0.733414
0.320292 0.803378 0.748968
0.804632 0.787539 0.729510
0.977651 0.757587 0.693123
1.008708 0.787538 0.729508
-0.088627 0.926201 0.591914
0.091973 0.928270 0.583088
0.240360 0.938921 0.533663
0.650791 0.949247 0.535129
0.937049 0.931565 0.487776
1.008708 0.886791 0.729505
-0.088646 1.008707 0.481538
0.235209 1.008707 0.489838
0.584162 1.008706 0.597295
0.804629 1.008706 0.729503
0.895859 1.008706 0.729502
1.008707 1.008706 0.729501
-0.088570 -0.083881 0.904525
0.221925 -0.083882 0.904525
0.462614 -0.083889 0.904525
0.697901 -0.083892 0.904524
0.932080 -0.083901 0.904524
1.008709 -0.083906 0.732486
-0.088567 0.143349 0.904525
0.120769 0.036885 0.984818
0.457647 0.036885 0.965078
0.708186 0.036885 0.940614
0.946147 0.036885 0.924253
1.008709 0.158258 0.736354
-0.088580 0.412027 0.904524
0.091248 0.395976 0.938110
0.555117 0.514340 0.982561
0.746322 0.466129 0.981197
0.984687 0.342198 0.978385
1.008709 0.546279 0.787565
-0.088595 0.671016 0.904523
0.089864 0.667955 0.915609
0.314112 0.660176 0.976247
0.796529 0.778729 0.972500
0.975838 0.743863 0.965911
1.008708 0.787538 0.854010
-0.088631 0.926201 0.904521
0.092223 0.927908 0.906701
0.236771 0.936267 0.917472
0.636082 0.942955 0.926148
0.932077 0.926200 0.904519
1.008707 0.926199 0.904519
-0.088649 1.008707 0.732479
0.235206 1.008707 0.736346
0.584162 1.008706 0.787559
0.804629 1.008706 0.854007
0.932075 1.008706 0.904517
1.008707 1.008706 0.904517
-0.088568 -0.083883 1.008706
0.189992 -0.083889 1.008706
0.399873 -0.083889 1.008706
0.603911 -0.083893 1.008706
0.806878 -0.083901 1.008705
1.008709 -0.083910 1.008705
-0.088570 0.107526 1.008706
0.235232 0.158264 1.008706
0.416318 0.158269 1.008706
0.611349 0.158265 1.008706
0.809739 0.158265 1.008705
1.008709 0.158264 1.008705
-0.088581 0.342277 1.008706
0.235240 0.360602 1.008706
0.584171 0.546283 1.008705
0.702220 0.546282 1.008705
0.847587 0.546280 1.008705
1.008709 0.546278 1.008705
-0.088594 0.567991 1.008705
0.235234 0.576172 1.008705
0.584169 0.675770 1.008705
0.804632 0.787538 1.008705
0.895862 0.787538 1.008704
1.008708 0.787537 1.008704
-0.088623 0.789939 1.008704
0.235233 0.793091 1.008704
0.584166 0.834327 1.008704
0.804631 0.886792 1.008704
0.932076 0.926200 1.008704
1.008707 0.926199 1.008703
-0.088654 1.008706 1.008703
0.235202 1.008706 1.008703
0.584161 1.008706 1.008703
0.804628 1.008706 1.008703
0.932075 1.008706 1.008703
1.008707 1.008706 1.008703
