LUT color transfer/LUTs/55.cube
LUT_3D_SIZE 16
0.000000 0.000000 0.000000
0.000000 0.000000 0.000000
0.070842 0.002293 0.000000
0.144882 0.004690 0.000000
0.237155 0.007677 0.000000
0.348787 0.011291 0.000000
0.473682 0.095957 0.029893
0.592697 0.137239 0.057584
0.697454 0.169447 0.077106
0.778784 0.193326 0.090936
0.833790 0.209114 0.099857
0.868489 0.218981 0.105371
0.889674 0.224962 0.108690
0.902365 0.228543 0.110672
0.910458 0.230795 0.111937
0.922087 0.234066 0.113744
0.000000 0.000000 0.000000
0.000000 0.000000 0.000000
0.073087 0.002366 0.000000
0.145770 0.004719 0.000000
0.236593 0.024223 0.000000
0.344720 0.082340 0.000000
0.472782 0.118143 0.034463
0.592077 0.151641 0.060426
0.696969 0.180370 0.079222
0.778425 0.202407 0.092684
0.833438 0.217156 0.101405
0.868211 0.226365 0.106794
0.889429 0.231850 0.109995
0.902235 0.234985 0.111915
0.910280 0.236808 0.113072
0.921914 0.239458 0.114742
0.000000 0.088857 0.053440
0.000000 0.087256 0.052479
0.081246 0.084158 0.000000
0.153107 0.101506 0.000000
0.240637 0.128693 0.000000
0.352401 0.159060 0.010977
0.475520 0.188461 0.053432
0.593924 0.215329 0.076382
0.698172 0.237095 0.092974
0.779341 0.251936 0.104414
0.834137 0.259726 0.111337
0.868614 0.262705 0.115152
0.889748 0.262925 0.117084
0.902266 0.261755 0.117950
0.910391 0.260029 0.118248
0.921910 0.259854 0.119262
0.000000 0.167962 0.101017
0.000000 0.167266 0.100596
0.035173 0.176466 0.029219
0.158488 0.164163 0.000000
0.256829 0.195267 0.000000
0.365511 0.233567 0.028718
0.485255 0.267976 0.075198
0.601477 0.295816 0.098578
0.703982 0.315073 0.114139
0.783668 0.324555 0.123705
0.837430 0.325229 0.128390
0.871237 0.320712 0.129964
0.891551 0.313855 0.129879
0.903835 0.306377 0.128985
0.911484 0.299194 0.127819
0.922900 0.294552 0.127666
0.000000 0.271283 0.163155
0.000000 0.270906 0.162930
0.000000 0.271953 0.130652
0.119999 0.284716 0.013378
0.257440 0.266660 0.000000
0.382093 0.308304 0.000000
0.500637 0.349042 0.081598
0.614836 0.380047 0.116080
0.715056 0.399124 0.135133
0.792556 0.405294 0.145139
0.844499 0.400227 0.148662
0.876652 0.389166 0.148445
0.895881 0.375553 0.146395
0.907127 0.361741 0.143657
0.914107 0.348915 0.140808
0.925026 0.339484 0.139260
0.000000 0.397502 0.239075
0.000000 0.397287 0.238962
0.000000 0.398393 0.211491
0.064999 0.419167 0.082888
0.222687 0.413335 0.005005
0.377865 0.391393 0.000000
0.516673 0.432295 0.000000
0.632020 0.466439 0.112126
0.730791 0.486000 0.146510
0.805927 0.489708 0.162441
0.855339 0.479821 0.167827
0.885531 0.462634 0.167483
0.902858 0.442916 0.164366
0.912848 0.423152 0.160216
0.918697 0.404807 0.155906
0.929007 0.390779 0.153043
0.000000 0.533627 0.320922
0.000000 0.533487 0.320860
0.000000 0.534499 0.297140
0.000000 0.536133 0.244225
0.162417 0.564676 0.061654
0.338226 0.550284 0.000000
0.507479 0.525655 0.000000
0.647584 0.555645 0.000000
0.748508 0.574974 0.130900
0.822612 0.576184 0.166500
0.869800 0.561717 0.180063
0.897598 0.538954 0.183048
0.912862 0.513286 0.180926
0.921014 0.487911 0.176618
0.925471 0.464334 0.171589
0.934756 0.445885 0.167766
0.000000 0.666211 0.400618
0.000000 0.666045 0.400562
0.000000 0.666954 0.380209
0.000000 0.668724 0.334383
0.085609 0.700928 0.156764
0.266604 0.702561 0.044755
0.455895 0.682596 0.000000
0.633653 0.656377 0.000000
0.762966 0.667280 0.000000
0.840021 0.664864 0.138708
0.886567 0.645517 0.176531
0.912266 0.617113 0.189832
0.925492 0.585668 0.192508
0.931715 0.554720 0.190250
0.934372 0.526043 0.185846
0.942419 0.503347 0.181902
0.000000 0.783139 0.470983
0.000000 0.783016 0.470960
0.000000 0.783801 0.453597
0.000000 0.785403 0.414473
0.000000 0.801260 0.305670
0.184662 0.828749 0.123533
0.369631 0.821782 0.030387
0.565014 0.798310 0.000000
0.744928 0.771659 0.000000
0.852744 0.756872 0.000000
0.902614 0.731327 0.136095
0.928284 0.696779 0.179139
0.939946 0.659372 0.194016
0.944342 0.622894 0.197754
0.945359 0.589138 0.196412
0.951916 0.562245 0.193663
0.000000 0.873966 0.525672
0.000000 0.874027 0.525647
0.000000 0.874712 0.511179
0.000000 0.876134 0.478222
0.000000 0.877891 0.426183
0.091565 0.917807 0.222076
0.275544 0.924989 0.095719
0.461612 0.912613 0.018466
0.655184 0.887634 0.000000
0.831576 0.861402 0.000000
0.913681 0.820473 0.000000
0.942941 0.778529 0.124359
0.954908 0.734583 0.176655
0.958091 0.692364 0.194350
0.957623 0.653449 0.200094
0.963148 0.622416 0.200787
0.000000 0.935717 0.562771
0.000000 0.935578 0.562723
0.000000 0.936179 0.550774
0.000000 0.937433 0.523361
0.000000 0.939093 0.479962
0.000000 0.960879 0.351428
0.181088 0.988876 0.174788
0.354447 0.988115 0.072025
0.535973 0.972381 0.009071
0.721918 0.947192 0.000000
0.890209 0.922143 0.000000
0.951894 0.863595 0.000000
0.967942 0.811792 0.104037
0.971888 0.763219 0.170855
0.970721 0.718873 0.192253
0.975300 0.683609 0.200107
0.000000 0.974622 0.586150
0.000000 0.974531 0.586100
0.000000 0.974972 0.576310
0.000000 0.976080 0.553631
0.000000 0.977514 0.517551
0.000000 0.979056 0.467044
0.085176 1.021333 0.261163
0.255158 1.031843 0.137481
0.420249 1.025982 0.052767
0.594044 1.008429 0.001930
0.769458 0.983828 0.000000
0.927361 0.960513 0.000000
0.975070 0.892053 0.000000
0.983484 0.835808 0.070698
0.983356 0.785563 0.162955
0.987801 0.745650 0.186502
0.000000 0.998238 0.600368
0.000000 0.998170 0.600353
0.000000 0.998568 0.592305
0.000000 0.999392 0.573430
0.000000 1.000716 0.543407
0.000000 1.002174 0.501138
0.000000 1.026575 0.368823
0.164157 1.053275 0.207602
0.317553 1.056424 0.107728
0.474747 1.047336 0.037537
0.639052 1.029024 0.000000
0.802710 1.005530 0.000000
0.949752 0.983651 0.000000
0.988710 0.911499 0.000000
0.993431 0.854019 0.000000
0.999150 0.809084 0.146389
0.000000 1.012503 0.608957
0.000000 1.012445 0.608932
0.000000 1.012745 0.602348
0.000000 1.013520 0.586542
0.000000 1.014635 0.561370
0.000000 1.015969 0.525870
0.000000 1.017278 0.479617
0.075317 1.059429 0.281968
0.227478 1.071309 0.167275
0.370789 1.069872 0.084031
0.519920 1.058686 0.025698
0.674376 1.040243 0.000000
0.826687 1.018029 0.000000
0.963390 0.997867 0.000000
0.997072 0.925242 0.000000
1.008181 0.874044 0.000000
0.000000 1.021542 0.614417
0.000000 1.021486 0.614381
0.000000 1.021732 0.608955
0.000000 1.022393 0.595647
0.000000 1.023361 0.574372
0.000000 1.024556 0.544334
0.000000 1.025831 0.504949
0.000000 1.051246 0.374512
0.145762 1.076232 0.229247
0.281128 1.081618 0.135661
0.416532 1.077082 0.065306
0.557714 1.064662 0.016642
0.702695 1.046436 0.000000
0.844495 1.025551 0.000000
0.971923 1.006691 0.000000
1.008275 0.942895 0.000000
0.000000 1.034567 0.622225
0.000000 1.034521 0.622197
0.000000 1.034705 0.617697
0.000000 1.035294 0.605970
0.000000 1.036189 0.587369
0.000000 1.037307 0.560975
0.000000 1.038554 0.526383
0.000000 1.039684 0.483307
0.068238 1.081064 0.293552
0.206911 1.093162 0.187348
0.334546 1.094012 0.107961
0.465214 1.086763 0.048311
0.600984 1.073013 0.008305
0.738642 1.054705 0.000000
0.871739 1.034853 0.000000
0.984289 1.019543 0.000000
0.000000 0.000000 0.000000
0.000000 0.000000 0.000000
0.071078 0.002301 0.000000
0.144968 0.004693 0.000000
0.237191 0.007679 0.000000
0.356962 0.008657 0.022025
0.476161 0.095401 0.051060
0.594264 0.136876 0.071234
0.698617 0.169176 0.087420
0.779744 0.193078 0.099486
0.834761 0.208920 0.107448
0.869339 0.218780 0.112346
0.890469 0.224794 0.115185
0.903051 0.228382 0.116761
0.911132 0.230644 0.117584
0.922723 0.233929 0.118812
0.000000 0.000000 0.000000
0.000000 0.000000 0.000000
0.072998 0.002363 0.000000
0.145685 0.004716 0.000000
0.237540 0.007690 0.000000
0.352731 0.072050 0.022954
0.474871 0.113017 0.049732
0.593445 0.148072 0.070172
0.698080 0.177616 0.086603
0.779279 0.200144 0.098875
0.834263 0.215258 0.107011
0.868925 0.224754 0.112070
0.890133 0.230484 0.115130
0.902853 0.233969 0.116985
0.910958 0.236179 0.118175
0.922504 0.239315 0.119855
0.000000 0.088321 0.053123
0.000000 0.086979 0.052310
0.081149 0.084054 0.000000
0.152846 0.100398 0.000000
0.240284 0.126853 0.000000
0.355465 0.155573 0.044759
0.476804 0.185250 0.067501
0.594831 0.212208 0.085513
0.699004 0.234181 0.099877
0.779884 0.249353 0.110260
0.834717 0.257576 0.116661
0.869269 0.260971 0.120244
0.890340 0.261592 0.122109
0.902885 0.260809 0.122948
0.910916 0.259476 0.123308
0.922520 0.259719 0.124297
0.000000 0.167714 0.100862
0.000000 0.167189 0.100553
0.032350 0.176141 0.031106
0.158452 0.164124 0.000000
0.256682 0.194657 0.000000
0.367131 0.231931 0.061693
0.486073 0.266246 0.088772
0.602106 0.294003 0.107498
0.704524 0.313283 0.120951
0.784188 0.322851 0.129471
0.837914 0.323734 0.133644
0.871750 0.319459 0.135010
0.892099 0.312826 0.134815
0.904283 0.305611 0.133916
0.912086 0.298705 0.132776
0.923479 0.294421 0.132632
0.000000 0.271153 0.163082
0.000000 0.270887 0.162923
0.000000 0.271830 0.132084
0.118546 0.284765 0.013924
0.257426 0.266645 0.000000
0.382354 0.307743 0.028840
0.501086 0.348122 0.097224
0.615209 0.378977 0.125268
0.715447 0.398001 0.141991
0.792938 0.404147 0.150886
0.844763 0.399195 0.153867
0.877075 0.388181 0.153401
0.896349 0.374782 0.151266
0.907616 0.361182 0.148490
0.914554 0.348509 0.145671
0.925608 0.339364 0.144141
0.000000 0.397451 0.239052
0.000000 0.397320 0.238975
0.000000 0.398264 0.212950
0.062511 0.418898 0.084720
0.221701 0.413436 0.005241
0.377851 0.391370 0.000000
0.516812 0.431944 0.038315
0.632213 0.465830 0.123513
0.730948 0.485292 0.153867
0.806133 0.488896 0.168329
0.855751 0.479029 0.173037
0.885860 0.461983 0.172375
0.903290 0.442319 0.169157
0.913291 0.422698 0.164972
0.919238 0.404515 0.160680
0.929452 0.390660 0.157814
0.000000 0.533578 0.320917
0.000000 0.533480 0.320857
0.000000 0.534436 0.298499
0.000000 0.536067 0.245337
0.160862 0.564672 0.062526
0.337534 0.550334 0.000000
0.507464 0.525640 0.000000
0.647544 0.555444 0.000000
0.748637 0.574577 0.140620
0.822829 0.575668 0.173041
0.870000 0.561156 0.185491
0.897842 0.538437 0.188041
0.913206 0.512850 0.185720
0.921393 0.487547 0.181316
0.925934 0.464044 0.176243
0.935107 0.445767 0.172416
0.000000 0.666129 0.400655
0.000000 0.666041 0.400560
0.000000 0.666913 0.381458
0.000000 0.668684 0.335477
0.083447 0.700701 0.158418
0.265490 0.702610 0.045233
0.455361 0.682638 0.000000
0.633647 0.656367 0.000000
0.762937 0.667143 0.000000
0.840144 0.664565 0.147932
0.886655 0.645125 0.182800
0.912398 0.616719 0.195163
0.925683 0.585307 0.197420
0.931942 0.554432 0.194948
0.934698 0.525813 0.190496
0.942800 0.503207 0.186532
0.000000 0.783097 0.470959
0.000000 0.783013 0.470966
0.000000 0.783714 0.454669
0.000000 0.785381 0.415440
0.000000 0.799646 0.311599
0.183350 0.828708 0.124398
0.368833 0.821784 0.030669
0.564637 0.798368 0.000000
0.744965 0.771651 0.000000
0.852779 0.756755 0.000000
0.902680 0.731152 0.145705
0.928322 0.696562 0.185423
0.940069 0.659144 0.199349
0.944476 0.622682 0.202694
0.945467 0.588993 0.201124
0.952233 0.562183 0.198312
0.000000 0.873948 0.525665
0.000000 0.874044 0.525645
0.000000 0.874610 0.512044
0.000000 0.876123 0.479006
0.000000 0.877889 0.426951
0.089910 0.917442 0.223349
0.274643 0.925005 0.096222
0.461088 0.912631 0.018623
0.654955 0.887693 0.000000
0.831569 0.861395 0.000000
0.913667 0.820389 0.000000
0.943014 0.778348 0.135243
0.954920 0.734352 0.183187
0.958258 0.692229 0.199794
0.957803 0.653311 0.205074
0.963384 0.622352 0.205539
0.000000 0.935672 0.562751
0.000000 0.935569 0.562720
0.000000 0.936133 0.551499
0.000000 0.937388 0.524029
0.000000 0.939062 0.480536
0.000000 0.960269 0.354250
0.180113 0.988784 0.175494
0.353815 0.988155 0.072319
0.535551 0.972400 0.009166
0.721744 0.947209 0.000000
0.890199 0.922132 0.000000
0.951922 0.863486 0.000000
0.968056 0.811706 0.117682
0.971891 0.763049 0.177769
0.970917 0.718693 0.197863
0.975448 0.683544 0.205228
0.000000 0.974610 0.586138
0.000000 0.974516 0.586096
0.000000 0.974951 0.576857
0.000000 0.976019 0.554101
0.000000 0.977599 0.518028
0.000000 0.979015 0.467433
0.084116 1.021191 0.262007
0.254541 1.031834 0.137863
0.419843 1.026001 0.052933
0.593764 1.008450 0.001986
0.769313 0.983849 0.000000
0.927351 0.960507 0.000000
0.975067 0.892078 0.000000
0.983566 0.835734 0.091771
0.983351 0.785461 0.170375
0.987870 0.745578 0.192486
0.000000 0.998190 0.600347
0.000000 0.998157 0.600350
0.000000 0.998486 0.592695
0.000000 0.999315 0.573778
0.000000 1.000687 0.543755
0.000000 1.002148 0.501470
0.000000 1.026209 0.370285
0.163579 1.053221 0.208027
0.317159 1.056422 0.107952
0.474481 1.047351 0.037628
0.638911 1.029036 0.000000
0.802631 1.005534 0.000000
0.949742 0.983640 0.000000
0.988708 0.911454 0.000000
0.993608 0.853913 0.044320
0.999255 0.809051 0.155006
0.000000 1.012481 0.608953
0.000000 1.012437 0.608926
0.000000 1.012717 0.602574
0.000000 1.013493 0.586775
0.000000 1.014610 0.561596
0.000000 1.015942 0.526088
0.000000 1.017259 0.479775
0.074769 1.059344 0.282400
0.227178 1.071286 0.167482
0.370520 1.069869 0.084147
0.519714 1.058689 0.025760
0.674272 1.040246 0.000000
0.826674 1.018028 0.000000
0.963379 0.997912 0.000000
0.997070 0.925276 0.000000
1.008181 0.874043 0.000000
0.000000 1.021525 0.614401
0.000000 1.021480 0.614374
0.000000 1.021710 0.609098
0.000000 1.022372 0.595737
0.000000 1.023341 0.574475
0.000000 1.024537 0.544442
0.000000 1.025814 0.505055
0.000000 1.051107 0.375025
0.145529 1.076197 0.229410
0.280972 1.081604 0.135749
0.416417 1.077077 0.065351
0.557652 1.064660 0.016667
0.702642 1.046435 0.000000
0.844460 1.025549 0.000000
0.971913 1.006686 0.000000
1.008273 0.942890 0.000000
0.000000 1.034551 0.622215
0.000000 1.034505 0.622187
0.000000 1.034690 0.617687
0.000000 1.035279 0.605972
0.000000 1.036174 0.587360
0.000000 1.037282 0.560963
0.000000 1.038530 0.526372
0.000000 1.039670 0.483297
0.068196 1.081064 0.293593
0.206865 1.093146 0.187358
0.334524 1.093998 0.107968
0.465241 1.086751 0.048309
0.600938 1.072986 0.008306
0.738627 1.054698 0.000000
0.871724 1.034848 0.000000
0.984286 1.019540 0.000000
0.070023 0.000000 0.073589
0.069605 0.000000 0.073155
0.078759 0.000000 0.036845
0.153601 0.002268 0.062628
0.248605 0.004295 0.080052
0.361619 0.035365 0.099170
0.481037 0.099855 0.118989
0.598764 0.139505 0.132739
0.702724 0.170932 0.142314
0.783457 0.194254 0.147496
0.838108 0.209660 0.148746
0.872372 0.219213 0.147614
0.893045 0.224937 0.145376
0.905551 0.228335 0.142751
0.913405 0.230432 0.140135
0.924750 0.233664 0.138425
0.068601 0.000000 0.072095
0.068411 0.000000 0.071895
0.084042 0.000000 0.039317
0.154854 0.002215 0.063885
0.249077 0.004282 0.079801
0.358873 0.076753 0.102680
0.480071 0.115798 0.118859
0.598080 0.149981 0.131770
0.702246 0.178938 0.141105
0.783050 0.201057 0.146392
0.837660 0.215773 0.147889
0.872069 0.225001 0.147109
0.892788 0.230516 0.145218
0.905242 0.233858 0.142948
0.913122 0.235915 0.140696
0.924560 0.239033 0.139382
0.079309 0.060672 0.159715
0.077438 0.059232 0.155949
0.083067 0.083067 0.083067
0.192328 0.074525 0.053926
0.295933 0.085426 0.048599
0.403585 0.109715 0.058314
0.515889 0.138213 0.072161
0.624612 0.166515 0.086396
0.719943 0.191516 0.099085
0.793074 0.210757 0.108929
0.842551 0.223803 0.115569
0.873995 0.232105 0.119843
0.893185 0.237184 0.122443
0.905018 0.240294 0.124068
0.912721 0.242347 0.125104
0.923415 0.252134 0.134717
0.031878 0.148504 0.199830
0.027318 0.149197 0.193557
0.000000 0.174718 0.105073
0.160042 0.165780 0.000000
0.274084 0.194262 0.064264
0.390290 0.226573 0.085053
0.509323 0.255028 0.100895
0.622216 0.277951 0.114079
0.719937 0.294044 0.124399
0.794206 0.302098 0.131215
0.844049 0.303228 0.134740
0.875238 0.300346 0.136116
0.894421 0.295607 0.136254
0.906022 0.290421 0.135815
0.913503 0.285510 0.135161
0.924219 0.288254 0.143188
0.000000 0.267473 0.194415
0.000000 0.267345 0.192750
0.000000 0.278177 0.167306
0.091933 0.291533 0.027491
0.258857 0.268131 0.000000
0.391797 0.308279 0.077380
0.513546 0.345791 0.114439
0.627773 0.373101 0.135523
0.725995 0.388855 0.148380
0.800158 0.392526 0.154930
0.849328 0.386470 0.156743
0.879706 0.375474 0.155850
0.897962 0.362771 0.153682
0.908777 0.350138 0.151122
0.915723 0.338633 0.148602
0.926386 0.334536 0.154766
0.000000 0.394507 0.265690
0.000000 0.394505 0.264152
0.000000 0.403317 0.242579
0.013489 0.418527 0.125719
0.207026 0.418580 0.009751
0.379009 0.392588 0.000000
0.522577 0.432076 0.082659
0.639431 0.464025 0.137773
0.737729 0.480937 0.162876
0.811127 0.482269 0.174436
0.858827 0.470965 0.177498
0.887755 0.453353 0.176039
0.904439 0.433766 0.172487
0.914010 0.414598 0.168280
0.919898 0.397098 0.164121
0.929952 0.386860 0.168525
0.000000 0.531108 0.343916
0.000000 0.531151 0.342529
0.000000 0.538228 0.323726
0.000000 0.539888 0.266269
0.137215 0.568315 0.077871
0.328096 0.554053 0.000758
0.508370 0.526591 0.000000
0.651267 0.555246 0.070526
0.752713 0.572735 0.153316
0.825950 0.571931 0.181308
0.872121 0.556074 0.191553
0.899141 0.532567 0.192886
0.913973 0.506724 0.189953
0.921883 0.481579 0.185284
0.926479 0.458468 0.180182
0.935525 0.442797 0.183249
0.000000 0.664073 0.420383
0.000000 0.664056 0.419172
0.000000 0.669703 0.402781
0.000000 0.671401 0.354361
0.048808 0.699917 0.187196
0.249629 0.705890 0.053104
0.448911 0.685385 0.000000
0.634312 0.657016 0.000000
0.765157 0.666698 0.000000
0.842204 0.662638 0.160012
0.888077 0.641987 0.190775
0.913301 0.612756 0.201306
0.926259 0.580932 0.202618
0.932218 0.550033 0.199642
0.935037 0.521589 0.194961
0.943034 0.500881 0.197517
0.000000 0.781239 0.487753
0.000000 0.781281 0.486675
0.000000 0.785532 0.472442
0.000000 0.787321 0.431855
0.000000 0.788947 0.368120
0.163655 0.830070 0.138399
0.357587 0.824384 0.035039
0.560038 0.800179 0.000000
0.745437 0.772156 0.000000
0.854051 0.756125 0.000000
0.903730 0.729229 0.158122
0.928974 0.693998 0.193432
0.940344 0.656102 0.205696
0.944654 0.619407 0.208211
0.945666 0.585794 0.206180
0.952433 0.560326 0.209633
0.000000 0.872597 0.539780
0.000000 0.872624 0.538864
0.000000 0.875593 0.526626
0.000000 0.877164 0.492839
0.000000 0.878912 0.439340
0.064322 0.915814 0.244533
0.261093 0.926596 0.104234
0.452903 0.914459 0.021134
0.651506 0.888979 0.000000
0.831961 0.861761 0.000000
0.914194 0.819616 0.000000
0.943475 0.776791 0.148877
0.955132 0.732393 0.191452
0.958278 0.689858 0.206428
0.957987 0.650938 0.210887
0.963471 0.620831 0.217445
0.000000 0.934538 0.574357
0.000000 0.934602 0.573668
0.000000 0.936536 0.563238
0.000000 0.937739 0.535308
0.000000 0.939491 0.491009
0.000000 0.941176 0.429292
0.165071 0.988776 0.186601
0.344084 0.989178 0.077108
0.529597 0.973540 0.010624
0.719190 0.947841 0.000000
0.890459 0.922241 0.000000
0.952290 0.862718 0.000000
0.968244 0.810430 0.133767
0.972076 0.761480 0.186457
0.971028 0.717017 0.204816
0.975477 0.682389 0.218194
0.000000 0.973517 0.595661
0.000000 0.973574 0.595120
0.000000 0.974934 0.586389
0.000000 0.976021 0.563342
0.000000 0.977660 0.526757
0.000000 0.979256 0.475432
0.065947 1.019294 0.276956
0.244221 1.032110 0.144540
0.412745 1.026860 0.055902
0.589329 1.009294 0.002866
0.767338 0.984423 0.000000
0.927357 0.960513 0.000000
0.975238 0.891436 0.000000
0.983634 0.834773 0.113037
0.983531 0.784295 0.179662
0.987864 0.744946 0.207522
0.000000 0.997263 0.608151
0.000000 0.997244 0.607718
0.000000 0.998367 0.600474
0.000000 0.999201 0.581398
0.000000 1.000665 0.551020
0.000000 1.002192 0.508240
0.000000 1.017407 0.406478
0.152644 1.052682 0.216351
0.309688 1.056771 0.112184
0.469065 1.048001 0.039528
0.635602 1.029576 0.000000
0.801233 1.005863 0.000000
0.949708 0.983731 0.000000
0.988892 0.910961 0.000000
0.993883 0.853089 0.084329
0.999230 0.808395 0.175766
0.000000 1.011831 0.615352
0.000000 1.011812 0.615069
0.000000 1.012585 0.609041
0.000000 1.013368 0.593078
0.000000 1.014529 0.567671
0.000000 1.015917 0.531855
0.000000 1.017292 0.485006
0.062023 1.057831 0.292972
0.219604 1.071212 0.172713
0.364997 1.070272 0.086906
0.515752 1.059202 0.026975
0.671805 1.040648 0.000000
0.825577 1.018316 0.000000
0.963469 0.997834 0.000000
0.997277 0.924861 0.000000
1.008103 0.873818 0.000000
0.000000 1.020986 0.619608
0.000000 1.020957 0.619423
0.000000 1.021559 0.614427
0.000000 1.022235 0.600994
0.000000 1.023224 0.579555
0.000000 1.024470 0.549278
0.000000 1.025791 0.509589
0.000000 1.046385 0.395265
0.137683 1.075692 0.235544
0.275458 1.081748 0.139200
0.412215 1.077453 0.067200
0.554567 1.065088 0.017473
0.700726 1.046771 0.000000
0.843570 1.025727 0.000000
0.971879 1.006730 0.000000
1.008317 0.942668 0.000000
0.000000 1.034093 0.626593
0.000000 1.034060 0.626572
0.000000 1.034341 0.622092
0.000000 1.034954 0.610377
0.000000 1.035886 0.591630
0.000000 1.037016 0.565084
0.000000 1.038316 0.530259
0.000000 1.039498 0.486794
0.062270 1.080355 0.299085
0.202952 1.093095 0.190424
0.331433 1.094216 0.109783
0.462781 1.087014 0.049263
0.599169 1.073273 0.008676
0.737530 1.054906 0.000000
0.871276 1.034923 0.000000
0.984320 1.019532 0.000000
0.131947 0.000000 0.138672
0.131757 0.000000 0.138472
0.148400 0.000000 0.075339
0.169487 0.000097 0.079290
0.258008 0.002623 0.121573
0.365387 0.064553 0.162352
0.485081 0.111424 0.189014
0.602788 0.147801 0.205805
0.706662 0.177373 0.214476
0.787381 0.199355 0.215540
0.841600 0.213695 0.210684
0.875617 0.222448 0.202803
0.896101 0.227551 0.194097
0.908216 0.230459 0.185603
0.915866 0.232208 0.177845
0.926976 0.235119 0.172110
0.131319 0.000000 0.138008
0.131285 0.000000 0.137973
0.149181 0.000000 0.075624
0.171370 0.000073 0.080166
0.253323 0.048137 0.132908
0.363270 0.089340 0.166368
0.484165 0.124988 0.190256
0.602139 0.157298 0.206060
0.706175 0.184857 0.214279
0.786851 0.205809 0.215211
0.841267 0.219603 0.210385
0.875243 0.228052 0.202726
0.895797 0.233045 0.194164
0.907964 0.235880 0.185925
0.915531 0.237557 0.178450
0.926706 0.240427 0.173021
0.141857 0.053322 0.232726
0.141080 0.051149 0.229678
0.193909 0.038351 0.200122
0.201202 0.079487 0.136405
0.297734 0.095493 0.159911
0.406941 0.118711 0.174688
0.520671 0.145578 0.186160
0.630126 0.172406 0.194105
0.725662 0.196182 0.197751
0.798538 0.214362 0.196676
0.847598 0.226531 0.191967
0.878511 0.234113 0.185504
0.897273 0.238730 0.178763
0.908621 0.241441 0.172438
0.915934 0.243141 0.166856
0.926207 0.252735 0.169644
0.149297 0.114200 0.300660
0.148527 0.113622 0.299109
0.152794 0.116886 0.307720
0.162338 0.162338 0.162338
0.311394 0.153579 0.125979
0.464294 0.154461 0.100280
0.586128 0.169742 0.096912
0.686271 0.189442 0.102573
0.765545 0.207654 0.110078
0.822236 0.221450 0.116357
0.860230 0.230937 0.120870
0.884618 0.237098 0.123872
0.899758 0.241008 0.125806
0.909514 0.243585 0.127099
0.915517 0.255229 0.139742
0.925594 0.280913 0.168173
0.114677 0.220641 0.391613
0.112734 0.220842 0.389386
0.085326 0.235098 0.368119
0.000000 0.290041 0.174456
0.262190 0.270816 0.019307
0.421866 0.307017 0.108819
0.553488 0.335064 0.128322
0.666582 0.351628 0.139723
0.756607 0.358357 0.146539
0.819953 0.356113 0.149437
0.860896 0.348395 0.149727
0.886191 0.338481 0.148596
0.901435 0.328199 0.146911
0.911008 0.318699 0.145133
0.917175 0.315435 0.152070
0.927490 0.328770 0.179874
0.048299 0.359900 0.439200
0.044719 0.360790 0.434351
0.000000 0.394651 0.308801
0.000000 0.418377 0.251643
0.153261 0.434061 0.032866
0.382062 0.395710 0.000000
0.540483 0.433105 0.107074
0.661388 0.459177 0.149544
0.757380 0.468919 0.168223
0.824774 0.463658 0.175107
0.866936 0.448693 0.175406
0.892060 0.429818 0.172613
0.906629 0.410561 0.168659
0.915420 0.392645 0.164587
0.920905 0.378761 0.165504
0.930754 0.382377 0.193761
0.000000 0.524581 0.395449
0.000000 0.524629 0.394299
0.000000 0.531633 0.379159
0.000000 0.551134 0.331470
0.053848 0.574360 0.142378
0.299040 0.565081 0.008079
0.510870 0.529144 0.000000
0.662083 0.555480 0.098518
0.764698 0.568443 0.163767
0.835027 0.562298 0.186594
0.877730 0.542585 0.193399
0.902170 0.517111 0.192700
0.915266 0.490658 0.188660
0.922566 0.465840 0.183590
0.927107 0.443604 0.178657
0.936034 0.439252 0.208621
0.000000 0.658763 0.465097
0.000000 0.658848 0.463957
0.000000 0.664378 0.449600
0.000000 0.679608 0.408732
0.000000 0.680905 0.322988
0.203906 0.714809 0.079076
0.430555 0.692832 0.000000
0.636261 0.659062 0.000000
