LUT color transfer/LUTs/55.cube
LUT_3D_SIZE 6
0.000000 0.000000 0.000000
0.144882 0.004690 0.000000
0.473682 0.095957 0.029893
0.778784 0.193326 0.090936
0.889674 0.224962 0.108690
0.922087 0.234066 0.113744
0.000000 0.167962 0.101017
0.158488 0.164163 0.000000
0.485255 0.267976 0.075198
0.783668 0.324555 0.123705
0.891551 0.313855 0.129879
0.922900 0.294552 0.127666
0.000000 0.533627 0.320922
0.000000 0.536133 0.244225
0.507479 0.525655 0.000000
0.822612 0.576184 0.166500
0.912862 0.513286 0.180926
0.934756 0.445885 0.167766
0.000000 0.873966 0.525672
0.000000 0.876134 0.478222
0.275544 0.924989 0.095719
0.831576 0.861402 0.000000
0.954908 0.734583 0.176655
0.963148 0.622416 0.200787
0.000000 0.998238 0.600368
0.000000 0.999392 0.573430
0.000000 1.026575 0.368823
0.474747 1.047336 0.037537
0.949752 0.983651 0.000000
0.999150 0.809084 0.146389
0.000000 1.034567 0.622225
0.000000 1.035294 0.605970
0.000000 1.038554 0.526383
0.206911 1.093162 0.187348
0.600984 1.073013 0.008305
0.984289 1.019543 0.000000
0.131947 0.000000 0.138672
0.169487 0.000097 0.079290
0.485081 0.111424 0.189014
0.787381 0.199355 0.215540
0.896101 0.227551 0.194097
0.926976 0.235119 0.172110
0.149297 0.114200 0.300660
0.162338 0.162338 0.162338
0.586128 0.169742 0.096912
0.822236 0.221450 0.116357
0.899758 0.241008 0.125806
0.925594 0.280913 0.168173
0.000000 0.524581 0.395449
0.000000 0.551134 0.331470
0.510870 0.529144 0.000000
0.835027 0.562298 0.186594
0.915266 0.490658 0.188660
0.936034 0.439252 0.208621
0.000000 0.869061 0.571829
0.000000 0.880044 0.529302
0.224643 0.930005 0.127349
0.832852 0.862517 0.000000
0.955622 0.727180 0.196665
0.963416 0.619150 0.244872
0.000000 0.995482 0.626530
0.000000 0.999280 0.601015
0.000000 1.003984 0.468435
0.455493 1.049713 0.044564
0.949950 0.983850 0.000000
0.999189 0.807758 0.217551
0.000000 1.032934 0.637950
0.000000 1.033966 0.621850
0.000000 1.037613 0.540549
0.195390 1.093271 0.197243
0.595323 1.074054 0.009482
0.984275 1.019516 0.000000
0.418857 0.000000 0.440170
0.473023 0.000000 0.270957
0.529613 0.156523 0.330973
0.803792 0.233032 0.418767
0.906226 0.247445 0.370578
0.934335 0.247265 0.311149
0.434716 0.107305 0.667959
0.597479 0.000000 0.623457
0.619683 0.208021 0.400500
0.839307 0.253350 0.424145
0.912901 0.258540 0.355354
0.933319 0.289306 0.314801
0.473803 0.362414 0.954072
0.484306 0.370480 0.975333
0.520037 0.520037 0.520037
0.880124 0.438013 0.360740
0.926316 0.425284 0.337645
0.949944 0.554838 0.485739
0.251927 0.746644 1.142155
0.197233 0.768473 1.084652
0.000000 0.901686 0.542281
0.837889 0.867886 0.000000
0.957462 0.681622 0.250075
0.971195 0.680597 0.520097
0.000000 0.979975 0.750090
0.000000 0.983918 0.729817
0.000000 1.004638 0.604236
0.336616 1.061430 0.099248
0.951188 0.985230 0.000000
0.999694 0.833539 0.530991
0.000000 1.024007 0.715474
0.000000 1.025144 0.701113
0.000000 1.027530 0.649614
0.332889 1.077929 0.417865
0.676972 1.055731 0.365048
0.995993 1.015127 0.456812
0.686107 0.000000 0.721019
0.752826 0.000000 0.533831
0.774613 0.118854 0.491210
0.865987 0.273340 0.550502
0.928042 0.281632 0.527575
0.944958 0.271126 0.453479
0.687326 0.046141 0.951972
0.764340 0.000000 0.803181
0.831024 0.125447 0.544616
0.899175 0.293485 0.576722
0.933655 0.292131 0.529332
0.942811 0.308257 0.461400
0.756044 0.316310 1.261725
0.774174 0.301245 1.274729
0.868638 0.365361 0.888873
0.938471 0.434938 0.670429
0.937285 0.422497 0.563035
0.948859 0.562127 0.590184
0.776078 0.593663 1.562879
0.779636 0.596407 1.570063
0.793435 0.606938 1.597740
0.852272 0.852272 0.852272
0.968112 0.820056 0.794252
0.986958 0.861087 0.839076
0.451913 0.802813 1.468432
0.432599 0.809472 1.451643
0.311715 0.850800 1.336021
0.293798 1.003585 0.758382
0.964244 0.982049 0.462624
1.002372 0.921422 0.853542
0.165587 0.924234 1.195467
0.154075 0.927591 1.179166
0.220596 0.905018 1.246620
0.772732 1.019484 0.934241
0.864490 1.024418 0.844669
1.004989 1.010871 0.839390
0.783457 0.000000 0.823373
0.840909 0.000000 0.670922
0.887232 0.000000 0.498881
0.889924 0.206660 0.573876
0.988792 0.314400 0.629779
0.969264 0.301406 0.570826
0.779301 0.000000 1.004349
0.802460 0.000000 0.843345
0.894935 0.000000 0.572693
0.898734 0.213422 0.587861
0.995215 0.324210 0.637971
0.966525 0.333276 0.581740
0.817032 0.213491 1.264641
0.818980 0.188753 1.247908
0.904758 0.353437 0.926826
0.904067 0.410505 0.737063
1.003323 0.409434 0.687182
0.960716 0.570827 0.692718
0.886074 0.438351 1.533475
0.887035 0.430882 1.528505
0.883188 0.385990 1.490412
0.970449 0.803029 0.977042
0.985868 0.805031 0.889605
0.984151 0.864767 0.882570
0.886305 0.678039 1.784731
0.886826 0.678439 1.785932
0.890202 0.680907 1.792559
0.883277 0.675628 1.778805
0.973123 0.973123 0.973122
1.003517 0.975153 0.970221
0.573971 0.800459 1.609971
0.568608 0.801559 1.605410
0.576100 0.792840 1.608871
0.850812 0.986915 1.087240
0.956785 1.011489 0.992669
1.007890 1.009220 0.970701
0.812055 0.000000 0.853347
0.855551 0.000000 0.740466
0.904572 0.000000 0.578435
0.912895 0.089657 0.582265
0.928791 0.250780 0.605962
1.024829 0.326299 0.652909
0.807508 0.000000 0.981234
0.834421 0.000000 0.871925
0.893272 0.018923 0.699532
0.907824 0.151222 0.633768
0.925611 0.283755 0.627205
1.022011 0.353875 0.666332
0.825809 0.127951 1.205777
0.819213 0.121429 1.196167
0.922807 0.400862 0.943742
0.920774 0.462851 0.838057
0.926419 0.531575 0.774184
1.005711 0.574725 0.776268
0.877632 0.313998 1.421526
0.872860 0.310902 1.415820
0.948498 0.513419 1.122951
0.984312 0.814235 0.991161
0.971031 0.844468 0.941452
1.002443 0.864406 0.928950
0.931731 0.502170 1.646369
0.929763 0.500500 1.643107
0.947830 0.594519 1.480138
1.006202 0.864503 1.083296
1.003460 0.964675 1.005017
1.006835 0.975854 0.990360
0.918554 0.702640 1.849795
0.917963 0.702179 1.848665
0.910324 0.696328 1.833189
0.991607 0.939921 1.215415
1.005531 0.994388 1.054182
1.008716 1.008716 1.008715
