LUT color transfer/LUTs/57.cube
TITLE "Generate by Resolve"
LUT_3D_SIZE 33
0 0.00369268 0.00534066
0.0249943 0.00370794 0.00535592
0.0499886 0.00387579 0.00544747
0.0749828 0.00392157 0.00582895
0.103395 0.00311284 0.00660716
0.13431 0.00210575 0.00573739
0.16463 0.00163272 0.00239567
0.196155 0.00102235 0
0.228992 0.000686656 0
0.263127 0.000976577 0
0.298924 0.0010071 0
0.335927 0.000732433 0
0.373541 0.000183108 0
0.411231 0 0
0.448692 0 0
0.485786 0 0
0.522805 0 0
0.560006 0 0
0.597192 0 0
0.633921 0 0
0.670283 0 0
0.705989 0 0
0.741146 0 0
0.770535 0 0
0.796109 0 0
0.821118 0 0
0.846113 0 0
0.871122 0 0
0.896117 0 0
0.921111 0 0
0.94612 0 0
0.971115 0 0
0.996124 0 0
0 0.0302281 0.00541695
0.0249943 0.0302434 0.00543221
0.0499886 0.030457 0.00549325
0.0749828 0.0305791 0.00552377
0.102998 0.0302739 0.00578317
0.133547 0.0294652 0.005066
0.163882 0.0290074 0.00241093
0.195483 0.0282902 0
0.228504 0.0273899 0
0.262974 0.0267491 0
0.299107 0.0261387 0
0.336583 0.0255894 0
0.374243 0.0251469 0
0.412207 0.0249943 0
0.449851 0.0249943 0
0.487266 0.0249943 0
0.52491 0.0249943 0
0.562921 0.0249943 0
0.600717 0.0249943 0
0.637919 0.0249943 0
0.674388 0.0249943 0
0.710338 0.0249943 0
0.743938 0.0249943 0
0.771115 0.0249943 0
0.796109 0.0249943 0
0.821118 0.0249943 0
0.846113 0.0249943 0
0.871122 0.0249943 0
0.896117 0.0249943 0
0.921111 0.0249943 0
0.94612 0.0249943 0
0.971115 0.0249943 0
0.996124 0.0249943 0
0 0.0574044 0.00491341
0.0249943 0.0573892 0.00489815
0.0499886 0.0576181 0.00503548
0.0749828 0.0577554 0.00529488
0.103487 0.057496 0.00555428
0.133486 0.0568856 0.00550851
0.163546 0.0566415 0.00289921
0.195178 0.0560311 0
0.228321 0.0551461 0
0.263203 0.0538796 0
0.300069 0.0521401 0
0.33814 0.050782 0
0.376883 0.0499886 0
0.415595 0.0499886 0
0.453529 0.0499886 0
0.491737 0.0499886 0
0.530083 0.0499886 0
0.568856 0.0499886 0
0.606882 0.0499886 0
0.644083 0.0499886 0
0.680613 0.0499886 0
0.716579 0.0499886 0
0.745708 0.0499886 0
0.771115 0.0499886 0
0.796109 0.0499886 0
0.821118 0.0499886 0
0.846113 0.0499886 0
0.871122 0.0499886 0
0.896117 0.0499886 0
0.921111 0.0499886 0
0.94612 0.0499886 0
0.971115 0.0499886 0
0.996124 0.0499886 0
0 0.0849928 0.00421149
0.0249943 0.0849928 0.00422675
0.0499886 0.0852827 0.00440986
0.0749828 0.0855268 0.00477607
0.103105 0.0853895 0.0052491
0.133684 0.0848554 0.00505074
0.16463 0.0843214 0.00444038
0.19556 0.0841535 0.0009308
0.228717 0.0834821 0
0.263828 0.082475 0
0.301076 0.0810559 0
0.339666 0.0792401 0
0.379156 0.0771496 0
0.41857 0.0751354 0
0.457588 0.0749828 0
0.496574 0.0749828 0
0.535775 0.0749828 0
0.574594 0.0749828 0
0.612634 0.0749828 0
0.649927 0.0749828 0
0.686534 0.0749828 0
0.720623 0.0749828 0
0.74612 0.0749828 0
0.771115 0.0749828 0
0.796109 0.0749828 0
0.821118 0.0749828 0
0.846113 0.0749828 0
0.871122 0.0749828 0
0.896117 0.0749828 0
0.921111 0.0749828 0
0.94612 0.0749828 0
0.971115 0.0749828 0
0.996124 0.0749828 0
0 0.113115 0.00332647
0.0249943 0.113207 0.0033875
0.0499886 0.113603 0.00363165
0.0749828 0.114061 0.00407416
0.102235 0.114137 0.00442512
0.132723 0.113848 0.00428778
0.166308 0.112749 0.00492866
0.197803 0.112612 0.00331121
0.230228 0.112612 0
0.265354 0.111955 0
0.302724 0.11078 0
0.34139 0.10927 0
0.380728 0.107561 0
0.420233 0.105867 0
0.459632 0.104265 0
0.499397 0.102785 0
0.539147 0.101472 0
0.578592 0.100587 0
0.617121 0.100084 0
0.654597 0.0999924 0
0.691325 0.0999924 0
0.72134 0.0999924 0
0.746426 0.100267 0
0.771435 0.100084 0
0.796429 0.0999924 0
0.821195 0.0999924 0
0.846311 0.0999924 0
0.871427 0.0999924 0
0.896437 0.0999924 0
0.921431 0.100526 0
0.946456 0.101198 0
0.971466 0.101961 0
0.996521 0.103731 0
0 0.142184 0.00158694
0.0249943 0.142367 0.00167849
0.0499886 0.142855 0.00199893
0.0749828 0.143694 0.00265507
0.100908 0.144121 0.00309758
0.131563 0.144121 0.00320439
0.165652 0.143221 0.00314336
0.200595 0.142092 0.00450141
0.233829 0.142016 0.0021973
0.267826 0.142061 0
0.304646 0.14139 0
0.343099 0.140261 0
0.382269 0.138933 0
0.421851 0.137667 0
0.46128 0.136522 0
0.500862 0.135439 0
0.540825 0.134524 0
0.580285 0.133959 0
0.618784 0.133761 0
0.656458 0.134035 0
0.693339 0.134615 0
0.72166 0.134539 0
0.746807 0.134249 0
0.771786 0.133989 0
0.796765 0.133654 0
0.821744 0.133349 0
0.846723 0.133028 0
0.871717 0.132753 0
0.896803 0.13431 0
0.92192 0.135927 0
0.947051 0.137621 0
0.972213 0.139422 0
0.99736 0.1411 0
0 0.172366 0
0.0249943 0.172808 0
0.0499886 0.173404 0
0.0749828 0.174578 0.000762951
0.0999924 0.175311 0.00135805
0.130068 0.175555 0.00166323
0.163638 0.175219 0.00144961
0.200855 0.173785 0.00259403
0.237827 0.172534 0.0037232
0.273259 0.17229 0.000885023
0.309087 0.172366 0
0.346578 0.171923 0
0.38526 0.171206 0
0.424491 0.170474 0
0.463813 0.169802 0
0.503441 0.169253 0
0.54345 0.168887 0
0.582849 0.168826 0
0.621393 0.169268 0
0.658915 0.170031 0
0.695796 0.17113 0
0.722835 0.171237 0
0.74786 0.17113 0
0.772854 0.17113 0
0.797848 0.171038 0
0.822843 0.170886 0
0.847822 0.170687 0
0.872831 0.170779 0
0.897993 0.172381 0
0.923186 0.174121 0
0.948394 0.17586 0
0.973602 0.1776 0
0.998825 0.179355 0
0 0.203906 0
0.0249943 0.204517 0
0.0499886 0.205203 0
0.0749828 0.206699 0
0.0999924 0.207767 0
0.128115 0.208331 0
0.161395 0.208423 0
0.199008 0.20737 0
0.238911 0.2056 0.0018616
0.27866 0.20415 0.002533
0.316655 0.203784 0
0.353521 0.204059 0
0.390875 0.204211 0
0.429099 0.204242 0
0.467933 0.204181 0
0.507225 0.204211 0
0.547051 0.204517 0
0.586175 0.205249 0
0.624292 0.20621 0
0.661585 0.207538 0
0.698253 0.209079 0
0.724346 0.209277 0
0.749371 0.209415 0
0.77438 0.209522 0
0.79939 0.209583 0
0.824384 0.209583 0
0.849378 0.209506 0
0.874403 0.209705 0
0.899611 0.211414 0
0.924834 0.213107 0
0.949996 0.214832 0
0.975006 0.216571 0
1 0.218311 0
0 0.236759 0
0.0249943 0.237491 0
0.0499886 0.238315 0
0.0749828 0.240177 0
0.0999924 0.241764 0
0.125505 0.242588 0
0.158785 0.243091 0
0.195758 0.242756 0
0.23772 0.24097 0
0.280827 0.238956 0.000717174
0.323308 0.237507 0.00109865
0.362371 0.237232 0
0.399588 0.237827 0
0.436835 0.238651 0
0.47454 0.239475 0
0.513039 0.24033 0
0.552071 0.241382 0
0.590188 0.24271 0
0.627573 0.244266 0
0.664302 0.246082 0
0.699992 0.248051 0
0.725002 0.248463 0
0.749996 0.248646 0
0.77499 0.248844 0
0.8 0.249027 0
0.824994 0.249104 0
0.850004 0.249149 0
0.874998 0.249393 0
0.899992 0.250919 0
0.925002 0.252552 0
0.949996 0.2542 0
0.975006 0.255818 0
1 0.257481 0
0 0.271092 0
0.0249943 0.272084 0
0.0499886 0.273121 0
0.0749828 0.27541 0
0.0999924 0.277378 0
0.124987 0.27866 0
0.155764 0.279606 0
0.192279 0.279866 0
0.234562 0.278767 0
0.280568 0.276417 0
0.32639 0.274296 0
0.369131 0.273136 0
0.408957 0.273152 0
0.447013 0.27396 0
0.484199 0.275425 0
0.521202 0.276997 0
0.558679 0.278798 0
0.595544 0.280735 0
0.631754 0.282856 0
0.667491 0.28513 0
0.699992 0.287449 0
0.725002 0.287831 0
0.749996 0.288045 0
0.77499 0.288319 0
0.8 0.288548 0
0.824994 0.288731 0
0.850004 0.288884 0
0.874998 0.288869 0
0.899992 0.290227 0
0.925002 0.29163 0
0.949996 0.293095 0
0.975006 0.294682 0
1 0.296208 0
0 0.307195 0
0.0249943 0.308507 0
0.0499886 0.309789 0
0.0749828 0.312428 0
0.0999924 0.314824 0
0.124987 0.316533 0
0.15256 0.317922 0
0.189075 0.318914 0
0.230594 0.318471 0
0.278309 0.316243 0
0.326741 0.313726 0
0.372442 0.31194 0
0.415488 0.311055 0
0.456153 0.311315 0
0.494179 0.312352 0
0.530709 0.314092 0
0.566873 0.316258 0
0.60235 0.318639 0
0.637324 0.321157 0
0.671977 0.323873 0
0.699992 0.32639 0
0.725002 0.32694 0
0.749996 0.32723 0
0.77499 0.327443 0
0.8 0.327688 0
0.824994 0.327901 0
0.850004 0.327916 0
0.874998 0.327932 0
0.899992 0.329 0
0.925002 0.330282 0
0.949996 0.331655 0
0.975006 0.332937 0
1 0.334218 0
0 0.345174 0
0.0249943 0.346639 0
0.0499886 0.34818 0
0.0749828 0.351247 0
0.0999924 0.35404 0
0.124987 0.356115 0
0.149996 0.357992 0
0.186511 0.359213 0
0.22742 0.359396 0
0.275151 0.35761 0
0.325887 0.354742 0
0.373602 0.352651 0
0.419028 0.351034 0
0.461875 0.350317 0
0.501549 0.350668 0
0.538933 0.351934 0
0.575067 0.353918 0
0.61004 0.356527 0
0.644282 0.359243 0
0.674998 0.362066 0
0.699992 0.364706 0
0.725002 0.365469 0
0.749996 0.365682 0
0.77499 0.365972 0
0.8 0.366079 0
0.824994 0.366155 0
0.850004 0.366217 0
0.874998 0.366171 0
0.899992 0.366827 0
0.925002 0.368078 0
0.949996 0.369238 0
0.975006 0.370367 0
1 0.371435 0
0 0.384619 0
0.0249943 0.386236 0
0.0499886 0.38793 0
0.0749828 0.391409 0
0.0999924 0.394629 0
0.124987 0.396994 0
0.149996 0.398962 0
0.184817 0.400443 0
0.225437 0.400885 0
0.272404 0.399496 0
0.324407 0.396536 0
0.373709 0.393881 0
0.420539 0.391745 0
0.465095 0.390387 0
0.50631 0.390082 0
0.544915 0.390814 0
0.58201 0.392538 0
0.617258 0.394705 0
0.649989 0.397192 0
0.674998 0.399847 0
0.699992 0.402335 0
0.725002 0.403235 0
0.749996 0.403586 0
0.77499 0.403754 0
0.8 0.40383 0
0.824994 0.403815 0
0.850004 0.403693 0
0.874998 0.403632 0
0.899992 0.403952 0
0.925002 0.404929 0
0.949996 0.405936 0
0.975006 0.406973 0
1 0.407935 0
0 0.425132 0
0.0249943 0.426902 0
0.0499886 0.429038 0
0.0749828 0.432807 0
0.0999924 0.436118 0
0.124987 0.438453 0
0.149996 0.440467 0
0.18352 0.441962 0
0.223957 0.442481 0
0.27039 0.441413 0
0.322362 0.438437 0
0.373007 0.435355 0
0.421256 0.432853 0
0.466773 0.431174 0
0.50927 0.430426 0
0.548898 0.43061 0
0.586633 0.431617 0
0.622599 0.433249 0
0.649989 0.435294 0
0.674998 0.437461 0
0.699992 0.439658 0
0.725002 0.440467 0
0.749996 0.44062 0
0.77499 0.440757 0
0.8 0.440787 0
0.824994 0.440726 0
0.850004 0.440635 0
0.874998 0.440375 0
0.899992 0.44033 0
0.925002 0.441093 0
0.949996 0.441962 0
0.975006 0.442847 0
1 0.443809 0
0 0.466346 0
0.0249943 0.468101 0
0.0499886 0.470832 0
0.0749828 0.47451 0
0.0999924 0.477699 0
0.124987 0.479957 0
0.149996 0.48188 0
0.182879 0.48336 0
0.223453 0.483909 0
0.269444 0.482887 0
0.320912 0.480125 0
0.372137 0.476829 0
0.421592 0.473823 0
0.467948 0.471809 0
0.510796 0.470771 0
0.551202 0.470451 0
0.589654 0.470832 0
0.624994 0.471778 0
0.649989 0.473075 0
0.674998 0.474784 0
0.699992 0.476371 0
0.725002 0.476967 0
0.749996 0.476982 0
0.77499 0.476997 0
0.8 0.476982 0
0.824994 0.476997 0
0.850004 0.476783 0
0.874998 0.476448 0
0.899992 0.476234 0
0.925002 0.476905 0
0.949996 0.477699 0
0.975006 0.478416 0
1 0.479133 0
0 0.507332 0
0.0249943 0.509133 0
0.0499886 0.512276 0
0.0749828 0.515785 0
0.0999924 0.518746 0
0.124987 0.520912 0
0.149996 0.52285 0
0.183673 0.524239 0
0.224384 0.524559 0
0.270039 0.523507 0
0.320699 0.520806 0
0.371923 0.517449 0
0.422324 0.514229 0
0.469093 0.511681 0
0.512062 0.510155 0
0.552666 0.509392 0
0.591669 0.509285 0
0.624994 0.509651 0
0.649989 0.510307 0
0.674998 0.511193 0
0.699992 0.512184 0
0.725002 0.512581 0
0.749996 0.512551 0
0.77499 0.512505 0
0.8 0.512428 0
0.824994 0.512306 0
0.850004 0.512062 0
0.874998 0.511742 0
0.899992 0.511498 0
0.925002 0.512001 0
0.949996 0.512673 0
0.975006 0.513298 0
1 0.513924 0
0 0.547951 0
0.0249943 0.549554 0
0.0499886 0.553079 0
0.0749828 0.556435 0
0.0999924 0.559167 0
0.124987 0.561288 0
0.149996 0.562921 0
0.18555 0.56405 0
0.22649 0.564172 0
0.271992 0.562905 0
0.321675 0.560204 0
0.372519 0.556802 0
0.423041 0.55314 0
0.470161 0.55024 0
0.513375 0.548272 0
0.553872 0.547158 0
0.593057 0.546593 0
0.624994 0.546426 0
0.649989 0.546517 0
0.674998 0.546792 0
0.699992 0.547234 0
0.725002 0.547372 0
0.749996 0.547372 0
0.77499 0.54728 0
0.8 0.547112 0
0.824994 0.546914 0
0.850004 0.546639 0
0.874998 0.546319 0
0.899992 0.546151 0
0.925002 0.546426 0
0.949996 0.54696 0
0.975006 0.547509 0
1 0.548089 0
0 0.587839 0
0.0249943 0.589929 0
0.0499886 0.593164 0
0.0749828 0.596216 0
0.0999924 0.598886 0
0.124987 0.600641 0
0.1505 0.602014 0
0.188098 0.602747 0
0.229129 0.602487 0
0.274525 0.601038 0
0.323354 0.598352 0
0.373465 0.594705 0
0.423774 0.590707 0
0.471061 0.587442 0
0.514504 0.585168 0
0.555169 0.58378 0
0.594293 0.582834 0
0.624994 0.582116 0
0.649989 0.58175 0
0.674998 0.581582 0
0.699992 0.581628 0
0.725002 0.581598 0
0.749996 0.581506 0
0.77499 0.581353 0
0.8 0.581201 0
0.824994 0.580941 0
0.850004 0.580652 0
0.874998 0.580331 0
0.899992 0.580056 0
0.925002 0.580285 0
0.949996 0.580743 0
0.975006 0.581186 0
1 0.58172 0
0 0.626856 0
0.0249943 0.629374 0
0.0499886 0.632532 0
0.0749828 0.635203 0
0.0999924 0.637369 0
0.124987 0.638819 0
0.153246 0.639918 0
0.190951 0.640299 0
0.231998 0.63978 0
0.277134 0.637858 0
0.325078 0.634958 0
0.374533 0.631251 0
0.424491 0.6271 0
0.471885 0.623499 0
0.515496 0.620966 0
0.556207 0.619211 0
0.595361 0.617975 0
0.624994 0.616983 0
0.649989 0.616175 0
0.674998 0.615641 0
0.699992 0.615366 0
0.725002 0.615198 0
0.749996 0.615045 0
0.77499 0.614862 0
0.8 0.614633 0
0.824994 0.614435 0
0.850004 0.614145 0
0.874998 0.613764 0
0.899992 0.613489 0
0.925002 0.613596 0
0.949996 0.613993 0
0.975006 0.614481 0
1 0.614908 0
0 0.664942 0
0.0249943 0.667842 0
0.0499886 0.670665 0
0.0749828 0.673045 0
0.0999924 0.674815 0
0.124987 0.674998 0
0.155612 0.674998 0
0.193469 0.674998 0
0.23447 0.674998 0
0.279393 0.673609 0
0.326619 0.670481 0
0.375341 0.666697 0
0.424949 0.66247 0
0.472587 0.658686 0
0.516213 0.655802 0
0.557061 0.653712 0
0.596307 0.652201 0
0.624994 0.65095 0
0.649989 0.649989 0
0.674998 0.649149 0
0.699992 0.648554 0
0.725002 0.648295 0
0.749996 0.648142 0
0.77499 0.647929 0
0.8 0.647745 0
0.824994 0.647471 0
0.850004 0.64715 0
0.874998 0.646769 0
0.899992 0.646464 0
0.925002 0.646571 0
0.949996 0.646967 0
0.975006 0.647318 0
1 0.647715 0
0 0.699992 0
0.0249943 0.699992 0
0.0499886 0.699992 0
0.0749828 0.699992 0
0.0999924 0.699992 0
0.124987 0.699992 0
0.15758 0.699992 0
0.195254 0.699992 0
0.236271 0.699992 0
0.281041 0.699992 0
0.32784 0.699992 0
0.376028 0.699992 0
0.425223 0.697032 0
0.472618 0.693034 0
0.516487 0.689906 0
0.55758 0.687633 0
0.597025 0.685847 0
0.624994 0.684443 0
0.649989 0.683223 0
0.674998 0.682185 0
0.699992 0.681437 0
0.725002 0.681102 0
0.749996 0.680903 0
0.77499 0.680751 0
0.8 0.680507 0
0.824994 0.680217 0
0.850004 0.679866 0
0.874998 0.679515 0
0.899992 0.67921 0
0.925002 0.679316 0
0.949996 0.679637 0
0.975006 0.679942 0
1 0.680262 0
0 0.725002 0
0.0249943 0.725002 0
0.0499886 0.725002 0
0.0749828 0.725002 0
0.0999924 0.725002 0
0.124987 0.725002 0
0.158724 0.725002 0
0.196429 0.725002 0
0.237491 0.725002 0
0.282124 0.725002 0
0.328756 0.725002 0
0.376516 0.725002 0
0.425391 0.725002 0
0.472602 0.724956 0
0.516503 0.722042 0
0.557839 0.719844 0
0.597574 0.718135 0
0.624994 0.716655 0
0.649989 0.715389 0
0.674998 0.71426 0
0.699992 0.713451 0
0.725002 0.713176 0
0.749996 0.712978 0
0.77499 0.712764 0
0.8 0.712581 0
0.824994 0.712337 0
0.850004 0.712047 0
0.874998 0.711803 0
0.899992 0.711559 0
0.925002 0.711635 0
0.949996 0.711879 0
0.975006 0.712139 0
1 0.712459 0
0 0.749996 0
0.0249943 0.749996 0
0.0499886 0.749996 0
0.0749828 0.749996 0
0.0999924 0.749996 0
0.124987 0.749996 0
0.159487 0.749996 0
0.19733 0.749996 0
0.238636 0.749996 0
0.28336 0.749996 0
0.329732 0.749996 0
0.377356 0.749996 0
0.426062 0.749996 0
0.472984 0.749996 0
0.516854 0.749996 0
0.558251 0.748714 0
0.597925 0.747189 0
0.624994 0.745907 0
0.649989 0.744793 0
0.674998 0.743832 0
0.699992 0.743191 0
0.725002 0.743069 0
0.749996 0.743053 0
0.77499 0.743038 0
0.8 0.743008 0
0.824994 0.742992 0
0.850004 0.742977 0
0.874998 0.742947 0
0.899992 0.742916 0
0.925002 0.742916 0
0.949996 0.742916 0
0.975006 0.742931 0
1 0.742931 0
0 0.77499 0
0.0249943 0.77499 0
0.0499886 0.77499 0
0.0749828 0.77499 0
0.0999924 0.77499 0
0.124987 0.77499 0
0.160113 0.77499 0
0.198093 0.77499 0
0.239567 0.77499 0
0.284443 0.77499 0
0.330709 0.77499 0
0.378347 0.77499 0
0.427024 0.77499 0
0.473915 0.77499 0
0.517632 0.77499 0
0.558938 0.773648 0
0.59855 0.772137 0
0.624994 0.770855 0
0.649989 0.769772 0
0.674998 0.768795 0
0.699992 0.768185 0
0.725002 0.768078 0
0.749996 0.768063 0
0.77499 0.768048 0
0.8 0.768032 0
0.824994 0.768017 0
0.850004 0.768002 0
0.874998 0.767971 0
0.899992 0.767941 0
0.925002 0.767941 0
0.949996 0.767956 0
0.975006 0.767956 0
1 0.767971 0
0 0.8 0
0.0249943 0.8 0
0.0499886 0.8 0
0.0749828 0.8 0
0.0999924 0.8 0
0.124987 0.8 0
0.160693 0.8 0
0.198764 0.8 0
0.240238 0.8 0
0.285206 0.8 0
0.331472 0.8 0
0.379171 0.8 0
0.427909 0.8 0
0.474632 0.8 0
0.518242 0.8 0
0.559472 0.798596 0
0.599023 0.797101 0
0.624994 0.795834 0
0.649989 0.794736 0
0.674998 0.793774 0
0.699992 0.793194 0
0.725002 0.793103 0
0.749996 0.793088 0
0.77499 0.793072 0
0.8 0.793057 0
0.824994 0.793042 0
0.850004 0.793027 0
0.874998 0.792996 0
0.899992 0.792981 0
0.925002 0.792966 0
0.949996 0.792981 0
0.975006 0.792981 0
1 0.792996 0
0 0.824994 0
0.0249943 0.824994 0
0.0499886 0.824994 0
0.0749828 0.824994 0
0.0999924 0.824994 0
0.125246 0.824994 0
0.160983 0.824994 0
0.199161 0.824994 0
0.240681 0.824994 0
0.285695 0.824994 0
0.331991 0.824994 0
0.379736 0.824994 0
0.428473 0.824994 0
0.47512 0.824994 0
0.518639 0.824994 0
0.559792 0.823575 0
0.599359 0.82208 0
0.624994 0.820798 0
0.649989 0.819715 0
0.674998 0.818769 0
0.699992 0.818204 0
0.725002 0.818112 0
0.749996 0.818097 0
0.77499 0.818097 0
0.8 0.818082 0
0.824994 0.818067 0
0.850004 0.818036 0
0.874998 0.818021 0
0.899992 0.818006 0
0.925002 0.81799 0
0.949996 0.818006 0
0.975006 0.818006 0
1 0.818021 0
0 0.850004 0
0.0249943 0.850004 0
0.0499886 0.850004 0
0.0749828 0.850004 0
0.0999924 0.850004 0
0.125338 0.850004 0
0.161074 0.850004 0
0.199298 0.850004 0
0.240909 0.850004 0
0.28603 0.850004 0
0.332341 0.850004 0
0.37998 0.850004 0
0.428702 0.850004 0
0.475288 0.850004 0
0.518807 0.850004 0
0.560067 0.848554 0
0.599542 0.847059 0
0.624994 0.845808 0
0.649989 0.844724 0
0.674998 0.843763 0
0.699992 0.843214 0
0.725002 0.843122 0
0.749996 0.843122 0
0.77499 0.843107 0
0.8 0.843091 0
0.824994 0.843076 0
0.850004 0.843061 0
0.874998 0.843046 0
0.899992 0.84303 0
0.925002 0.843015 0
0.949996 0.84303 0
0.975006 0.84303 0
1 0.843046 0
0 0.874998 0
0.0249943 0.874998 0
0.0499886 0.874998 0
0.0749828 0.874998 0
0.0999924 0.874998 0
0.125414 0.874998 0
0.161166 0.874998 0
0.199466 0.874998 0
0.241184 0.874998 0
