LUT color transfer/LUTs/57.cube
TITLE "Generate by Resolve"
LUT_3D_SIZE 9
0 0.00369268 0.00534066
0.103395 0.00311284 0.00660716
0.228992 0.000686656 0
0.373541 0.000183108 0
0.522805 0 0
0.670283 0 0
0.796109 0 0
0.896117 0 0
0.996124 0 0
0 0.113115 0.00332647
0.102235 0.114137 0.00442512
0.230228 0.112612 0
0.380728 0.107561 0
0.539147 0.101472 0
0.691325 0.0999924 0
0.796429 0.0999924 0
0.896437 0.0999924 0
0.996521 0.103731 0
0 0.236759 0
0.0999924 0.241764 0
0.23772 0.24097 0
0.399588 0.237827 0
0.552071 0.241382 0
0.699992 0.248051 0
0.8 0.249027 0
0.899992 0.250919 0
1 0.257481 0
0 0.384619 0
0.0999924 0.394629 0
0.225437 0.400885 0
0.420539 0.391745 0
0.58201 0.392538 0
0.699992 0.402335 0
0.8 0.40383 0
0.899992 0.403952 0
1 0.407935 0
0 0.547951 0
0.0999924 0.559167 0
0.22649 0.564172 0
0.423041 0.55314 0
0.593057 0.546593 0
0.699992 0.547234 0
0.8 0.547112 0
0.899992 0.546151 0
1 0.548089 0
0 0.699992 0
0.0999924 0.699992 0
0.236271 0.699992 0
0.425223 0.697032 0
0.597025 0.685847 0
0.699992 0.681437 0
0.8 0.680507 0
0.899992 0.67921 0
1 0.680262 0
0 0.8 0
0.0999924 0.8 0
0.240238 0.8 0
0.427909 0.8 0
0.599023 0.797101 0
0.699992 0.793194 0
0.8 0.793057 0
0.899992 0.792981 0
1 0.792996 0
0 0.899992 0
0.0999924 0.899992 0
0.241764 0.899992 0
0.429892 0.899992 0
0.6 0.896986 0
0.699992 0.893202 0
0.8 0.893141 0
0.899992 0.89308 0
1 0.893095 0
0 1 0
0.0999924 1 0
0.246586 1 0
0.435782 1 0
0.6 0.996551 0
0.699992 0.993255 0
0.8 0.993225 0
0.899992 0.993164 0
1 0.993164 0
0 0.00543221 0.116716
0.0999924 0.00529488 0.118776
0.232944 0 0.113619
0.37705 0 0.0999924
0.52462 0 0.0999924
0.671931 0 0.0999924
0.796109 0 0.0999924
0.896117 0 0.0999924
0.996704 0 0.0999924
0 0.113985 0.11545
0.0999924 0.115572 0.116472
0.233082 0.112505 0.112902
0.386267 0.107073 0.0999924
0.545052 0.101442 0.0999924
0.696147 0.100374 0.0999924
0.799237 0.0999924 0.0999924
0.899458 0.100145 0.0999924
1 0.104784 0.0999924
0 0.238056 0.108278
0.0999924 0.243519 0.110842
0.235477 0.244572 0.113649
0.396262 0.242985 0.105776
0.553979 0.245487 0.0999924
0.699992 0.251408 0.0999924
0.8 0.252216 0.0999924
0.899992 0.254414 0.0999924
1 0.260914 0.0999924
0 0.387839 0.0999924
0.0999924 0.398291 0.0999924
0.225925 0.405371 0.104662
0.419989 0.396735 0.1093
0.579782 0.398077 0.111498
0.699992 0.408133 0.0999924
0.8 0.40914 0.0999924
0.899992 0.40911 0.0999924
1 0.41294 0.10161
0 0.551278 0.0999924
0.0999924 0.562448 0.0999924
0.228092 0.567605 0.102525
0.420401 0.557565 0.0999924
0.591577 0.550042 0.110338
0.699992 0.55053 0.115267
0.8 0.550332 0.114122
0.899992 0.549233 0.112459
1 0.551049 0.113588
0 0.699992 0.0999924
0.0999924 0.699992 0.103624
0.237095 0.699992 0.106752
0.421225 0.699977 0.0999924
0.594797 0.688167 0.102815
0.699992 0.683543 0.112169
0.8 0.682658 0.111604
0.899992 0.681361 0.110109
1 0.682368 0.11046
0 0.8 0.0999924
0.0999924 0.8 0.105379
0.24065 0.8 0.107637
0.423758 0.8 0.0999924
0.59646 0.79794 0.101961
0.699992 0.793957 0.111009
0.8 0.793835 0.110353
0.899992 0.79379 0.108812
1 0.793805 0.109316
0 0.899992 0.0999924
0.0999924 0.899992 0.105379
0.242008 0.899992 0.107683
0.425605 0.899992 0.0999924
0.597848 0.897826 0.103243
0.699992 0.893965 0.112596
0.8 0.893904 0.112261
0.899992 0.893874 0.111269
1 0.893889 0.111772
0 1 0.102083
0.0999924 1 0.108415
0.246586 1 0.109972
0.431495 1 0.10103
0.6 0.997345 0.106905
0.699992 0.993988 0.115496
0.8 0.993973 0.114702
0.899992 0.993927 0.113283
1 0.993927 0.113207
0 0.00784314 0.245289
0.0999924 0.00799573 0.247501
0.222095 0 0.25507
0.386786 0 0.23061
0.535103 0 0.202701
0.680125 0 0.199985
0.8 0 0.199985
0.899992 0 0.199985
1 0 0.199985
0 0.118471 0.239887
0.0999924 0.120806 0.242847
0.222278 0.113237 0.25774
0.398886 0.101564 0.236362
0.557656 0.0999924 0.210407
0.699992 0.0999924 0.199985
0.8 0.0999924 0.199985
0.899992 0.0999924 0.201099
1 0.101976 0.209339
0 0.239521 0.238392
0.0999924 0.245365 0.242878
0.226001 0.248478 0.247761
0.398703 0.244419 0.238407
0.561318 0.245838 0.221118
0.699992 0.251881 0.211383
0.8 0.252537 0.21297
0.899992 0.254551 0.215488
1 0.2607 0.221592
0 0.39028 0.226749
0.0999924 0.400961 0.2327
0.225864 0.407477 0.24625
0.411383 0.401541 0.248905
0.567346 0.404623 0.242924
0.699992 0.413672 0.226535
0.8 0.414649 0.226459
0.899992 0.414374 0.226032
1 0.418143 0.230213
0 0.55317 0.226856
0.0999924 0.564141 0.235996
0.228 0.568643 0.247211
0.407752 0.561868 0.242557
0.583734 0.552468 0.252399
0.699992 0.553552 0.254963
0.8 0.553506 0.253452
0.899992 0.552453 0.251637
1 0.553918 0.253559
0 0.699992 0.237293
0.0999924 0.699992 0.247105
0.235676 0.699992 0.253071
0.410529 0.699992 0.244846
0.585824 0.689769 0.244358
0.699992 0.684703 0.256382
0.8 0.683787 0.256092
0.899992 0.682536 0.254627
1 0.683406 0.255207
0 0.8 0.241581
0.0999924 0.8 0.250233
0.238941 0.8 0.255375
0.413153 0.8 0.246403
0.586908 0.799344 0.244221
0.699992 0.794797 0.255756
0.8 0.794659 0.255283
0.899992 0.794629 0.253803
1 0.794644 0.254475
0 0.899992 0.242145
0.0999924 0.899992 0.250675
0.240391 0.899992 0.256123
0.414954 0.899992 0.247578
0.588449 0.899153 0.246342
0.699992 0.894789 0.258076
0.8 0.894682 0.257984
0.899992 0.894682 0.257069
1 0.894682 0.257649
0 1 0.246891
0.0999924 1 0.255329
0.244617 1 0.260044
0.420356 1 0.251133
0.593622 0.998535 0.251804
0.699992 0.994751 0.262257
0.8 0.994736 0.261357
0.899992 0.994705 0.259724
1 0.994705 0.259556
0 0.0104677 0.394766
0.0999924 0.0109102 0.396796
0.199985 0.00560006 0.407691
0.378576 0 0.399741
0.542824 0 0.379492
0.692592 0 0.351461
0.8 0 0.336477
0.899992 0 0.33753
1 0 0.351797
0 0.121752 0.390234
0.0999924 0.124514 0.395682
0.199985 0.120363 0.413169
0.392599 0.0999924 0.414343
0.566125 0.0999924 0.399512
0.699992 0.0999924 0.379629
0.8 0.0999924 0.385428
0.899992 0.0999924 0.394385
1 0.0999924 0.409522
0 0.248493 0.376883
0.0999924 0.256092 0.383169
0.199985 0.26038 0.390677
0.394064 0.242634 0.423606
0.577005 0.238422 0.408118
0.699992 0.245792 0.388205
0.8 0.246036 0.393576
0.899992 0.247288 0.399527
1 0.252781 0.410376
0 0.392309 0.383078
0.0999924 0.403113 0.391959
0.217975 0.410224 0.404013
0.388098 0.408957 0.405692
0.564523 0.405951 0.398627
0.699992 0.412421 0.385702
0.8 0.413245 0.386419
0.899992 0.412619 0.386633
1 0.416205 0.391546
0 0.554696 0.382818
0.0999924 0.565179 0.394049
0.224659 0.56907 0.407004
0.400061 0.561624 0.412924
0.571511 0.554055 0.413428
0.699992 0.557656 0.403647
0.8 0.557794 0.401205
0.899992 0.556848 0.399481
1 0.558022 0.401831
0 0.699992 0.395346
0.0999924 0.699992 0.405722
0.232059 0.699992 0.415869
0.403632 0.699977 0.415137
0.570397 0.691066 0.407004
0.699992 0.685237 0.417243
0.8 0.684352 0.417029
0.899992 0.683268 0.415869
1 0.683925 0.416648
0 0.8 0.400763
0.0999924 0.8 0.4094
0.23473 0.8 0.418463
0.406332 0.8 0.416907
0.570779 0.8 0.408331
0.699992 0.795651 0.416983
0.8 0.795483 0.416724
0.899992 0.795468 0.415549
1 0.795483 0.416388
0 0.899992 0.401129
0.0999924 0.899992 0.409567
0.236179 0.899992 0.418997
0.408301 0.899992 0.418418
0.572625 0.899992 0.410605
0.699992 0.895613 0.419669
0.8 0.895537 0.419745
0.899992 0.895537 0.419013
1 0.895537 0.419593
0 1 0.405951
0.0999924 1 0.414496
0.240238 1 0.423163
0.413565 1 0.422904
0.578088 1 0.415991
0.699992 0.995651 0.424216
0.8 0.995621 0.423346
0.899992 0.99559 0.42182
1 0.995575 0.421561
0 0.0128176 0.539574
0.0999924 0.0134279 0.541527
0.199985 0.00935378 0.552102
0.346975 0 0.563958
0.537499 0 0.543572
0.693629 0 0.534401
0.8 0 0.523857
0.899992 0 0.526131
1 0 0.540322
0 0.124865 0.536858
0.0999924 0.128206 0.542901
0.199985 0.125292 0.559762
0.360861 0.10425 0.576471
0.563622 0.0999924 0.562631
0.699992 0.0999924 0.560128
0.8 0.0999924 0.564904
0.899992 0.0999924 0.571069
1 0.0999924 0.580606
0 0.256748 0.519921
0.0999924 0.265614 0.526513
0.199985 0.270008 0.539528
0.356039 0.253925 0.576059
0.575952 0.237812 0.574777
0.699992 0.240726 0.572229
0.8 0.241321 0.576074
0.899992 0.242863 0.57998
1 0.248753 0.586542
0 0.401282 0.525139
0.0999924 0.412833 0.533043
0.199985 0.421729 0.535515
0.349676 0.422049 0.546761
0.563561 0.404471 0.570138
0.699992 0.406348 0.559716
0.8 0.406867 0.559899
0.899992 0.406043 0.560235
1 0.40943 0.564385
0 0.556542 0.5364
0.0999924 0.566735 0.546654
0.217762 0.570947 0.556405
0.39089 0.56434 0.556283
0.552819 0.559274 0.554406
0.699992 0.55726 0.547234
0.8 0.556954 0.54551
0.899992 0.555886 0.544427
1 0.557031 0.546044
0 0.699992 0.544579
0.0999924 0.699992 0.553582
0.226581 0.699992 0.559762
0.400259 0.699565 0.558663
0.562417 0.690898 0.559533
0.699992 0.68658 0.560586
0.8 0.685954 0.559747
0.899992 0.684932 0.558602
1 0.685496 0.559289
0 0.8 0.548424
0.0999924 0.8 0.556527
0.228305 0.8 0.561837
0.402258 0.8 0.560021
0.563348 0.8 0.559976
0.699992 0.796979 0.560708
0.8 0.796826 0.560571
0.899992 0.79678 0.559731
1 0.796811 0.560342
0 0.899992 0.549523
0.0999924 0.899992 0.557321
0.228824 0.899992 0.562615
0.403723 0.899992 0.560723
0.56524 0.899992 0.561456
0.699992 0.896986 0.562936
0.8 0.896941 0.563027
0.899992 0.89691 0.562478
1 0.896925 0.562753
0 1 0.554192
0.0999924 1 0.561746
0.232547 1 0.566354
0.408774 1 0.563851
0.570184 1 0.565164
0.699992 0.997101 0.566247
0.8 0.99707 0.565621
0.899992 0.997024 0.564553
1 0.997009 0.564309
0 0.0149233 0.671351
0.0999924 0.0156558 0.673152
0.199985 0.0121614 0.681956
0.319051 0 0.697292
0.528359 0 0.685603
0.692927 0 0.677134
0.8 0 0.675959
0.899992 0 0.678904
1 0 0.688853
0 0.128191 0.670268
0.0999924 0.132311 0.676188
0.199985 0.130114 0.690669
0.332326 0.112291 0.699992
0.557839 0.0999924 0.699992
0.699992 0.0999924 0.699992
0.8 0.0999924 0.699992
0.899992 0.0999924 0.699992
1 0.0999924 0.699992
0 0.263523 0.654887
0.0999924 0.273548 0.661555
0.199985 0.277943 0.674876
0.330175 0.264057 0.699992
0.566979 0.242176 0.699992
0.699992 0.241779 0.699992
0.8 0.24242 0.699992
0.899992 0.24419 0.699992
1 0.249943 0.699992
0 0.412558 0.650752
0.0999924 0.424704 0.658045
0.199985 0.434455 0.657847
0.324468 0.432013 0.676631
0.54052 0.413153 0.699992
0.699992 0.406165 0.699992
0.8 0.406195 0.699992
0.899992 0.405371 0.699992
1 0.408759 0.699992
0 0.561868 0.668894
0.0999924 0.57232 0.676387
0.204578 0.576684 0.68249
0.365255 0.573739 0.677852
0.529076 0.567239 0.680003
0.699992 0.554833 0.692912
0.8 0.553521 0.690318
0.899992 0.552331 0.689754
1 0.553491 0.690898
0 0.699992 0.67921
0.0999924 0.699992 0.684352
0.221683 0.699992 0.689921
0.393622 0.699992 0.687022
0.556481 0.692912 0.68365
0.698344 0.690105 0.685512
0.8 0.687678 0.684169
0.899992 0.68661 0.683116
1 0.687144 0.683879
0 0.8 0.680446
0.0999924 0.8 0.684489
0.22501 0.8 0.688869
0.397925 0.8 0.686839
0.561212 0.8 0.686183
0.699992 0.798535 0.68864
0.8 0.798352 0.688212
0.899992 0.798306 0.687663
1 0.798352 0.688273
0 0.899992 0.681437
0.0999924 0.899992 0.684642
0.225498 0.899992 0.688884
0.398856 0.899992 0.687404
0.562402 0.899992 0.687175
0.699992 0.898512 0.690181
0.8 0.898451 0.690089
0.899992 0.898436 0.689677
1 0.898436 0.689754
0 1 0.683192
0.0999924 1 0.685283
0.229908 1 0.689021
0.403998 1 0.688838
0.567071 1 0.689006
0.699992 0.998581 0.692058
0.8 0.99855 0.691615
0.899992 0.99852 0.69102
1 0.998505 0.690852
0 0.0174411 0.797131
0.0999924 0.0183108 0.798749
0.199985 0.015198 0.8
0.299992 0.00122072 0.8
0.51014 0 0.8
0.692012 0 0.8
0.8 0 0.8
0.899992 0 0.8
1 0 0.8
0 0.132372 0.797314
0.0999924 0.137331 0.8
0.199985 0.135637 0.8
0.310018 0.119509 0.8
0.543282 0.0999924 0.8
0.699992 0.0999924 0.8
0.8 0.0999924 0.8
0.899992 0.0999924 0.8
1 0.0999924 0.8
0 0.270817 0.784192
0.0999924 0.28191 0.790387
0.199985 0.286351 0.8
0.307866 0.273655 0.8
0.545907 0.250187 0.8
0.699992 0.243732 0.8
0.8 0.24361 0.8
0.899992 0.245472 0.8
1 0.250919 0.8
0 0.423514 0.773877
0.0999924 0.436423 0.780423
0.199985 0.445502 0.783352
0.303456 0.441321 0.799725
0.515557 0.422629 0.8
0.699992 0.408911 0.8
0.8 0.407019 0.8
0.899992 0.406149 0.8
1 0.409323 0.8
0 0.569909 0.788724
0.0999924 0.580407 0.787808
0.199985 0.585138 0.79089
0.335042 0.584649 0.795178
0.506096 0.575036 0.798657
0.691295 0.559716 0.8
0.8 0.553735 0.8
0.899992 0.552483 0.8
1 0.553597 0.8
0 0.699992 0.785138
0.0999924 0.699992 0.78526
0.215351 0.699992 0.789242
0.380285 0.699992 0.790448
0.535531 0.699992 0.790311
0.682689 0.695659 0.79382
0.8 0.687297 0.79649
0.899992 0.685954 0.796674
1 0.686519 0.796597
0 0.8 0.783185
0.0999924 0.8 0.785153
0.226215 0.8 0.788907
0.398047 0.8 0.789044
0.56025 0.8 0.790448
0.699992 0.798978 0.794583
0.8 0.798657 0.794888
0.899992 0.798657 0.794888
1 0.798657 0.794888
0 0.899992 0.783185
0.0999924 0.899992 0.785245
0.227863 0.899992 0.788968
0.400961 0.899992 0.789029
0.563363 0.899992 0.790692
0.699992 0.898665 0.794888
0.8 0.898665 0.794888
0.899992 0.898665 0.794888
1 0.898665 0.794888
0 1 0.783246
0.0999924 1 0.78555
0.232395 1 0.789075
0.406348 1 0.788998
0.567834 1 0.791058
0.699992 0.998672 0.794888
0.8 0.998672 0.794888
0.899992 0.998672 0.794888
1 0.998672 0.794888
0 0.0203708 0.899992
0.0999924 0.0213931 0.899992
0.199985 0.018555 0.899992
0.299992 0.00610361 0.899992
0.484276 0 0.899992
0.686809 0 0.899992
0.8 0 0.899992
0.899992 0 0.899992
1 0 0.899992
0 0.137285 0.899992
0.0999924 0.14316 0.899992
0.199985 0.141802 0.899992
0.299992 0.127352 0.899992
0.519478 0.101137 0.899992
0.699992 0.0999924 0.899992
0.8 0.0999924 0.899992
0.899992 0.0999924 0.899992
1 0.0999924 0.899992
0 0.278798 0.899992
0.0999924 0.29073 0.899992
0.199985 0.295155 0.899992
0.299992 0.283635 0.899992
0.51809 0.260395 0.899992
0.699992 0.247364 0.899992
0.8 0.24477 0.899992
0.899992 0.246464 0.899992
1 0.251698 0.899992
0 0.434119 0.894041
0.0999924 0.447288 0.89276
0.199985 0.455299 0.891127
0.299992 0.450202 0.896391
0.488853 0.432593 0.899992
0.699992 0.414557 0.899992
0.8 0.408133 0.899992
0.899992 0.406729 0.899992
1 0.409751 0.899992
0 0.578927 0.887938
0.0999924 0.589334 0.887037
0.199985 0.595193 0.886625
0.310842 0.593637 0.89305
0.482673 0.583154 0.896681
0.672465 0.565911 0.899992
0.8 0.555123 0.899992
0.899992 0.552758 0.899992
1 0.55375 0.899992
0 0.699992 0.884535
0.0999924 0.699992 0.883711
0.200839 0.699992 0.887419
0.355459 0.699992 0.889387
0.510292 0.699992 0.889052
0.667262 0.699992 0.891249
0.8 0.690196 0.896101
0.899992 0.686152 0.896651
1 0.686687 0.896574
0 0.8 0.883177
0.0999924 0.8 0.884749
0.221424 0.8 0.888731
0.389731 0.8 0.889097
0.548165 0.8 0.889708
0.686366 0.8 0.892851
0.8 0.798657 0.894896
0.899992 0.798657 0.894896
1 0.798657 0.894896
0 0.899992 0.883177
0.0999924 0.899992 0.885405
0.229297 0.899992 0.889006
0.402182 0.899992 0.889021
0.563882 0.899992 0.89073
0.699992 0.898756 0.894926
0.8 0.898665 0.894896
0.899992 0.898665 0.894896
1 0.898665 0.894896
0 1 0.883284
0.0999924 1 0.88571
0.234363 1 0.889113
0.408438 1 0.889006
0.569284 1 0.891142
0.699992 0.998672 0.894896
0.8 0.998672 0.894896
0.899992 0.998672 0.894896
1 0.998672 0.894896
0 0.0233158 1
0.0999924 0.024506 1
0.199985 0.0217899 1
0.299992 0.00991836 1
0.459174 0 1
0.677943 0 1
0.8 0 1
0.899992 0 1
1 0 1
0 0.142458 1
0.0999924 0.149157 1
0.199985 0.147982 1
0.299992 0.134539 1
0.495827 0.109407 1
0.699992 0.0999924 1
0.8 0.0999924 1
0.899992 0.0999924 1
1 0.0999924 1
0 0.286717 1
0.0999924 0.299489 1
0.199985 0.303761 1
0.299992 0.293477 1
0.493477 0.270222 1
0.699992 0.252461 1
0.8 0.246708 1
0.899992 0.248112 1
1 0.253056 1
0 0.443519 0.993637
0.0999924 0.456641 0.99089
0.199985 0.463676 0.989731
0.299992 0.45864 0.991348
0.463951 0.44239 1
0.680919 0.421759 1
0.8 0.410849 1
0.899992 0.407645 1
1 0.410407 1
0 0.587472 0.987198
0.0999924 0.597543 0.986313
0.199985 0.6 0.985748
0.299992 0.6 0.989883
0.462867 0.59028 0.994995
0.654429 0.572335 1
0.8 0.55877 1
0.899992 0.553338 1
1 0.554223 1
0 0.699992 0.98381
0.0999924 0.699992 0.983185
0.199985 0.699992 0.985199
0.330068 0.699992 0.989029
0.488151 0.699992 0.989105
0.65301 0.699992 0.990066
0.8 0.694972 0.995514
0.899992 0.686854 0.996551
1 0.687144 0.996521
0 0.8 0.983185
0.0999924 0.8 0.98378
0.2112 0.8 0.988144
0.373236 0.8 0.989151
0.528237 0.8 0.989105
0.670634 0.8 0.991257
0.8 0.798733 0.994919
0.899992 0.798657 0.994904
1 0.798657 0.994904
0 0.899992 0.983185
0.0999924 0.899992 0.985245
0.226856 0.899992 0.988937
0.398047 0.899992 0.989044
0.558572 0.899992 0.990326
0.699855 0.899153 0.994247
0.8 0.898665 0.994904
0.899992 0.898665 0.994904
1 0.898665 0.994904
0 1 0.983261
0.0999924 1 0.985595
0.232807 1 0.98909
0.407263 1 0.988998
0.568521 1 0.991104
0.699992 0.998672 0.994904
0.8 0.998672 0.994904
0.899992 0.998672 0.994904
1 0.998672 0.994904
