LUT color transfer/LUTs/57.cube
TITLE "Generate by Resolve"
LUT_3D_SIZE 5
0 0.00369268 0.00534066
0.228992 0.000686656 0
0.522805 0 0
0.796109 0 0
0.996124 0 0
0 0.236759 0
0.23772 0.24097 0
0.552071 0.241382 0
0.8 0.249027 0
1 0.257481 0
0 0.547951 0
0.22649 0.564172 0
0.593057 0.546593 0
0.8 0.547112 0
1 0.548089 0
0 0.8 0
0.240238 0.8 0
0.599023 0.797101 0
0.8 0.793057 0
1 0.792996 0
0 1 0
0.246586 1 0
0.6 0.996551 0
0.8 0.993225 0
1 0.993164 0
0 0.00784314 0.245289
0.222095 0 0.25507
0.535103 0 0.202701
0.8 0 0.199985
1 0 0.199985
0 0.239521 0.238392
0.226001 0.248478 0.247761
0.561318 0.245838 0.221118
0.8 0.252537 0.21297
1 0.2607 0.221592
0 0.55317 0.226856
0.228 0.568643 0.247211
0.583734 0.552468 0.252399
0.8 0.553506 0.253452
1 0.553918 0.253559
0 0.8 0.241581
0.238941 0.8 0.255375
0.586908 0.799344 0.244221
0.8 0.794659 0.255283
1 0.794644 0.254475
0 1 0.246891
0.244617 1 0.260044
0.593622 0.998535 0.251804
0.8 0.994736 0.261357
1 0.994705 0.259556
0 0.0128176 0.539574
0.199985 0.00935378 0.552102
0.537499 0 0.543572
0.8 0 0.523857
1 0 0.540322
0 0.256748 0.519921
0.199985 0.270008 0.539528
0.575952 0.237812 0.574777
0.8 0.241321 0.576074
1 0.248753 0.586542
0 0.556542 0.5364
0.217762 0.570947 0.556405
0.552819 0.559274 0.554406
0.8 0.556954 0.54551
1 0.557031 0.546044
0 0.8 0.548424
0.228305 0.8 0.561837
0.563348 0.8 0.559976
0.8 0.796826 0.560571
1 0.796811 0.560342
0 1 0.554192
0.232547 1 0.566354
0.570184 1 0.565164
0.8 0.99707 0.565621
1 0.997009 0.564309
0 0.0174411 0.797131
0.199985 0.015198 0.8
0.51014 0 0.8
0.8 0 0.8
1 0 0.8
0 0.270817 0.784192
0.199985 0.286351 0.8
0.545907 0.250187 0.8
0.8 0.24361 0.8
1 0.250919 0.8
0 0.569909 0.788724
0.199985 0.585138 0.79089
0.506096 0.575036 0.798657
0.8 0.553735 0.8
1 0.553597 0.8
0 0.8 0.783185
0.226215 0.8 0.788907
0.56025 0.8 0.790448
0.8 0.798657 0.794888
1 0.798657 0.794888
0 1 0.783246
0.232395 1 0.789075
0.567834 1 0.791058
0.8 0.998672 0.794888
1 0.998672 0.794888
0 0.0233158 1
0.199985 0.0217899 1
0.459174 0 1
0.8 0 1
1 0 1
0 0.286717 1
0.199985 0.303761 1
0.493477 0.270222 1
0.8 0.246708 1
1 0.253056 1
0 0.587472 0.987198
0.199985 0.6 0.985748
0.462867 0.59028 0.994995
0.8 0.55877 1
1 0.554223 1
0 0.8 0.983185
0.2112 0.8 0.988144
0.528237 0.8 0.989105
0.8 0.798733 0.994919
1 0.798657 0.994904
0 1 0.983261
0.232807 1 0.98909
0.568521 1 0.991104
0.8 0.998672 0.994904
1 0.998672 0.994904
