LUT color transfer/LUTs/58.cube
TITLE "Generate by Resolve"
LUT_3D_SIZE 5
0 0.00738537 0.0106813
0.208011 0.00138857 0
0.545617 0 0
0.842237 0 0
0.992233 0 0
0 0.223529 0
0.225437 0.231952 0
0.60415 0.232792 0
0.850004 0.248051 0
1 0.264973 0
0 0.595911 0
0.203006 0.628351 0
0.686122 0.593194 0
0.850004 0.594232 0
1 0.596185 0
0 0.850004 0
0.230488 0.850004 0
0.698054 0.844205 0
0.850004 0.836118 0
1 0.835981 0
0 1 0
0.243198 1 0
0.699992 0.993088 0
0.850004 0.98645 0
1 0.986328 0
0 0.0156863 0.240574
0.194202 0 0.260166
0.570214 0 0.155413
0.850004 0 0.149996
1 0 0.149996
0 0.229053 0.22678
0.201999 0.246967 0.245518
0.62266 0.241688 0.192264
0.850004 0.25507 0.175952
1 0.271427 0.193194
0 0.606348 0.203723
0.206012 0.637278 0.244419
0.667475 0.604959 0.25481
0.850004 0.607019 0.256916
1 0.607828 0.257115
0 0.850004 0.233173
0.227909 0.850004 0.260777
0.673823 0.848676 0.238453
0.850004 0.839307 0.260594
1 0.839292 0.258976
0 1 0.243793
0.239246 1 0.270085
0.687251 0.99707 0.253605
0.850004 0.989471 0.27274
1 0.98941 0.269108
0 0.0256352 0.579156
0.149996 0.0187228 0.604196
0.575006 0 0.587152
0.850004 0 0.547738
1 0 0.580667
0 0.263523 0.539849
0.149996 0.290028 0.57908
0.651911 0.225635 0.649561
0.850004 0.232639 0.652155
1 0.247517 0.673091
0 0.613092 0.572824
0.185534 0.641901 0.612818
0.605646 0.618555 0.60882
0.850004 0.613916 0.591012
1 0.614054 0.592096
0 0.850004 0.596857
0.206607 0.850004 0.623682
0.626703 0.850004 0.619959
0.850004 0.843641 0.621149
1 0.843626 0.620706
0 1 0.608392
0.215106 1 0.632731
0.640375 1 0.630335
0.850004 0.994141 0.631266
1 0.994003 0.628611
0 0.0348821 0.844266
0.149996 0.030396 0.850004
0.520302 0 0.850004
0.850004 0 0.850004
1 0 0.850004
0 0.291661 0.818387
0.149996 0.322728 0.850004
0.591821 0.25037 0.850004
0.850004 0.237232 0.850004
1 0.25185 0.850004
0 0.639826 0.827436
0.149996 0.670283 0.831785
0.512215 0.650095 0.847318
0.850004 0.607477 0.850004
1 0.607217 0.850004
0 0.850004 0.816358
0.202441 0.850004 0.827817
0.620508 0.850004 0.8309
0.850004 0.847333 0.839796
1 0.847333 0.839796
0 1 0.81648
0.214801 1 0.828153
0.635676 1 0.832105
0.850004 0.99733 0.839796
1 0.99733 0.839796
0 0.0466468 1
0.149996 0.0435645 1
0.418357 0 1
0.850004 0 1
1 0 1
0 0.32343 1
0.149996 0.357534 1
0.486961 0.290471 1
0.850004 0.243427 1
1 0.256123 1
0 0.674968 0.97438
0.149996 0.699992 0.971481
0.425727 0.680583 0.98999
0.850004 0.617548 1
1 0.608454 1
0 0.850004 0.966369
0.172412 0.850004 0.976287
0.556481 0.850004 0.978195
0.850004 0.847471 0.989837
1 0.847333 0.989792
0 1 0.966522
0.215625 1 0.978164
0.637049 1 0.982193
0.850004 0.99733 0.989792
1 0.99733 0.989792
