LUT color transfer/LUTs/58.cube
TITLE "Generate by Resolve"
LUT_3D_SIZE 33
0 0.00738537 0.0106813
0.0187381 0.00740063 0.0107118
0.0374914 0.00776684 0.0108949
0.0562448 0.00784314 0.0116579
0.0818036 0.00621042 0.0132296
0.112383 0.00422675 0.0114748
0.141756 0.00326543 0.00477607
0.173571 0.00204471 0
0.208011 0.00138857 0
0.245029 0.00195315 0
0.285344 0.00201419 0
0.328115 0.00144961 0
0.372091 0.000381476 0
0.416236 0 0
0.459892 0 0
0.502831 0 0
0.545617 0 0
0.588754 0 0
0.631891 0 0
0.674083 0 0
0.715572 0 0
0.755734 0 0
0.794812 0 0
0.822324 0 0
0.842237 0 0
0.86099 0 0
0.879728 0 0
0.898482 0 0
0.917235 0 0
0.935988 0 0
0.954742 0 0
0.97348 0 0
0.992233 0 0
0 0.0292363 0.0108492
0.0187381 0.0292515 0.0108644
0.0374914 0.0296635 0.0110018
0.0562448 0.0299382 0.0110475
0.0810101 0.0293126 0.0115663
0.110857 0.0276951 0.010132
0.140261 0.0267643 0.00482185
0.172229 0.0253452 0
0.207019 0.0235447 0
0.244724 0.0222629 0
0.285725 0.0210422 0
0.329427 0.0199435 0
0.373495 0.0190585 0
0.418173 0.0187381 0
0.462211 0.0187381 0
0.505776 0.0187381 0
0.549813 0.0187381 0
0.594583 0.0187381 0
0.638941 0.0187381 0
0.682109 0.0187381 0
0.723766 0.0187381 0
0.764431 0.0187381 0
0.800381 0.0187381 0
0.823484 0.0187381 0
0.842237 0.0187381 0
0.86099 0.0187381 0
0.879728 0.0187381 0
0.898482 0.0187381 0
0.917235 0.0187381 0
0.935988 0.0187381 0
0.954742 0.0187381 0
0.97348 0.0187381 0
0.992233 0.0187381 0
0 0.0523079 0.00982681
0.0187381 0.0522927 0.00979629
0.0374914 0.0527657 0.0100862
0.0562448 0.0530251 0.0105745
0.0819867 0.0525063 0.0111238
0.110735 0.0512856 0.011017
0.139605 0.0507973 0.00581369
0.171603 0.0495918 0
0.206668 0.0477913 0
0.245167 0.0452583 0
0.287648 0.0417945 0
0.332525 0.0390936 0
0.378775 0.0374914 0
0.424949 0.0374914 0
0.469551 0.0374914 0
0.514733 0.0374914 0
0.560174 0.0374914 0
0.60647 0.0374914 0
0.651255 0.0374914 0
0.694423 0.0374914 0
0.736233 0.0374914 0
0.776913 0.0374914 0
0.803922 0.0374914 0
0.823484 0.0374914 0
0.842237 0.0374914 0
0.86099 0.0374914 0
0.879728 0.0374914 0
0.898482 0.0374914 0
0.917235 0.0374914 0
0.935988 0.0374914 0
0.954742 0.0374914 0
0.97348 0.0374914 0
0.992233 0.0374914 0
0 0.0762493 0.00843824
0.0187381 0.0762493 0.0084535
0.0374914 0.0768444 0.00880446
0.0562448 0.0773175 0.00955215
0.081239 0.0770428 0.0104982
0.111131 0.0759747 0.0100862
0.141787 0.0749065 0.00888075
0.172396 0.0745708 0.0018616
0.207462 0.0732433 0
0.246418 0.0711986 0
0.289647 0.0683757 0
0.335576 0.064744 0
0.383322 0.0605478 0
0.430884 0.0565347 0
0.477684 0.0562448 0
0.524407 0.0562448 0
0.571542 0.0562448 0
0.617929 0.0562448 0
0.66276 0.0562448 0
0.706111 0.0562448 0
0.748058 0.0562448 0
0.785016 0.0562448 0
0.80473 0.0562448 0
0.823484 0.0562448 0
0.842237 0.0562448 0
0.86099 0.0562448 0
0.879728 0.0562448 0
0.898482 0.0562448 0
0.917235 0.0562448 0
0.935988 0.0562448 0
0.954742 0.0562448 0
0.97348 0.0562448 0
0.992233 0.0562448 0
0 0.101244 0.00666819
0.0187381 0.101427 0.00675975
0.0374914 0.102205 0.00726329
0.0562448 0.103136 0.00814832
0.0794842 0.103288 0.00885023
0.109194 0.102724 0.00857557
0.145129 0.100496 0.00985733
0.176867 0.100237 0.00662242
0.210468 0.100237 0
0.24947 0.0989395 0
0.292943 0.0965896 0
0.339025 0.0935378 0
0.386465 0.090135 0
0.434211 0.0867475 0
0.481758 0.0835431 0
0.530037 0.0805829 0
0.578302 0.0779431 0
0.62594 0.0762036 0
0.671748 0.0751812 0
0.715434 0.0749981 0
0.757656 0.0749981 0
0.786435 0.0749981 0
0.805371 0.0755627 0
0.824125 0.0751965 0
0.842847 0.0749981 0
0.861158 0.0749981 0
0.880125 0.0749981 0
0.899107 0.0749981 0
0.917861 0.0749981 0
0.936629 0.076051 0
0.955398 0.0773938 0
0.974182 0.0789349 0
0.993042 0.0824903 0
0 0.128145 0.00317388
0.0187381 0.128496 0.00335698
0.0374914 0.129473 0.00401312
0.0562448 0.131167 0.00531014
0.0768292 0.132006 0.00621042
0.106874 0.131991 0.00640879
0.143816 0.130205 0.00630198
0.182452 0.127947 0.00901808
0.217655 0.127794 0.00440986
0.254414 0.127886 0
0.296818 0.126543 0
0.342458 0.124285 0
0.389548 0.121614 0
0.437461 0.119097 0
0.485084 0.116808 0
0.532982 0.114656 0
0.581659 0.112795 0
0.629343 0.111666 0
0.67509 0.111284 0
0.719173 0.111833 0
0.761685 0.112993 0
0.787091 0.11284 0
0.806119 0.112261 0
0.824826 0.111742 0
0.843534 0.11107 0
0.862242 0.110475 0
0.880964 0.109819 0
0.899672 0.109255 0
0.918624 0.112398 0
0.937606 0.115618 0
0.956619 0.119005 0
0.975677 0.122606 0
0.99472 0.125963 0
0 0.157244 0
0.0187381 0.158129 0
0.0374914 0.159319 0
0.0562448 0.161654 0.00154116
0.0749981 0.163134 0.00271611
0.103899 0.163622 0.00334173
0.139788 0.162936 0.00289921
0.182971 0.160098 0.00520333
0.22565 0.157595 0.00743114
0.265278 0.157092 0.00178531
0.305669 0.157244 0
0.349416 0.156344 0
0.395529 0.154925 0
0.442756 0.153475 0
0.490135 0.152132 0
0.538125 0.151019 0
0.586908 0.150271 0
0.63444 0.150179 0
0.680293 0.151064 0
0.724071 0.152575 0
0.766598 0.154772 0
0.789425 0.155001 0
0.808225 0.154788 0
0.826978 0.154772 0
0.845701 0.154589 0
0.864424 0.154284 0
0.883131 0.153887 0
0.9019 0.15407 0
0.920989 0.15729 0
0.940124 0.160754 0
0.959274 0.164233 0
0.978454 0.167712 0
0.99765 0.171206 0
0 0.189075 0
0.0187381 0.19028 0
0.0374914 0.191669 0
0.0562448 0.194659 0
0.0749981 0.196796 0
0.0999924 0.197925 0
0.135302 0.198093 0
0.179278 0.196002 0
0.227848 0.192462 0.00370794
0.276081 0.189548 0.00508125
0.320806 0.188846 0
0.363302 0.18938 0
0.40676 0.18967 0
0.451972 0.189731 0
0.498375 0.189639 0
0.545724 0.189685 0
0.594095 0.190295 0
0.641123 0.191745 0
0.686091 0.193698 0
0.729427 0.196323 0
0.771527 0.199435 0
0.792447 0.199832 0
0.811231 0.200092 0
0.830014 0.200305 0
0.848783 0.200427 0
0.867521 0.200427 0
0.886259 0.20029 0
0.905058 0.200656 0
0.924239 0.204089 0
0.94342 0.207492 0
0.962493 0.210941 0
0.981247 0.214389 0
1 0.217868 0
0 0.223529 0
0.0187381 0.224994 0
0.0374914 0.226642 0
0.0562448 0.230365 0
0.0749981 0.233539 0
0.0947738 0.235203 0
0.130098 0.236179 0
0.172763 0.235523 0
0.225437 0.231952 0
0.280415 0.227924 0.00143435
0.334127 0.225025 0.00221256
0.381003 0.224491 0
0.424186 0.225666 0
0.467445 0.227314 0
0.511589 0.228946 0
0.557336 0.230671 0
0.60415 0.232792 0
0.649134 0.235431 0
0.692653 0.238544 0
0.734859 0.242191 0
0.77499 0.246128 0
0.793744 0.246952 0
0.812497 0.247303 0
0.83125 0.247715 0
0.850004 0.248051 0
0.868742 0.248219 0
0.887495 0.24831 0
0.906249 0.248814 0
0.925002 0.25185 0
0.943755 0.255116 0
0.962493 0.258412 0
0.981247 0.261646 0
1 0.264973 0
0 0.260945 0
0.0187381 0.262913 0
0.0374914 0.265003 0
0.0562448 0.269581 0
0.0749981 0.273518 0
0.0937362 0.276066 0
0.124041 0.277974 0
0.165835 0.278508 0
0.219135 0.27628 0
0.279896 0.271595 0
0.340307 0.267338 0
0.394522 0.265034 0
0.442924 0.265064 0
0.487785 0.266697 0
0.530922 0.269627 0
0.573663 0.27277 0
0.61738 0.276356 0
0.659846 0.280247 0
0.700999 0.284474 0
0.741253 0.289036 0
0.77499 0.29366 0
0.793744 0.294438 0
0.812497 0.29485 0
0.83125 0.295399 0
0.850004 0.295857 0
0.868742 0.296223 0
0.887495 0.296513 0
0.906249 0.296498 0
0.925002 0.299214 0
0.943755 0.302022 0
0.962493 0.304967 0
0.981247 0.308141 0
1 0.311177 0
0 0.301915 0
0.0187381 0.304509 0
0.0374914 0.307073 0
0.0562448 0.312352 0
0.0749981 0.317174 0
0.0937362 0.320577 0
0.117632 0.323354 0
0.159411 0.325322 0
0.2112 0.324453 0
0.275364 0.319997 0
0.341009 0.314961 0
0.401144 0.311391 0
0.455985 0.309621 0
0.506065 0.31014 0
0.550881 0.31223 0
0.592691 0.315694 0
0.633753 0.320027 0
0.673457 0.324804 0
0.712154 0.329824 0
0.750195 0.335256 0
0.77499 0.340291 0
0.793744 0.34139 0
0.812497 0.34197 0
0.83125 0.342397 0
0.850004 0.342885 0
0.868742 0.343313 0
0.887495 0.343359 0
0.906249 0.343389 0
0.925002 0.34551 0
0.943755 0.348074 0
0.962493 0.35082 0
0.981247 0.353384 0
1 0.355947 0
0 0.346593 0
0.0187381 0.349523 0
0.0374914 0.352621 0
0.0562448 0.358755 0
0.0749981 0.36434 0
0.0937362 0.36849 0
0.11249 0.372229 0
0.154269 0.374701 0
0.204852 0.375051 0
0.269047 0.371466 0
0.339269 0.365743 0
0.403449 0.361563 0
0.463066 0.358312 0
0.51751 0.356893 0
0.565606 0.357595 0
0.609125 0.360128 0
0.650126 0.364096 0
0.688853 0.369314 0
0.726055 0.374746 0
0.756252 0.380392 0
0.77499 0.385672 0
0.793744 0.387213 0
0.812497 0.38764 0
0.83125 0.38822 0
0.850004 0.388418 0
0.868742 0.388571 0
0.887495 0.388678 0
0.906249 0.388602 0
0.925002 0.389914 0
0.943755 0.392416 0
0.962493 0.394751 0
0.981247 0.397009 0
1 0.399115 0
0 0.394247 0
0.0187381 0.397482 0
0.0374914 0.400885 0
0.0562448 0.407813 0
0.0749981 0.414267 0
0.0937362 0.418997 0
0.11249 0.42295 0
0.150896 0.425895 0
0.200885 0.42678 0
0.263569 0.424002 0
0.336324 0.418097 0
0.403677 0.412757 0
0.466087 0.408515 0
0.523949 0.405783 0
0.575128 0.405158 0
0.621088 0.406622 0
0.664027 0.410071 0
0.703258 0.41442 0
0.737499 0.419409 0
0.756252 0.424689 0
0.77499 0.429664 0
0.793744 0.431479 0
0.812497 0.432181 0
0.83125 0.432517 0
0.850004 0.43267 0
0.868742 0.432639 0
0.887495 0.432395 0
0.906249 0.432273 0
0.925002 0.432914 0
0.943755 0.434852 0
0.962493 0.436896 0
0.981247 0.438956 0
1 0.440879 0
0 0.444022 0
0.0187381 0.447578 0
0.0374914 0.451835 0
0.0562448 0.459373 0
0.0749981 0.46598 0
0.0937362 0.470665 0
0.11249 0.474693 0
0.148318 0.477684 0
0.197925 0.478706 0
0.259556 0.476585 0
0.332219 0.470634 0
0.402258 0.464469 0
0.467521 0.459449 0
0.527291 0.456107 0
0.581033 0.454612 0
0.629053 0.454978 0
0.673274 0.457008 0
0.71397 0.460273 0
0.737499 0.464347 0
0.756252 0.468681 0
0.77499 0.473075 0
0.793744 0.474693 0
0.812497 0.474998 0
0.83125 0.475288 0
0.850004 0.475349 0
0.868742 0.475212 0
0.887495 0.475029 0
0.906249 0.474525 0
0.925002 0.474403 0
0.943755 0.475944 0
0.962493 0.477684 0
0.981247 0.479438 0
1 0.481392 0
0 0.495201 0
0.0187381 0.498695 0
0.0374914 0.504173 0
0.0562448 0.511543 0
0.0749981 0.517891 0
0.0937362 0.522423 0
0.11249 0.526268 0
0.147021 0.529213 0
0.196918 0.530327 0
0.257649 0.528283 0
0.329335 0.522759 0
0.400549 0.516167 0
0.468193 0.51014 0
0.529656 0.506127 0
0.584085 0.504051 0
0.633646 0.50341 0
0.679316 0.504189 0
0.718746 0.506081 0
0.737499 0.508659 0
0.756252 0.512078 0
0.77499 0.515251 0
0.793744 0.516442 0
0.812497 0.516487 0
0.83125 0.516503 0
0.850004 0.516487 0
0.868742 0.516487 0
0.887495 0.516075 0
0.906249 0.515419 0
0.925002 0.514977 0
0.943755 0.516304 0
0.962493 0.517906 0
0.981247 0.519341 0
1 0.520775 0
0 0.545922 0
0.0187381 0.549523 0
0.0374914 0.55581 0
0.0562448 0.562814 0
0.0749981 0.56875 0
0.0937362 0.573083 0
0.11249 0.576959 0
0.148608 0.579736 0
0.198795 0.580377 0
0.258839 0.578271 0
0.328923 0.572854 0
0.400122 0.566155 0
0.469642 0.559716 0
0.531929 0.55462 0
0.586618 0.551568 0
0.636591 0.550042 0
0.683345 0.549813 0
0.718746 0.550561 0
0.737499 0.551873 0
0.756252 0.553643 0
0.77499 0.555611 0
0.793744 0.556405 0
0.812497 0.556359 0
0.83125 0.556283 0
0.850004 0.55613 0
0.868742 0.555856 0
0.887495 0.555383 0
0.906249 0.554757 0
0.925002 0.554269 0
0.943755 0.555245 0
0.962493 0.556588 0
0.981247 0.557855 0
1 0.559121 0
0 0.595911 0
0.0187381 0.599115 0
0.0374914 0.606165 0
0.0562448 0.612863 0
0.0749981 0.618341 0
0.0937362 0.622583 0
0.11249 0.625849 0
0.152361 0.628107 0
0.203006 0.628351 0
0.262745 0.625818 0
0.330861 0.620417 0
0.401282 0.613611 0
0.471092 0.606287 0
0.534081 0.600504 0
0.589242 0.596567 0
0.638987 0.594339 0
0.686122 0.593194 0
0.718746 0.592874 0
0.737499 0.593042 0
0.756252 0.593591 0
0.77499 0.594476 0
0.793744 0.594751 0
0.812497 0.594766 0
0.83125 0.594568 0
0.850004 0.594232 0
0.868742 0.593835 0
0.887495 0.593301 0
0.906249 0.592645 0
0.925002 0.592294 0
0.943755 0.592844 0
0.962493 0.593927 0
0.981247 0.595026 0
1 0.596185 0
0 0.64445 0
0.0187381 0.648615 0
0.0374914 0.65507 0
0.0562448 0.661204 0
0.0749981 0.666514 0
0.0937362 0.670039 0
0.113512 0.672786 0
0.157443 0.67425 0
0.20827 0.673732 0
0.267811 0.670832 0
0.334218 0.665461 0
0.403189 0.658183 0
0.472541 0.650172 0
0.535897 0.643626 0
0.591516 0.639094 0
0.641581 0.636301 0
0.688609 0.634409 0
0.718746 0.633005 0
0.737499 0.632242 0
0.756252 0.631922 0
0.77499 0.632013 0
0.793744 0.631968 0
0.812497 0.631769 0
0.83125 0.631464 0
0.850004 0.631159 0
0.868742 0.63064 0
0.887495 0.630045 0
0.906249 0.629419 0
0.925002 0.62887 0
0.943755 0.629343 0
0.962493 0.630228 0
0.981247 0.631144 0
1 0.632197 0
0 0.691234 0
0.0187381 0.696254 0
0.0374914 0.702571 0
0.0562448 0.707927 0
0.0749981 0.712245 0
0.0937362 0.71516 0
0.11902 0.717357 0
0.16318 0.718105 0
0.214008 0.717067 0
0.27303 0.713222 0
0.337667 0.707424 0
0.405325 0.699992 0
0.473991 0.691691 0
0.53753 0.684504 0
0.5935 0.679438 0
0.643671 0.675944 0
0.690745 0.673442 0
0.718746 0.671458 0
0.737499 0.669856 0
0.756252 0.668788 0
0.77499 0.668223 0
0.793744 0.667903 0
0.812497 0.667597 0
0.83125 0.667216 0
0.850004 0.666789 0
0.868742 0.666362 0
0.887495 0.665797 0
0.906249 0.665019 0
0.925002 0.664485 0
0.943755 0.664698 0
0.962493 0.665492 0
0.981247 0.666468 0
1 0.667323 0
0 0.736141 0
0.0187381 0.741939 0
0.0374914 0.747585 0
0.0562448 0.752361 0
0.0749981 0.755871 0
0.0937362 0.756252 0
0.123751 0.756252 0
0.1682 0.756252 0
0.218936 0.756252 0
0.277531 0.753475 0
0.340749 0.747219 0
0.406943 0.739651 0
0.474907 0.731197 0
0.538933 0.723629 0
0.594934 0.717845 0
0.64538 0.713664 0
0.692622 0.710643 0
0.718746 0.708156 0
0.737499 0.706233 0
0.756252 0.704555 0
0.77499 0.703365 0
0.793744 0.702861 0
0.812497 0.702541 0
0.83125 0.702098 0
0.850004 0.701747 0
0.868742 0.701198 0
0.887495 0.700572 0
0.906249 0.699794 0
0.925002 0.699184 0
0.943755 0.699397 0
0.962493 0.700191 0
0.981247 0.700893 0
1 0.701686 0
0 0.77499 0
0.0187381 0.77499 0
0.0374914 0.77499 0
0.0562448 0.77499 0
0.0749981 0.77499 0
0.0937362 0.77499 0
0.127657 0.77499 0
0.171771 0.77499 0
0.222553 0.77499 0
0.280827 0.77499 0
0.343175 0.77499 0
0.408316 0.77499 0
0.475441 0.76907 0
0.538994 0.761059 0
0.595468 0.754818 0
0.646418 0.750256 0
0.694057 0.7467 0
0.718746 0.743893 0
0.737499 0.741466 0
0.756252 0.739376 0
0.77499 0.737881 0
0.793744 0.737209 0
0.812497 0.736812 0
0.83125 0.736507 0
0.850004 0.736004 0
0.868742 0.735439 0
0.887495 0.734737 0
0.906249 0.734035 0
0.925002 0.73341 0
0.943755 0.733639 0
0.962493 0.734264 0
0.981247 0.734905 0
1 0.735546 0
0 0.793744 0
0.0187381 0.793744 0
0.0374914 0.793744 0
0.0562448 0.793744 0
0.0749981 0.793744 0
0.0937362 0.793744 0
0.129946 0.793744 0
0.174136 0.793744 0
0.224979 0.793744 0
0.283009 0.793744 0
0.345022 0.793744 0
0.409293 0.793744 0
0.475792 0.793744 0
0.538964 0.793683 0
0.595514 0.787854 0
0.646952 0.783444 0
0.69514 0.780026 0
0.718746 0.777066 0
0.737499 0.774533 0
0.756252 0.772274 0
0.77499 0.770657 0
0.793744 0.770123 0
0.812497 0.769696 0
0.83125 0.769299 0
0.850004 0.768917 0
0.868742 0.768429 0
0.887495 0.767849 0
0.906249 0.767361 0
0.925002 0.766873 0
0.943755 0.76701 0
0.962493 0.767529 0
0.981247 0.768032 0
1 0.768673 0
0 0.812497 0
0.0187381 0.812497 0
0.0374914 0.812497 0
0.0562448 0.812497 0
0.0749981 0.812497 0
0.0937362 0.812497 0
0.131487 0.812497 0
0.175906 0.812497 0
0.227268 0.812497 0
0.285496 0.812497 0
0.34699 0.812497 0
0.410971 0.812497 0
0.477134 0.812497 0
0.539742 0.812497 0
0.596216 0.812497 0
0.647776 0.809934 0
0.695857 0.806897 0
0.718746 0.804303 0
0.737499 0.80209 0
0.756252 0.800168 0
0.77499 0.798871 0
0.793744 0.798627 0
0.812497 0.798596 0
0.83125 0.798566 0
0.850004 0.798535 0
0.868742 0.798489 0
0.887495 0.798444 0
0.906249 0.798398 0
0.925002 0.798337 0
0.943755 0.798321 0
0.962493 0.798337 0
0.981247 0.798352 0
1 0.798367 0
0 0.83125 0
0.0187381 0.83125 0
0.0374914 0.83125 0
0.0562448 0.83125 0
0.0749981 0.83125 0
0.0937362 0.83125 0
0.132738 0.83125 0
0.177447 0.83125 0
0.229145 0.83125 0
0.287648 0.83125 0
0.348943 0.83125 0
0.41297 0.83125 0
0.479042 0.83125 0
0.541573 0.83125 0
0.597787 0.83125 0
0.649134 0.82855 0
0.697108 0.825528 0
0.718746 0.82298 0
0.737499 0.820783 0
0.756252 0.818845 0
0.77499 0.817624 0
0.793744 0.817411 0
0.812497 0.817395 0
0.83125 0.817365 0
0.850004 0.817334 0
0.868742 0.817288 0
0.887495 0.817243 0
0.906249 0.817197 0
0.925002 0.817151 0
0.943755 0.817136 0
0.962493 0.817151 0
0.981247 0.817166 0
1 0.817182 0
0 0.850004 0
0.0187381 0.850004 0
0.0374914 0.850004 0
0.0562448 0.850004 0
0.0749981 0.850004 0
0.0937362 0.850004 0
0.133883 0.850004 0
0.178775 0.850004 0
0.230488 0.850004 0
0.289174 0.850004 0
0.350439 0.850004 0
0.414603 0.850004 0
0.480842 0.850004 0
0.543038 0.850004 0
0.599008 0.850004 0
0.650187 0.847211 0
0.698054 0.844205 0
0.718746 0.841657 0
0.737499 0.839475 0
0.756252 0.837568 0
0.77499 0.836393 0
0.793744 0.836194 0
0.812497 0.836179 0
0.83125 0.836149 0
0.850004 0.836118 0
0.868742 0.836088 0
0.887495 0.836042 0
0.906249 0.835996 0
0.925002 0.83595 0
0.943755 0.83595 0
0.962493 0.835966 0
0.981247 0.835966 0
1 0.835981 0
0 0.868742 0
0.0187381 0.868742 0
0.0374914 0.868742 0
0.0562448 0.868742 0
0.0749981 0.868742 0
0.094255 0.868742 0
0.134478 0.868742 0
0.179583 0.868742 0
0.231388 0.868742 0
0.290166 0.868742 0
0.351492 0.868742 0
0.415732 0.868742 0
0.481971 0.868742 0
0.543999 0.868742 0
0.599786 0.868742 0
0.650843 0.865904 0
0.698726 0.862913 0
0.718746 0.860365 0
0.737499 0.858198 0
0.756252 0.856291 0
0.77499 0.855146 0
0.793744 0.854978 0
0.812497 0.854963 0
0.83125 0.854932 0
0.850004 0.854902 0
0.868742 0.854871 0
0.887495 0.854841 0
0.906249 0.854795 0
0.925002 0.854749 0
0.943755 0.854749 0
0.962493 0.854765 0
0.981247 0.854765 0
1 0.854795 0
0 0.887495 0
0.0187381 0.887495 0
0.0374914 0.887495 0
0.0562448 0.887495 0
0.0749981 0.887495 0
0.0944533 0.887495 0
0.134676 0.887495 0
0.179843 0.887495 0
0.23183 0.887495 0
0.290837 0.887495 0
0.352193 0.887495 0
0.416236 0.887495 0
0.482414 0.887495 0
0.544335 0.887495 0
0.600122 0.887495 0
0.651377 0.884596 0
0.699092 0.881636 0
0.718746 0.879103 0
0.737499 0.876936 0
0.756252 0.875044 0
0.77499 0.873915 0
0.793744 0.873747 0
0.812497 0.873732 0
0.83125 0.873716 0
0.850004 0.873686 0
0.868742 0.873655 0
0.887495 0.873625 0
0.906249 0.873594 0
0.925002 0.873549 0
0.943755 0.873549 0
0.962493 0.873564 0
0.981247 0.873564 0
1 0.873594 0
0 0.906249 0
0.0187381 0.906249 0
0.0374914 0.906249 0
0.0562448 0.906249 0
0.0749981 0.906249 0
0.0946059 0.906249 0
0.134844 0.906249 0
0.180209 0.906249 0
0.232395 0.906249 0
