LUT color transfer/LUTs/58.cube
TITLE "Generate by Resolve"
LUT_3D_SIZE 9
0 0.00738537 0.0106813
0.0818036 0.00621042 0.0132296
0.208011 0.00138857 0
0.372091 0.000381476 0
0.545617 0 0
0.715572 0 0
0.842237 0 0
0.917235 0 0
0.992233 0 0
0 0.101244 0.00666819
0.0794842 0.103288 0.00885023
0.210468 0.100237 0
0.386465 0.090135 0
0.578302 0.0779431 0
0.757656 0.0749981 0
0.842847 0.0749981 0
0.917861 0.0749981 0
0.993042 0.0824903 0
0 0.223529 0
0.0749981 0.233539 0
0.225437 0.231952 0
0.424186 0.225666 0
0.60415 0.232792 0
0.77499 0.246128 0
0.850004 0.248051 0
0.925002 0.25185 0
1 0.264973 0
0 0.394247 0
0.0749981 0.414267 0
0.200885 0.42678 0
0.466087 0.408515 0
0.664027 0.410071 0
0.77499 0.429664 0
0.850004 0.43267 0
0.925002 0.432914 0
1 0.440879 0
0 0.595911 0
0.0749981 0.618341 0
0.203006 0.628351 0
0.471092 0.606287 0
0.686122 0.593194 0
0.77499 0.594476 0
0.850004 0.594232 0
0.925002 0.592294 0
1 0.596185 0
0 0.77499 0
0.0749981 0.77499 0
0.222553 0.77499 0
0.475441 0.76907 0
0.694057 0.7467 0
0.77499 0.737881 0
0.850004 0.736004 0
0.925002 0.73341 0
1 0.735546 0
0 0.850004 0
0.0749981 0.850004 0
0.230488 0.850004 0
0.480842 0.850004 0
0.698054 0.844205 0
0.77499 0.836393 0
0.850004 0.836118 0
0.925002 0.83595 0
1 0.835981 0
0 0.925002 0
0.0749981 0.925002 0
0.233524 0.925002 0
0.484794 0.925002 0
0.699992 0.91899 0
0.77499 0.911406 0
0.850004 0.911269 0
0.925002 0.911162 0
1 0.911192 0
0 1 0
0.0749981 1 0
0.243198 1 0
0.496574 1 0
0.699992 0.993088 0
0.77499 0.986511 0
0.850004 0.98645 0
0.925002 0.986328 0
1 0.986328 0
0 0.0108644 0.108446
0.0749981 0.0105898 0.112551
0.215885 0 0.102251
0.37911 0 0.0749981
0.549249 0 0.0749981
0.718883 0 0.0749981
0.842237 0 0.0749981
0.917235 0 0.0749981
0.993408 0 0.0749981
0 0.102983 0.105898
0.0749981 0.106157 0.107973
0.216175 0.100008 0.100816
0.397528 0.0891737 0.0749981
0.590112 0.0778973 0.0749981
0.767285 0.075761 0.0749981
0.848493 0.0749981 0.0749981
0.923919 0.0753033 0.0749981
1 0.0845655 0.0749981
0 0.226123 0.0915694
0.0749981 0.237064 0.0966964
0.220951 0.239155 0.102312
0.417533 0.235981 0.0865644
0.607965 0.241001 0.0749981
0.77499 0.252827 0.0749981
0.850004 0.254444 0.0749981
0.925002 0.258854 0.0749981
1 0.271824 0.0749981
0 0.400671 0.0749981
0.0749981 0.421592 0.0749981
0.201862 0.435752 0.0843366
0.464988 0.418479 0.0936141
0.659571 0.421164 0.0980087
0.77499 0.441291 0.0749981
0.850004 0.443275 0.0749981
0.925002 0.443229 0.0749981
1 0.450874 0.078233
0 0.602564 0.0749981
0.0749981 0.624903 0.0749981
0.206195 0.635218 0.0800488
0.465812 0.615152 0.0749981
0.683146 0.600076 0.0957046
0.77499 0.601068 0.105562
0.850004 0.600671 0.103243
0.925002 0.598474 0.0999313
1 0.602106 0.10219
0 0.77499 0.0749981
0.0749981 0.77499 0.0822614
0.224201 0.77499 0.0885023
0.46746 0.77496 0.0749981
0.689601 0.751339 0.0806439
0.77499 0.742107 0.0993515
0.850004 0.740337 0.0982223
0.925002 0.737743 0.0952316
1 0.739742 0.0959335
0 0.850004 0.0749981
0.0749981 0.850004 0.085771
0.231312 0.850004 0.0902724
0.472526 0.850004 0.0749981
0.692927 0.845884 0.0789197
0.77499 0.837919 0.0970474
0.850004 0.837674 0.0957046
0.925002 0.837583 0.0926375
1 0.837613 0.0936446
0 0.925002 0.0749981
0.0749981 0.925002 0.085771
0.234028 0.925002 0.0903792
0.476219 0.925002 0.0749981
0.69572 0.920638 0.0814984
0.77499 0.912932 0.100206
0.850004 0.912795 0.0995193
0.925002 0.912734 0.0975509
1 0.912764 0.0985733
0 1 0.0791791
0.0749981 1 0.0918441
0.243168 1 0.0949569
0.487999 1 0.0770886
0.699992 0.99469 0.0888228
0.77499 0.987976 0.10602
0.850004 0.987945 0.104417
0.925002 0.987854 0.101579
1 0.987854 0.101427
0 0.0156863 0.240574
0.0749981 0.0159915 0.245029
0.194202 0 0.260166
0.398596 0 0.211231
0.570214 0 0.155413
0.735241 0 0.149996
0.850004 0 0.149996
0.925002 0 0.149996
1 0 0.149996
0 0.111955 0.229786
0.0749981 0.116625 0.235706
0.194583 0.101488 0.265492
0.422782 0.0781567 0.222751
0.61532 0.0749981 0.170825
0.77499 0.0749981 0.149996
0.850004 0.0749981 0.149996
0.925002 0.0749981 0.152209
1 0.0789502 0.168704
0 0.229053 0.22678
0.0749981 0.240726 0.235767
0.201999 0.246967 0.245518
0.422415 0.238849 0.22681
0.62266 0.241688 0.192264
0.77499 0.253758 0.172778
0.850004 0.25507 0.175952
0.925002 0.259098 0.180987
1 0.271427 0.193194
0 0.405554 0.203494
0.0749981 0.426947 0.215412
0.201724 0.439963 0.242527
0.447776 0.428107 0.247822
0.634714 0.434256 0.235843
0.77499 0.452338 0.203082
0.850004 0.454307 0.202945
0.925002 0.453773 0.202075
1 0.461311 0.210437
0 0.606348 0.203723
0.0749981 0.628275 0.222004
0.206012 0.637278 0.244419
0.440497 0.623758 0.235126
0.667475 0.604959 0.25481
0.77499 0.607111 0.259953
0.850004 0.607019 0.256916
0.925002 0.604913 0.253269
1 0.607828 0.257115
0 0.77499 0.224598
0.0749981 0.77499 0.244205
0.221363 0.77499 0.256138
0.446067 0.77499 0.239704
0.671672 0.754543 0.238727
0.77499 0.744411 0.262776
0.850004 0.742596 0.262196
0.925002 0.740093 0.259281
1 0.741817 0.260426
0 0.850004 0.233173
0.0749981 0.850004 0.250477
0.227909 0.850004 0.260777
0.451316 0.850004 0.242817
0.673823 0.848676 0.238453
0.77499 0.839597 0.261509
0.850004 0.839307 0.260594
0.925002 0.839277 0.257603
1 0.839292 0.258976
0 0.925002 0.234302
0.0749981 0.925002 0.251362
0.230777 0.925002 0.262257
0.454932 0.925002 0.245167
0.676921 0.923308 0.242695
0.77499 0.914565 0.266163
0.850004 0.914366 0.26598
0.925002 0.914351 0.264149
1 0.914366 0.265309
0 1 0.243793
0.0749981 1 0.26067
0.239246 1 0.270085
0.465721 1 0.252277
0.687251 0.99707 0.253605
0.77499 0.989487 0.274525
0.850004 0.989471 0.27274
0.925002 0.989425 0.269459
1 0.98941 0.269108
0 0.0209354 0.414527
0.0749981 0.0218051 0.418601
0.149996 0.0111849 0.440391
0.382177 0 0.424491
0.585657 0 0.383993
0.760174 0 0.327932
0.850004 0 0.297978
0.925002 0 0.300084
1 0 0.328603
0 0.118502 0.405478
0.0749981 0.124025 0.416358
0.149996 0.11574 0.451347
0.410224 0.0749981 0.453712
0.632258 0.0749981 0.424033
0.77499 0.0749981 0.384283
0.850004 0.0749981 0.395865
0.925002 0.0749981 0.413779
1 0.0749981 0.444068
0 0.246983 0.378759
0.0749981 0.262211 0.391348
0.149996 0.270756 0.406363
0.413138 0.235294 0.472221
0.654032 0.226856 0.441245
0.77499 0.241596 0.401419
0.850004 0.242084 0.412146
0.925002 0.244587 0.424063
1 0.255573 0.445762
0 0.409628 0.391165
0.0749981 0.43125 0.408927
0.185962 0.445457 0.433036
0.401205 0.442924 0.436408
0.629068 0.436896 0.422278
0.77499 0.449836 0.396399
0.850004 0.451514 0.397848
0.925002 0.450248 0.398276
1 0.45742 0.408103
0 0.6094 0.390646
0.0749981 0.630365 0.413123
0.199344 0.638132 0.439017
0.425132 0.623255 0.450858
0.643046 0.608103 0.451865
0.77499 0.615335 0.432303
0.850004 0.61561 0.427436
0.925002 0.613703 0.423972
1 0.616037 0.428672
0 0.77499 0.415702
0.0749981 0.77499 0.436469
0.21413 0.77499 0.456764
0.432288 0.77496 0.455283
0.640803 0.757137 0.439002
0.77499 0.745464 0.459495
0.850004 0.743709 0.459052
0.925002 0.741527 0.456748
1 0.742855 0.458305
0 0.850004 0.42652
0.0749981 0.850004 0.443793
0.219486 0.850004 0.461921
0.437659 0.850004 0.458824
0.641566 0.850004 0.441672
0.77499 0.841306 0.458976
0.850004 0.840986 0.458442
0.925002 0.84094 0.456092
1 0.84097 0.457786
0 0.925002 0.427268
0.0749981 0.925002 0.444144
0.222354 0.925002 0.463004
0.441627 0.925002 0.46183
0.645258 0.925002 0.44622
0.77499 0.916243 0.464363
0.850004 0.916091 0.464485
0.925002 0.91606 0.46302
1 0.916091 0.464195
0 1 0.436896
0.0749981 1 0.454002
0.230503 1 0.471351
0.45214 1 0.470832
0.656184 1 0.457008
0.77499 0.991302 0.473426
0.850004 0.991226 0.471702
0.925002 0.99118 0.468666
1 0.991165 0.468132
0 0.0256352 0.579156
0.0749981 0.0268406 0.583062
0.149996 0.0187228 0.604196
0.318944 0 0.627924
0.575006 0 0.587152
0.762249 0 0.568811
0.850004 0 0.547738
0.925002 0 0.55227
1 0 0.580667
0 0.124743 0.573724
0.0749981 0.131426 0.585809
0.149996 0.125597 0.619532
0.346731 0.0835126 0.652949
0.627253 0.0749981 0.625254
0.77499 0.0749981 0.620264
0.850004 0.0749981 0.629816
0.925002 0.0749981 0.642145
1 0.0749981 0.661234
0 0.263523 0.539849
0.0749981 0.281239 0.553017
0.149996 0.290028 0.57908
0.337087 0.257877 0.652125
0.651911 0.225635 0.649561
0.77499 0.231464 0.644465
0.850004 0.232639 0.652155
0.925002 0.235721 0.659968
1 0.247517 0.673091
0 0.427573 0.550286
0.0749981 0.450675 0.566094
0.149996 0.468482 0.571038
0.324361 0.469108 0.593515
0.627131 0.433951 0.640269
0.77499 0.43769 0.61944
0.850004 0.438743 0.619806
0.925002 0.437095 0.620493
1 0.44387 0.628779
0 0.613092 0.572824
0.0749981 0.633478 0.593317
0.185534 0.641901 0.612818
0.406806 0.628687 0.612558
0.605646 0.618555 0.60882
0.77499 0.614511 0.594461
0.850004 0.613916 0.591012
0.925002 0.611795 0.588876
1 0.614054 0.592096
0 0.77499 0.589166
0.0749981 0.77499 0.607156
0.203174 0.77499 0.619532
0.425528 0.774136 0.617319
0.624857 0.756802 0.619074
0.77499 0.748165 0.621195
0.850004 0.746929 0.619486
0.925002 0.744884 0.617212
1 0.745998 0.61857
0 0.850004 0.596857
0.0749981 0.850004 0.613062
0.206607 0.850004 0.623682
0.429541 0.850004 0.62005
0.626703 0.850004 0.619959
0.77499 0.843961 0.621439
0.850004 0.843641 0.621149
0.925002 0.843565 0.619471
1 0.843626 0.620706
0 0.925002 0.599054
0.0749981 0.925002 0.614633
0.20766 0.925002 0.625238
0.432471 0.925002 0.621454
0.630488 0.925002 0.622919
0.77499 0.918975 0.625864
0.850004 0.918883 0.626062
0.925002 0.918822 0.624979
1 0.918853 0.625513
0 1 0.608392
0.0749981 1 0.623514
0.215106 1 0.632731
0.442557 1 0.62771
0.640375 1 0.630335
0.77499 0.994202 0.632517
0.850004 0.994141 0.631266
0.925002 0.994034 0.629129
1 0.994003 0.628611
0 0.0298466 0.717708
0.0749981 0.0313115 0.721294
0.149996 0.0243229 0.738933
0.263111 0 0.769589
0.556725 0 0.746197
0.760845 0 0.729274
0.850004 0 0.726925
0.925002 0 0.732799
1 0 0.752712
0 0.131395 0.715541
0.0749981 0.139635 0.727382
0.149996 0.135225 0.756329
0.289647 0.0995956 0.77499
0.615686 0.0749981 0.77499
0.77499 0.0749981 0.77499
0.850004 0.0749981 0.77499
0.925002 0.0749981 0.77499
1 0.0749981 0.77499
0 0.277058 0.684764
0.0749981 0.297108 0.698131
0.149996 0.305913 0.724758
0.285344 0.278126 0.77499
0.633982 0.234363 0.77499
0.77499 0.23357 0.77499
0.850004 0.234852 0.77499
0.925002 0.238392 0.77499
1 0.249897 0.77499
0 0.450141 0.676524
0.0749981 0.474434 0.691096
0.149996 0.493904 0.6907
0.27396 0.489052 0.728283
0.581048 0.451301 0.77499
0.77499 0.437339 0.77499
0.850004 0.4374 0.77499
0.925002 0.435752 0.77499
1 0.442527 0.77499
0 0.623743 0.712779
0.0749981 0.644633 0.727764
0.159167 0.653361 0.739986
0.35552 0.647486 0.730709
0.55816 0.634485 0.735012
0.77499 0.609674 0.76083
0.850004 0.607034 0.755642
0.925002 0.604654 0.754498
1 0.606973 0.756786
0 0.77499 0.733425
0.0749981 0.77499 0.743709
0.193393 0.77499 0.754849
0.412238 0.77499 0.74905
0.61297 0.76083 0.742306
0.771679 0.755215 0.746014
0.850004 0.750362 0.743343
0.925002 0.748211 0.741238
1 0.749279 0.742763
0 0.850004 0.735897
0.0749981 0.850004 0.743969
0.200031 0.850004 0.752743
0.420859 0.850004 0.748669
0.622431 0.850004 0.747356
0.77499 0.847074 0.7523
0.850004 0.846693 0.751431
0.925002 0.846632 0.750332
1 0.846708 0.751553
0 0.925002 0.737865
0.0749981 0.925002 0.744289
0.201007 0.925002 0.752773
0.422736 0.925002 0.749813
0.624796 0.925002 0.749355
0.77499 0.922011 0.755367
0.850004 0.92192 0.755169
0.925002 0.921874 0.75436
1 0.921874 0.754513
0 1 0.741375
0.0749981 1 0.745571
0.209827 1 0.753033
0.433005 1 0.752667
0.63415 1 0.753017
0.77499 0.997147 0.759121
0.850004 0.997101 0.758236
0.925002 0.997024 0.757046
1 0.997009 0.75671
0 0.0348821 0.844266
0.0749981 0.0366217 0.847501
0.149996 0.030396 0.850004
0.224994 0.0024567 0.850004
0.520302 0 0.850004
0.75903 0 0.850004
0.850004 0 0.850004
0.925002 0 0.850004
1 0 0.850004
0 0.139757 0.844633
0.0749981 0.149676 0.850004
0.149996 0.146288 0.850004
0.245045 0.114015 0.850004
0.586557 0.0749981 0.850004
0.77499 0.0749981 0.850004
0.850004 0.0749981 0.850004
0.925002 0.0749981 0.850004
1 0.0749981 0.850004
0 0.291661 0.818387
0.0749981 0.313817 0.830777
0.149996 0.322728 0.850004
0.240757 0.297322 0.850004
0.591821 0.25037 0.850004
0.77499 0.237491 0.850004
0.850004 0.237232 0.850004
0.925002 0.240955 0.850004
1 0.25185 0.850004
0 0.472038 0.797757
0.0749981 0.497841 0.810849
0.149996 0.51603 0.816693
0.231922 0.507637 0.849454
0.531121 0.470268 0.850004
0.77499 0.442817 0.850004
0.850004 0.439048 0.850004
0.925002 0.437308 0.850004
1 0.443656 0.850004
0 0.639826 0.827436
0.0749981 0.660838 0.825605
0.149996 0.670283 0.831785
0.295094 0.669322 0.84036
0.512215 0.650095 0.847318
0.757595 0.61944 0.850004
0.850004 0.607477 0.850004
0.925002 0.604974 0.850004
1 0.607217 0.850004
0 0.77499 0.820279
0.0749981 0.77499 0.820508
0.180713 0.77499 0.828489
0.385565 0.77499 0.830884
0.571069 0.77499 0.83061
0.740398 0.766323 0.837644
0.850004 0.749584 0.842985
0.925002 0.746914 0.843351
1 0.748043 0.843198
0 0.850004 0.816358
0.0749981 0.850004 0.820325
0.202441 0.850004 0.827817
0.421118 0.850004 0.828092
0.620508 0.850004 0.8309
0.77499 0.847959 0.83917
0.850004 0.847333 0.839796
0.925002 0.847333 0.839796
1 0.847333 0.839796
0 0.925002 0.816358
0.0749981 0.925002 0.820493
0.205737 0.925002 0.827924
0.426932 0.925002 0.828061
0.626734 0.925002 0.831373
0.77499 0.922332 0.839796
0.850004 0.922332 0.839796
0.925002 0.922332 0.839796
1 0.922332 0.839796
0 1 0.81648
0.0749981 1 0.821103
0.214801 1 0.828153
0.43769 1 0.828016
0.635676 1 0.832105
0.77499 0.99733 0.839796
0.850004 0.99733 0.839796
0.925002 0.99733 0.839796
1 0.99733 0.839796
0 0.0407568 0.925002
0.0749981 0.0427863 0.925002
0.149996 0.0371099 0.925002
0.224994 0.0122072 0.925002
0.468559 0 0.925002
0.748638 0 0.925002
0.850004 0 0.925002
0.925002 0 0.925002
1 0 0.925002
0 0.149584 0.925002
0.0749981 0.161334 0.925002
0.149996 0.158602 0.925002
0.224994 0.129702 0.925002
0.538964 0.0773022 0.925002
0.77499 0.0749981 0.925002
0.850004 0.0749981 0.925002
0.925002 0.0749981 0.925002
1 0.0749981 0.925002
0 0.307607 0.925002
0.0749981 0.331472 0.925002
0.149996 0.340307 0.925002
0.224994 0.317281 0.925002
0.536187 0.270802 0.925002
0.77499 0.244739 0.925002
0.850004 0.239551 0.925002
0.925002 0.242939 0.925002
1 0.253407 0.925002
0 0.493263 0.913085
0.0749981 0.5196 0.910521
0.149996 0.535622 0.907256
0.224994 0.525414 0.917784
0.477729 0.490196 0.925002
0.77499 0.454124 0.925002
0.850004 0.441291 0.925002
0.925002 0.438453 0.925002
1 0.444495 0.925002
0 0.657862 0.900893
0.0749981 0.678676 0.899062
0.149996 0.69041 0.898268
0.246677 0.687282 0.911086
0.465354 0.666316 0.918349
0.719936 0.63183 0.925002
0.850004 0.610269 0.925002
0.925002 0.605539 0.925002
1 0.607507 0.925002
0 0.77499 0.894072
0.0749981 0.77499 0.892424
0.15169 0.77499 0.89984
0.335943 0.77499 0.903792
0.520592 0.77499 0.903105
0.709514 0.77499 0.907515
0.850004 0.755383 0.917205
0.925002 0.747295 0.918303
1 0.748394 0.918151
0 0.850004 0.891356
0.0749981 0.850004 0.894514
0.192844 0.850004 0.902464
0.404471 0.850004 0.903181
0.596353 0.850004 0.904418
0.747738 0.850004 0.910689
0.850004 0.847333 0.914794
0.925002 0.847333 0.914794
1 0.847333 0.914794
0 0.925002 0.891356
0.0749981 0.925002 0.895827
0.208606 0.925002 0.903014
0.429389 0.925002 0.903044
0.627771 0.925002 0.906462
0.77499 0.922515 0.914839
0.850004 0.922332 0.914794
0.925002 0.922332 0.914794
1 0.922332 0.914794
0 1 0.891554
0.0749981 1 0.896422
0.218738 1 0.903227
0.441886 1 0.902998
0.638575 1 0.907301
0.77499 0.99733 0.914794
0.850004 0.99733 0.914794
0.925002 0.99733 0.914794
1 0.99733 0.914794
0 0.0466468 1
0.0749981 0.049012 1
0.149996 0.0435645 1
0.224994 0.0198367 1
0.418357 0 1
0.730892 0 1
0.850004 0 1
0.925002 0 1
1 0 1
0 0.15993 1
0.0749981 0.173327 1
0.149996 0.170993 1
0.224994 0.144076 1
0.491661 0.093843 1
0.77499 0.0749981 1
0.850004 0.0749981 1
0.925002 0.0749981 1
1 0.0749981 1
0 0.32343 1
0.0749981 0.348974 1
0.149996 0.357534 1
0.224994 0.33695 1
0.486961 0.290471 1
0.77499 0.254917 1
0.850004 0.243427 1
0.925002 0.246235 1
1 0.256123 1
0 0.512032 0.987259
0.0749981 0.538293 0.981765
0.149996 0.552361 0.979461
0.224994 0.542275 0.982712
0.427924 0.509789 1
0.736843 0.468528 1
0.850004 0.446708 1
0.925002 0.440299 1
1 0.445808 1
0 0.674968 0.97438
0.0749981 0.695079 0.972625
0.149996 0.699992 0.971481
0.224994 0.699992 0.979767
0.425727 0.680583 0.98999
0.683864 0.644678 1
0.850004 0.617548 1
0.925002 0.606668 1
1 0.608454 1
0 0.77499 0.96762
0.0749981 0.77499 0.966384
0.149996 0.77499 0.970382
0.285145 0.77499 0.978042
0.476295 0.77499 0.97821
0.681041 0.77499 0.980133
0.850004 0.76495 0.991028
0.925002 0.748714 0.993103
1 0.749294 0.993027
0 0.850004 0.966369
0.0749981 0.850004 0.967559
0.172412 0.850004 0.976287
0.371481 0.850004 0.978302
0.556481 0.850004 0.978195
0.716274 0.850004 0.982513
0.850004 0.847471 0.989837
0.925002 0.847333 0.989792
1 0.847333 0.989792
0 0.925002 0.966369
0.0749981 0.925002 0.970489
0.203723 0.925002 0.977874
0.421118 0.925002 0.978088
0.617166 0.925002 0.980652
0.774716 0.923308 0.988495
0.850004 0.922332 0.989792
0.925002 0.922332 0.989792
1 0.922332 0.989792
0 1 0.966522
0.0749981 1 0.971191
0.215625 1 0.978164
0.439521 1 0.978012
0.637049 1 0.982193
0.77499 0.99733 0.989792
0.850004 0.99733 0.989792
0.925002 0.99733 0.989792
1 0.99733 0.989792
