LUT color transfer/LUTs/59.cube
TITLE "Generate by Resolve"
LUT_3D_SIZE 33
0 0.0110781 0.0160372
0.0124971 0.0111086 0.0160525
0.0249943 0.0116426 0.0163577
0.0374914 0.0117647 0.0175021
0.0601968 0.00932326 0.0198367
0.0904555 0.00633249 0.0172122
0.118898 0.00489815 0.00717174
0.150973 0.0030518 0
0.187015 0.00207523 0
0.226917 0.00292973 0
0.271778 0.00303655 0
0.320302 0.00218204 0
0.370657 0.000564584 0
0.421225 0 0
0.471092 0 0
0.51986 0 0
0.568414 0 0
0.617517 0 0
0.66659 0 0
0.71426 0 0
0.760861 0 0
0.805463 0 0
0.848463 0 0
0.874113 0 0
0.88835 0 0
0.900847 0 0
0.913359 0 0
0.925856 0 0
0.938354 0 0
0.950851 0 0
0.963348 0 0
0.97586 0 0
0.988357 0 0
0 0.0282292 0.0162661
0.0124971 0.028275 0.0162814
0.0249943 0.0288853 0.016495
0.0374914 0.0292821 0.0165713
0.0590372 0.0283513 0.0173495
0.0881666 0.0259251 0.0151827
0.116655 0.0245365 0.00721752
0.148989 0.0224155 0
0.185519 0.0196994 0
0.226459 0.0177615 0
0.272328 0.0159304 0
0.322255 0.0142977 0
0.372747 0.0129549 0
0.42414 0.0124971 0
0.474586 0.0124971 0
0.5243 0.0124971 0
0.574731 0.0124971 0
0.626261 0.0124971 0
0.677165 0.0124971 0
0.726284 0.0124971 0
0.773159 0.0124971 0
0.81854 0.0124971 0
0.85684 0.0124971 0
0.875853 0.0124971 0
0.88835 0.0124971 0
0.900847 0.0124971 0
0.913359 0.0124971 0
0.925856 0.0124971 0
0.938354 0.0124971 0
0.950851 0.0124971 0
0.963348 0.0124971 0
0.97586 0.0124971 0
0.988357 0.0124971 0
0 0.0472267 0.014725
0.0124971 0.0471809 0.0147097
0.0249943 0.0478981 0.0151217
0.0374914 0.0482948 0.0158694
0.0604868 0.0475166 0.0166781
0.0879835 0.0457008 0.0165408
0.115648 0.0449683 0.0087129
0.148043 0.0431373 0
0.185 0.0404517 0
0.227131 0.0366522 0
0.275242 0.0314488 0
0.326925 0.0273899 0
0.380652 0.0249943 0
0.434318 0.0249943 0
0.485588 0.0249943 0
0.537713 0.0249943 0
0.59028 0.0249943 0
0.644083 0.0249943 0
0.695644 0.0249943 0
0.744747 0.0249943 0
0.791867 0.0249943 0
0.837247 0.0249943 0
0.862135 0.0249943 0
0.875853 0.0249943 0
0.88835 0.0249943 0
0.900847 0.0249943 0
0.913359 0.0249943 0
0.925856 0.0249943 0
0.938354 0.0249943 0
0.950851 0.0249943 0
0.963348 0.0249943 0
0.97586 0.0249943 0
0.988357 0.0249943 0
0 0.0675212 0.0126497
0.0124971 0.0675212 0.0126802
0.0249943 0.0683909 0.0132143
0.0374914 0.0691234 0.0143282
0.0593576 0.0686961 0.0157321
0.0885939 0.0670939 0.0151369
0.118929 0.0654765 0.0133364
0.149218 0.0649729 0.00277714
0.186191 0.0629892 0
0.228992 0.0599374 0
0.278233 0.0556954 0
0.331502 0.0502327 0
0.387503 0.0439612 0
0.443214 0.0379339 0
0.497765 0.0374914 0
0.552239 0.0374914 0
0.607324 0.0374914 0
0.66128 0.0374914 0
0.712901 0.0374914 0
0.762295 0.0374914 0
0.809598 0.0374914 0
0.849393 0.0374914 0
0.863355 0.0374914 0
0.875853 0.0374914 0
0.88835 0.0374914 0
0.900847 0.0374914 0
0.913359 0.0374914 0
0.925856 0.0374914 0
0.938354 0.0374914 0
0.950851 0.0374914 0
0.963348 0.0374914 0
0.97586 0.0374914 0
0.988357 0.0374914 0
0 0.0893873 0.00999466
0.0124971 0.0896468 0.0101472
0.0249943 0.0908217 0.0108949
0.0374914 0.092195 0.0122072
0.056733 0.0924239 0.0132753
0.0856794 0.0915847 0.0128786
0.123949 0.0882582 0.014786
0.155947 0.0878767 0.00993362
0.190723 0.0878767 0
0.23357 0.0859083 0
0.283177 0.0823835 0
0.336675 0.077821 0
0.392218 0.0727092 0
0.448203 0.0676127 0
0.503899 0.0628214 0
0.560693 0.058381 0
0.617456 0.0544289 0
0.673289 0.0518044 0
0.72636 0.0502785 0
0.776287 0.0499886 0
0.824002 0.0499886 0
0.85153 0.0500191 0
0.864302 0.0508431 0
0.876799 0.0502937 0
0.889281 0.0499886 0
0.901106 0.0499886 0
0.913954 0.0499886 0
0.926772 0.0499886 0
0.9393 0.0499886 0
0.951812 0.0515908 0
0.964355 0.0536049 0
0.976883 0.0558938 0
0.989563 0.0612345 0
0 0.114092 0.00476081
0.0124971 0.114611 0.00503548
0.0249943 0.116075 0.00601205
0.0374914 0.118624 0.00796521
0.0527504 0.119905 0.009308
0.0822003 0.119875 0.00961318
0.121996 0.117174 0.00944533
0.164309 0.113817 0.0135195
0.201495 0.113573 0.00660716
0.241016 0.113725 0
0.288975 0.111711 0
0.341802 0.108293 0
0.396811 0.104311 0
0.453086 0.100542 0
0.508873 0.0970932 0
0.565087 0.0938582 0
0.622492 0.0910811 0
0.678386 0.0893873 0
0.73138 0.0888228 0
0.781903 0.0896315 0
0.83003 0.091371 0
0.852506 0.0911421 0
0.865415 0.0902876 0
0.877867 0.0895094 0
0.890318 0.0884871 0
0.902754 0.0875868 0
0.91519 0.0865949 0
0.927642 0.085771 0
0.940429 0.0904707 0
0.953277 0.0953231 0
0.966171 0.100389 0
0.979126 0.105806 0
0.992081 0.110842 0
0 0.142138 0
0.0124971 0.143435 0
0.0249943 0.14522 0
0.0374914 0.148745 0.00230411
0.0499886 0.150942 0.00407416
0.0777447 0.15169 0.00500496
0.115923 0.150668 0.00436408
0.165072 0.146395 0.00779736
0.213489 0.142641 0.0111543
0.257313 0.141909 0.00267033
0.302266 0.142107 0
0.352239 0.14078 0
0.405798 0.138628 0
0.461006 0.136461 0
0.516472 0.134447 0
0.572824 0.132769 0
0.630381 0.13167 0
0.686046 0.131518 0
0.739193 0.132845 0
0.789242 0.135103 0
0.837385 0.138415 0
0.856001 0.13875 0
0.868589 0.13843 0
0.881086 0.13843 0
0.893553 0.13814 0
0.90602 0.137682 0
0.918456 0.137087 0
0.930983 0.137346 0
0.943984 0.142184 0
0.957046 0.147402 0
0.970169 0.15259 0
0.983322 0.157824 0
0.99649 0.163073 0
0 0.174243 0
0.0124971 0.176059 0
0.0249943 0.178149 0
0.0374914 0.18262 0
0.0499886 0.185809 0
0.0718853 0.187533 0
0.109224 0.187778 0
0.159533 0.184619 0
0.21677 0.179309 0.00556954
0.273518 0.17496 0.00761425
0.324971 0.173892 0
0.373068 0.174701 0
0.422644 0.175143 0
0.47483 0.175235 0
0.528817 0.175082 0
0.584207 0.175174 0
0.641154 0.176074 0
0.696056 0.178256 0
0.747906 0.18117 0
0.797269 0.185122 0
0.844785 0.189776 0
0.860563 0.190372 0
0.873106 0.190768 0
0.885664 0.191104 0
0.898177 0.191287 0
0.910674 0.191272 0
0.92314 0.191058 0
0.935714 0.191623 0
0.948852 0.196765 0
0.96199 0.201862 0
0.975006 0.207034 0
0.987503 0.212222 0
1 0.217441 0
0 0.210315 0
0.0124971 0.212482 0
0.0249943 0.214969 0
0.0374914 0.220569 0
0.0499886 0.22533 0
0.0640421 0.227802 0
0.101396 0.229282 0
0.149783 0.228305 0
0.213169 0.222934 0
0.280003 0.216876 0.00216678
0.344961 0.212558 0.00331121
0.399649 0.211734 0
0.448783 0.213489 0
0.498039 0.215991 0
0.548653 0.218433 0
0.601648 0.221012 0
0.656229 0.224186 0
0.708064 0.228168 0
0.757748 0.232807 0
0.805432 0.238285 0
0.850004 0.24419 0
0.862501 0.245426 0
0.874998 0.245975 0
0.887495 0.246571 0
0.899992 0.247089 0
0.912505 0.247349 0
0.925002 0.247456 0
0.937499 0.248219 0
0.949996 0.252781 0
0.962493 0.257694 0
0.975006 0.262623 0
0.987503 0.267475 0
1 0.27248 0
0 0.250782 0
0.0124971 0.253758 0
0.0249943 0.256886 0
0.0374914 0.263737 0
0.0499886 0.269642 0
0.062501 0.273487 0
0.0923018 0.276356 0
0.139376 0.277134 0
0.203723 0.273808 0
0.279225 0.266773 0
0.354208 0.260395 0
0.419928 0.256947 0
0.476875 0.256977 0
0.528542 0.259419 0
0.57763 0.263813 0
0.626108 0.268528 0
0.676066 0.273915 0
0.724147 0.279744 0
0.77026 0.286076 0
0.815 0.292927 0
0.850004 0.299855 0
0.862501 0.30103 0
0.874998 0.301656 0
0.887495 0.302464 0
0.899992 0.303181 0
0.912505 0.3037 0
0.925002 0.304158 0
0.937499 0.304112 0
0.949996 0.308217 0
0.962493 0.312413 0
0.975006 0.316823 0
0.987503 0.321584 0
1 0.326131 0
0 0.29662 0
0.0124971 0.300526 0
0.0249943 0.304372 0
0.0374914 0.312291 0
0.0499886 0.319509 0
0.062501 0.324636 0
0.0826886 0.328801 0
0.129763 0.331746 0
0.191806 0.330449 0
0.272435 0.323766 0
0.355261 0.316213 0
0.429862 0.310857 0
0.496468 0.308186 0
0.555962 0.308949 0
0.607569 0.312093 0
0.654658 0.317296 0
0.700633 0.323781 0
0.744579 0.330953 0
0.786984 0.338506 0
0.828428 0.346639 0
0.850004 0.354192 0
0.862501 0.355856 0
0.874998 0.356725 0
0.887495 0.357336 0
0.899992 0.358099 0
0.912505 0.358709 0
0.925002 0.358785 0
0.937499 0.358831 0
0.949996 0.362036 0
0.962493 0.365881 0
0.975006 0.36997 0
0.987503 0.373831 0
1 0.377676 0
0 0.348028 0
0.0124971 0.352422 0
0.0249943 0.357061 0
0.0374914 0.366247 0
0.0499886 0.374624 0
0.062501 0.380865 0
0.0749981 0.386481 0
0.122042 0.390173 0
0.182269 0.390692 0
0.262959 0.385336 0
0.352667 0.376761 0
0.43331 0.370489 0
0.507088 0.365606 0
0.573159 0.363485 0
0.629679 0.364508 0
0.679332 0.368307 0
0.7252 0.374273 0
0.767651 0.382086 0
0.807843 0.390265 0
0.837491 0.398703 0
0.850004 0.406653 0
0.862501 0.408942 0
0.874998 0.409583 0
0.887495 0.410452 0
0.899992 0.410773 0
0.912505 0.410971 0
0.925002 0.411154 0
0.937499 0.411032 0
0.949996 0.413001 0
0.962493 0.416754 0
0.975006 0.420249 0
0.987503 0.423636 0
1 0.42681 0
0 0.403876 0
0.0124971 0.408743 0
0.0249943 0.413825 0
0.0374914 0.424231 0
0.0499886 0.433906 0
0.062501 0.441016 0
0.0749981 0.446921 0
0.116991 0.451347 0
0.176333 0.452689 0
0.254734 0.448508 0
0.348241 0.439643 0
0.433661 0.431647 0
0.51165 0.425269 0
0.582818 0.421195 0
0.643931 0.420249 0
0.697246 0.422446 0
0.746044 0.427619 0
0.789273 0.434134 0
0.824994 0.441611 0
0.837491 0.449546 0
0.850004 0.457008 0
0.862501 0.459739 0
0.874998 0.460792 0
0.887495 0.461265 0
0.899992 0.461494 0
0.912505 0.461463 0
0.925002 0.461097 0
0.937499 0.460914 0
0.949996 0.461875 0
0.962493 0.46479 0
0.975006 0.467842 0
0.987503 0.470939 0
1 0.473808 0
0 0.462928 0
0.0124971 0.468238 0
0.0249943 0.474647 0
0.0374914 0.485939 0
0.0499886 0.495857 0
0.062501 0.502892 0
0.0749981 0.508934 0
0.1131 0.51339 0
0.171878 0.514946 0
0.248707 0.511757 0
0.342092 0.502815 0
0.431525 0.493568 0
0.513802 0.486061 0
0.587823 0.481056 0
0.652811 0.478798 0
0.709209 0.479362 0
0.759899 0.482383 0
0.805325 0.487282 0
0.824994 0.493416 0
0.837491 0.499916 0
0.850004 0.506508 0
0.862501 0.508934 0
0.874998 0.509361 0
0.887495 0.509804 0
0.899992 0.509896 0
0.912505 0.509697 0
0.925002 0.509407 0
0.937499 0.508659 0
0.949996 0.508492 0
0.962493 0.510811 0
0.975006 0.51339 0
0.987503 0.516045 0
1 0.518959 0
0 0.524071 0
0.0124971 0.529305 0
0.0249943 0.537514 0
0.0374914 0.548562 0
0.0499886 0.558099 0
0.062501 0.564889 0
0.0749981 0.570672 0
0.111177 0.575082 0
0.170382 0.576761 0
0.245838 0.573693 0
0.337758 0.565393 0
0.428946 0.555505 0
0.514778 0.546471 0
0.591348 0.540444 0
0.657389 0.537346 0
0.716106 0.53637 0
0.768978 0.53753 0
0.812497 0.540368 0
0.824994 0.544244 0
0.837491 0.549371 0
0.850004 0.554116 0
0.862501 0.555917 0
0.874998 0.555978 0
0.887495 0.555993 0
0.899992 0.555978 0
0.912505 0.555993 0
0.925002 0.555383 0
0.937499 0.554376 0
0.949996 0.553704 0
0.962493 0.555718 0
0.975006 0.558114 0
0.987503 0.560265 0
1 0.562417 0
0 0.584512 0
0.0124971 0.589914 0
0.0249943 0.599329 0
0.0374914 0.609857 0
0.0499886 0.618769 0
0.062501 0.625269 0
0.0749981 0.631083 0
0.113527 0.635248 0
0.17319 0.636194 0
0.247639 0.633051 0
0.337133 0.624918 0
0.428305 0.614878 0
0.516976 0.605188 0
0.594781 0.597543 0
0.661189 0.592966 0
0.7205 0.590692 0
0.775021 0.590356 0
0.812497 0.591455 0
0.824994 0.593439 0
0.837491 0.596094 0
0.850004 0.599054 0
0.862501 0.600244 0
0.874998 0.600183 0
0.887495 0.600046 0
0.899992 0.599817 0
0.912505 0.59942 0
0.925002 0.598703 0
0.937499 0.597757 0
0.949996 0.597025 0
0.962493 0.598505 0
0.975006 0.600519 0
0.987503 0.602426 0
1 0.604303 0
0 0.643854 0
0.0124971 0.648692 0
0.0249943 0.659236 0
0.0374914 0.669306 0
0.0499886 0.677501 0
0.062501 0.683864 0
0.0749981 0.688792 0
0.119158 0.692164 0
0.179507 0.692515 0
0.253513 0.688716 0
0.340032 0.680613 0
0.43006 0.670436 0
0.519127 0.659434 0
0.598016 0.650752 0
0.665125 0.644846 0
0.724117 0.641505 0
0.779171 0.63978 0
0.812497 0.639307 0
0.824994 0.639567 0
0.837491 0.640391 0
0.850004 0.641718 0
0.862501 0.64213 0
0.874998 0.642145 0
0.887495 0.64184 0
0.899992 0.641337 0
0.912505 0.640742 0
0.925002 0.639948 0
0.937499 0.638987 0
0.949996 0.638453 0
0.962493 0.639277 0
0.975006 0.640909 0
0.987503 0.642527 0
1 0.644266 0
0 0.701045 0
0.0124971 0.707301 0
0.0249943 0.716991 0
0.0374914 0.726177 0
0.0499886 0.734157 0
0.062501 0.739437 0
0.0765393 0.743557 0
0.126802 0.745754 0
0.187396 0.744991 0
0.261112 0.740642 0
0.345083 0.732555 0
0.432914 0.721645 0
0.521324 0.709621 0
0.600717 0.699825 0
0.668544 0.693004 0
0.728008 0.688838 0
0.78291 0.686 0
0.812497 0.683879 0
0.824994 0.68275 0
0.837491 0.682261 0
0.850004 0.682414 0
0.862501 0.682322 0
0.874998 0.682048 0
0.887495 0.681559 0
0.899992 0.681117 0
0.912505 0.680323 0
0.925002 0.679454 0
0.937499 0.678492 0
0.949996 0.677684 0
0.962493 0.678386 0
0.975006 0.679728 0
0.987503 0.681086 0
1 0.682689 0
0 0.755596 0
0.0124971 0.763134 0
0.0249943 0.772625 0
0.0374914 0.780636 0
0.0499886 0.787106 0
0.062501 0.791485 0
0.0847791 0.794781 0
0.135393 0.795911 0
0.196017 0.794369 0
0.26891 0.788602 0
0.35024 0.779904 0
0.436118 0.76875 0
0.523507 0.756298 0
0.603189 0.74551 0
0.671489 0.737911 0
0.731121 0.732662 0
0.786114 0.728923 0
0.812497 0.725948 0
0.824994 0.723537 0
0.837491 0.72192 0
0.850004 0.721096 0
0.862501 0.720607 0
0.874998 0.720134 0
0.887495 0.719585 0
0.899992 0.718929 0
0.912505 0.718303 0
0.925002 0.717464 0
0.937499 0.716289 0
0.949996 0.715496 0
0.962493 0.715801 0
0.975006 0.717006 0
0.987503 0.718441 0
1 0.719753 0
0 0.80734 0
0.0124971 0.816022 0
0.0249943 0.824491 0
0.0374914 0.831662 0
0.0499886 0.836942 0
0.062501 0.837491 0
0.0918746 0.837491 0
0.142931 0.837491 0
0.203418 0.837491 0
0.275685 0.833341 0
0.354894 0.823957 0
0.438529 0.812604 0
0.52488 0.799908 0
0.605295 0.788556 0
0.673655 0.779904 0
0.7337 0.773632 0
0.788937 0.7691 0
0.812497 0.765377 0
0.824994 0.762478 0
0.837491 0.759976 0
0.850004 0.758175 0
0.862501 0.757412 0
0.874998 0.756954 0
0.887495 0.756283 0
0.899992 0.755764 0
0.912505 0.754925 0
0.925002 0.753979 0
0.937499 0.752834 0
0.949996 0.751888 0
0.962493 0.752209 0
0.975006 0.753399 0
0.987503 0.754482 0
1 0.755657 0
0 0.850004 0
0.0124971 0.850004 0
0.0249943 0.850004 0
0.0374914 0.850004 0
0.0499886 0.850004 0
0.062501 0.850004 0
0.0977493 0.850004 0
0.148302 0.850004 0
0.208835 0.850004 0
0.280629 0.850004 0
0.358526 0.850004 0
0.440604 0.850004 0
0.525673 0.841093 0
0.605371 0.829099 0
0.674464 0.819745 0
0.735241 0.812894 0
0.791074 0.807538 0
0.812497 0.803326 0
0.824994 0.799695 0
0.837491 0.796551 0
0.850004 0.794308 0
0.862501 0.793317 0
0.874998 0.792721 0
0.887495 0.792279 0
0.899992 0.791516 0
0.912505 0.790661 0
0.925002 0.789609 0
0.937499 0.788556 0
0.949996 0.787625 0
0.962493 0.787945 0
0.975006 0.788907 0
0.987503 0.789853 0
1 0.790814 0
0 0.862501 0
0.0124971 0.862501 0
0.0249943 0.862501 0
0.0374914 0.862501 0
0.0499886 0.862501 0
0.062501 0.862501 0
0.101183 0.862501 0
0.151827 0.862501 0
0.212482 0.862501 0
0.283909 0.862501 0
0.361303 0.862501 0
0.442069 0.862501 0
0.526207 0.862501 0
0.605341 0.862394 0
0.674525 0.853651 0
0.736049 0.847044 0
0.792721 0.841917 0
0.812497 0.837476 0
0.824994 0.833661 0
0.837491 0.830289 0
0.850004 0.827863 0
0.862501 0.827054 0
0.874998 0.826429 0
0.887495 0.825818 0
0.899992 0.825238 0
0.912505 0.824537 0
0.925002 0.823667 0
0.937499 0.822919 0
0.949996 0.822202 0
0.962493 0.8224 0
0.975006 0.823163 0
0.987503 0.823926 0
1 0.824887 0
0 0.874998 0
0.0124971 0.874998 0
0.0249943 0.874998 0
0.0374914 0.874998 0
0.0499886 0.874998 0
0.062501 0.874998 0
0.103487 0.874998 0
0.154498 0.874998 0
0.215915 0.874998 0
0.287617 0.874998 0
0.364233 0.874998 0
0.444572 0.874998 0
0.528191 0.874998 0
0.606485 0.874998 0
0.675578 0.874998 0
0.737285 0.871153 0
0.793805 0.86659 0
0.812497 0.862715 0
0.824994 0.859403 0
0.837491 0.856489 0
0.850004 0.854566 0
0.862501 0.8542 0
0.874998 0.854154 0
0.887495 0.854109 0
0.899992 0.854047 0
0.912505 0.853986 0
0.925002 0.853925 0
0.937499 0.853834 0
0.949996 0.853758 0
0.962493 0.853742 0
0.975006 0.853773 0
0.987503 0.853788 0
1 0.853819 0
0 0.887495 0
0.0124971 0.887495 0
0.0249943 0.887495 0
0.0374914 0.887495 0
0.0499886 0.887495 0
0.062501 0.887495 0
0.105348 0.887495 0
0.156802 0.887495 0
0.218708 0.887495 0
0.290852 0.887495 0
0.367163 0.887495 0
0.447578 0.887495 0
0.531075 0.887495 0
0.609247 0.887495 0
0.677928 0.887495 0
0.739345 0.883467 0
0.795682 0.878935 0
0.812497 0.87509 0
0.824994 0.871809 0
0.837491 0.868894 0
0.850004 0.867063 0
0.862501 0.866758 0
0.874998 0.866712 0
0.887495 0.866667 0
0.899992 0.866621 0
0.912505 0.866575 0
0.925002 0.866499 0
0.937499 0.866423 0
0.949996 0.866346 0
0.962493 0.866331 0
0.975006 0.866361 0
0.987503 0.866377 0
1 0.866407 0
0 0.899992 0
0.0124971 0.899992 0
0.0249943 0.899992 0
0.0374914 0.899992 0
0.0499886 0.899992 0
0.062501 0.899992 0
0.107088 0.899992 0
0.158801 0.899992 0
0.220737 0.899992 0
0.293141 0.899992 0
0.369421 0.899992 0
0.450019 0.899992 0
0.533761 0.899992 0
0.611429 0.899992 0
0.679759 0.899992 0
0.740917 0.895811 0
0.797101 0.891325 0
0.812497 0.887495 0
0.824994 0.884215 0
0.837491 0.881346 0
0.850004 0.879576 0
0.862501 0.879301 0
0.874998 0.879255 0
0.887495 0.879225 0
0.899992 0.879179 0
0.912505 0.879133 0
0.925002 0.879072 0
0.937499 0.878996 0
0.949996 0.878935 0
0.962493 0.87892 0
0.975006 0.878935 0
0.987503 0.878965 0
1 0.878981 0
0 0.912505 0
0.0124971 0.912505 0
0.0249943 0.912505 0
0.0374914 0.912505 0
0.0499886 0.912505 0
0.0632639 0.912505 0
0.107958 0.912505 0
0.159991 0.912505 0
0.22208 0.912505 0
0.294621 0.912505 0
0.371008 0.912505 0
0.451743 0.912505 0
0.535454 0.912505 0
0.612879 0.912505 0
0.680934 0.912505 0
0.741894 0.908217 0
0.798093 0.903731 0
0.812497 0.899916 0
0.824994 0.896666 0
0.837491 0.893828 0
0.850004 0.892103 0
0.862501 0.891844 0
0.874998 0.891814 0
0.887495 0.891783 0
0.899992 0.891737 0
0.912505 0.891691 0
0.925002 0.89163 0
0.937499 0.891569 0
0.949996 0.891508 0
0.962493 0.891493 0
0.975006 0.891508 0
0.987503 0.891539 0
1 0.891554 0
0 0.925002 0
0.0124971 0.925002 0
0.0249943 0.925002 0
0.0374914 0.925002 0
0.0499886 0.925002 0
0.0635538 0.925002 0
0.108263 0.925002 0
0.160403 0.925002 0
0.222751 0.925002 0
0.295628 0.925002 0
0.372061 0.925002 0
0.452476 0.925002 0
0.536126 0.925002 0
0.613382 0.925002 0
0.681422 0.925002 0
0.742702 0.920653 0
0.798627 0.916197 0
0.812497 0.912413 0
0.824994 0.909163 0
0.837491 0.90631 0
0.850004 0.904631 0
0.862501 0.904387 0
0.874998 0.904356 0
0.887495 0.904326 0
0.899992 0.904295 0
0.912505 0.90425 0
0.925002 0.904204 0
0.937499 0.904128 0
0.949996 0.904082 0
0.962493 0.904067 0
0.975006 0.904082 0
0.987503 0.904112 0
1 0.904128 0
0 0.937499 0
0.0124971 0.937499 0
0.0249943 0.937499 0
0.0374914 0.937499 0
0.0499886 0.937499 0
0.0637827 0.937499 0
0.108507 0.937499 0
0.160937 0.937499 0
0.22359 0.937499 0
