LUT color transfer/LUTs/59.cube
TITLE "Generate by Resolve"
LUT_3D_SIZE 5
0 0.0110781 0.0160372
0.187015 0.00207523 0
0.568414 0 0
0.88835 0 0
0.988357 0 0
0 0.210315 0
0.213169 0.222934 0
0.656229 0.224186 0
0.899992 0.247089 0
1 0.27248 0
0 0.643854 0
0.179507 0.692515 0
0.779171 0.63978 0
0.899992 0.641337 0
1 0.644266 0
0 0.899992 0
0.220737 0.899992 0
0.797101 0.891325 0
0.899992 0.879179 0
1 0.878981 0
0 1 0
0.239796 1 0
0.8 0.989639 0
0.899992 0.979675 0
1 0.979477 0
0 0.0235294 0.235874
0.166293 0 0.265248
0.605325 0 0.108125
0.899992 0 0.0999924
1 0 0.0999924
0 0.21857 0.215183
0.178012 0.245441 0.24329
0.683986 0.237522 0.163394
0.899992 0.257618 0.138933
1 0.282139 0.164797
0 0.659525 0.180606
0.184009 0.705928 0.241642
0.751232 0.657435 0.257237
0.899992 0.660548 0.260365
1 0.661753 0.260685
0 0.899992 0.224781
0.216861 0.899992 0.266163
0.760723 0.898024 0.23267
0.899992 0.88397 0.265888
1 0.883925 0.263462
0 1 0.240681
0.23386 1 0.28014
0.78088 0.995605 0.255421
0.899992 0.984192 0.284108
1 0.984131 0.278676
0 0.038468 0.618738
0.0999924 0.0280766 0.656306
0.612528 0 0.630716
0.899992 0 0.571603
1 0 0.620996
0 0.270283 0.559777
0.0999924 0.310048 0.618616
0.727871 0.213458 0.724361
0.899992 0.223972 0.728222
1 0.246296 0.759655
0 0.669642 0.609232
0.153307 0.712871 0.66923
0.658488 0.677852 0.663218
0.899992 0.670863 0.63653
1 0.671092 0.638148
0 0.899992 0.645289
0.184924 0.899992 0.685542
0.690059 0.899992 0.679957
0.899992 0.890471 0.681743
1 0.89044 0.681056
0 1 0.662593
0.19765 1 0.699092
0.710552 1 0.695506
0.899992 0.991211 0.696895
1 0.991012 0.692927
0 0.0523079 0.891402
0.0999924 0.0456092 0.899992
0.530449 0 0.899992
0.899992 0 0.899992
1 0 0.899992
0 0.31249 0.852583
0.0999924 0.359091 0.899992
0.637736 0.250568 0.899992
0.899992 0.230838 0.899992
1 0.252781 0.899992
0 0.709743 0.866163
0.0999924 0.755413 0.872663
0.518318 0.725139 0.895994
0.899992 0.661219 0.899992
1 0.660822 0.899992
0 0.899992 0.849546
0.178683 0.899992 0.866743
0.680781 0.899992 0.871336
0.899992 0.895994 0.884688
1 0.895994 0.884688
0 1 0.849729
0.197192 1 0.867216
0.703517 1 0.873167
0.899992 0.996002 0.884688
1 0.996002 0.884688
0 0.0699626 1
0.0999924 0.0653544 1
0.377539 0 1
0.899992 0 1
1 0 1
0 0.360159 1
0.0999924 0.411322 1
0.48043 0.310704 1
0.899992 0.240131 1
1 0.259174 1
0 0.762448 0.961578
0.0999924 0.8 0.957229
0.388602 0.770871 0.985
0.899992 0.676341 1
1 0.662669 1
0 0.899992 0.949538
0.133623 0.899992 0.964431
0.584741 0.899992 0.9673
0.899992 0.896208 0.984741
1 0.895994 0.984695
0 1 0.949767
0.198444 1 0.967254
0.705577 1 0.973297
0.899992 0.996002 0.984695
1 0.996002 0.984695
