LUT color transfer/LUTs/59.cube
TITLE "Generate by Resolve"
LUT_3D_SIZE 9
0 0.0110781 0.0160372
0.0601968 0.00932326 0.0198367
0.187015 0.00207523 0
0.370657 0.000564584 0
0.568414 0 0
0.760861 0 0
0.88835 0 0
0.938354 0 0
0.988357 0 0
0 0.0893873 0.00999466
0.056733 0.0924239 0.0132753
0.190723 0.0878767 0
0.392218 0.0727092 0
0.617456 0.0544289 0
0.824002 0.0499886 0
0.889281 0.0499886 0
0.9393 0.0499886 0
0.989563 0.0612345 0
0 0.210315 0
0.0499886 0.22533 0
0.213169 0.222934 0
0.448783 0.213489 0
0.656229 0.224186 0
0.850004 0.24419 0
0.899992 0.247089 0
0.949996 0.252781 0
1 0.27248 0
0 0.403876 0
0.0499886 0.433906 0
0.176333 0.452689 0
0.51165 0.425269 0
0.746044 0.427619 0
0.850004 0.457008 0
0.899992 0.461494 0
0.949996 0.461875 0
1 0.473808 0
0 0.643854 0
0.0499886 0.677501 0
0.179507 0.692515 0
0.519127 0.659434 0
0.779171 0.63978 0
0.850004 0.641718 0
0.899992 0.641337 0
0.949996 0.638453 0
1 0.644266 0
0 0.850004 0
0.0499886 0.850004 0
0.208835 0.850004 0
0.525673 0.841093 0
0.791074 0.807538 0
0.850004 0.794308 0
0.899992 0.791516 0
0.949996 0.787625 0
1 0.790814 0
0 0.899992 0
0.0499886 0.899992 0
0.220737 0.899992 0
0.533761 0.899992 0
0.797101 0.891325 0
0.850004 0.879576 0
0.899992 0.879179 0
0.949996 0.878935 0
1 0.878981 0
0 0.949996 0
0.0499886 0.949996 0
0.225299 0.949996 0
0.539696 0.949996 0
0.8 0.940978 0
0.850004 0.929625 0
0.899992 0.929412 0
0.949996 0.929244 0
1 0.929305 0
0 1 0
0.0499886 1 0
0.239796 1 0
0.557351 1 0
0.8 0.989639 0
0.850004 0.979751 0
0.899992 0.979675 0
0.949996 0.979477 0
1 0.979477 0
0 0.0162814 0.100175
0.0499886 0.0158694 0.10634
0.19884 0 0.0908675
0.381155 0 0.0499886
0.573892 0 0.0499886
0.76582 0 0.0499886
0.88835 0 0.0499886
0.938354 0 0.0499886
0.990127 0 0.0499886
0 0.0919661 0.0963607
0.0499886 0.0967269 0.0994583
0.199252 0.0875257 0.088716
0.408804 0.0712596 0.0499886
0.635157 0.0543526 0.0499886
0.838437 0.051133 0.0499886
0.897734 0.0499886 0.0499886
0.948394 0.0504768 0.0499886
1 0.0643626 0.0499886
0 0.214206 0.0748455
0.0499886 0.230594 0.0825513
0.206439 0.233722 0.0909743
0.438819 0.228992 0.0673533
0.661967 0.2365 0.0499886
0.850004 0.254261 0.0499886
0.899992 0.256672 0.0499886
0.949996 0.263279 0.0499886
1 0.28275 0.0499886
0 0.41352 0.0499886
0.0499886 0.444907 0.0499886
0.177813 0.466148 0.0640269
0.509987 0.440238 0.0779126
0.739361 0.444266 0.0845045
0.850004 0.474434 0.0499886
0.899992 0.477424 0.0499886
0.949996 0.477363 0.0499886
1 0.488823 0.0548562
0 0.653834 0.0499886
0.0499886 0.687373 0.0499886
0.184298 0.702846 0.0575875
0.511208 0.672724 0.0499886
0.774731 0.650126 0.0810559
0.850004 0.651591 0.0958419
0.899992 0.650996 0.0923781
0.949996 0.647715 0.0873884
1 0.653162 0.0907912
0 0.850004 0.0499886
0.0499886 0.850004 0.0608835
0.211322 0.850004 0.0702678
0.51368 0.849943 0.0499886
0.784405 0.814527 0.0584726
0.850004 0.800656 0.0865492
0.899992 0.798001 0.0848402
0.949996 0.79411 0.0803693
1 0.797116 0.0814221
0 0.899992 0.0499886
0.0499886 0.899992 0.0661784
0.221973 0.899992 0.0729229
0.521309 0.899992 0.0499886
0.789395 0.893828 0.0558938
0.850004 0.881865 0.0830701
0.899992 0.881529 0.0810712
0.949996 0.881361 0.0764782
1 0.881422 0.0779736
0 0.949996 0.0499886
0.0499886 0.949996 0.0661631
0.226047 0.949996 0.0730602
0.526833 0.949996 0.0499886
0.793576 0.943465 0.0597391
0.850004 0.931899 0.0878157
0.899992 0.931701 0.0867933
0.949996 0.931609 0.0838331
1 0.931655 0.085359
0 1 0.0562753
0.0499886 1 0.0752575
0.239765 1 0.079942
0.544503 1 0.0531319
0.8 0.99202 0.0707408
0.850004 0.981979 0.0965286
0.899992 0.981903 0.0941176
0.949996 0.981796 0.0898604
1 0.981781 0.0896315
0 0.0235294 0.235874
0.0499886 0.0239719 0.242542
0.166293 0 0.265248
0.410391 0 0.191867
0.605325 0 0.108125
0.790372 0 0.0999924
0.899992 0 0.0999924
0.949996 0 0.0999924
1 0 0.0999924
0 0.10544 0.219699
0.0499886 0.112428 0.22855
0.166873 0.0897383 0.273228
0.446677 0.0547341 0.209125
0.672969 0.0499886 0.131228
0.850004 0.0499886 0.0999924
0.899992 0.0499886 0.0999924
0.949996 0.0499886 0.103304
1 0.0559396 0.128054
0 0.21857 0.215183
0.0499886 0.236103 0.228656
0.178012 0.245441 0.24329
0.446128 0.23328 0.215228
0.683986 0.237522 0.163394
0.850004 0.25565 0.134188
0.899992 0.257618 0.138933
0.949996 0.263661 0.146471
1 0.282139 0.164797
0 0.420844 0.180255
0.0499886 0.452918 0.198108
0.1776 0.47245 0.238788
0.484169 0.454658 0.246754
0.702068 0.463905 0.228779
0.850004 0.49102 0.179629
0.899992 0.49395 0.179416
0.949996 0.493156 0.178134
1 0.504463 0.190661
0 0.659525 0.180606
0.0499886 0.692424 0.207996
0.184009 0.705928 0.241642
0.473259 0.685634 0.22768
0.751232 0.657435 0.257237
0.850004 0.660655 0.264927
0.899992 0.660548 0.260365
0.949996 0.657374 0.254917
1 0.661753 0.260685
0 0.850004 0.211887
0.0499886 0.850004 0.241321
0.207065 0.850004 0.25922
0.48159 0.850004 0.234546
0.757504 0.819333 0.233097
0.850004 0.80412 0.269184
0.899992 0.801389 0.268299
0.949996 0.797635 0.26392
1 0.800244 0.26566
0 0.899992 0.224781
0.0499886 0.899992 0.250706
0.216861 0.899992 0.266163
0.489494 0.899992 0.239246
0.760723 0.898024 0.23267
0.850004 0.884413 0.267277
0.899992 0.88397 0.265888
0.949996 0.883909 0.261418
1 0.883925 0.263462
0 0.949996 0.226459
0.0499886 0.949996 0.252064
0.22118 0.949996 0.268391
0.494896 0.949996 0.242756
0.765377 0.947448 0.239063
0.850004 0.934356 0.27425
0.899992 0.934066 0.273991
0.949996 0.934035 0.271229
1 0.934051 0.272984
0 1 0.240681
0.0499886 1 0.266026
0.23386 1 0.28014
0.511086 1 0.253407
0.78088 0.995605 0.255421
0.850004 0.984237 0.286809
0.899992 0.984192 0.284108
0.949996 0.984131 0.27921
1 0.984131 0.278676
0 0.0314183 0.434302
0.0499886 0.0327153 0.440406
0.0999924 0.0167849 0.473091
0.385763 0 0.449241
0.628489 0 0.388495
0.827771 0 0.304417
0.899992 0 0.259464
0.949996 0 0.262623
1 0 0.305409
0 0.115267 0.420722
0.0499886 0.123552 0.437049
0.0999924 0.111116 0.48954
0.427832 0.0499886 0.493065
0.698405 0.0499886 0.448539
0.850004 0.0499886 0.388922
0.899992 0.0499886 0.406287
0.949996 0.0499886 0.433188
1 0.0499886 0.478599
0 0.245487 0.380652
0.0499886 0.268315 0.399512
0.0999924 0.281147 0.422065
0.432197 0.227939 0.520821
0.731044 0.215305 0.474357
0.850004 0.2374 0.414649
0.899992 0.238132 0.430732
0.949996 0.241886 0.448615
1 0.258381 0.481147
0 0.426932 0.399237
0.0499886 0.459373 0.425895
0.153933 0.480674 0.462058
0.414298 0.476875 0.467109
0.693599 0.467857 0.445914
0.850004 0.487266 0.407111
0.899992 0.489769 0.409262
0.949996 0.487877 0.409903
1 0.498619 0.424659
0 0.664103 0.398489
0.0499886 0.695537 0.432181
0.174014 0.70721 0.471031
0.450217 0.684871 0.488777
0.714565 0.662165 0.490288
0.850004 0.672999 0.460945
0.899992 0.673411 0.453651
0.949996 0.670573 0.448463
1 0.674067 0.455528
0 0.850004 0.436057
0.0499886 0.850004 0.467201
0.196185 0.850004 0.497642
0.460929 0.849928 0.495445
0.711223 0.823224 0.471015
0.850004 0.805707 0.501732
0.899992 0.803082 0.501091
0.949996 0.799802 0.497642
1 0.801785 0.499977
0 0.899992 0.452293
0.0499886 0.899992 0.478202
0.204227 0.899992 0.505394
0.469001 0.899992 0.500755
0.712367 0.899992 0.475029
0.850004 0.886946 0.500984
0.899992 0.886473 0.500175
0.949996 0.886412 0.496651
1 0.886458 0.499199
0 0.949996 0.453422
0.0499886 0.949996 0.478737
0.208545 0.949996 0.507027
0.474937 0.949996 0.505257
0.717906 0.949996 0.481834
0.850004 0.936858 0.509041
0.899992 0.936629 0.509239
0.949996 0.936599 0.507042
1 0.936629 0.508797
0 1 0.467857
0.0499886 1 0.493523
0.220752 1 0.519524
0.490715 1 0.518746
0.734295 1 0.498009
0.850004 0.986938 0.522652
0.899992 0.986847 0.520073
0.949996 0.986755 0.515496
1 0.98674 0.514717
0 0.038468 0.618738
0.0499886 0.0402686 0.624613
0.0999924 0.0280766 0.656306
0.290929 0 0.691875
0.612528 0 0.630716
0.830884 0 0.603204
0.899992 0 0.571603
0.949996 0 0.578393
1 0 0.620996
0 0.12462 0.61059
0.0499886 0.13463 0.628702
0.0999924 0.125887 0.679316
0.332586 0.0627909 0.729412
0.690898 0.0499886 0.687892
0.850004 0.0499886 0.680385
0.899992 0.0499886 0.694713
0.949996 0.0499886 0.713222
1 0.0499886 0.741848
0 0.270283 0.559777
0.0499886 0.29688 0.579538
0.0999924 0.310048 0.618616
0.318151 0.261814 0.728176
0.727871 0.213458 0.724361
0.850004 0.222217 0.716716
0.899992 0.223972 0.728222
0.949996 0.228595 0.739956
1 0.246296 0.759655
0 0.453864 0.575418
0.0499886 0.488502 0.599145
0.0999924 0.515221 0.606577
0.299046 0.516152 0.640284
0.6907 0.463416 0.710414
0.850004 0.469047 0.679179
0.899992 0.470603 0.679698
0.949996 0.468147 0.680735
1 0.478325 0.693156
0 0.669642 0.609232
0.0499886 0.700221 0.639963
0.153307 0.712871 0.66923
0.422705 0.693049 0.668849
0.658488 0.677852 0.663218
0.850004 0.671778 0.641703
0.899992 0.670863 0.63653
0.949996 0.667689 0.63331
1 0.671092 0.638148
0 0.850004 0.633768
0.0499886 0.850004 0.660746
0.179782 0.850004 0.679316
0.450813 0.848722 0.67599
0.687282 0.822705 0.678599
0.850004 0.80975 0.681788
0.899992 0.807889 0.67924
0.949996 0.804822 0.675837
1 0.806485 0.677867
0 0.899992 0.645289
0.0499886 0.899992 0.669612
0.184924 0.899992 0.685542
0.456809 0.899992 0.680079
0.690059 0.899992 0.679957
0.850004 0.890944 0.682155
0.899992 0.890471 0.681743
0.949996 0.890349 0.679194
1 0.89044 0.681056
0 0.949996 0.6486
0.0499886 0.949996 0.671962
0.186481 0.949996 0.687861
0.461204 0.949996 0.68217
0.69575 0.949996 0.684367
0.850004 0.940963 0.688807
0.899992 0.940826 0.689097
0.949996 0.940749 0.687465
1 0.94078 0.688273
0 1 0.662593
0.0499886 1 0.685267
0.19765 1 0.699092
0.476341 1 0.691569
0.710552 1 0.695506
0.850004 0.991318 0.698772
0.899992 0.991211 0.696895
0.949996 0.991058 0.69369
1 0.991012 0.692927
0 0.04477 0.76408
0.0499886 0.046952 0.769451
0.0999924 0.0364843 0.795895
0.207187 0 0.841886
0.585107 0 0.806806
0.828779 0 0.781415
0.899992 0 0.777874
0.949996 0 0.786709
1 0 0.816571
0 0.1346 0.7608
0.0499886 0.14696 0.778592
0.0999924 0.140352 0.822003
0.246983 0.0868849 0.850004
0.673518 0.0499886 0.850004
0.850004 0.0499886 0.850004
0.899992 0.0499886 0.850004
0.949996 0.0499886 0.850004
1 0.0499886 0.850004
0 0.290578 0.714656
0.0499886 0.320668 0.734691
0.0999924 0.333867 0.774639
0.240528 0.292195 0.850004
0.700969 0.226566 0.850004
0.850004 0.225376 0.850004
0.899992 0.227298 0.850004
0.949996 0.232578 0.850004
1 0.249851 0.850004
0 0.487709 0.702281
0.0499886 0.524147 0.724163
0.0999924 0.553368 0.723537
0.223438 0.546075 0.779919
0.621592 0.489464 0.850004
0.850004 0.468528 0.850004
0.899992 0.468605 0.850004
0.949996 0.466117 0.850004
1 0.476295 0.850004
0 0.685618 0.75668
0.0499886 0.71696 0.779156
0.113756 0.730053 0.797467
0.3458 0.721218 0.783581
0.587228 0.701732 0.790021
0.850004 0.664515 0.828763
0.899992 0.660563 0.820981
0.949996 0.656992 0.819257
1 0.660471 0.82269
0 0.850004 0.787625
0.0499886 0.850004 0.803067
0.165087 0.850004 0.81976
0.430869 0.850004 0.811093
0.669474 0.828763 0.800977
0.845029 0.82031 0.806531
0.899992 0.813046 0.802533
0.949996 0.809827 0.799374
1 0.811429 0.801648
0 0.899992 0.791363
0.0499886 0.899992 0.803464
0.175067 0.899992 0.816602
0.443809 0.899992 0.810513
0.683635 0.899992 0.808545
0.850004 0.895628 0.815946
0.899992 0.895048 0.814633
0.949996 0.894942 0.812985
1 0.895048 0.814847
0 0.949996 0.794308
0.0499886 0.949996 0.803937
0.176501 0.949996 0.816663
0.446601 0.949996 0.812238
0.687205 0.949996 0.811521
0.850004 0.945525 0.820569
0.899992 0.945373 0.820264
0.949996 0.945296 0.819059
1 0.945327 0.819272
0 1 0.799573
0.0499886 1 0.805859
0.189761 1 0.81706
0.462013 1 0.81651
0.701213 1 0.817029
0.850004 0.995727 0.8262
0.899992 0.995651 0.824872
0.949996 0.995544 0.823072
1 0.995514 0.822583
0 0.0523079 0.891402
0.0499886 0.0549172 0.896254
0.0999924 0.0456092 0.899992
0.149996 0.00367742 0.899992
0.530449 0 0.899992
0.826032 0 0.899992
0.899992 0 0.899992
0.949996 0 0.899992
1 0 0.899992
0 0.147143 0.891951
0.0499886 0.162036 0.899992
0.0999924 0.156954 0.899992
0.180087 0.108537 0.899992
0.629847 0.0499886 0.899992
0.850004 0.0499886 0.899992
0.899992 0.0499886 0.899992
0.949996 0.0499886 0.899992
1 0.0499886 0.899992
0 0.31249 0.852583
0.0499886 0.345739 0.871153
0.0999924 0.359091 0.899992
0.173632 0.321004 0.899992
0.637736 0.250568 0.899992
0.850004 0.231235 0.899992
0.899992 0.230838 0.899992
0.949996 0.236423 0.899992
1 0.252781 0.899992
0 0.520577 0.821622
0.0499886 0.559274 0.841291
0.0999924 0.586542 0.85005
0.160372 0.573968 0.899199
0.5467 0.517906 0.899992
0.850004 0.476738 0.899992
0.899992 0.471092 0.899992
0.949996 0.468467 0.899992
1 0.477974 0.899992
0 0.709743 0.866163
0.0499886 0.741253 0.863416
0.0999924 0.755413 0.872663
0.255131 0.753979 0.885527
0.518318 0.725139 0.895994
0.823911 0.679179 0.899992
0.899992 0.661219 0.899992
0.949996 0.657465 0.899992
1 0.660822 0.899992
0 0.850004 0.855421
0.0499886 0.850004 0.855772
0.146059 0.850004 0.867735
0.39086 0.850004 0.871336
0.606592 0.850004 0.870924
0.798093 0.837003 0.881453
0.899992 0.811887 0.889479
0.949996 0.807858 0.890028
1 0.809583 0.889784
0 0.899992 0.849546
0.0499886 0.899992 0.855482
0.178683 0.899992 0.866743
0.444175 0.899992 0.867124
0.680781 0.899992 0.871336
0.850004 0.896941 0.883757
0.899992 0.895994 0.884688
0.949996 0.895994 0.884688
1 0.895994 0.884688
0 0.949996 0.849546
0.0499886 0.949996 0.855741
0.183612 0.949996 0.866896
0.452918 0.949996 0.867079
0.69012 0.949996 0.872068
0.850004 0.946014 0.884688
0.899992 0.945998 0.884688
0.949996 0.945998 0.884688
1 0.945998 0.884688
0 1 0.849729
0.0499886 1 0.856657
0.197192 1 0.867216
0.469047 1 0.867018
0.703517 1 0.873167
0.850004 0.996002 0.884688
0.899992 0.996002 0.884688
0.949996 0.996002 0.884688
1 0.996002 0.884688
0 0.0611276 0.949996
0.0499886 0.0641947 0.949996
0.0999924 0.0556497 0.949996
0.149996 0.0182956 0.949996
0.452827 0 0.949996
0.810452 0 0.949996
0.899992 0 0.949996
0.949996 0 0.949996
1 0 0.949996
0 0.161898 0.949996
0.0499886 0.179492 0.949996
0.0999924 0.175418 0.949996
0.149996 0.132067 0.949996
0.558434 0.0534524 0.949996
0.850004 0.0499886 0.949996
0.899992 0.0499886 0.949996
0.949996 0.0499886 0.949996
1 0.0499886 0.949996
0 0.336431 0.949996
0.0499886 0.372213 0.949996
0.0999924 0.385473 0.949996
0.149996 0.350942 0.949996
0.554284 0.281209 0.949996
0.850004 0.242115 0.949996
0.899992 0.234318 0.949996
0.949996 0.239429 0.949996
1 0.255116 0.949996
0 0.552392 0.932143
0.0499886 0.591897 0.928267
0.0999924 0.61593 0.923384
0.149996 0.60061 0.939162
0.46659 0.547814 0.949996
0.850004 0.493706 0.949996
0.899992 0.474434 0.949996
0.949996 0.470192 0.949996
1 0.479255 0.949996
0 0.736782 0.913832
0.0499886 0.768032 0.911101
0.0999924 0.785611 0.909895
0.182528 0.780926 0.929137
0.44802 0.749493 0.940032
0.767391 0.697749 0.949996
0.899992 0.6654 0.949996
0.949996 0.658305 0.949996
1 0.661265 0.949996
0 0.850004 0.903593
0.0499886 0.850004 0.901152
0.102556 0.850004 0.912261
0.316411 0.850004 0.918181
0.530892 0.850004 0.917174
0.751781 0.850004 0.923766
0.899992 0.820584 0.938323
0.949996 0.808454 0.939941
1 0.810086 0.939727
0 0.899992 0.89955
0.0499886 0.899992 0.904265
0.164279 0.899992 0.916182
0.419226 0.899992 0.917281
0.644526 0.899992 0.919142
0.80911 0.899992 0.928542
0.899992 0.895994 0.934691
0.949996 0.895994 0.934691
1 0.895994 0.934691
0 0.949996 0.89955
0.0499886 0.949996 0.906233
0.1879 0.949996 0.917006
0.45658 0.949996 0.917067
0.691661 0.949996 0.922179
0.850004 0.946273 0.934768
0.899992 0.945998 0.934691
0.949996 0.945998 0.934691
1 0.945998 0.934691
0 1 0.89984
0.0499886 1 0.907149
0.203128 1 0.917327
0.475334 1 0.917006
0.707881 1 0.923445
0.850004 0.996002 0.934691
0.899992 0.996002 0.934691
0.949996 0.996002 0.934691
1 0.996002 0.934691
0 0.0699626 1
0.0499886 0.0735027 1
0.0999924 0.0653544 1
0.149996 0.0297551 1
0.377539 0 1
0.783841 0 1
0.899992 0 1
0.949996 0 1
1 0 1
0 0.177386 1
0.0499886 0.197482 1
0.0999924 0.193988 1
0.149996 0.153628 1
0.48748 0.0782635 1
0.850004 0.0499886 1
0.899992 0.0499886 1
0.949996 0.0499886 1
1 0.0499886 1
0 0.360159 1
0.0499886 0.398474 1
0.0999924 0.411322 1
0.149996 0.380438 1
0.48043 0.310704 1
0.850004 0.257389 1
0.899992 0.240131 1
0.949996 0.244343 1
1 0.259174 1
0 0.58056 0.980896
0.0499886 0.619944 0.972656
0.0999924 0.641062 0.969207
0.149996 0.625925 0.97406
0.391882 0.577188 1
0.792782 0.515297 1
0.899992 0.482582 1
0.949996 0.472938 1
1 0.481224 1
0 0.762448 0.961578
0.0499886 0.79263 0.958953
0.0999924 0.8 0.957229
0.149996 0.8 0.96965
0.388602 0.770871 0.985
0.713314 0.717037 1
0.899992 0.676341 1
0.949996 0.660014 1
1 0.662669 1
0 0.850004 0.951431
0.0499886 0.850004 0.949569
0.0999924 0.850004 0.955581
0.240208 0.850004 0.967071
0.464454 0.850004 0.9673
0.709056 0.850004 0.970214
0.899992 0.834943 0.986526
0.949996 0.81059 0.989654
1 0.811444 0.989548
0 0.899992 0.949538
0.0499886 0.899992 0.951324
0.133623 0.899992 0.964431
0.369711 0.899992 0.967437
0.584741 0.899992 0.9673
0.761913 0.899992 0.973754
0.899992 0.896208 0.984741
0.949996 0.895994 0.984695
1 0.895994 0.984695
0 0.949996 0.949538
0.0499886 0.949996 0.955718
0.180575 0.949996 0.966796
0.444175 0.949996 0.967132
0.675746 0.949996 0.970993
0.849577 0.947478 0.982757
0.899992 0.945998 0.984695
0.949996 0.945998 0.984695
1 0.945998 0.984695
0 1 0.949767
0.0499886 1 0.956786
0.198444 1 0.967254
0.471794 1 0.96701
0.705577 1 0.973297
0.850004 0.996002 0.984695
0.899992 0.996002 0.984695
0.949996 0.996002 0.984695
1 0.996002 0.984695
