LUT color transfer/LUTs/60.cube
TITLE "Generate by Resolve"
LUT_3D_SIZE 5
0 0.0147707 0.0213779
0.166033 0.00277714 0
0.591226 0 0
0.934478 0 0
0.984466 0 0
0 0.197086 0
0.200885 0.213916 0
0.708309 0.215595 0
0.949996 0.246113 0
1 0.279973 0
0 0.691814 0
0.156024 0.756695 0
0.872236 0.686381 0
0.949996 0.688457 0
1 0.692363 0
0 0.949996 0
0.210986 0.949996 0
0.896132 0.93843 0
0.949996 0.92224 0
1 0.921965 0
0 1 0
0.236408 1 0
0.899992 0.986175 0
0.949996 0.9729 0
1 0.972641 0
0 0.0313725 0.231159
0.138399 0 0.270344
0.640436 0 0.0608377
0.949996 0 0.0500038
1 0 0.0500038
0 0.208103 0.203571
0.154009 0.243931 0.241047
0.745327 0.233371 0.134539
0.949996 0.260151 0.101915
1 0.292866 0.1364
0 0.712703 0.157473
0.16202 0.774563 0.238849
0.834974 0.709926 0.259648
0.949996 0.714061 0.263828
1 0.715663 0.26424
0 0.949996 0.216373
0.205829 0.949996 0.271565
0.847639 0.947356 0.226902
0.949996 0.928618 0.271199
1 0.928573 0.267964
0 1 0.237583
0.228489 1 0.290181
0.87451 0.994141 0.257221
0.949996 0.978927 0.295491
1 0.978836 0.288228
0 0.0512856 0.65832
0.0500038 0.0374456 0.7084
0.650034 0 0.674296
0.949996 0 0.595483
1 0 0.661341
0 0.277058 0.579705
0.0500038 0.330068 0.658167
0.80383 0.201282 0.799146
0.949996 0.21529 0.804303
1 0.24506 0.846204
0 0.726192 0.645655
0.12108 0.783825 0.725643
0.711315 0.737133 0.717632
0.949996 0.727825 0.682033
1 0.728115 0.684199
0 0.949996 0.693721
0.163226 0.949996 0.747387
0.753414 0.949996 0.73994
0.949996 0.937285 0.742321
1 0.937255 0.741421
0 1 0.716793
0.180209 1 0.765469
0.780743 1 0.760678
0.949996 0.988281 0.762539
1 0.988006 0.757229
0 0.069749 0.938537
0.0500038 0.0608072 0.949996
0.540612 0 0.949996
0.949996 0 0.949996
1 0 0.949996
0 0.333333 0.886778
0.0500038 0.395468 0.949996
0.68365 0.250751 0.949996
0.949996 0.22446 0.949996
1 0.253712 0.949996
0 0.77966 0.904875
0.0500038 0.840558 0.913558
0.524437 0.800198 0.944656
0.949996 0.714961 0.949996
1 0.714443 0.949996
0 0.949996 0.882719
0.15491 0.949996 0.905653
0.741039 0.949996 0.911788
0.949996 0.944671 0.929595
1 0.944671 0.929595
0 1 0.882963
0.179599 1 0.906294
0.771359 1 0.914214
0.949996 0.994659 0.929595
1 0.994659 0.929595
0 0.0932937 1
0.0500038 0.087129 1
0.336721 0 1
0.949996 0 1
1 0 1
0 0.396872 1
0.0500038 0.465095 1
0.473915 0.330953 1
0.949996 0.236851 1
1 0.262242 1
0 0.849943 0.94876
0.0500038 0.899992 0.942962
0.351461 0.861173 0.979995
0.949996 0.735119 1
1 0.716899 1
0 0.949996 0.932723
0.0948348 0.949996 0.952575
0.612985 0.949996 0.95639
0.949996 0.944945 0.97966
1 0.944671 0.979583
0 1 0.933028
0.181262 1 0.956329
0.774105 1 0.964385
0.949996 0.994659 0.979583
1 0.994659 0.979583
