LUT color transfer/LUTs/60.cube
TITLE "Generate by Resolve"
LUT_3D_SIZE 9
0 0.0147707 0.0213779
0.0386053 0.0124208 0.0264591
0.166033 0.00277714 0
0.369207 0.000762951 0
0.591226 0 0
0.806149 0 0
0.934478 0 0
0.959472 0 0
0.984466 0 0
0 0.0775158 0.0133364
0.0339818 0.0815747 0.0177005
0.170962 0.0755016 0
0.397955 0.0552834 0
0.656611 0.0308995 0
0.890333 0.0249943 0
0.935699 0.0249943 0
0.960723 0.0249943 0
0.986084 0.0399939 0
0 0.197086 0
0.0249943 0.217105 0
0.200885 0.213916 0
0.473381 0.201328 0
0.708309 0.215595 0
0.925002 0.242267 0
0.949996 0.246113 0
0.975006 0.253712 0
1 0.279973 0
0 0.413504 0
0.0249943 0.453544 0
0.151781 0.478584 0
0.557198 0.442039 0
0.828061 0.445151 0
0.925002 0.484337 0
0.949996 0.490333 0
0.975006 0.490837 0
1 0.506752 0
0 0.691814 0
0.0249943 0.736675 0
0.156024 0.756695 0
0.567178 0.712581 0
0.872236 0.686381 0
0.925002 0.68896 0
0.949996 0.688457 0
0.975006 0.684596 0
1 0.692363 0
0 0.925002 0
0.0249943 0.925002 0
0.195117 0.925002 0
0.575891 0.91313 0
0.888106 0.868391 0
0.925002 0.850752 0
0.949996 0.847013 0
0.975006 0.841825 0
1 0.846098 0
0 0.949996 0
0.0249943 0.949996 0
0.210986 0.949996 0
0.586694 0.949996 0
0.896132 0.93843 0
0.925002 0.922774 0
0.949996 0.92224 0
0.975006 0.921904 0
1 0.921965 0
0 0.975006 0
0.0249943 0.975006 0
0.21706 0.975006 0
0.594598 0.975006 0
0.899992 0.962982 0
0.925002 0.947829 0
0.949996 0.94754 0
0.975006 0.947326 0
1 0.947402 0
0 1 0
0.0249943 1 0
0.236408 1 0
0.618143 1 0
0.899992 0.986175 0
0.925002 0.973007 0
0.949996 0.9729 0
0.975006 0.972641 0
1 0.972641 0
0 0.0217136 0.0919051
0.0249943 0.0211643 0.100114
0.181781 0 0.0794995
0.383215 0 0.0249943
0.59852 0 0.0249943
0.812772 0 0.0249943
0.934478 0 0.0249943
0.959472 0 0.0249943
0.986831 0 0.0249943
0 0.0809644 0.0868086
0.0249943 0.0873121 0.090959
0.182345 0.0750286 0.0766308
0.420066 0.0533608 0.0249943
0.680217 0.030808 0.0249943
0.909575 0.0265202 0.0249943
0.94699 0.0249943 0.0249943
0.972854 0.0256352 0.0249943
1 0.0441444 0.0249943
0 0.202274 0.0581369
0.0249943 0.22414 0.0684062
0.191913 0.228305 0.0796368
0.46009 0.221988 0.0481422
0.715953 0.232013 0.0249943
0.925002 0.25568 0.0249943
0.949996 0.2589 0.0249943
0.975006 0.26772 0.0249943
1 0.29366 0.0249943
0 0.426352 0.0249943
0.0249943 0.468208 0.0249943
0.15375 0.496529 0.0437018
0.554986 0.461982 0.0622263
0.81915 0.467353 0.0710155
0.925002 0.507591 0.0249943
0.949996 0.511559 0.0249943
0.975006 0.511482 0.0249943
1 0.526757 0.0314794
0 0.705119 0.0249943
0.0249943 0.749828 0.0249943
0.162402 0.770459 0.035111
0.556619 0.730312 0.0249943
0.8663 0.70016 0.0664225
0.925002 0.702129 0.0861372
0.949996 0.701335 0.0814984
0.975006 0.696956 0.0748608
1 0.704219 0.0793927
0 0.925002 0.0249943
0.0249943 0.925002 0.0395209
0.198428 0.925002 0.052018
0.559915 0.924926 0.0249943
0.87921 0.877699 0.0363012
0.925002 0.85922 0.0737316
0.949996 0.85568 0.071458
0.975006 0.850492 0.0654917
1 0.85449 0.0668956
0 0.949996 0.0249943
0.0249943 0.949996 0.0465705
0.212634 0.949996 0.0555581
0.570077 0.949996 0.0249943
0.885863 0.941772 0.0328527
0.925002 0.925826 0.0691081
0.949996 0.925368 0.0664225
0.975006 0.925155 0.0603037
1 0.925231 0.0623026
0 0.975006 0.0249943
0.0249943 0.975006 0.0465553
0.218067 0.975006 0.0557565
0.577447 0.975006 0.0249943
0.891447 0.966278 0.037995
0.925002 0.950866 0.0754253
0.949996 0.950591 0.074052
0.975006 0.950469 0.0701152
1 0.95053 0.0721599
0 1 0.0333715
0.0249943 1 0.0586862
0.236347 1 0.0649271
0.601007 1 0.0291905
0.899992 0.989364 0.0526589
0.925002 0.975967 0.0870527
0.949996 0.975875 0.0838331
0.975006 0.975723 0.0781567
1 0.975708 0.0778515
0 0.0313725 0.231159
0.0249943 0.0319677 0.24007
0.138399 0 0.270344
0.422202 0 0.172488
0.640436 0 0.0608377
0.845487 0 0.0500038
0.949996 0 0.0500038
0.975006 0 0.0500038
1 0 0.0500038
0 0.0989242 0.209598
0.0249943 0.108248 0.221408
0.139178 0.0779889 0.28098
0.470573 0.0313268 0.195514
0.730632 0.0249943 0.0916457
0.925002 0.0249943 0.0500038
0.949996 0.0249943 0.0500038
0.975006 0.0249943 0.0544137
1 0.0329137 0.0874189
0 0.208103 0.203571
0.0249943 0.231464 0.221546
0.154009 0.243931 0.241047
0.469841 0.22771 0.203632
0.745327 0.233371 0.134539
0.925002 0.257527 0.0955825
0.949996 0.260151 0.101915
0.975006 0.268208 0.111971
1 0.292866 0.1364
0 0.436118 0.157
0.0249943 0.478904 0.180819
0.15346 0.504936 0.235065
0.520562 0.481224 0.24567
0.769436 0.493538 0.221698
0.925002 0.529686 0.156176
0.949996 0.533608 0.155901
0.975006 0.532555 0.154177
1 0.547631 0.170886
0 0.712703 0.157473
0.0249943 0.756558 0.194003
0.16202 0.774563 0.238849
0.506004 0.747524 0.220249
0.834974 0.709926 0.259648
0.925002 0.714214 0.269917
0.949996 0.714061 0.263828
0.975006 0.709834 0.25655
1 0.715663 0.26424
0 0.925002 0.199191
0.0249943 0.925002 0.238422
0.192752 0.925002 0.262287
0.517128 0.925002 0.229404
0.843351 0.884108 0.227466
0.925002 0.863828 0.275578
0.949996 0.860197 0.274403
0.975006 0.855192 0.268574
1 0.858656 0.270878
0 0.949996 0.216373
0.0249943 0.949996 0.25095
0.205829 0.949996 0.271565
0.527657 0.949996 0.23566
0.847639 0.947356 0.226902
0.925002 0.929213 0.27303
0.949996 0.928618 0.271199
0.975006 0.928557 0.265217
1 0.928573 0.267964
0 0.975006 0.218616
0.0249943 0.975006 0.25275
0.211566 0.975006 0.274525
0.534874 0.975006 0.240345
0.853849 0.971603 0.235416
0.925002 0.954131 0.282338
0.949996 0.95375 0.281987
0.975006 0.953704 0.278309
1 0.953735 0.280644
0 1 0.237583
0.0249943 1 0.271366
0.228489 1 0.290181
0.556451 1 0.254551
0.87451 0.994141 0.257221
0.925002 0.978973 0.299077
0.949996 0.978927 0.295491
0.975006 0.978851 0.288945
1 0.978836 0.288228
0 0.041886 0.454063
0.0249943 0.0436103 0.462211
0.0500038 0.0223697 0.505791
0.389364 0 0.473991
0.671321 0 0.392996
0.895354 0 0.280888
0.949996 0 0.220966
0.975006 0 0.225177
1 0 0.282216
0 0.112016 0.435966
0.0249943 0.123064 0.457725
0.0500038 0.106493 0.527718
0.445457 0.0249943 0.532433
0.764538 0.0249943 0.47306
0.925002 0.0249943 0.393576
0.949996 0.0249943 0.416724
0.975006 0.0249943 0.452583
1 0.0249943 0.513146
0 0.243977 0.382528
0.0249943 0.274434 0.407691
0.0500038 0.291524 0.437751
0.45127 0.2206 0.569436
0.808072 0.203738 0.507485
0.925002 0.233204 0.427863
0.949996 0.23418 0.449302
0.975006 0.239185 0.473152
1 0.261173 0.516533
0 0.444251 0.407324
0.0249943 0.487511 0.442863
0.12192 0.515908 0.491081
0.427405 0.510842 0.497826
0.758144 0.498802 0.469566
0.925002 0.524681 0.417807
0.949996 0.528038 0.420691
0.975006 0.525505 0.421546
1 0.539834 0.441215
0 0.718807 0.406317
0.0249943 0.760723 0.451255
0.148699 0.776272 0.503044
0.475288 0.746502 0.526711
0.786099 0.716213 0.528725
0.925002 0.730678 0.489601
0.949996 0.731228 0.479881
0.975006 0.727428 0.472953
1 0.732082 0.482368
0 0.925002 0.456413
0.0249943 0.925002 0.497948
0.178256 0.925002 0.538537
0.489586 0.92491 0.535592
0.781628 0.889296 0.503014
0.925002 0.865934 0.543984
0.949996 0.86244 0.543114
0.975006 0.858061 0.538521
1 0.860716 0.541634
0 0.949996 0.47805
0.0249943 0.949996 0.512596
0.188983 0.949996 0.548852
0.500328 0.949996 0.542672
0.783154 0.949996 0.50837
0.925002 0.932601 0.542977
0.949996 0.931975 0.541894
0.975006 0.931884 0.537194
1 0.931945 0.540597
0 0.975006 0.479561
0.0249943 0.975006 0.513313
0.19472 0.975006 0.551034
0.508263 0.975006 0.548669
0.790539 0.975006 0.517449
0.925002 0.957488 0.553735
0.949996 0.957183 0.553979
0.975006 0.957122 0.551049
1 0.957183 0.553399
0 1 0.498802
0.0249943 1 0.533028
0.211017 1 0.567712
0.52929 1 0.566674
0.81239 1 0.539025
0.925002 0.982589 0.571862
0.949996 0.982452 0.568429
0.975006 0.982345 0.562341
1 0.98233 0.561288
0 0.0512856 0.65832
0.0249943 0.0536812 0.666148
0.0500038 0.0374456 0.7084
0.262898 0 0.75584
0.650034 0 0.674296
0.899504 0 0.637613
0.949996 0 0.595483
0.975006 0 0.604532
1 0 0.661341
0 0.124498 0.647456
0.0249943 0.13785 0.671611
0.0500038 0.126192 0.739086
0.318456 0.0420539 0.80589
0.754528 0.0249943 0.750515
0.925002 0.0249943 0.74052
0.949996 0.0249943 0.759625
0.975006 0.0249943 0.784298
1 0.0249943 0.822477
0 0.277058 0.579705
0.0249943 0.312505 0.606043
0.0500038 0.330068 0.658167
0.299199 0.265766 0.804242
0.80383 0.201282 0.799146
0.925002 0.212955 0.788952
0.949996 0.21529 0.804303
0.975006 0.221454 0.819944
1 0.24506 0.846204
0 0.480156 0.600565
0.0249943 0.526345 0.632197
0.0500038 0.561975 0.6421
0.273732 0.56321 0.687037
0.754269 0.492897 0.780545
0.925002 0.500389 0.738903
0.949996 0.50248 0.739605
0.975006 0.499199 0.740993
1 0.512764 0.757549
0 0.726192 0.645655
0.0249943 0.766964 0.686625
0.12108 0.783825 0.725643
0.438621 0.757397 0.725124
0.711315 0.737133 0.717632
0.925002 0.72903 0.68893
0.949996 0.727825 0.682033
0.975006 0.723598 0.67776
1 0.728115 0.684199
0 0.925002 0.678355
0.0249943 0.925002 0.714321
0.156374 0.925002 0.739086
0.476081 0.923293 0.734646
0.749722 0.888609 0.73814
0.925002 0.871336 0.742397
0.949996 0.868864 0.738979
0.975006 0.864775 0.734447
1 0.866987 0.737148
0 0.949996 0.693721
0.0249943 0.949996 0.726146
0.163226 0.949996 0.747387
0.484092 0.949996 0.740108
0.753414 0.949996 0.73994
0.925002 0.937926 0.742885
0.949996 0.937285 0.742321
0.975006 0.937133 0.738933
1 0.937255 0.741421
0 0.975006 0.698131
0.0249943 0.975006 0.729274
0.165316 0.975006 0.750484
0.489952 0.975006 0.742901
0.760998 0.975006 0.74583
0.925002 0.962951 0.751736
0.949996 0.962768 0.752132
0.975006 0.962661 0.749966
1 0.962707 0.751034
0 1 0.716793
0.0249943 1 0.747036
0.180209 1 0.765469
0.510124 1 0.755428
0.780743 1 0.760678
0.925002 0.988418 0.765042
0.949996 0.988281 0.762539
0.975006 0.988067 0.758267
1 0.988006 0.757229
0 0.0596933 0.810437
0.0249943 0.0626078 0.817594
0.0500038 0.0486458 0.852872
0.151247 0 0.914183
0.613474 0 0.867399
0.896696 0 0.833555
0.949996 0 0.82884
0.975006 0 0.840604
1 0 0.88043
0 0.137804 0.806073
0.0249943 0.154284 0.829786
0.0500038 0.145464 0.887663
0.204303 0.0741894 0.925002
0.731365 0.0249943 0.925002
0.925002 0.0249943 0.925002
0.949996 0.0249943 0.925002
0.975006 0.0249943 0.925002
1 0.0249943 0.925002
0 0.304112 0.744533
0.0249943 0.344228 0.771267
0.0500038 0.361837 0.824521
0.195697 0.306264 0.925002
0.767971 0.218753 0.925002
0.925002 0.217166 0.925002
0.949996 0.21973 0.925002
0.975006 0.22678 0.925002
1 0.249805 0.925002
0 0.525292 0.728054
0.0249943 0.573877 0.757214
0.0500038 0.612818 0.75639
0.17293 0.603113 0.831571
0.66212 0.527611 0.925002
0.925002 0.499702 0.925002
0.949996 0.499809 0.925002
0.975006 0.496498 0.925002
1 0.510063 0.925002
0 0.747494 0.800565
0.0249943 0.789273 0.830533
0.0683452 0.806729 0.854963
0.336065 0.794965 0.836439
0.616312 0.768978 0.845029
0.925002 0.719356 0.896681
0.949996 0.714076 0.886305
0.975006 0.709316 0.884001
1 0.713954 0.888579
0 0.925002 0.84184
0.0249943 0.925002 0.862425
0.136797 0.925002 0.884688
0.449485 0.925002 0.873121
0.725963 0.896681 0.859632
0.918364 0.88542 0.867033
0.949996 0.875731 0.861708
0.975006 0.871427 0.857496
1 0.873564 0.860533
0 0.949996 0.846815
0.0249943 0.949996 0.862943
0.150088 0.949996 0.880476
0.466743 0.949996 0.872343
0.744854 0.949996 0.869718
0.925002 0.944167 0.879606
0.949996 0.943389 0.877852
0.975006 0.943267 0.875654
1 0.943404 0.878126
0 0.975006 0.850736
0.0249943 0.975006 0.863584
0.15201 0.975006 0.880552
0.470481 0.975006 0.874647
0.749599 0.975006 0.873701
0.925002 0.969024 0.885756
0.949996 0.968841 0.885344
0.975006 0.968734 0.883741
1 0.968765 0.884031
0 1 0.857755
0.0249943 1 0.866148
0.16968 1 0.881071
0.49102 1 0.880339
0.768292 1 0.881041
0.925002 0.994293 0.893263
0.949996 0.994202 0.891493
0.975006 0.994049 0.889097
1 0.994018 0.888441
0 0.069749 0.938537
0.0249943 0.073228 0.945006
0.0500038 0.0608072 0.949996
0.0749981 0.00491341 0.949996
0.540612 0 0.949996
0.89305 0 0.949996
0.949996 0 0.949996
0.975006 0 0.949996
1 0 0.949996
0 0.154528 0.939269
0.0249943 0.17438 0.949996
0.0500038 0.167605 0.949996
0.115114 0.103044 0.949996
0.673121 0.0249943 0.949996
0.925002 0.0249943 0.949996
0.949996 0.0249943 0.949996
0.975006 0.0249943 0.949996
1 0.0249943 0.949996
0 0.333333 0.886778
0.0249943 0.377646 0.911543
0.0500038 0.395468 0.949996
0.106523 0.344671 0.949996
0.68365 0.250751 0.949996
0.925002 0.224994 0.949996
0.949996 0.22446 0.949996
0.975006 0.231907 0.949996
1 0.253712 0.949996
0 0.5691 0.845502
0.0249943 0.620691 0.871717
0.0500038 0.657069 0.883391
0.088838 0.640284 0.948928
0.562264 0.565545 0.949996
0.925002 0.510643 0.949996
0.949996 0.50312 0.949996
0.975006 0.499626 0.949996
1 0.512306 0.949996
0 0.77966 0.904875
0.0249943 0.821683 0.901213
0.0500038 0.840558 0.913558
0.215183 0.838651 0.930709
0.524437 0.800198 0.944656
0.890211 0.738903 0.949996
0.949996 0.714961 0.949996
0.975006 0.709957 0.949996
1 0.714443 0.949996
0 0.925002 0.890562
0.0249943 0.925002 0.89102
0.111421 0.925002 0.906981
0.396139 0.925002 0.911772
0.64213 0.925002 0.911223
0.855802 0.907668 0.925277
0.949996 0.874174 0.935973
0.975006 0.868818 0.936706
1 0.871107 0.936385
0 0.949996 0.882719
0.0249943 0.949996 0.890654
0.15491 0.949996 0.905653
0.467247 0.949996 0.906172
0.741039 0.949996 0.911788
0.925002 0.945922 0.928344
0.949996 0.944671 0.929595
0.975006 0.944671 0.929595
1 0.944671 0.929595
0 0.975006 0.882719
0.0249943 0.975006 0.89099
0.161486 0.975006 0.905852
0.478889 0.975006 0.906111
0.753491 0.975006 0.912749
0.925002 0.96968 0.929595
0.949996 0.969665 0.929595
0.975006 0.969665 0.929595
1 0.969665 0.929595
0 1 0.882963
0.0249943 1 0.89221
0.179599 1 0.906294
0.500389 1 0.906035
0.771359 1 0.914214
0.925002 0.994659 0.929595
0.949996 0.994659 0.929595
0.975006 0.994659 0.929595
1 0.994659 0.929595
0 0.0815137 0.975006
0.0249943 0.0855879 0.975006
0.0500038 0.0742046 0.975006
0.0749981 0.0243992 0.975006
0.43711 0 0.975006
0.872282 0 0.975006
0.949996 0 0.975006
0.975006 0 0.975006
1 0 0.975006
0 0.174197 0.975006
0.0249943 0.197665 0.975006
0.0500038 0.192218 0.975006
0.0749981 0.134417 0.975006
0.57792 0.0296178 0.975006
0.925002 0.0249943 0.975006
0.949996 0.0249943 0.975006
0.975006 0.0249943 0.975006
1 0.0249943 0.975006
0 0.36524 0.975006
0.0249943 0.412955 0.975006
0.0500038 0.430625 0.975006
0.0749981 0.384588 0.975006
0.572381 0.291615 0.975006
0.925002 0.23949 0.975006
0.949996 0.229099 0.975006
0.975006 0.235904 0.975006
1 0.256825 0.975006
0 0.611536 0.951186
0.0249943 0.66421 0.946029
0.0500038 0.696254 0.939513
0.0749981 0.675822 0.960555
0.455467 0.605417 0.975006
0.925002 0.533272 0.975006
0.949996 0.507591 0.975006
0.975006 0.501915 0.975006
1 0.514 0.975006
0 0.815717 0.926787
0.0249943 0.857374 0.923125
0.0500038 0.880827 0.921538
0.118364 0.874571 0.947173
0.430701 0.832654 0.9617
0.814862 0.763668 0.975006
0.949996 0.720546 0.975006
0.975006 0.711086 0.975006
1 0.715023 0.975006
0 0.925002 0.91313
0.0249943 0.925002 0.909865
0.0534066 0.925002 0.924681
0.296895 0.925002 0.932586
0.541192 0.925002 0.931228
0.794034 0.925002 0.940032
0.949996 0.885771 0.959426
0.975006 0.869596 0.961593
1 0.871794 0.961303
0 0.949996 0.907729
0.0249943 0.949996 0.914031
0.135698 0.949996 0.929915
0.433967 0.949996 0.931365
0.692714 0.949996 0.933852
0.870481 0.949996 0.94638
0.949996 0.944671 0.954589
0.975006 0.944671 0.954589
1 0.944671 0.954589
0 0.975006 0.907729
0.0249943 0.975006 0.916655
0.167208 0.975006 0.931014
0.483787 0.975006 0.93109
0.75555 0.975006 0.937911
0.925002 0.970031 0.954681
0.949996 0.969665 0.954589
0.975006 0.969665 0.954589
1 0.969665 0.954589
0 1 0.90811
0.0249943 1 0.917861
0.187503 1 0.931441
0.508782 1 0.930999
0.777173 1 0.939605
0.925002 0.994659 0.954589
0.949996 0.994659 0.954589
0.975006 0.994659 0.954589
1 0.994659 0.954589
0 0.0932937 1
0.0249943 0.0980087 1
0.0500038 0.087129 1
0.0749981 0.0396735 1
0.336721 0 1
0.836789 0 1
0.949996 0 1
0.975006 0 1
1 0 1
0 0.194858 1
0.0249943 0.221653 1
0.0500038 0.216999 1
0.0749981 0.163165 1
0.483314 0.0626993 1
0.925002 0.0249943 1
0.949996 0.0249943 1
0.975006 0.0249943 1
1 0.0249943 1
0 0.396872 1
0.0249943 0.447959 1
0.0500038 0.465095 1
0.0749981 0.423911 1
0.473915 0.330953 1
0.925002 0.259846 1
0.949996 0.236851 1
0.975006 0.242466 1
1 0.262242 1
0 0.649073 0.974517
0.0249943 0.701595 0.963531
0.0500038 0.729747 0.958938
0.0749981 0.70956 0.965423
0.355856 0.644587 1
0.848707 0.562066 1
0.949996 0.518441 1
0.975006 0.505592 1
1 0.516625 1
0 0.849943 0.94876
0.0249943 0.890166 0.945266
0.0500038 0.899992 0.942962
0.0749981 0.899992 0.959533
0.351461 0.861173 0.979995
0.742748 0.78938 1
0.949996 0.735119 1
0.975006 0.713344 1
1 0.716899 1
0 0.925002 0.935241
0.0249943 0.925002 0.932769
0.0500038 0.925002 0.940764
0.195285 0.925002 0.956085
0.452598 0.925002 0.956405
0.737087 0.925002 0.960281
0.949996 0.904921 0.98204
0.975006 0.87245 0.986206
1 0.873594 0.986053
0 0.949996 0.932723
0.0249943 0.949996 0.935103
0.0948348 0.949996 0.952575
0.367956 0.949996 0.956588
0.612985 0.949996 0.95639
0.807553 0.949996 0.965011
0.949996 0.944945 0.97966
0.975006 0.944671 0.979583
1 0.944671 0.979583
0 0.975006 0.932723
0.0249943 0.975006 0.940963
0.157443 0.975006 0.955734
0.467247 0.975006 0.956176
0.73434 0.975006 0.961318
0.924437 0.971633 0.977005
0.949996 0.969665 0.979583
0.975006 0.969665 0.979583
1 0.969665 0.979583
0 1 0.933028
0.0249943 1 0.942382
0.181262 1 0.956329
0.504051 1 0.956024
0.774105 1 0.964385
0.925002 0.994659 0.979583
0.949996 0.994659 0.979583
0.975006 0.994659 0.979583
1 0.994659 0.979583
