LUT color transfer/LUTs/60.cube
TITLE "Generate by Resolve"
LUT_3D_SIZE 33
0 0.0147707 0.0213779
0.00624094 0.0148013 0.0214084
0.0124971 0.0155337 0.0218051
0.0187533 0.0156863 0.023331
0.0386053 0.0124208 0.0264591
0.0685283 0.0084535 0.0229496
0.096025 0.00653086 0.00955215
0.128389 0.00407416 0
0.166033 0.00277714 0
0.20882 0.00390631 0
0.258198 0.00404364 0
0.31249 0.00289921 0
0.369207 0.000762951 0
0.42623 0 0
0.482292 0 0
0.536904 0 0
0.591226 0 0
0.646265 0 0
0.701289 0 0
0.754421 0 0
0.806149 0 0
0.855207 0 0
0.902129 0 0
0.925902 0 0
0.934478 0 0
0.940719 0 0
0.946975 0 0
0.953216 0 0
0.959472 0 0
0.965728 0 0
0.971969 0 0
0.978225 0 0
0.984466 0 0
0 0.0272374 0.0216983
0.00624094 0.0272831 0.0217136
0.0124971 0.0280919 0.0220035
0.0187533 0.0286412 0.0220951
0.0370489 0.0273899 0.0231327
0.0654765 0.024155 0.0202487
0.0930343 0.0222934 0.00962844
0.125734 0.0194705 0
0.164034 0.0158541 0
0.208209 0.0132753 0
0.258946 0.0108339 0
0.315099 0.00865187 0
0.372 0.00686656 0
0.430106 0.00624094 0
0.486946 0.00624094 0
0.542809 0.00624094 0
0.599634 0.00624094 0
0.657923 0.00624094 0
0.715389 0.00624094 0
0.770474 0.00624094 0
0.822538 0.00624094 0
0.872633 0.00624094 0
0.913283 0.00624094 0
0.928222 0.00624094 0
0.934478 0.00624094 0
0.940719 0.00624094 0
0.946975 0.00624094 0
0.953216 0.00624094 0
0.959472 0.00624094 0
0.965728 0.00624094 0
0.971969 0.00624094 0
0.978225 0.00624094 0
0.984466 0.00624094 0
0 0.0421302 0.0196384
0.00624094 0.0420844 0.0196078
0.0124971 0.0430457 0.0201724
0.0187533 0.0435645 0.021149
0.0389868 0.0425269 0.0222477
0.0652323 0.0401007 0.0220493
0.0917067 0.0391241 0.0116274
0.124468 0.0366979 0
0.163348 0.0330968 0
0.209094 0.0280308 0
0.262821 0.0211032 0
0.321309 0.0157015 0
0.382544 0.0124971 0
0.443671 0.0124971 0
0.50161 0.0124971 0
0.560708 0.0124971 0
0.620371 0.0124971 0
0.681697 0.0124971 0
0.740017 0.0124971 0
0.795087 0.0124971 0
0.847486 0.0124971 0
0.897581 0.0124971 0
0.920348 0.0124971 0
0.928222 0.0124971 0
0.934478 0.0124971 0
0.940719 0.0124971 0
0.946975 0.0124971 0
0.953216 0.0124971 0
0.959472 0.0124971 0
0.965728 0.0124971 0
0.971969 0.0124971 0
0.978225 0.0124971 0
0.984466 0.0124971 0
0 0.0587778 0.0168765
0.00624094 0.0587778 0.016907
0.0124971 0.0599527 0.0176089
0.0187533 0.060914 0.0191043
0.0374914 0.0603494 0.0209812
0.066041 0.0582132 0.0201724
0.0960861 0.0560616 0.0177768
0.126055 0.0553902 0.00370794
0.164935 0.0527504 0
0.211582 0.048661 0
0.266804 0.0430152 0
0.327413 0.0357366 0
0.391669 0.0273594 0
0.455528 0.0193332 0
0.517861 0.0187533 0
0.580072 0.0187533 0
0.643091 0.0187533 0
0.704616 0.0187533 0
0.763027 0.0187533 0
0.818479 0.0187533 0
0.871122 0.0187533 0
0.913787 0.0187533 0
0.921965 0.0187533 0
0.928222 0.0187533 0
0.934478 0.0187533 0
0.940719 0.0187533 0
0.946975 0.0187533 0
0.953216 0.0187533 0
0.959472 0.0187533 0
0.965728 0.0187533 0
0.971969 0.0187533 0
0.978225 0.0187533 0
0.984466 0.0187533 0
0 0.0775158 0.0133364
0.00624094 0.0778668 0.0135195
0.0124971 0.0794232 0.0145266
0.0187533 0.0812695 0.0162814
0.0339818 0.0815747 0.0177005
0.06215 0.0804608 0.0171664
0.10277 0.0760052 0.0197147
0.135012 0.0755016 0.0132448
0.170962 0.0755016 0
0.217685 0.0728923 0
0.273396 0.0681926 0
0.33431 0.062089 0
0.397955 0.0552834 0
0.462181 0.0484932 0
0.526024 0.0420996 0
0.591333 0.0361791 0
0.656611 0.0308995 0
0.720638 0.0274205 0
0.780987 0.0253758 0
0.837125 0.0249943 0
0.890333 0.0249943 0
0.916625 0.0250248 0
0.923247 0.0261387 0
0.929488 0.0254063 0
0.935699 0.0249943 0
0.94107 0.0249943 0
0.947768 0.0249943 0
0.954452 0.0249943 0
0.960723 0.0249943 0
0.96701 0.0271153 0
0.973297 0.0298009 0
0.979599 0.0328679 0
0.986084 0.0399939 0
0 0.100053 0.00634775
0.00624094 0.10074 0.00671397
0.0124971 0.102693 0.00802625
0.0187533 0.106096 0.0106203
0.0286717 0.10779 0.0124208
0.0575113 0.107744 0.0128176
0.10016 0.104158 0.012604
0.146166 0.0996719 0.0180362
0.185321 0.0993515 0.00881971
0.227604 0.0995499 0
0.281147 0.0968643 0
0.341161 0.0923171 0
0.404089 0.0869917 0
0.468696 0.0819715 0
0.532677 0.0773785 0
0.597208 0.0730755 0
0.663325 0.0693523 0
0.727443 0.0670939 0
0.787686 0.0663462 0
0.844617 0.0674296 0
0.898375 0.069749 0
0.917937 0.0694438 0
0.924727 0.0682994 0
0.930907 0.0672618 0
0.937087 0.0659037 0
0.943252 0.0647135 0
0.949432 0.063386 0
0.955596 0.0622721 0
0.962249 0.0685588 0
0.968963 0.0750134 0
0.975738 0.0817731 0
0.982589 0.0889906 0
0.989441 0.0957046 0
0 0.127016 0
0.00624094 0.128756 0
0.0124971 0.131136 0
0.0187533 0.135821 0.00308232
0.0249943 0.138766 0.00543221
0.0515755 0.139757 0.00668345
0.0920729 0.138384 0.00581369
0.147189 0.132708 0.0104067
0.201312 0.127703 0.0148623
0.249332 0.126711 0.00357061
0.298848 0.126986 0
0.355077 0.1252 0
0.416068 0.122347 0
0.479271 0.119463 0
0.542794 0.116777 0
0.607507 0.114534 0
0.673838 0.113054 0
0.737636 0.112871 0
0.798093 0.114641 0
0.854398 0.117647 0
0.908186 0.122057 0
0.922591 0.122515 0
0.928954 0.122087 0
0.93521 0.122072 0
0.941405 0.121691 0
0.947601 0.12108 0
0.953765 0.120287 0
0.960052 0.120638 0
0.96698 0.127092 0
0.973983 0.134035 0
0.981048 0.140963 0
0.988174 0.147936 0
0.995315 0.154925 0
0 0.159411 0
0.00624094 0.161822 0
0.0124971 0.164614 0
0.0187533 0.170581 0
0.0249943 0.174838 0
0.0437629 0.177127 0
0.0831311 0.177447 0
0.139803 0.173251 0
0.205707 0.166171 0.00741588
0.270939 0.160357 0.0101625
0.329122 0.158953 0
0.382849 0.160021 0
0.438529 0.160601 0
0.497704 0.160723 0
0.559258 0.16054 0
0.622705 0.160647 0
0.688197 0.161852 0
0.751003 0.164752 0
0.809705 0.168658 0
0.86511 0.173907 0
0.918059 0.180133 0
0.928664 0.180926 0
0.934966 0.181445 0
0.941299 0.181888 0
0.94757 0.182132 0
0.953811 0.182116 0
0.960021 0.181842 0
0.966369 0.182574 0
0.97348 0.189441 0
0.980575 0.196246 0
0.987503 0.203143 0
0.993744 0.21004 0
1 0.216999 0
0 0.197086 0
0.00624094 0.199985 0
0.0124971 0.203296 0
0.0187533 0.210758 0
0.0249943 0.217105 0
0.0333104 0.220417 0
0.0727092 0.22237 0
0.126787 0.221073 0
0.200885 0.213916 0
0.279591 0.205844 0.00288396
0.355779 0.200076 0.00442512
0.41828 0.198993 0
0.473381 0.201328 0
0.528649 0.204654 0
0.585702 0.207904 0
0.645945 0.211353 0
0.708309 0.215595 0
0.76701 0.22089 0
0.822828 0.227085 0
0.87599 0.234394 0
0.925002 0.242267 0
0.931243 0.243915 0
0.937499 0.244633 0
0.943755 0.245441 0
0.949996 0.246113 0
0.956252 0.246464 0
0.962493 0.246616 0
0.96875 0.247639 0
0.975006 0.253712 0
0.981247 0.260258 0
0.987503 0.266835 0
0.993744 0.273304 0
1 0.279973 0
0 0.240635 0
0.00624094 0.244587 0
0.0124971 0.248768 0
0.0187533 0.257908 0
0.0249943 0.265782 0
0.0312505 0.270893 0
0.0605783 0.274723 0
0.112932 0.275776 0
0.188296 0.271321 0
0.278553 0.261952 0
0.368124 0.253437 0
0.445319 0.248844 0
0.510842 0.24889 0
0.569314 0.252155 0
0.624353 0.258015 0
0.678569 0.264302 0
0.734768 0.271473 0
0.788449 0.279255 0
0.839506 0.287694 0
0.888762 0.296834 0
0.925002 0.306065 0
0.931243 0.307637 0
0.937499 0.308461 0
0.943755 0.309545 0
0.949996 0.310491 0
0.956252 0.311192 0
0.962493 0.311788 0
0.96875 0.311742 0
0.975006 0.317205 0
0.981247 0.322805 0
0.987503 0.328695 0
0.993744 0.335042 0
1 0.3411 0
0 0.291341 0
0.00624094 0.296529 0
0.0124971 0.301656 0
0.0187533 0.312215 0
0.0249943 0.321859 0
0.0312505 0.328679 0
0.0477607 0.334234 0
0.100099 0.338155 0
0.172412 0.336431 0
0.26949 0.32752 0
0.369528 0.317449 0
0.458564 0.310307 0
0.536965 0.306752 0
0.605875 0.307774 0
0.664271 0.311971 0
0.71664 0.318898 0
0.767514 0.32755 0
0.815686 0.337118 0
0.861814 0.347173 0
0.906645 0.358022 0
0.925002 0.368093 0
0.931243 0.370306 0
0.937499 0.371466 0
0.943755 0.37229 0
0.949996 0.373297 0
0.956252 0.374121 0
0.962493 0.374228 0
0.96875 0.374289 0
0.975006 0.378546 0
0.981247 0.383673 0
0.987503 0.389136 0
0.993744 0.394278 0
1 0.399405 0
0 0.349447 0
0.00624094 0.355306 0
0.0124971 0.361501 0
0.0187533 0.373754 0
0.0249943 0.384924 0
0.0312505 0.39324 0
0.0374914 0.400717 0
0.0897993 0.405661 0
0.159701 0.406348 0
0.256855 0.399191 0
0.366049 0.387762 0
0.463157 0.3794 0
0.551125 0.372885 0
0.628794 0.370062 0
0.693736 0.371435 0
0.749523 0.376501 0
0.800259 0.384451 0
0.846464 0.394873 0
0.889616 0.405768 0
0.918746 0.417029 0
0.925002 0.427619 0
0.931243 0.430686 0
0.937499 0.43154 0
0.943755 0.4327 0
0.949996 0.433112 0
0.956252 0.433387 0
0.962493 0.433616 0
0.96875 0.433463 0
0.975006 0.436088 0
0.981247 0.441093 0
0.987503 0.445762 0
0.993744 0.450278 0
1 0.45449 0
0 0.413504 0
0.00624094 0.419989 0
0.0124971 0.42678 0
0.0187533 0.440635 0
0.0249943 0.453544 0
0.0312505 0.46302 0
0.0374914 0.470909 0
0.0830701 0.476799 0
0.151781 0.478584 0
0.245899 0.473014 0
0.360159 0.461204 0
0.46363 0.450523 0
0.557198 0.442039 0
0.641672 0.436591 0
0.712749 0.435325 0
0.773419 0.438254 0
0.828061 0.445151 0
0.875273 0.453849 0
0.912505 0.463828 0
0.918746 0.474388 0
0.925002 0.484337 0
0.931243 0.487984 0
0.937499 0.489387 0
0.943755 0.490028 0
0.949996 0.490333 0
0.956252 0.490288 0
0.962493 0.489799 0
0.96875 0.489555 0
0.975006 0.490837 0
0.981247 0.494713 0
0.987503 0.498802 0
0.993744 0.502922 0
1 0.506752 0
0 0.481819 0
0.00624094 0.488914 0
0.0124971 0.497444 0
0.0187533 0.512505 0
0.0249943 0.525719 0
0.0312505 0.535103 0
0.0374914 0.54316 0
0.0778973 0.549111 0
0.145846 0.551171 0
0.237873 0.546929 0
0.351949 0.535012 0
0.460777 0.522683 0
0.560067 0.512657 0
0.648341 0.505989 0
0.724575 0.502983 0
0.789364 0.503731 0
0.84654 0.507774 0
0.896696 0.514305 0
0.912505 0.522469 0
0.918746 0.531136 0
0.925002 0.539925 0
0.931243 0.54316 0
0.937499 0.54374 0
0.943755 0.544335 0
0.949996 0.544457 0
0.956252 0.544182 0
0.962493 0.543801 0
0.96875 0.542809 0
0.975006 0.542565 0
0.981247 0.545663 0
0.987503 0.549111 0
0.993744 0.552636 0
1 0.556542 0
0 0.552926 0
0.00624094 0.559899 0
0.0124971 0.570855 0
0.0187533 0.585595 0
0.0249943 0.598291 0
0.0312505 0.607355 0
0.0374914 0.615061 0
0.0753185 0.620935 0
0.143847 0.623178 0
0.234043 0.619089 0
0.346181 0.608026 0
0.457359 0.594842 0
0.561379 0.582788 0
0.653056 0.574762 0
0.730678 0.570626 0
0.79855 0.569329 0
0.85864 0.570886 0
0.906249 0.57467 0
0.912505 0.579828 0
0.918746 0.586664 0
0.925002 0.592996 0
0.931243 0.595392 0
0.937499 0.595483 0
0.943755 0.595499 0
0.949996 0.595483 0
0.956252 0.595483 0
0.962493 0.594675 0
0.96875 0.593347 0
0.975006 0.592447 0
0.981247 0.595117 0
0.987503 0.598321 0
0.993744 0.60119 0
1 0.604059 0
0 0.623102 0
0.00624094 0.630304 0
0.0124971 0.642863 0
0.0187533 0.656886 0
0.0249943 0.668772 0
0.0312505 0.67744 0
0.0374914 0.685191 0
0.0784619 0.690745 0
0.147601 0.692012 0
0.236439 0.687816 0
0.345357 0.676966 0
0.456504 0.663584 0
0.564294 0.650675 0
0.657618 0.640482 0
0.735744 0.634379 0
0.804425 0.631342 0
0.866697 0.630884 0
0.906249 0.632364 0
0.912505 0.635004 0
0.918746 0.638544 0
0.925002 0.642481 0
0.931243 0.644068 0
0.937499 0.643992 0
0.943755 0.643824 0
0.949996 0.643519 0
0.956252 0.642969 0
0.962493 0.642023 0
0.96875 0.640772 0
0.975006 0.639796 0
0.981247 0.641749 0
0.987503 0.644434 0
0.993744 0.646983 0
1 0.6495 0
0 0.691814 0
0.00624094 0.698253 0
0.0124971 0.712322 0
0.0187533 0.725734 0
0.0249943 0.736675 0
0.0312505 0.745159 0
0.0374914 0.75172 0
0.0859693 0.756222 0
0.156024 0.756695 0
0.244266 0.751629 0
0.349218 0.740826 0
0.458824 0.727245 0
0.567178 0.712581 0
0.661936 0.701015 0
0.740993 0.693141 0
0.809232 0.688685 0
0.872236 0.686381 0
0.906249 0.685756 0
0.912505 0.686091 0
0.918746 0.68719 0
0.925002 0.68896 0
0.931243 0.689509 0
0.937499 0.68954 0
0.943755 0.689128 0
0.949996 0.688457 0
0.956252 0.687663 0
0.962493 0.68661 0
0.96875 0.685313 0
0.975006 0.684596 0
0.981247 0.685695 0
0.987503 0.687877 0
0.993744 0.690044 0
1 0.692363 0
0 0.757656 0
0.00624094 0.765988 0
0.0124971 0.778897 0
0.0187533 0.791165 0
0.0249943 0.801785 0
0.0312505 0.808835 0
0.0395514 0.814328 0
0.0961471 0.817258 0
0.166537 0.816236 0
0.254398 0.810437 0
0.355947 0.799664 0
0.462638 0.785122 0
0.570092 0.769085 0
0.665553 0.756008 0
0.745556 0.746929 0
0.81442 0.74136 0
0.877226 0.737575 0
0.906249 0.734768 0
0.912505 0.733242 0
0.918746 0.732601 0
0.925002 0.732799 0
0.931243 0.732692 0
0.937499 0.732311 0
0.943755 0.73167 0
0.949996 0.731075 0
0.956252 0.730022 0
0.962493 0.728847 0
0.96875 0.727581 0
0.975006 0.726497 0
0.981247 0.727443 0
0.987503 0.729213 0
0.993744 0.731044 0
1 0.733166 0
0 0.819974 0
0.00624094 0.830014 0
0.0124971 0.842664 0
0.0187533 0.853361 0
0.0249943 0.861982 0
0.0312505 0.867826 0
0.0505531 0.872221 0
0.107622 0.873716 0
0.178027 0.871656 0
0.264805 0.863966 0
0.362829 0.852369 0
0.466911 0.837491 0
0.573007 0.82089 0
0.668833 0.806516 0
0.749493 0.796384 0
0.818586 0.789395 0
0.881498 0.78439 0
0.906249 0.780423 0
0.912505 0.777218 0
0.918746 0.775067 0
0.925002 0.773953 0
0.931243 0.773312 0
0.937499 0.772686 0
0.943755 0.771939 0
0.949996 0.771084 0
0.956252 0.77023 0
0.962493 0.769116 0
0.96875 0.767544 0
0.975006 0.766491 0
0.981247 0.766903 0
0.987503 0.768505 0
0.993744 0.770428 0
1 0.772168 0
0 0.878538 0
0.00624094 0.89012 0
0.0124971 0.901411 0
0.0187533 0.910979 0
0.0249943 0.917998 0
0.0312505 0.918746 0
0.0600137 0.918746 0
0.117662 0.918746 0
0.187884 0.918746 0
0.273823 0.913207 0
0.369024 0.900694 0
0.47013 0.885557 0
0.574838 0.868635 0
0.671641 0.853498 0
0.752377 0.841947 0
0.822019 0.833585 0
0.885252 0.827543 0
0.906249 0.822583 0
0.912505 0.818723 0
0.918746 0.815381 0
0.925002 0.812985 0
0.931243 0.811978 0
0.937499 0.811353 0
0.943755 0.810452 0
0.949996 0.809766 0
0.956252 0.808652 0
0.962493 0.807401 0
0.96875 0.805859 0
0.975006 0.804608 0
0.981247 0.805035 0
0.987503 0.806622 0
0.993744 0.808057 0
1 0.809628 0
0 0.925002 0
0.00624094 0.925002 0
0.0124971 0.925002 0
0.0187533 0.925002 0
0.0249943 0.925002 0
0.0312505 0.925002 0
0.0678264 0.925002 0
0.124819 0.925002 0
0.195117 0.925002 0
0.280415 0.925002 0
0.373861 0.925002 0
0.472892 0.925002 0
0.575891 0.91313 0
0.671748 0.897124 0
0.753445 0.884657 0
0.824079 0.875517 0
0.888106 0.868391 0
0.906249 0.862776 0
0.912505 0.857939 0
0.918746 0.853742 0
0.925002 0.850752 0
0.931243 0.849424 0
0.937499 0.84863 0
0.943755 0.848035 0
0.949996 0.847013 0
0.956252 0.845884 0
0.962493 0.84448 0
0.96875 0.843076 0
0.975006 0.841825 0
0.981247 0.842268 0
0.987503 0.843534 0
0.993744 0.844816 0
1 0.846098 0
0 0.931243 0
0.00624094 0.931243 0
0.0124971 0.931243 0
0.0187533 0.931243 0
0.0249943 0.931243 0
0.0312505 0.931243 0
0.0724041 0.931243 0
0.129534 0.931243 0
0.199969 0.931243 0
0.284794 0.931243 0
0.377569 0.931243 0
0.474845 0.931243 0
0.576608 0.931243 0
0.671702 0.931121 0
0.753536 0.919463 0
0.825162 0.910643 0
0.890288 0.903807 0
0.906249 0.897887 0
0.912505 0.892805 0
0.918746 0.888304 0
0.925002 0.885069 0
0.931243 0.884001 0
0.937499 0.883146 0
0.943755 0.882353 0
0.949996 0.881575 0
0.956252 0.880629 0
0.962493 0.879469 0
0.96875 0.878477 0
0.975006 0.877516 0
0.981247 0.877775 0
0.987503 0.878813 0
0.993744 0.87982 0
1 0.881102 0
0 0.937499 0
0.00624094 0.937499 0
0.0124971 0.937499 0
0.0187533 0.937499 0
0.0249943 0.937499 0
0.0312505 0.937499 0
0.0754864 0.937499 0
0.133074 0.937499 0
0.204547 0.937499 0
0.289754 0.937499 0
0.381491 0.937499 0
0.478187 0.937499 0
0.579263 0.937499 0
0.673243 0.937499 0
0.75494 0.937499 0
0.82681 0.932372 0
0.891737 0.926299 0
0.906249 0.921111 0
0.912505 0.916701 0
0.918746 0.912825 0
0.925002 0.910246 0
0.931243 0.909758 0
0.937499 0.909697 0
0.943755 0.909636 0
0.949996 0.909575 0
0.956252 0.909483 0
0.962493 0.909392 0
0.96875 0.909285 0
0.975006 0.909178 0
0.981247 0.909148 0
0.987503 0.909194 0
0.993744 0.909209 0
1 0.909255 0
0 0.943755 0
0.00624094 0.943755 0
0.0124971 0.943755 0
0.0187533 0.943755 0
0.0249943 0.943755 0
0.0312505 0.943755 0
0.0779736 0.943755 0
0.136156 0.943755 0
0.208286 0.943755 0
0.294057 0.943755 0
0.385397 0.943755 0
0.4822 0.943755 0
0.583093 0.943755 0
0.676905 0.943755 0
0.758083 0.943755 0
0.829541 0.938369 0
0.89424 0.932326 0
0.906249 0.927214 0
0.912505 0.92282 0
0.918746 0.918944 0
0.925002 0.916503 0
0.931243 0.916091 0
0.937499 0.916045 0
0.943755 0.915984 0
0.949996 0.915923 0
0.956252 0.915846 0
0.962493 0.91574 0
0.96875 0.915648 0
0.975006 0.915557 0
0.981247 0.915526 0
0.987503 0.915557 0
0.993744 0.915587 0
1 0.915618 0
0 0.949996 0
0.00624094 0.949996 0
0.0124971 0.949996 0
0.0187533 0.949996 0
0.0249943 0.949996 0
0.0312505 0.949996 0
0.0802777 0.949996 0
0.138811 0.949996 0
0.210986 0.949996 0
0.297108 0.949996 0
0.388388 0.949996 0
0.485451 0.949996 0
0.586694 0.949996 0
0.679835 0.949996 0
0.760525 0.949996 0
0.831632 0.944427 0
0.896132 0.93843 0
0.906249 0.933318 0
0.912505 0.928954 0
0.918746 0.925139 0
0.925002 0.922774 0
0.931243 0.922393 0
0.937499 0.922347 0
0.943755 0.922301 0
0.949996 0.92224 0
0.956252 0.922179 0
0.962493 0.922087 0
0.96875 0.921996 0
0.975006 0.921904 0
0.981247 0.921904 0
0.987503 0.92192 0
0.993744 0.92195 0
1 0.921965 0
0 0.956252 0
0.00624094 0.956252 0
0.0124971 0.956252 0
0.0187533 0.956252 0
0.0249943 0.956252 0
0.0322728 0.956252 0
0.0814527 0.956252 0
0.140414 0.956252 0
0.212787 0.956252 0
0.299092 0.956252 0
0.390509 0.956252 0
0.487739 0.956252 0
0.588952 0.956252 0
0.681758 0.956252 0
0.762081 0.956252 0
0.832944 0.950545 0
0.897459 0.944564 0
0.906249 0.939483 0
0.912505 0.935149 0
0.918746 0.93135 0
0.925002 0.929046 0
0.931243 0.92871 0
0.937499 0.928679 0
0.943755 0.928618 0
0.949996 0.928557 0
0.956252 0.928496 0
0.962493 0.928435 0
0.96875 0.928344 0
0.975006 0.928252 0
0.981247 0.928252 0
0.987503 0.928267 0
0.993744 0.928298 0
1 0.928328 0
0 0.962493 0
0.00624094 0.962493 0
0.0124971 0.962493 0
0.0187533 0.962493 0
0.0249943 0.962493 0
0.0326696 0.962493 0
0.0818647 0.962493 0
0.140948 0.962493 0
0.213672 0.962493 0
0.300435 0.962493 0
0.391913 0.962493 0
0.488731 0.962493 0
0.589837 0.962493 0
0.682429 0.962493 0
0.762737 0.962493 0
0.834012 0.956695 0
0.898177 0.950774 0
0.906249 0.945708 0
0.912505 0.941375 0
0.918746 0.937591 0
0.925002 0.935332 0
0.931243 0.935012 0
0.937499 0.934966 0
0.943755 0.934936 0
0.949996 0.93489 0
0.956252 0.934829 0
0.962493 0.934768 0
0.96875 0.934676 0
0.975006 0.9346 0
0.981247 0.9346 0
0.987503 0.934615 0
0.993744 0.934646 0
1 0.934676 0
0 0.96875 0
0.00624094 0.96875 0
0.0124971 0.96875 0
0.0187533 0.96875 0
0.0249943 0.96875 0
0.0329747 0.96875 0
0.0821851 0.96875 0
0.14168 0.96875 0
0.214801 0.96875 0
