LUT color transfer/LUTs/62.cube
TITLE "Generate by Resolve"
LUT_3D_SIZE 33
0 0 0
0.0152743 0 0
0.0305028 1.5259e-05 1.5259e-05
0.0458839 3.0518e-05 6.10361e-05
0.061387 1.5259e-05 4.57771e-05
0.0771038 0 0
0.0932021 0 0
0.109804 0 0
0.136172 0 9.15541e-05
0.178683 0 0.00328069
0.224964 0 0.00798047
0.269734 0.000839246 0.0138705
0.314443 0.00407416 0.0203098
0.361913 0.00654612 0.0259403
0.410819 0.00740063 0.0305028
0.470466 0.00486763 0.0332494
0.563424 7.62951e-05 0.0314336
0.676814 0 0.0264744
0.779919 0 0.0227207
0.834684 0 0.0235294
0.850004 0 0.0247501
0.862501 0 0.0246128
0.874998 0 0.0244755
0.887495 0 0.0243687
0.899992 0 0.0242618
0.912505 0 0.024155
0.925002 0 0.0240787
0.937499 0 0.0240024
0.949996 0 0.0239261
0.962493 0 0.0238651
0.975006 0 0.0237888
0.987503 0 0.0237125
1 0 0.0236362
1.5259e-05 0.0150759 1.5259e-05
0.0151522 0.0149996 0
0.0301976 0.0149691 1.5259e-05
0.0455634 0.0149233 1.5259e-05
0.0610666 0.014847 0
0.0767987 0.0146944 0
0.0929122 0.0144808 0
0.109621 0.0141299 0
0.135363 0.0135653 7.62951e-05
0.178439 0.0128939 0.00321965
0.225254 0.0124971 0.00802625
0.2701 0.0133669 0.0139467
0.31487 0.0166171 0.0203861
0.362493 0.0190738 0.0260166
0.411643 0.0198978 0.0305943
0.47216 0.0171664 0.0332494
0.566201 0.0125582 0.0313268
0.680201 0.0124971 0.0263066
0.783475 0.0124971 0.0225986
0.835615 0.0124971 0.0236973
0.850004 0.0124971 0.0247501
0.862501 0.0124971 0.0246128
0.874998 0.0124971 0.0244755
0.887495 0.0124971 0.0243534
0.899992 0.0124971 0.0242466
0.912505 0.0124971 0.0241398
0.925002 0.0124971 0.0240635
0.937499 0.0124971 0.0239719
0.949996 0.0124971 0.0239109
0.962493 0.0124971 0.0238346
0.975006 0.0124971 0.0237583
0.987503 0.0124971 0.023682
1 0.0124971 0.0236057
0.000106813 0.0300755 3.0518e-05
0.0150454 0.0299382 1.5259e-05
0.0299229 0.0298466 1.5259e-05
0.0452888 0.0297551 0
0.0607919 0.0296025 0
0.0765393 0.0294041 0
0.0926986 0.0291295 0
0.109575 0.0287327 0
0.134157 0.027985 3.0518e-05
0.178027 0.0268559 0.00299077
0.225437 0.0263371 0.00798047
0.270985 0.0268101 0.0141299
0.316014 0.0292363 0.0206149
0.363973 0.0316167 0.0262303
0.413397 0.0324102 0.0307927
0.475898 0.0292363 0.0332341
0.571756 0.0250401 0.0310979
0.686976 0.0249943 0.0260014
0.790097 0.0249943 0.0223697
0.837186 0.0249943 0.0239719
0.850004 0.0249943 0.0247349
0.862501 0.0249943 0.0245975
0.874998 0.0249943 0.024445
0.887495 0.0249943 0.0243229
0.899992 0.0249943 0.0242161
0.912505 0.0249943 0.0241093
0.925002 0.0249943 0.024033
0.937499 0.0249943 0.0239567
0.949996 0.0249943 0.0238651
0.962493 0.0249943 0.0237888
0.975006 0.0249943 0.0237125
0.987503 0.0249943 0.0236362
1 0.0249943 0.0235447
0.000137331 0.045182 3.0518e-05
0.0148775 0.0450446 0
0.0296178 0.0449683 0
0.0449836 0.0448615 0
0.060502 0.0447242 0
0.0762798 0.0445106 0
0.0924849 0.0442206 0
0.109621 0.0437629 0
0.133562 0.0428168 0
0.178027 0.0411536 0.00276188
0.226001 0.0404669 0.00799573
0.272175 0.0415808 0.0144045
0.317571 0.0440223 0.0211185
0.366079 0.0453803 0.0267185
0.415991 0.0451972 0.0311589
0.481498 0.0410773 0.0332189
0.580087 0.0375067 0.0307469
0.696345 0.0374914 0.0255741
0.799573 0.0374914 0.0220493
0.837491 0.0374914 0.0241398
0.850004 0.0374914 0.0247044
0.862501 0.0374914 0.0245518
0.874998 0.0374914 0.0244144
0.887495 0.0374914 0.0242924
0.899992 0.0374914 0.0241855
0.912505 0.0374914 0.0240787
0.925002 0.0374914 0.0239872
0.937499 0.0374914 0.0239109
0.949996 0.0374914 0.0238193
0.962493 0.0374914 0.023743
0.975006 0.0374914 0.0236667
0.987503 0.0374914 0.0235752
1 0.0374914 0.0234836
7.62951e-05 0.0603342 0
0.0146334 0.0602274 0
0.029221 0.0601358 0
0.0446174 0.0600595 0
0.0601511 0.059968 0
0.0759899 0.0597848 0
0.0922255 0.0595254 0
0.109636 0.0590829 0
0.133333 0.0581826 0
0.178103 0.0564889 0.00251774
0.226719 0.0556954 0.00799573
0.273625 0.0567178 0.0147097
0.319585 0.059144 0.0217288
0.368338 0.0605631 0.0274968
0.41883 0.060502 0.0320134
0.485969 0.0554208 0.0337377
0.588281 0.0499886 0.0305943
0.707881 0.0499886 0.0250706
0.811704 0.0499886 0.0216678
0.837491 0.0499886 0.0242924
0.850004 0.0499886 0.0246738
0.862501 0.0499886 0.0245212
0.874998 0.0499886 0.0243839
0.887495 0.0499886 0.0242466
0.899992 0.0499886 0.0241398
0.912505 0.0499886 0.024033
0.925002 0.0499886 0.0239414
0.937499 0.0499886 0.0238499
0.949996 0.0499886 0.0237125
0.962493 0.0499886 0.0235599
0.975006 0.0499886 0.0234073
0.987503 0.0499886 0.0232547
1 0.0499886 0.0230869
0 0.0756237 0
0.0143587 0.0755322 0
0.0287022 0.0755169 0
0.0441444 0.0754711 0
0.0597238 0.0754253 0
0.0756085 0.075288 0
0.0919203 0.0750591 0
0.109529 0.0746624 0
0.133501 0.0738079 3.0518e-05
0.178027 0.0721599 0.00225834
0.22742 0.0712902 0.00796521
0.275227 0.0722515 0.0150301
0.321675 0.0747234 0.0223545
0.370703 0.0762036 0.0283665
0.422171 0.0760357 0.0328832
0.48983 0.0711681 0.0345769
0.594079 0.062501 0.030808
0.713512 0.062501 0.024918
0.809445 0.062501 0.0221103
0.837491 0.062501 0.0241398
0.850004 0.062501 0.0244144
0.862501 0.062501 0.0242618
0.874998 0.062501 0.0241093
0.887495 0.062501 0.0239719
0.899992 0.062501 0.0238193
0.912505 0.062501 0.0236667
0.925002 0.062501 0.0235142
0.937499 0.062501 0.0233463
0.949996 0.062501 0.0231937
0.962493 0.062501 0.0230564
0.975006 0.062501 0.0229038
0.987503 0.062501 0.0227359
1 0.062501 0.0225834
0 0.0911421 0
0.0139315 0.0911421 0
0.0280919 0.0911574 0
0.043473 0.0911574 0
0.0591287 0.0911574 0
0.0750591 0.0910964 0
0.0914473 0.0909438 0
0.109209 0.0905928 0
0.133577 0.0897993 6.10361e-05
0.177295 0.0881971 0.00187686
0.227741 0.0872511 0.00784314
0.276646 0.0881666 0.0153048
0.323827 0.0906844 0.0230564
0.37322 0.0923323 0.0293584
0.425208 0.0920577 0.033875
0.492714 0.0874952 0.0355993
0.599496 0.0767834 0.0310979
0.719402 0.0749981 0.0246891
0.810117 0.0749981 0.0222171
0.837491 0.0749981 0.0240024
0.850004 0.0749981 0.0239567
0.862501 0.0749981 0.0237888
0.874998 0.0749981 0.0236362
0.887495 0.0749981 0.0234684
0.899992 0.0749981 0.0233158
0.912505 0.0749981 0.0231785
0.925002 0.0749981 0.0230106
0.937499 0.0749981 0.022858
0.949996 0.0749981 0.0226902
0.962493 0.0749981 0.0225223
0.975006 0.0749981 0.0223545
0.987503 0.0749981 0.0221866
1 0.0749981 0.0227665
0 0.106996 0
0.0134432 0.107073 0
0.0274205 0.107164 0
0.0425574 0.107256 0
0.0582742 0.107347 0
0.0742809 0.107347 0
0.0907607 0.107286 0
0.108415 0.107042 0
0.132219 0.106371 3.0518e-05
0.17586 0.104784 0.00135805
0.227451 0.103777 0.00756847
0.277684 0.104555 0.0154574
0.325628 0.107179 0.023743
0.375433 0.10898 0.030396
0.427573 0.108888 0.0350195
0.49572 0.104463 0.0366217
0.603693 0.090547 0.0315709
0.723339 0.0874952 0.0247044
0.816602 0.0874952 0.0217899
0.837491 0.0874952 0.0235447
0.850004 0.0874952 0.0234379
0.862501 0.0874952 0.02327
0.874998 0.0874952 0.0231022
0.887495 0.0874952 0.0229343
0.899992 0.0874952 0.0227665
0.912505 0.0874952 0.0225986
0.925002 0.0874952 0.022446
0.937499 0.0874952 0.0222934
0.949996 0.0874952 0.0221408
0.962493 0.0874952 0.0219883
0.975006 0.0874952 0.0233768
0.987503 0.0874952 0.0248264
1 0.0874952 0.0263371
0 0.129534 0
0.0127871 0.130175 0
0.026276 0.130724 0
0.0406806 0.131273 0
0.0564126 0.131563 0
0.0724956 0.131594 0
0.0890669 0.131228 0
0.106538 0.130312 0
0.128634 0.128649 0
0.172549 0.125658 0.000839246
0.226352 0.122805 0.0069276
0.278141 0.122133 0.0155032
0.326726 0.124269 0.0243839
0.376944 0.126207 0.0313878
0.429023 0.126452 0.036286
0.498512 0.122148 0.0377356
0.605341 0.107881 0.0323949
0.725902 0.0999924 0.0248264
0.824964 0.0999924 0.0208591
0.837491 0.0999924 0.022858
0.850004 0.0999924 0.0228733
0.862501 0.0999924 0.0226902
0.874998 0.0999924 0.0225376
0.887495 0.0999924 0.0223697
0.899992 0.0999924 0.0222171
0.912505 0.0999924 0.0220798
0.925002 0.0999924 0.0219272
0.937499 0.0999924 0.0218814
0.949996 0.0999924 0.0234531
0.962493 0.0999924 0.0251621
0.975006 0.0999924 0.0268559
0.987503 0.0999924 0.0286259
1 0.102831 0.0298314
0 0.159823 0
0.0124971 0.161318 0
0.025391 0.16257 0
0.0385443 0.163745 0
0.0542763 0.164614 0
0.0703441 0.165087 0
0.0868544 0.165026 0
0.104097 0.164202 0
0.122988 0.162417 0
0.164858 0.158938 0.000213626
0.221836 0.153994 0.00422675
0.278706 0.14934 0.0145876
0.329061 0.148226 0.0253758
0.379644 0.148333 0.0332494
0.431601 0.147631 0.0384527
0.50071 0.142687 0.039704
0.605951 0.128542 0.0338598
0.727504 0.11429 0.0252384
0.819898 0.11249 0.021088
0.837491 0.11249 0.0224918
0.850004 0.11249 0.0225071
0.862501 0.11249 0.0224155
0.874998 0.11249 0.0223697
0.887495 0.11249 0.0223545
0.899992 0.11249 0.0223545
0.912505 0.11249 0.022385
0.925002 0.115175 0.0229648
0.937499 0.118578 0.0238804
0.949996 0.122164 0.0248417
0.962493 0.126513 0.0257572
0.975006 0.133837 0.026627
0.987503 0.141527 0.0274815
1 0.149004 0.0283665
0 0.196704 0
0.0124971 0.198825 0
0.0251774 0.200916 0
0.0384375 0.20264 0
0.0533608 0.20415 0
0.069337 0.205249 0
0.085771 0.205905 0
0.10277 0.205859 0
0.120607 0.205066 0
0.157031 0.202731 0.000381476
0.209735 0.199512 0.00454719
0.273533 0.193652 0.0107424
0.332433 0.189746 0.0258335
0.38529 0.187915 0.0370031
0.436851 0.186206 0.0435492
0.501015 0.181582 0.0457008
0.597665 0.168994 0.0394293
0.717723 0.149813 0.0280003
0.8121 0.138277 0.0211643
0.837491 0.135592 0.0211643
0.850004 0.136141 0.0208896
0.862501 0.137194 0.0205234
0.874998 0.138796 0.0201114
0.887495 0.142748 0.0195773
0.899992 0.148791 0.0189212
0.912505 0.155459 0.0194858
0.925002 0.162509 0.0202487
0.937499 0.170092 0.021088
0.949996 0.178485 0.0218051
0.962493 0.18735 0.0224918
0.975006 0.195331 0.0232547
0.987503 0.202853 0.0240024
1 0.210544 0.0244755
0.000701915 0.236332 0.00129702
0.0133974 0.238956 0.00169375
0.0261387 0.241962 0.00215152
0.0404059 0.244541 0.00234989
0.0557565 0.246937 0.00233463
0.0717327 0.248966 0.00207523
0.0882734 0.250614 0.00216678
0.105333 0.251728 0.00213626
0.122881 0.25182 0.00187686
0.151278 0.250996 0.00157168
0.204089 0.248814 0.0103304
0.259113 0.247135 0.0145266
0.325811 0.242756 0.0252995
0.387121 0.239567 0.0400397
0.441535 0.238117 0.0495918
0.500984 0.235859 0.0542458
0.58323 0.228626 0.0495003
0.692897 0.214359 0.034699
0.802502 0.199756 0.0215915
0.837491 0.193286 0.0160983
0.850004 0.194247 0.0154421
0.862501 0.196796 0.0149996
0.874998 0.201083 0.0145724
0.887495 0.20647 0.014023
0.899992 0.212558 0.014023
0.912505 0.219532 0.0145418
0.925002 0.226886 0.0150759
0.937499 0.23473 0.0155947
0.949996 0.242878 0.0160678
0.962493 0.252064 0.0162203
0.975006 0.260685 0.0162966
0.987503 0.269276 0.0163577
1 0.277836 0.016434
0.00630198 0.278889 0.0081178
0.0198215 0.282353 0.00918593
0.0334783 0.286198 0.0103609
0.0478065 0.290043 0.0115358
0.0641947 0.293629 0.0125124
0.080766 0.296834 0.0133211
0.0975052 0.299657 0.0139467
0.114458 0.301762 0.0142672
0.13167 0.302876 0.0141146
0.154269 0.303227 0.0132601
0.203464 0.303365 0.0174105
0.256641 0.302815 0.0279393
0.315175 0.302419 0.0338903
0.379797 0.30013 0.0450599
0.440665 0.298039 0.0562753
0.499519 0.296239 0.0632944
0.570352 0.29276 0.0624094
0.66424 0.284108 0.0478676
0.773312 0.271565 0.0277562
0.837491 0.264363 0.0168612
0.850004 0.263371 0.0129854
0.862501 0.265476 0.0103151
0.874998 0.26923 0.00827039
0.887495 0.274907 0.007187
0.899992 0.281147 0.00610361
0.912505 0.288136 0.00595102
0.925002 0.295888 0.00614939
0.937499 0.305241 0.00646983
0.949996 0.315099 0.00563058
0.962493 0.325567 0.00460822
0.975006 0.335454 0.00459297
0.987503 0.345907 0.00642405
1 0.356405 0.00836194
0.0184329 0.326314 0.0205234
0.0326238 0.331014 0.0222477
0.0469978 0.336355 0.0241703
0.0614328 0.341802 0.0261387
0.0780041 0.346563 0.0276799
0.0948653 0.350774 0.0290532
0.111833 0.354513 0.0301976
0.128939 0.357519 0.0310216
0.146288 0.359533 0.0314946
0.167559 0.3608 0.0315862
0.211032 0.362692 0.0341192
0.262989 0.363638 0.0448768
0.317525 0.365515 0.0535744
0.376135 0.366888 0.0611124
0.435767 0.366873 0.0690013
0.494591 0.36553 0.0749065
0.559426 0.363546 0.0767529
0.63714 0.35903 0.0657969
0.734737 0.349996 0.0407263
0.813809 0.342672 0.0217136
0.845472 0.341634 0.0151827
0.862303 0.343206 0.011368
0.874998 0.346487 0.00790417
0.887495 0.351583 0.00488289
0.899992 0.358312 0.00280766
0.912505 0.366262 0.00254826
0.925002 0.375204 0.00308232
0.937499 0.385077 0.00267033
0.949996 0.395407 0.00195315
0.962493 0.406226 0.00292973
0.975006 0.416526 0.00573739
0.987503 0.42652 0.00874342
1 0.436103 0.0126497
0.0323491 0.379568 0.0347295
0.0466621 0.385504 0.0366064
0.0610971 0.391775 0.0385901
0.0755322 0.398276 0.0405737
0.091783 0.403815 0.0421759
0.108751 0.408789 0.0437018
0.125933 0.413138 0.0451667
0.143343 0.416571 0.0464485
0.161028 0.418936 0.0474861
0.181689 0.420157 0.0482185
0.223529 0.422568 0.0520638
0.276066 0.424826 0.0633097
0.329305 0.427192 0.0761883
0.383536 0.430014 0.083299
0.437552 0.432395 0.0883345
0.491661 0.43331 0.0913405
0.55053 0.432654 0.0920424
0.617227 0.430701 0.0838483
0.69926 0.425925 0.0585489
0.780468 0.419821 0.0307469
0.817319 0.418433 0.0210422
0.841184 0.420111 0.0162356
0.862242 0.423896 0.0122835
0.879088 0.429526 0.00895705
0.896788 0.436591 0.00677501
0.910231 0.444541 0.00666819
0.921447 0.453025 0.00755322
0.934936 0.462318 0.00854505
0.949447 0.472023 0.00950637
0.960937 0.481636 0.0115511
0.969772 0.489998 0.0166323
0.978256 0.498222 0.0216983
0.986358 0.506462 0.0268101
0.0447852 0.436393 0.0475471
0.0586557 0.442863 0.0489815
0.0724956 0.449531 0.05037
0.0863508 0.456413 0.0518044
0.102663 0.462226 0.0534218
0.119341 0.467323 0.0546426
0.13611 0.471611 0.0556497
0.153414 0.4748 0.0567788
0.171252 0.476921 0.0579385
0.190005 0.477821 0.0590829
0.234348 0.480217 0.0648508
0.287892 0.482231 0.0765698
0.342519 0.483986 0.0934157
0.395499 0.486656 0.103456
0.445716 0.489479 0.108049
0.494713 0.491371 0.109773
0.546822 0.492576 0.1093
0.605402 0.493034 0.102541
0.674022 0.492195 0.0803845
0.747021 0.48983 0.0486305
0.787198 0.489693 0.0337987
0.810895 0.492012 0.0277562
0.831495 0.495705 0.0236973
0.850141 0.500923 0.0206149
0.866835 0.507408 0.0195315
0.88188 0.514763 0.0202487
0.896162 0.522499 0.0215
0.910369 0.530205 0.0237888
0.924178 0.538064 0.0263523
0.936721 0.546044 0.0295872
0.944625 0.553536 0.0354925
0.95375 0.560952 0.0412604
0.96289 0.568353 0.0471656
0.0513924 0.494285 0.0545815
0.0641642 0.501091 0.0549325
0.0763714 0.508339 0.0547341
0.0873121 0.516075 0.0532998
0.102022 0.52221 0.0531777
0.118425 0.52723 0.0539254
0.13547 0.531289 0.0550088
0.15198 0.535134 0.0551003
0.170077 0.537179 0.0562753
0.189578 0.536995 0.058381
0.237156 0.536416 0.0687114
0.29456 0.536171 0.0835889
0.351629 0.536522 0.102663
0.405631 0.538018 0.117723
0.4551 0.540612 0.124849
0.501762 0.543435 0.127367
0.549493 0.545846 0.12697
0.601633 0.548043 0.121096
0.659327 0.550011 0.102922
0.722011 0.551034 0.0721141
0.764309 0.552285 0.0524453
0.786969 0.55491 0.0462654
0.806561 0.558984 0.0422827
0.824887 0.56437 0.039353
0.842359 0.570657 0.0386206
0.85861 0.577646 0.0397192
0.874144 0.585168 0.0414588
0.889174 0.592905 0.0436408
0.904707 0.60058 0.0458381
0.919509 0.608255 0.0486
0.92987 0.615213 0.0541848
0.940337 0.621912 0.059617
0.951324 0.628214 0.0647746
0.0410773 0.558648 0.0449989
0.0488899 0.568322 0.0404974
0.0566415 0.578149 0.0359503
0.0643015 0.587915 0.0312657
0.0760662 0.595773 0.0277867
0.0903792 0.601953 0.0259861
0.106355 0.606851 0.0254215
0.124727 0.609476 0.0267185
0.145403 0.609918 0.0298772
0.168978 0.607904 0.0347906
0.223804 0.602396 0.0534066
0.294087 0.596567 0.0801862
0.358663 0.593347 0.10692
0.416617 0.592737 0.128481
0.467109 0.594491 0.140169
0.51284 0.597055 0.144488
0.557916 0.599893 0.144335
0.605341 0.603189 0.138689
0.654932 0.606699 0.123415
0.707927 0.610086 0.0959182
0.749996 0.613077 0.0730602
0.77438 0.616297 0.0647135
0.794049 0.620874 0.0606699
0.812802 0.626307 0.057435
0.830411 0.632486 0.0563973
0.847547 0.639048 0.0570077
0.864439 0.645731 0.0580606
0.880995 0.65243 0.0594186
0.897292 0.65922 0.0610361
0.913191 0.665904 0.0629129
0.925155 0.67158 0.0673381
0.937148 0.677058 0.0716106
0.949203 0.682322 0.075761
0.00202945 0.638575 0.00669871
0.0124971 0.64921 0.00386053
0.0249943 0.66006 0.00267033
0.0374914 0.670588 0.0015259
0.0505684 0.677821 0.000732433
0.062501 0.68304 0
0.0755474 0.686687 0
0.0909133 0.68896 0
0.107149 0.689265 0.0009308
0.12665 0.686946 0.00288396
0.189288 0.678157 0.014435
0.276158 0.666056 0.0514076
0.357061 0.656031 0.0946212
0.425345 0.650584 0.130053
0.479454 0.649744 0.150011
0.525277 0.651423 0.157946
0.568856 0.654215 0.158419
0.613153 0.657816 0.152544
0.657588 0.661845 0.138674
0.702983 0.666316 0.114977
0.746273 0.671061 0.0882429
0.77145 0.674525 0.0781262
0.791119 0.678599 0.0735485
0.810056 0.683589 0.0697795
0.828199 0.688975 0.0679942
0.845685 0.694743 0.0680095
0.862791 0.700679 0.0685435
0.879789 0.706569 0.0689403
0.896635 0.71223 0.0694285
0.913359 0.717845 0.0700236
0.925994 0.722698 0.0734417
0.938415 0.727321 0.0768749
0.950957 0.73164 0.0798505
0 0.719478 0
0.0124971 0.729305 0
0.0249943 0.738842 0
0.0374914 0.74757 0
0.0499886 0.753628 0
0.062501 0.758816 0
0.0749981 0.762875 0
0.0874952 0.764462 0
0.0999924 0.764416 0
0.113115 0.762203 0
0.156603 0.753216 0
0.246433 0.739116 0.0120394
0.340703 0.723384 0.0581216
0.423667 0.71107 0.110704
0.485924 0.705653 0.144671
0.53463 0.704906 0.160967
0.577996 0.706584 0.16437
0.620829 0.709667 0.159182
0.662394 0.713649 0.14638
0.703365 0.718334 0.125322
0.743389 0.7234 0.100633
0.773053 0.727626 0.0850843
0.793408 0.731517 0.0793011
0.81207 0.736034 0.075349
0.830091 0.74081 0.073167
0.847639 0.745724 0.0722515
0.864851 0.750805 0.0717784
0.881804 0.755825 0.0715496
0.898543 0.760754 0.071519
0.91519 0.765515 0.071458
0.928603 0.769635 0.0733043
0.941253 0.773404 0.0755016
0.953918 0.776974 0.0776684
0 0.789792 0
0.0124971 0.796872 0
0.0249943 0.803952 0
0.0374914 0.810712 0
0.0499886 0.815503 0
0.062501 0.81944 0
0.0749981 0.822858 0
0.0874952 0.825055 0
0.0999924 0.825696 0
0.11249 0.824445 0
0.134386 0.821073 0
0.2206 0.80763 0
0.317311 0.791058 0.0112764
0.410697 0.774304 0.0698253
0.483162 0.763272 0.118624
0.538125 0.758267 0.147814
0.583856 0.757763 0.15845
0.626764 0.759823 0.155978
0.667048 0.763088 0.144717
0.705455 0.767285 0.126604
0.742168 0.772 0.105562
0.774365 0.776776 0.0872206
0.796551 0.780392 0.0790112
0.815549 0.78436 0.073991
0.833295 0.788388 0.0721447
0.850629 0.79266 0.0709087
0.867643 0.797101 0.0700236
0.884367 0.801373 0.069398
0.900816 0.804959 0.068574
0.917174 0.808392 0.0677958
0.931029 0.811337 0.0686961
0.943633 0.813977 0.0703288
0.956237 0.816617 0.0718395
0 0.844327 0
0.0124971 0.85069 0
0.0249943 0.85478 0
0.0374914 0.85658 0
0.0499886 0.858518 0
0.062501 0.860945 0
0.0749981 0.862501 0
0.0874952 0.862501 0
0.0999924 0.862501 0
0.11249 0.862501 0
0.137804 0.860853 0
0.210468 0.857237 0
0.300206 0.848127 0.000289921
0.392615 0.832853 0.0240635
0.470497 0.819654 0.0749065
0.531823 0.81149 0.113619
0.582864 0.807935 0.134295
0.628 0.807813 0.138735
0.668727 0.80972 0.131716
0.7066 0.812924 0.117906
0.741848 0.816815 0.100725
0.77377 0.820676 0.0844739
0.798886 0.824125 0.0739605
0.818204 0.827054 0.0699168
0.835981 0.83006 0.0677806
0.85301 0.833066 0.0663157
0.869596 0.835492 0.0651408
0.885924 0.837446 0.0641337
0.902037 0.839323 0.0632944
0.918074 0.841062 0.0624094
0.932082 0.842588 0.0627909
0.944564 0.843946 0.0640116
0.957061 0.845228 0.0652476
0 0.874998 0
0.0124971 0.874998 0
0.0249943 0.874998 0
0.0374914 0.874998 0
0.0499886 0.874998 0
0.062501 0.874998 0
0.0749981 0.874998 0
0.0874952 0.874998 0
0.0999924 0.874998 0
0.112627 0.874998 0
0.147173 0.874998 0
0.216449 0.874998 0
0.298161 0.874846 0
0.38613 0.869627 0.00914015
0.462501 0.858366 0.0490578
0.525475 0.850233 0.0883192
0.578851 0.846189 0.111757
0.626093 0.845167 0.1205
0.667659 0.846342 0.117098
0.705501 0.8486 0.10692
0.740139 0.851347 0.0935531
0.771923 0.854154 0.0801404
0.798245 0.856474 0.0706188
0.81912 0.858183 0.0655833
0.837125 0.859739 0.062974
0.853834 0.860426 0.0614633
0.870176 0.861082 0.0602731
0.886244 0.861738 0.0592966
0.902159 0.862364 0.0584268
0.917998 0.862989 0.0575418
0.932021 0.863539 0.0576944
0.944457 0.863951 0.0587472
0.956893 0.864363 0.0597391
0 0.887495 0
0.0124971 0.887495 0
0.0249943 0.887495 0
0.0374914 0.887495 0
0.0499886 0.887495 0
0.062501 0.887495 0
0.0749981 0.887495 0
0.0874952 0.887495 0
0.0999924 0.887495 0
0.11249 0.887495 0
0.157885 0.887495 0
0.226032 0.887495 0
0.304463 0.887495 0
0.389532 0.887495 0.00422675
0.462501 0.879438 0.0450904
0.52398 0.8719 0.0818952
0.577386 0.867781 0.105684
0.624216 0.86685 0.114488
0.665812 0.867781 0.112932
0.703304 0.869871 0.103639
0.737514 0.87216 0.091783
0.76878 0.874403 0.0795453
0.797284 0.876356 0.0684977
0.818799 0.877379 0.0628824
0.837003 0.87805 0.0599527
0.853986 0.878645 0.057969
0.870176 0.879164 0.056733
0.886152 0.879713 0.0556039
0.901961 0.880232 0.0546426
0.917693 0.880766 0.0536049
0.931655 0.881193 0.0536202
0.944106 0.881544 0.0544289
0.956542 0.881865 0.0551919
0 0.899992 0
0.0124971 0.899992 0
0.0249943 0.899992 0
0.0374914 0.899992 0
0.0499886 0.899992 0
0.062501 0.899992 0
0.0749981 0.899992 0
0.0874952 0.899992 0
0.0999924 0.899992 0
0.1149 0.899992 0
0.168963 0.899992 0
0.235798 0.899992 0
0.312062 0.899992 0
0.393027 0.899992 0.00753796
0.464469 0.897444 0.043534
0.523613 0.891508 0.0782635
0.576623 0.887083 0.10161
0.62324 0.885695 0.111116
0.664469 0.886305 0.109834
0.701747 0.887999 0.101701
0.735485 0.890013 0.0907454
0.766308 0.892027 0.0791943
0.794797 0.893858 0.0682689
0.817716 0.894987 0.0614023
0.836881 0.895689 0.057496
0.854154 0.896147 0.0551919
0.870283 0.896468 0.0537728
0.886152 0.896788 0.0525368
0.901884 0.897093 0.0514534
0.917525 0.897383 0.0503243
0.931273 0.897642 0.0502785
0.943725 0.897826 0.0508583
0.956191 0.898009 0.0514687
0 0.912505 0
0.0124971 0.912505 0
0.0249943 0.912505 0
0.0374914 0.912505 0
0.0499886 0.912505 0
0.062501 0.912505 0
0.0749981 0.912505 0
0.0874952 0.912505 0
0.0999924 0.912505 0
0.124178 0.912505 0
0.179187 0.912505 0
0.24506 0.912505 0
0.318257 0.912505 0
0.397116 0.912505 0.00660716
0.465339 0.9122 0.0419471
0.524102 0.909224 0.076112
0.576364 0.905684 0.0983444
0.622919 0.903899 0.108431
0.663874 0.90425 0.107378
0.700893 0.905592 0.10016
0.734249 0.907408 0.0895399
0.764721 0.909194 0.0784314
0.792645 0.910704 0.0680858
0.817517 0.911559 0.0597238
0.836835 0.911772 0.0555581
0.854124 0.911971 0.0530861
0.870466 0.912184 0.0513161
0.886244 0.912413 0.0500343
0.901869 0.912505 0.0488136
0.917418 0.912505 0.0476234
0.930892 0.912505 0.0475776
0.943374 0.912505 0.0480049
0.95584 0.912505 0.0484321
0 0.925002 0
0.0124971 0.925002 0
0.0249943 0.925002 0
0.0374914 0.925002 0
0.0499886 0.925002 0
0.062501 0.925002 0
0.0749981 0.925002 0
0.0874952 0.925002 0
0.0999924 0.925002 0
0.129992 0.925002 0
0.188556 0.925002 0
0.253223 0.925002 0
0.324529 0.925002 0
0.400351 0.925002 0.00703441
0.466468 0.925002 0.0407111
0.524147 0.924804 0.0733501
0.576501 0.922942 0.0959945
0.622629 0.921614 0.105592
0.663554 0.921614 0.105379
0.700298 0.922698 0.0983597
0.733394 0.923568 0.0882887
0.763592 0.924132 0.0776074
0.79147 0.924712 0.0674296
0.816236 0.925002 0.0591745
0.8365 0.925002 0.0541848
0.854047 0.925002 0.0513466
0.870665 0.925002 0.0492409
0.886336 0.925002 0.0478981
0.9019 0.925002 0.0465553
0.917403 0.925002 0.0452888
0.930556 0.925002 0.0452583
0.943038 0.925002 0.0455634
0.95552 0.925002 0.0458534
0 0.937499 0
0.0124971 0.937499 0
0.0249943 0.937499 0
0.0374914 0.937499 0
0.0499886 0.937499 0
0.062501 0.937499 0
0.0749981 0.937499 0
0.0874952 0.937499 0
0.104524 0.937499 0
