LUT color transfer/LUTs/62.cube
TITLE "Generate by Resolve"
LUT_3D_SIZE 5
0 0 0
0.136172 0 9.15541e-05
0.563424 7.62951e-05 0.0314336
0.899992 0 0.0242618
1 0 0.0236362
0 0.129534 0
0.128634 0.128649 0
0.605341 0.107881 0.0323949
0.899992 0.0999924 0.0222171
1 0.102831 0.0298314
0.0513924 0.494285 0.0545815
0.170077 0.537179 0.0562753
0.549493 0.545846 0.12697
0.842359 0.570657 0.0386206
0.951324 0.628214 0.0647746
0 0.899992 0
0.0999924 0.899992 0
0.576623 0.887083 0.10161
0.836881 0.895689 0.057496
0.956191 0.898009 0.0514687
0 1 0
0.135714 1 0
0.590295 1 0.101884
0.836744 1 0.0486458
0.954131 1 0.0379339
0 0 0.176425
0.127138 0 0.168872
0.542184 0.00129702 0.148028
0.899992 0 0.135836
1 0 0.138827
0 0.128908 0.141924
0.129213 0.128664 0.146563
0.594125 0.114061 0.162615
0.899992 0.0999924 0.170962
1 0.111498 0.234913
0.0534829 0.510552 0.168383
0.177203 0.551568 0.18024
0.557427 0.559792 0.252995
0.825666 0.589151 0.209232
0.936675 0.640604 0.243595
0 0.899992 0.0999924
0.0999924 0.899992 0.0999924
0.580362 0.881071 0.263416
0.835523 0.890303 0.241138
0.955001 0.893706 0.232074
0 1 0.0999924
0.121889 1 0.0999924
0.58938 0.999756 0.26334
0.83035 1 0.234241
0.950622 1 0.219104
0 0 0.744244
0.110842 0 0.710277
0.491859 0.00497444 0.544594
0.899992 0 0.623972
1 0 0.651102
0 0.114 0.657572
0.115801 0.117754 0.670848
0.5626 0.118654 0.605539
0.899992 0.0999924 0.729061
1 0.114351 0.787991
0.107759 0.502098 0.569802
0.244053 0.536904 0.617395
0.572763 0.558282 0.609064
0.849256 0.584817 0.656886
0.974853 0.628229 0.710414
0 0.891463 0.669993
0.16701 0.881422 0.719188
0.574044 0.871824 0.637537
0.827924 0.877379 0.636484
0.972671 0.881956 0.650309
0.0402533 0.997452 0.799313
0.204776 0.988739 0.795926
0.584253 0.989242 0.657679
0.825437 0.995651 0.636194
0.963226 0.998337 0.642069
0 0 0.899992
0.103899 0 0.899992
0.548348 0 0.899992
0.899992 0 0.899992
1 0 0.899992
0 0.105119 0.899992
0.10663 0.112078 0.899992
0.62887 0.0999924 0.899992
0.899992 0.0999924 0.899992
1 0.123445 0.899992
0.0370642 0.527794 0.899992
0.188312 0.558465 0.899992
0.560128 0.571969 0.845441
0.844053 0.596613 0.86894
0.967498 0.634089 0.888395
0.0382696 0.868376 0.899992
0.17615 0.873457 0.899992
0.601663 0.855177 0.899992
0.819577 0.872602 0.899992
0.981598 0.878538 0.899992
0.0519875 0.990616 0.899992
0.184695 0.989487 0.899992
0.609598 0.973739 0.899992
0.813779 0.994064 0.899992
0.968353 0.999344 0.899992
0 0 1
0.103548 0 1
0.545708 0 1
0.899992 0 1
1 0 1
0 0.107317 1
0.107881 0.120012 1
0.645731 0.10013 1
0.899992 0.0999924 1
1 0.145815 1
0.0312657 0.548363 1
0.184588 0.578241 1
0.571221 0.590829 0.964691
0.84921 0.612467 0.985977
0.969757 0.644144 0.998322
0.0406348 0.870817 1
0.177874 0.875074 1
0.60322 0.856352 1
0.820279 0.872328 1
0.978363 0.878157 1
0.0522927 0.990494 1
0.184634 0.989364 1
0.608316 0.973602 1
0.813962 0.992737 1
0.968032 0.998901 1
