LUT color transfer/LUTs/62.cube
TITLE "Generate by Resolve"
LUT_3D_SIZE 9
0 0 0
0.061387 1.5259e-05 4.57771e-05
0.136172 0 9.15541e-05
0.314443 0.00407416 0.0203098
0.563424 7.62951e-05 0.0314336
0.850004 0 0.0247501
0.899992 0 0.0242618
0.949996 0 0.0239261
1 0 0.0236362
7.62951e-05 0.0603342 0
0.0601511 0.059968 0
0.133333 0.0581826 0
0.319585 0.059144 0.0217288
0.588281 0.0499886 0.0305943
0.850004 0.0499886 0.0246738
0.899992 0.0499886 0.0241398
0.949996 0.0499886 0.0237125
1 0.0499886 0.0230869
0 0.129534 0
0.0564126 0.131563 0
0.128634 0.128649 0
0.326726 0.124269 0.0243839
0.605341 0.107881 0.0323949
0.850004 0.0999924 0.0228733
0.899992 0.0999924 0.0222171
0.949996 0.0999924 0.0234531
1 0.102831 0.0298314
0.00630198 0.278889 0.0081178
0.0641947 0.293629 0.0125124
0.13167 0.302876 0.0141146
0.315175 0.302419 0.0338903
0.570352 0.29276 0.0624094
0.850004 0.263371 0.0129854
0.899992 0.281147 0.00610361
0.949996 0.315099 0.00563058
1 0.356405 0.00836194
0.0513924 0.494285 0.0545815
0.102022 0.52221 0.0531777
0.170077 0.537179 0.0562753
0.351629 0.536522 0.102663
0.549493 0.545846 0.12697
0.764309 0.552285 0.0524453
0.842359 0.570657 0.0386206
0.904707 0.60058 0.0458381
0.951324 0.628214 0.0647746
0 0.789792 0
0.0499886 0.815503 0
0.0999924 0.825696 0
0.317311 0.791058 0.0112764
0.583856 0.757763 0.15845
0.742168 0.772 0.105562
0.833295 0.788388 0.0721447
0.900816 0.804959 0.068574
0.956237 0.816617 0.0718395
0 0.899992 0
0.0499886 0.899992 0
0.0999924 0.899992 0
0.312062 0.899992 0
0.576623 0.887083 0.10161
0.735485 0.890013 0.0907454
0.836881 0.895689 0.057496
0.901884 0.897093 0.0514534
0.956191 0.898009 0.0514687
0 0.949996 0
0.0499886 0.949996 0
0.110216 0.949996 0
0.344518 0.949996 0
0.578363 0.949996 0.0924544
0.732189 0.949996 0.0858778
0.835966 0.949996 0.0515755
0.901946 0.949996 0.0426795
0.954833 0.949996 0.0417182
0 1 0
0.0499886 1 0
0.135714 1 0
0.374838 1 0.0049897
0.590295 1 0.101884
0.734981 1 0.0840925
0.836744 1 0.0486458
0.901869 1 0.0392462
0.954131 1 0.0379339
0 0 0.0622721
0.0611887 1.5259e-05 0.0619364
0.133165 0 0.0604562
0.31371 0.00387579 0.0740978
0.563928 7.62951e-05 0.0814221
0.850004 0 0.0747539
0.899992 0 0.0742504
0.949996 0 0.0739147
1 0 0.0736248
9.15541e-05 0.0601358 0.0608072
0.0600137 0.0598154 0.060502
0.131456 0.0581979 0.0596323
0.319982 0.0592203 0.0763561
0.590997 0.0499886 0.0823377
0.850004 0.0499886 0.0746624
0.899992 0.0499886 0.0740978
0.949996 0.0499886 0.0758373
1 0.0499886 0.0798657
0 0.130358 0.0563821
0.0564736 0.132631 0.0570535
0.12987 0.129427 0.0577401
0.32961 0.125093 0.0812848
0.609796 0.109148 0.0887617
0.850004 0.0999924 0.0800488
0.899992 0.0999924 0.0828565
0.949996 0.0999924 0.0887922
1 0.107591 0.094377
0.00755322 0.283711 0.0607004
0.066743 0.299886 0.0682383
0.134066 0.310704 0.0723583
0.321675 0.312245 0.0930037
0.574395 0.303761 0.122957
0.850004 0.276829 0.076997
0.899992 0.293126 0.0721904
0.949996 0.328939 0.0714885
1 0.371817 0.079408
0.0517586 0.503578 0.105058
0.103578 0.531243 0.106523
0.172045 0.546151 0.112963
0.359182 0.544244 0.162707
0.555413 0.553674 0.187167
0.759594 0.561761 0.124453
0.835065 0.580957 0.11899
0.898741 0.610147 0.127001
0.944945 0.635843 0.147616
0 0.799329 0.0499886
0.0499886 0.82324 0.0499886
0.0999924 0.832334 0.0499886
0.326345 0.796567 0.0800336
0.587686 0.763668 0.222995
0.741909 0.776287 0.183642
0.833707 0.792004 0.154772
0.900633 0.806638 0.15111
0.955032 0.817502 0.155459
0 0.899992 0.0499886
0.0499886 0.899992 0.0499886
0.0999924 0.899992 0.0499886
0.315358 0.899992 0.0503243
0.578882 0.884932 0.177981
0.734478 0.887373 0.175921
0.837003 0.894011 0.1402
0.90193 0.895933 0.133288
0.955657 0.897063 0.13344
0 0.949996 0.0499886
0.0499886 0.949996 0.0499886
0.10692 0.949996 0.0499886
0.344442 0.949996 0.0545357
0.579293 0.949874 0.168414
0.731044 0.949996 0.170321
0.834211 0.949996 0.135149
0.901442 0.949996 0.124453
0.954101 0.949996 0.123354
0 1 0.0499886
0.0499886 1 0.0499886
0.130999 1 0.0499886
0.372213 1 0.0696269
0.590524 1 0.178119
0.733333 1 0.168399
0.834241 1 0.132387
0.900267 1 0.121492
0.952468 1 0.120104
0 0 0.176425
0.0592203 0 0.176944
0.127138 0 0.168872
0.310567 0.00323491 0.149538
0.542184 0.00129702 0.148028
0.850004 0 0.137911
0.899992 0 0.135836
0.949996 0 0.136309
1 0 0.138827
0 0.0590829 0.165438
0.0589456 0.0589609 0.166522
0.126314 0.0578012 0.16112
0.317861 0.0586404 0.150576
0.568231 0.0507057 0.154238
0.850004 0.0499886 0.142687
0.899992 0.0499886 0.145907
0.949996 0.0499886 0.156924
1 0.0499886 0.175616
0 0.128908 0.141924
0.0587167 0.131304 0.146899
0.129213 0.128664 0.146563
0.3308 0.125307 0.152544
0.594125 0.114061 0.162615
0.850004 0.0999924 0.158724
0.899992 0.0999924 0.170962
0.949996 0.0999924 0.201694
1 0.111498 0.234913
0.0065919 0.287205 0.124498
0.0673381 0.305348 0.132616
0.13521 0.317586 0.13695
0.325307 0.320043 0.156863
0.571069 0.313664 0.191104
0.849638 0.288548 0.152895
0.899992 0.304845 0.152132
0.949996 0.34287 0.171344
0.999268 0.387457 0.211276
0.0534829 0.510552 0.168383
0.107027 0.538003 0.171969
0.177203 0.551568 0.18024
0.362432 0.550362 0.22652
0.557427 0.559792 0.252995
0.749157 0.569863 0.213199
0.825666 0.589151 0.209232
0.890394 0.617075 0.219104
0.936675 0.640604 0.243595
0 0.805295 0.0999924
0.0499886 0.828962 0.0999924
0.0999924 0.837186 0.0999924
0.33254 0.798932 0.155062
0.589105 0.766064 0.298573
0.738079 0.776532 0.280308
0.832944 0.792279 0.252659
0.899153 0.805493 0.249836
0.95314 0.815534 0.255009
0 0.899992 0.0999924
0.0499886 0.899992 0.0999924
0.0999924 0.899992 0.0999924
0.314961 0.899992 0.111482
0.580362 0.881071 0.263416
0.732555 0.882551 0.275807
0.835523 0.890303 0.241138
0.901488 0.892683 0.232197
0.955001 0.893706 0.232074
0 0.949996 0.0999924
0.0499886 0.949996 0.0999924
0.0999924 0.949996 0.0999924
0.339529 0.949996 0.12224
0.579263 0.948943 0.253895
0.729351 0.947845 0.269993
0.830976 0.949935 0.237324
0.900725 0.949996 0.223041
0.953506 0.949996 0.221622
0 1 0.0999924
0.0499886 1 0.100984
0.121889 1 0.0999924
0.365301 1 0.14197
0.58938 0.999756 0.26334
0.730877 1 0.268009
0.83035 1 0.234241
0.898161 1 0.220844
0.950622 1 0.219104
0.000900282 0.00146487 0.355016
0.0573129 0.00195315 0.3561
0.118486 0.00273136 0.350011
0.282048 0.00794995 0.337301
0.484138 0.0129854 0.31957
0.816541 0 0.359197
0.899992 0 0.356802
0.949996 0 0.366308
1 0 0.384298
0.00242618 0.0589761 0.348089
0.0591897 0.0596628 0.350469
0.120592 0.0598154 0.347585
0.291966 0.0624704 0.341512
0.502708 0.0634012 0.337118
0.834775 0.0499886 0.398276
0.899992 0.0499886 0.411719
0.949996 0.0499886 0.4374
1 0.0499886 0.46598
0.0049897 0.124254 0.332631
0.0626993 0.128115 0.341283
0.126055 0.127047 0.345052
0.310658 0.129213 0.346761
0.528313 0.133196 0.356497
0.828458 0.0999924 0.428626
0.899992 0.0999924 0.454887
0.949996 0.0999924 0.485878
1 0.123552 0.506889
0.0310216 0.274815 0.326207
0.0956588 0.293675 0.352163
0.165606 0.305989 0.372381
0.335973 0.317433 0.359548
0.567086 0.31783 0.379965
0.749813 0.320317 0.411002
0.824628 0.338704 0.432319
0.881743 0.376379 0.464866
0.927382 0.41326 0.491981
0.0614481 0.512337 0.296529
0.122713 0.536675 0.32874
0.194049 0.548592 0.353597
0.351507 0.557351 0.344808
0.560754 0.562295 0.37203
0.743374 0.570809 0.397818
0.820233 0.589639 0.424125
0.886793 0.615457 0.458595
0.941268 0.636698 0.485206
0 0.799786 0.199634
0.0499886 0.82356 0.229984
0.100542 0.825833 0.260502
0.361456 0.781872 0.337484
0.587457 0.761761 0.424353
0.731319 0.768109 0.441688
0.830121 0.781933 0.455634
0.897078 0.794034 0.476539
0.952956 0.803265 0.492973
0 0.899992 0.229313
0.0499886 0.899992 0.257298
0.0999924 0.899992 0.271199
0.335515 0.898116 0.306569
0.589548 0.869627 0.41735
0.732601 0.870832 0.44596
0.830076 0.877104 0.445167
0.902998 0.880934 0.448386
0.957122 0.881666 0.455741
0 0.949996 0.33196
0.0499886 0.949996 0.352941
0.0999924 0.949996 0.345251
0.364202 0.949996 0.34696
0.591745 0.936019 0.421378
0.731777 0.934539 0.443778
0.8271 0.940078 0.432471
0.901198 0.943862 0.424872
0.954665 0.944106 0.425727
0 1 0.414481
0.0499886 1 0.418692
0.125139 1 0.395575
0.397543 1 0.387411
0.600641 0.986923 0.435599
0.733196 0.989914 0.443595
0.82591 0.996841 0.422889
0.898177 0.999115 0.410193
0.951415 0.999252 0.408835
0 0 0.744244
0.0500191 0 0.741634
0.110842 0 0.710277
0.270298 0.00241093 0.581964
0.491859 0.00497444 0.544594
0.783688 0 0.605814
0.899992 0 0.623972
0.949996 0 0.635569
1 0 0.651102
0 0.0502022 0.721431
0.0500801 0.0501869 0.722362
0.112169 0.0504005 0.70106
0.283833 0.055787 0.590555
0.531334 0.0504921 0.584482
0.834501 0.0499886 0.657862
0.899992 0.0499886 0.675181
0.949996 0.0499886 0.699809
1 0.0499886 0.730938
0 0.114 0.657572
0.0503395 0.118059 0.674006
0.115801 0.117754 0.670848
0.30074 0.127382 0.581338
0.5626 0.118654 0.605539
0.84863 0.0999924 0.697856
0.899992 0.0999924 0.729061
0.949996 0.0999924 0.762188
1 0.114351 0.787991
0.0380865 0.27396 0.526452
0.100984 0.295872 0.555077
0.172198 0.310277 0.571694
0.326131 0.323491 0.568505
0.554437 0.326253 0.579522
0.737133 0.332021 0.608774
0.812757 0.35198 0.633448
0.879332 0.388571 0.666728
0.930159 0.424353 0.691234
0.107759 0.502098 0.569802
0.170626 0.525963 0.60116
0.244053 0.536904 0.617395
0.379019 0.548577 0.609369
0.572763 0.558282 0.609064
0.765576 0.564187 0.628931
0.849256 0.584817 0.656886
0.917494 0.609064 0.687297
0.974853 0.628229 0.710414
0.0255741 0.758816 0.612131
0.0837568 0.78027 0.651133
0.180621 0.779828 0.67155
0.395239 0.760327 0.642924
0.561074 0.768643 0.610193
0.724987 0.767941 0.616114
0.841657 0.776898 0.633753
0.919829 0.788479 0.652964
0.975937 0.797543 0.66537
0 0.891463 0.669993
0.0691539 0.88748 0.703593
0.16701 0.881422 0.719188
0.402502 0.864042 0.676402
0.574044 0.871824 0.637537
0.720882 0.875303 0.624216
0.827924 0.877379 0.636484
0.912383 0.880613 0.645731
0.972671 0.881956 0.650309
0.0159915 0.949996 0.764294
0.0979171 0.948119 0.776028
0.186923 0.942397 0.773266
0.42855 0.927291 0.707439
0.578775 0.93579 0.65153
0.72166 0.937591 0.629557
0.825696 0.938643 0.636652
0.908614 0.941115 0.642527
0.966842 0.941665 0.644434
0.0402533 0.997452 0.799313
0.115068 0.993805 0.8
0.204776 0.988739 0.795926
0.446632 0.975525 0.720104
0.584253 0.989242 0.657679
0.723918 0.993637 0.631495
0.825437 0.995651 0.636194
0.906844 0.998047 0.640894
0.963226 0.998337 0.642069
0 0 0.850004
0.0499886 0 0.850004
0.104982 0 0.850004
0.272114 0 0.850004
0.554849 0 0.850004
0.801572 0 0.850004
0.899992 0 0.850004
0.949996 0 0.850004
1 0 0.850004
0 0.0499886 0.850004
0.0499886 0.0499886 0.850004
0.106004 0.0499886 0.850004
0.291844 0.0499886 0.850004
0.588891 0.0499886 0.850004
0.834775 0.0499886 0.850004
0.899992 0.0499886 0.850004
0.949996 0.0499886 0.850004
1 0.0499886 0.850004
0 0.106065 0.850004
0.0499886 0.10985 0.850004
0.106783 0.110979 0.850004
0.317739 0.102754 0.850004
0.623377 0.0999924 0.850004
0.850004 0.0999924 0.850004
0.899992 0.0999924 0.850004
0.949996 0.0999924 0.850004
1 0.115694 0.850004
0 0.27718 0.850004
0.0499886 0.303319 0.850004
0.11284 0.318013 0.850004
0.316381 0.323903 0.799863
0.559533 0.327459 0.756436
0.783734 0.319844 0.811337
0.85417 0.342931 0.812573
0.902174 0.38526 0.801083
0.938933 0.425055 0.792233
0.0566567 0.518654 0.84419
0.116182 0.542748 0.850004
0.199847 0.551125 0.850004
0.381765 0.553811 0.783581
0.561959 0.566094 0.780667
0.741527 0.572274 0.795804
0.843671 0.590799 0.802731
0.912261 0.611902 0.812696
0.968551 0.629221 0.82237
0.0499733 0.748226 0.850004
0.104646 0.769787 0.850004
0.189532 0.773022 0.850004
0.424506 0.749157 0.84976
0.596201 0.751766 0.831785
0.721981 0.760601 0.835233
0.837369 0.768551 0.83769
0.932937 0.777615 0.839216
0.991211 0.785962 0.840879
0.0360723 0.868452 0.850004
0.103609 0.871946 0.850004
0.181994 0.872068 0.850004
0.420447 0.853117 0.850004
0.605219 0.856077 0.850004
0.723445 0.868315 0.848997
0.823713 0.874449 0.846204
0.912718 0.877882 0.83917
0.984955 0.879713 0.834882
0.046479 0.941222 0.850004
0.111025 0.940719 0.850004
0.185702 0.939071 0.850004
0.436347 0.91902 0.850004
0.609247 0.919646 0.850004
0.724071 0.930846 0.850004
0.819226 0.936919 0.846113
0.904891 0.940154 0.836545
0.975891 0.94136 0.831662
0.052842 0.990921 0.850004
0.115999 0.990494 0.850004
0.190784 0.988617 0.850004
0.451316 0.968841 0.850004
0.613809 0.974624 0.850004
0.72459 0.989013 0.850004
0.815717 0.996826 0.84239
0.899336 0.999756 0.831128
0.967849 1 0.827207
0 0 0.899992
0.0499886 0 0.899992
0.103899 0 0.899992
0.261036 0 0.899992
0.548348 0 0.899992
0.791745 0 0.899992
0.899992 0 0.899992
0.949996 0 0.899992
1 0 0.899992
0 0.0499886 0.899992
0.0499886 0.0499886 0.899992
0.105241 0.0499886 0.899992
0.283619 0.0499886 0.899992
0.58291 0.0499886 0.899992
0.831601 0.0499886 0.899992
0.899992 0.0499886 0.899992
0.949996 0.0499886 0.899992
1 0.0499886 0.899992
0 0.105119 0.899992
0.0499886 0.109697 0.899992
0.10663 0.112078 0.899992
0.316503 0.102983 0.899992
0.62887 0.0999924 0.899992
0.850004 0.0999924 0.899992
0.899992 0.0999924 0.899992
0.949996 0.102007 0.899992
1 0.123445 0.899992
0 0.281682 0.899992
0.0499886 0.309377 0.899992
0.111696 0.325338 0.899992
0.315526 0.330373 0.891875
0.565072 0.33312 0.835035
0.788876 0.326268 0.88455
0.859709 0.351354 0.884779
0.905623 0.394705 0.872602
0.94229 0.434012 0.862119
0.0370642 0.527794 0.899992
0.104494 0.549554 0.899992
0.188312 0.558465 0.899992
0.37998 0.559457 0.864057
0.560128 0.571969 0.845441
0.735851 0.57789 0.860746
0.844053 0.596613 0.86894
0.912062 0.617441 0.878935
0.967498 0.634089 0.888395
0.0403601 0.754788 0.899992
0.10016 0.774563 0.899992
0.176272 0.779721 0.899992
0.408576 0.754894 0.899992
0.595483 0.752758 0.896742
0.719783 0.760433 0.898939
0.82916 0.769039 0.899992
0.927428 0.777523 0.899992
0.988083 0.785275 0.899992
0.0382696 0.868376 0.899992
0.104158 0.872099 0.899992
0.17615 0.873457 0.899992
0.395789 0.857404 0.899992
0.601663 0.855177 0.899992
0.722469 0.866194 0.899992
0.819577 0.872602 0.899992
0.906691 0.876326 0.899992
0.981598 0.878538 0.899992
0.0462043 0.940887 0.899992
0.110552 0.940383 0.899992
0.181216 0.939651 0.899992
0.411399 0.922759 0.899992
0.605264 0.918379 0.899992
0.723079 0.928344 0.899992
0.815793 0.934478 0.899992
0.899565 0.937819 0.899992
0.974716 0.939727 0.899992
0.0519875 0.990616 0.899992
0.115023 0.990173 0.899992
0.184695 0.989487 0.899992
0.428031 0.972519 0.899992
0.609598 0.973739 0.899992
0.72433 0.98674 0.899992
0.813779 0.994064 0.899992
0.895766 0.997604 0.899992
0.968353 0.999344 0.899992
0 0 0.949996
0.0499886 0 0.949996
0.103639 0 0.949996
0.258473 0 0.949996
0.545327 0 0.949996
0.789227 0 0.949996
0.899992 0 0.949996
0.949996 0 0.949996
1 0 0.949996
0 0.0499886 0.949996
0.0499886 0.0499886 0.949996
0.105272 0.0499886 0.949996
0.284504 0.0499886 0.949996
0.585077 0.0499886 0.949996
0.834806 0.0499886 0.949996
0.899992 0.0499886 0.949996
0.949996 0.0499886 0.949996
1 0.0499886 0.949996
0 0.105394 0.949996
0.0499886 0.112551 0.949996
0.107164 0.11519 0.949996
0.324453 0.10399 0.949996
0.636652 0.0999924 0.949996
0.850004 0.0999924 0.949996
0.899992 0.0999924 0.949996
0.949996 0.109209 0.949996
1 0.135149 0.949996
0 0.291554 0.949996
0.0499886 0.320867 0.949996
0.115557 0.337469 0.949996
0.323613 0.343114 0.949767
0.572259 0.34519 0.899794
0.79086 0.33994 0.945144
0.857542 0.366949 0.9402
0.902556 0.40911 0.929076
0.941619 0.445151 0.916365
0.0330205 0.537728 0.949996
0.10161 0.559075 0.949996
0.184604 0.568704 0.949996
0.388861 0.568856 0.93109
0.565332 0.581552 0.907256
0.73846 0.586892 0.922332
0.846189 0.605142 0.931014
0.913054 0.624704 0.9402
0.968231 0.639719 0.946624
0.0396124 0.763729 0.949996
0.101244 0.780819 0.949996
0.174228 0.787243 0.949996
0.404074 0.763638 0.949996
0.599619 0.758511 0.94995
0.724086 0.764706 0.949996
0.829023 0.773419 0.949996
0.925872 0.781125 0.949996
0.985916 0.788037 0.949996
0.039353 0.869505 0.949996
0.105013 0.873014 0.949996
0.176883 0.874128 0.949996
0.38706 0.860212 0.949996
0.602121 0.855695 0.949996
0.724117 0.865995 0.949996
0.819684 0.872343 0.949996
0.905562 0.876051 0.949996
0.979706 0.878233 0.949996
0.0467079 0.940673 0.949996
0.110903 0.940215 0.949996
0.181399 0.939483 0.949996
0.400275 0.925216 0.949996
0.604547 0.918364 0.949996
0.724117 0.927657 0.949996
0.815427 0.933791 0.949996
0.898177 0.937194 0.949996
0.973693 0.939239 0.949996
0.052018 0.990509 0.949996
0.114977 0.990082 0.949996
0.184512 0.989364 0.949996
0.416785 0.974624 0.949996
0.608469 0.973602 0.949996
0.725124 0.986007 0.949996
0.813596 0.993255 0.949996
0.894606 0.996918 0.949996
0.968536 0.999161 0.949996
0 0 1
0.0499886 0 1
0.103548 0 1
0.258076 0 1
0.545708 0 1
0.790311 0 1
0.899992 0 1
0.949996 0 1
1 0 1
0 0.0499886 1
0.0499886 0.0499886 1
0.105547 0.0499886 1
0.287572 0.0499886 1
0.589593 0.0499886 1
0.840436 0.0499886 1
0.899992 0.0499886 1
0.949996 0.0499886 1
1 0.0499886 1
0 0.107317 1
0.0499886 0.116579 1
0.107881 0.120012 1
0.334401 0.106233 1
0.645731 0.10013 1
0.850004 0.0999924 1
0.899992 0.0999924 1
0.949996 0.116991 1
1 0.145815 1
0 0.303838 1
0.0501259 0.333333 1
0.120104 0.349432 1
0.334829 0.355962 0.998962
0.579904 0.357427 0.955642
0.787976 0.355291 0.990219
0.851499 0.382757 0.989441
0.896178 0.422934 0.971832
0.939925 0.455894 0.964309
0.0312657 0.548363 1
0.100008 0.569284 1
0.184588 0.578241 1
0.399496 0.577981 0.989181
0.571221 0.590829 0.964691
0.742336 0.595361 0.979217
0.84921 0.612467 0.985977
0.914931 0.630152 0.992523
0.969757 0.644144 0.998322
0.0387579 0.773785 1
0.102434 0.787076 1
0.175586 0.791775 1
0.406424 0.770794 1
0.603754 0.764096 1
0.728466 0.769177 1
0.829923 0.777752 1
0.925826 0.784329 1
0.985092 0.790341 1
0.0406348 0.870817 1
0.106142 0.874113 1
0.177874 0.875074 1
0.389013 0.861128 1
0.60322 0.856352 1
0.725765 0.866133 1
0.820279 0.872328 1
0.90518 0.876051 1
0.978363 0.878157 1
0.0474861 0.940658 1
0.111543 0.9402 1
0.181857 0.939467 1
0.402884 0.925231 1
0.604715 0.918547 1
0.725002 0.927352 1
0.815763 0.933379 1
0.897505 0.936828 1
0.972503 0.938918 1
0.0522927 0.990494 1
0.115129 0.990066 1
0.184634 0.989364 1
0.417273 0.974578 1
0.608316 0.973602 1
0.725841 0.985611 1
0.813962 0.992737 1
0.894255 0.996536 1
0.968032 0.998901 1
