LUT color transfer/LUTs/63.cube
TITLE "Generate by Resolve"
LUT_3D_SIZE 33
0 0 0
0.00996414 0 0
0.019852 3.0518e-05 3.0518e-05
0.0299229 4.57771e-05 9.15541e-05
0.0401923 3.0518e-05 6.10361e-05
0.0507362 0 0
0.0617685 0 0
0.0734874 0 0
0.0982376 0 0.000122072
0.144503 0 0.00437934
0.195789 0 0.0106508
0.245075 0.00111391 0.0184939
0.29427 0.00543221 0.0270695
0.347127 0.00872816 0.0345769
0.401923 0.00985733 0.0406806
0.471046 0.00650034 0.0443275
0.584558 9.15541e-05 0.0419165
0.725338 0 0.0352941
0.852384 0 0.0302892
0.914992 0 0.0313725
0.925002 0 0.03299
0.931243 0 0.0328222
0.937499 0 0.032639
0.943755 0 0.0325017
0.949996 0 0.0323491
0.956252 0 0.0322118
0.962493 0 0.032105
0.96875 0 0.0320134
0.975006 0 0.0319066
0.981247 0 0.0318151
0.987503 0 0.0317082
0.993744 0 0.0316167
1 0 0.0315251
3.0518e-05 0.00968948 3.0518e-05
0.00979629 0.00959792 0
0.01944 0.00955215 3.0518e-05
0.0294957 0.00949111 3.0518e-05
0.0397498 0.0093843 0
0.0503243 0.00918593 0
0.061387 0.00889601 0
0.0732433 0.00842298 0
0.0971542 0.00767529 9.15541e-05
0.144183 0.00677501 0.00428778
0.196185 0.00624094 0.0107118
0.245548 0.00740063 0.0185855
0.294835 0.0117342 0.0271916
0.347921 0.0150149 0.034699
0.403021 0.0161288 0.0408026
0.473289 0.0124666 0.0443275
0.588266 0.00633249 0.0417639
0.729854 0.00624094 0.0350805
0.85713 0.00624094 0.0301213
0.916243 0.00624094 0.0315862
0.925002 0.00624094 0.03299
0.931243 0.00624094 0.0328069
0.937499 0.00624094 0.0326238
0.943755 0.00624094 0.0324712
0.949996 0.00624094 0.0323186
0.956252 0.00624094 0.0321965
0.962493 0.00624094 0.0320745
0.96875 0.00624094 0.0319677
0.975006 0.00624094 0.0318761
0.981247 0.00624094 0.0317693
0.987503 0.00624094 0.0316777
0.993744 0.00624094 0.0315862
1 0.00624094 0.0314641
0.00015259 0.0192721 4.57771e-05
0.0096437 0.019089 3.0518e-05
0.0190738 0.018967 3.0518e-05
0.0291295 0.0188449 0
0.0393835 0.0186313 0
0.0499733 0.0183871 0
0.0611124 0.0180209 0
0.0731975 0.0174716 0
0.095552 0.016495 3.0518e-05
0.143618 0.0149691 0.00399786
0.196414 0.0142824 0.0106508
0.246723 0.0149233 0.0188296
0.296345 0.0181582 0.0274968
0.349889 0.0213321 0.0349737
0.405356 0.022385 0.041062
0.478279 0.018143 0.0443122
0.595666 0.0125582 0.0414588
0.738888 0.0124971 0.0346685
0.865965 0.0124971 0.0298314
0.918334 0.0124971 0.0319677
0.925002 0.0124971 0.0329747
0.931243 0.0124971 0.0327916
0.937499 0.0124971 0.0325933
0.943755 0.0124971 0.0324407
0.949996 0.0124971 0.0322881
0.956252 0.0124971 0.0321508
0.962493 0.0124971 0.0320439
0.96875 0.0124971 0.0319371
0.975006 0.0124971 0.0318303
0.981247 0.0124971 0.0317082
0.987503 0.0124971 0.0316167
0.993744 0.0124971 0.0315251
1 0.0124971 0.0314031
0.000183108 0.0290074 4.57771e-05
0.00941482 0.0288243 0
0.0186618 0.0287022 0
0.0287327 0.0285801 0
0.0390021 0.028397 0
0.0496223 0.0281071 0
0.0608072 0.0277104 0
0.0732586 0.0271153 0
0.0947585 0.0258335 0
0.143618 0.0236362 0.00367742
0.197162 0.0227207 0.0106508
0.248325 0.0242008 0.0191958
0.298436 0.027451 0.0281682
0.352682 0.0292668 0.0356298
0.408835 0.0290074 0.0415351
0.485756 0.0235142 0.0442817
0.606775 0.0187686 0.0409857
0.751369 0.0187533 0.0341039
0.878599 0.0187533 0.0294041
0.918746 0.0187533 0.0321965
0.925002 0.0187533 0.0329442
0.931243 0.0187533 0.0327459
0.937499 0.0187533 0.0325628
0.943755 0.0187533 0.0323796
0.949996 0.0187533 0.0322423
0.956252 0.0187533 0.032105
0.962493 0.0187533 0.0319829
0.96875 0.0187533 0.0318761
0.975006 0.0187533 0.031754
0.981247 0.0187533 0.0316472
0.987503 0.0187533 0.0315557
0.993744 0.0187533 0.0314336
1 0.0187533 0.0313115
9.15541e-05 0.0387884 0
0.00910964 0.0386511 0
0.018143 0.038529 0
0.0282444 0.0384222 0
0.0385443 0.0382849 0
0.0492409 0.038056 0
0.0604715 0.037705 0
0.0732586 0.0371252 0
0.0944533 0.0359197 0
0.143725 0.0336461 0.00335698
0.198123 0.0326085 0.0106508
0.250248 0.0339666 0.0196078
0.301122 0.0371862 0.0289616
0.355703 0.0390936 0.0366674
0.412604 0.0390173 0.0426795
0.491722 0.0322423 0.0449836
0.617716 0.0249943 0.0408026
0.766751 0.0249943 0.0334325
0.894774 0.0249943 0.0288853
0.918746 0.0249943 0.0323949
0.925002 0.0249943 0.0328985
0.931243 0.0249943 0.0326848
0.937499 0.0249943 0.0325017
0.943755 0.0249943 0.0323186
0.949996 0.0249943 0.0321813
0.956252 0.0249943 0.0320439
0.962493 0.0249943 0.0319219
0.96875 0.0249943 0.0317998
0.975006 0.0249943 0.0316167
0.981247 0.0249943 0.0314183
0.987503 0.0249943 0.03122
0.993744 0.0249943 0.0310063
1 0.0249943 0.0307927
0 0.0487526 0
0.00872816 0.0486305 0
0.0174411 0.0486 0
0.0276036 0.0485542 0
0.0379797 0.0484779 0
0.0487373 0.0482948 0
0.0600595 0.0479896 0
0.0731212 0.0474708 0
0.094667 0.0463417 4.57771e-05
0.143618 0.0441291 0.00302129
0.199054 0.0429847 0.0106203
0.252399 0.0442664 0.0200504
0.303914 0.0475471 0.0298161
0.358862 0.0495308 0.0378271
0.41706 0.0493019 0.0438544
0.496849 0.0428016 0.0461128
0.625437 0.0312505 0.0410773
0.774258 0.0312505 0.0332189
0.891768 0.0312505 0.0294804
0.918746 0.0312505 0.0321813
0.925002 0.0312505 0.0325628
0.931243 0.0312505 0.0323491
0.937499 0.0312505 0.0321508
0.943755 0.0312505 0.0319524
0.949996 0.0312505 0.031754
0.956252 0.0312505 0.0315557
0.962493 0.0312505 0.031342
0.96875 0.0312505 0.0311284
0.975006 0.0312505 0.03093
0.981247 0.0312505 0.0307317
0.987503 0.0312505 0.0305333
0.993744 0.0312505 0.0303197
1 0.0312505 0.0301213
0 0.0590219 0
0.00816358 0.0590219 0
0.0166171 0.0590372 0
0.0267185 0.0590524 0
0.037171 0.0590524 0
0.0480049 0.0589609 0
0.0594339 0.0587625 0
0.0727092 0.0583047 0
0.0947738 0.0572366 9.15541e-05
0.142641 0.0551003 0.00250248
0.199496 0.0538338 0.0104524
0.254276 0.0550698 0.0204013
0.306767 0.0584268 0.0307317
0.362219 0.0606241 0.0391546
0.421103 0.0602579 0.0451667
0.500694 0.0541695 0.0474556
0.63267 0.0398871 0.0414588
0.782116 0.0374914 0.032929
0.892668 0.0374914 0.029633
0.918746 0.0374914 0.0320134
0.925002 0.0374914 0.0319371
0.931243 0.0374914 0.0317082
0.937499 0.0374914 0.0315099
0.943755 0.0374914 0.0312963
0.949996 0.0374914 0.0310979
0.956252 0.0374914 0.0308995
0.962493 0.0374914 0.0306706
0.96875 0.0374914 0.0304723
0.975006 0.0374914 0.0302434
0.981247 0.0374914 0.0300298
0.987503 0.0374914 0.0298161
0.993744 0.0374914 0.0295872
1 0.0374914 0.0303655
0 0.069749 0
0.00750744 0.0698405 0
0.0157321 0.0699626 0
0.0254978 0.0700847 0
0.0360266 0.0702068 0
0.046952 0.070222 0
0.0585184 0.0701305 0
0.0716411 0.06981 0
0.0929732 0.068925 3.0518e-05
0.140734 0.066804 0.00180056
0.199115 0.0654459 0.0101015
0.255665 0.0664836 0.0205997
0.309163 0.0699931 0.0316625
0.365164 0.0724041 0.040528
0.424262 0.0722667 0.0466926
0.504707 0.0663767 0.0488289
0.63827 0.0478065 0.0420844
0.787366 0.0437476 0.0329442
0.901305 0.0437476 0.0290532
0.918746 0.0437476 0.0314031
0.925002 0.0437476 0.0312505
0.931243 0.0437476 0.0310369
0.937499 0.0437476 0.0307927
0.943755 0.0437476 0.0305791
0.949996 0.0437476 0.0303655
0.956252 0.0437476 0.0301366
0.962493 0.0437476 0.0299382
0.96875 0.0437476 0.0297246
0.975006 0.0437476 0.0295109
0.981247 0.0437476 0.0293126
0.987503 0.0437476 0.0311589
0.993744 0.0437476 0.0331121
1 0.0437476 0.0351263
0 0.0893721 0
0.00663767 0.0902419 0
0.0142061 0.090959 0
0.0229953 0.0917067 0
0.0335546 0.0920882 0
0.0445716 0.0921187 0
0.05626 0.0916457 0
0.0691386 0.0904097 0
0.0881819 0.0882124 0
0.136324 0.0842145 0.00112917
0.197635 0.080415 0.00923171
0.256275 0.0795148 0.020676
0.310643 0.0823529 0.0325017
0.367178 0.084947 0.0418402
0.4262 0.0852827 0.0483864
0.508431 0.07953 0.050309
0.640452 0.0605173 0.0431983
0.790799 0.0500038 0.0331121
0.912459 0.0500038 0.0278172
0.918746 0.0500038 0.0304875
0.925002 0.0500038 0.0304875
0.931243 0.0500038 0.0302586
0.937499 0.0500038 0.0300603
0.943755 0.0500038 0.0298314
0.949996 0.0500038 0.029633
0.956252 0.0500038 0.0294347
0.962493 0.0500038 0.0292363
0.96875 0.0500038 0.0291752
0.975006 0.0500038 0.0312657
0.981247 0.0500038 0.0335546
0.987503 0.0500038 0.0358129
0.993744 0.0500038 0.0381628
1 0.0537728 0.039765
0 0.119341 0
0.00624094 0.12134 0
0.0130159 0.123003 0
0.0201572 0.12459 0
0.0307012 0.12575 0
0.0417029 0.126375 0
0.053315 0.126284 0
0.0658732 0.125185 0
0.0806592 0.122805 0
0.12607 0.118181 0.000274662
0.191623 0.111574 0.00564584
0.257038 0.105364 0.0194553
0.313741 0.103883 0.0338293
0.370779 0.104036 0.0443427
0.429648 0.10309 0.0512703
0.511376 0.0965133 0.0529335
0.64126 0.0776532 0.0451514
0.792935 0.0586404 0.0336614
0.905699 0.0562448 0.0281071
0.918746 0.0562448 0.029984
0.925002 0.0562448 0.0299992
0.931243 0.0562448 0.0298924
0.937499 0.0562448 0.0298314
0.943755 0.0562448 0.0298161
0.949996 0.0562448 0.0298161
0.956252 0.0562448 0.0298466
0.962493 0.0598154 0.0306096
0.96875 0.0643473 0.0318303
0.975006 0.0691386 0.0331121
0.981247 0.0749371 0.0343481
0.987503 0.0847028 0.0355077
0.993744 0.0949569 0.0366522
1 0.104921 0.0378119
0 0.158114 0
0.00624094 0.160937 0
0.0127413 0.163714 0
0.0200046 0.166018 0
0.0294957 0.168048 0
0.0403754 0.169497 0
0.0518654 0.170367 0
0.0641184 0.170321 0
0.0774853 0.169268 0
0.115633 0.16614 0.000503548
0.175494 0.161852 0.00607309
0.250126 0.15404 0.014313
0.318242 0.148821 0.0344549
0.378302 0.14638 0.0493324
0.436637 0.144121 0.0580758
0.511772 0.137957 0.0609293
0.630213 0.121157 0.0525826
0.779873 0.0955978 0.0373236
0.895293 0.0802014 0.0282292
0.918746 0.0766155 0.0282139
0.925002 0.0773632 0.0278477
0.931243 0.0787671 0.0273747
0.937499 0.0808881 0.0268254
0.943755 0.0861677 0.0260929
0.949996 0.0942245 0.0252384
0.956252 0.10312 0.0259709
0.962493 0.112505 0.0270085
0.96875 0.122637 0.0281071
0.975006 0.133806 0.0290684
0.981247 0.145632 0.0299992
0.987503 0.156283 0.0310063
0.993744 0.166308 0.0319982
1 0.176562 0.032639
0.0009308 0.200519 0.00173953
0.00746166 0.204028 0.00225834
0.014023 0.208042 0.0028687
0.0226291 0.211475 0.00314336
0.0326848 0.214664 0.00311284
0.0435645 0.217365 0.00277714
0.0552071 0.219577 0.00289921
0.0675212 0.221057 0.00285344
0.0805066 0.22118 0.00250248
0.107958 0.220081 0.00210575
0.167956 0.217166 0.0137636
0.2309 0.214923 0.019379
0.309422 0.209094 0.0337224
0.380758 0.204852 0.0533913
0.442878 0.202899 0.0661173
0.511727 0.199893 0.0723278
0.610971 0.190265 0.0660105
0.746792 0.171221 0.0462654
0.882506 0.151751 0.0287785
0.918746 0.143145 0.0214694
0.925002 0.144411 0.0205997
0.931243 0.147814 0.0200046
0.937499 0.153536 0.0194247
0.943755 0.160708 0.0187076
0.949996 0.168841 0.0186923
0.956252 0.178134 0.0193942
0.962493 0.187945 0.0200961
0.96875 0.198383 0.020798
0.975006 0.209247 0.0214237
0.981247 0.2215 0.021622
0.987503 0.23299 0.0217288
0.993744 0.244465 0.0218051
1 0.255879 0.021912
0.00839246 0.246845 0.0108339
0.016022 0.251469 0.0122377
0.0238193 0.256611 0.0138247
0.0324865 0.261723 0.0153811
0.0439307 0.266514 0.0166934
0.0556039 0.270771 0.0177615
0.0675059 0.27454 0.0186007
0.0796979 0.277348 0.0190127
0.0922408 0.278828 0.0188296
0.111955 0.279301 0.0176699
0.167117 0.279484 0.0232242
0.227604 0.278752 0.0372473
0.295232 0.278218 0.0451972
0.370993 0.275166 0.0600748
0.441733 0.272389 0.0750439
0.509789 0.269978 0.0843977
0.593805 0.265339 0.0832227
0.708583 0.253803 0.0638132
0.84358 0.237095 0.0370184
0.918746 0.227497 0.0224918
0.925002 0.226169 0.017319
0.931243 0.228977 0.0137484
0.937499 0.233982 0.0110323
0.943755 0.24155 0.00958267
0.949996 0.249866 0.00814832
0.956252 0.25919 0.00793469
0.962493 0.26952 0.00820935
0.96875 0.281987 0.00862135
0.975006 0.29514 0.00750744
0.981247 0.309102 0.00613413
0.987503 0.322286 0.00611887
0.993744 0.336217 0.00857557
1 0.35021 0.0111391
0.0245823 0.299672 0.0273747
0.0330816 0.305943 0.0296635
0.0418402 0.313069 0.0322271
0.0506752 0.320317 0.0348516
0.0623484 0.326665 0.0368963
0.0744182 0.33228 0.0387274
0.0866255 0.33727 0.0402686
0.0990005 0.341283 0.0413519
0.111727 0.343954 0.0419928
0.129656 0.345663 0.0421149
0.177203 0.348165 0.0454871
0.236072 0.349432 0.0598459
0.298375 0.351934 0.0714427
0.36611 0.353765 0.0814832
0.435187 0.35375 0.0919966
0.503212 0.351949 0.0998856
0.579232 0.34931 0.102327
0.67245 0.343282 0.0877241
0.792157 0.331258 0.0543069
0.887175 0.321492 0.0289616
0.918959 0.320104 0.0202487
0.930983 0.322194 0.0151522
0.937499 0.326558 0.0105287
0.943755 0.333364 0.00650034
0.949996 0.342336 0.00375372
0.956252 0.352926 0.0033875
0.962493 0.364858 0.00410468
0.96875 0.378027 0.00355535
0.975006 0.391791 0.00260929
0.981247 0.406226 0.00390631
0.987503 0.419959 0.00764477
0.993744 0.43328 0.0116579
1 0.446067 0.0168612
0.043122 0.36025 0.0463111
0.0518044 0.368185 0.0488136
0.0606241 0.376547 0.0514534
0.0694591 0.385199 0.0541085
0.0807202 0.392599 0.0562295
0.0929122 0.399222 0.0582742
0.105409 0.40502 0.0602121
0.118212 0.409598 0.0619211
0.131365 0.412741 0.0633097
0.148501 0.414389 0.0643015
0.193866 0.417594 0.0694285
0.253513 0.420615 0.0844129
0.314076 0.423758 0.101579
0.375967 0.427512 0.11107
0.437568 0.430686 0.117784
0.499306 0.431907 0.121798
0.567376 0.431052 0.122728
0.645884 0.428443 0.111788
0.744854 0.42208 0.0780652
0.84271 0.413931 0.041001
0.881437 0.41207 0.0280461
0.902831 0.414328 0.0216373
0.920501 0.419364 0.0163882
0.93254 0.426871 0.0119478
0.945708 0.436301 0.00903334
0.953231 0.446891 0.00888075
0.957763 0.458198 0.010071
0.965331 0.470588 0.0113832
0.974273 0.483528 0.0126802
0.979171 0.496361 0.0153964
0.980529 0.5075 0.0221714
0.98143 0.518471 0.0289311
0.981811 0.529458 0.0357519
0.0597086 0.42562 0.063386
0.0677958 0.434241 0.0653086
0.0758221 0.443137 0.0671702
0.0838941 0.452308 0.0690623
0.0952163 0.46006 0.0712291
0.107042 0.46685 0.0728466
0.118975 0.472572 0.0741894
0.13164 0.476814 0.0757
0.145006 0.479652 0.0772564
0.159594 0.480858 0.0787823
0.208301 0.484047 0.0864576
0.269276 0.486732 0.102083
0.331685 0.489067 0.124544
0.391928 0.492622 0.137942
0.448463 0.496391 0.14406
0.503365 0.498924 0.146365
0.562432 0.500526 0.145724
0.630121 0.501137 0.136721
0.711208 0.500008 0.107179
0.798123 0.496849 0.0648356
0.841276 0.496681 0.0450752
0.86244 0.499779 0.0370184
0.879484 0.504692 0.0315862
0.89395 0.51165 0.0274815
0.905776 0.520287 0.0260471
0.915419 0.530098 0.0270085
0.924041 0.540429 0.0286564
0.932586 0.550698 0.0317082
0.940566 0.561166 0.0351263
0.946868 0.571817 0.0394446
0.947005 0.581796 0.0473335
0.94876 0.591699 0.055024
0.95053 0.601556 0.0628824
0.068513 0.492393 0.0727855
0.0751354 0.501457 0.0732433
0.0810101 0.511116 0.0729686
0.0851759 0.521447 0.0710613
0.094377 0.529625 0.0709087
0.105821 0.536309 0.0719005
0.11812 0.541726 0.0733349
0.129732 0.546838 0.0734722
0.14345 0.549569 0.0750439
0.159014 0.54934 0.0778515
0.212055 0.548547 0.0916152
0.278172 0.548241 0.111452
0.343847 0.548699 0.136873
0.405432 0.550683 0.156954
0.460975 0.554147 0.166461
0.512764 0.557916 0.169818
0.565988 0.561135 0.169299
0.625086 0.564065 0.161471
0.691615 0.56669 0.13724
0.764767 0.568048 0.0961624
0.810742 0.569711 0.0699168
0.830549 0.57322 0.061677
0.84625 0.578653 0.0563821
0.860273 0.585824 0.0524605
0.873137 0.594202 0.0514992
0.884398 0.603525 0.0529488
0.894697 0.613565 0.0552834
0.904311 0.623865 0.0581826
0.914611 0.634119 0.0611276
0.923919 0.644343 0.0647898
0.927321 0.65362 0.0722515
0.930877 0.662547 0.0794842
0.935103 0.670954 0.0863661
0.0547646 0.567773 0.0599985
0.0547646 0.580682 0.0540017
0.0547036 0.59379 0.0479286
0.05449 0.606806 0.0416876
0.0597696 0.617288 0.0370489
0.0684215 0.625528 0.0346532
0.0793164 0.632044 0.0338903
0.0933852 0.635554 0.0356298
0.110536 0.636149 0.039826
0.131548 0.633463 0.0463874
0.194247 0.626123 0.0712139
0.277531 0.618341 0.10692
0.353216 0.614054 0.14255
0.420081 0.613245 0.171298
0.476982 0.615564 0.186892
0.527535 0.618997 0.19266
0.577234 0.622782 0.192447
0.630045 0.627176 0.184909
0.685756 0.631861 0.164553
0.745998 0.636362 0.127901
0.791653 0.64036 0.0974136
0.813764 0.644648 0.0862898
0.829557 0.650752 0.0809033
0.84416 0.658 0.0765698
0.857221 0.666224 0.0751965
0.869642 0.674983 0.0760204
0.881758 0.683894 0.077409
0.893416 0.692821 0.0792248
0.904723 0.701885 0.0813916
0.915511 0.710796 0.0838941
0.921035 0.718364 0.0897841
0.926619 0.725658 0.0954757
0.93228 0.732677 0.101015
0.00271611 0.663935 0.00894179
0.00624094 0.678126 0.00515755
0.0124971 0.692592 0.00357061
0.0187533 0.706615 0.00202945
0.0257725 0.716258 0.000976577
0.0312505 0.723217 0
0.0382239 0.728084 0
0.0483101 0.731106 0
0.0595407 0.731533 0.00125124
0.0751202 0.728435 0.00384527
0.148211 0.716716 0.0192416
0.253635 0.700572 0.0685435
0.35108 0.687221 0.126162
0.431708 0.679942 0.173404
0.493446 0.678828 0.200015
0.544121 0.681056 0.21059
0.591806 0.684794 0.211215
0.640467 0.689586 0.203403
0.689281 0.694972 0.184909
0.739391 0.700923 0.153292
0.786694 0.70724 0.117662
0.809857 0.711879 0.104158
0.82565 0.717311 0.0980545
0.840482 0.723949 0.0930343
0.854276 0.731136 0.0906691
0.86717 0.738827 0.0906691
0.879545 0.746746 0.0913863
0.891798 0.754589 0.0919203
0.903838 0.762142 0.0925765
0.91574 0.769635 0.0933547
0.922148 0.776104 0.0979324
0.928298 0.782269 0.10251
0.934615 0.788022 0.106462
0 0.761379 0
0.00624094 0.774502 0
0.0124971 0.787198 0
0.0187533 0.79884 0
0.0249943 0.806928 0
0.0312505 0.81384 0
0.0374914 0.819257 0
0.0437476 0.821378 0
0.0500038 0.821302 0
0.057084 0.818357 0
0.104631 0.806378 0
0.213993 0.787579 0.0160525
0.329274 0.766598 0.0774853
0.429465 0.750179 0.147601
0.502068 0.742947 0.192905
0.556603 0.74197 0.214633
0.603998 0.744198 0.21915
0.65069 0.748318 0.212253
0.695705 0.753613 0.195163
0.73991 0.759854 0.167102
0.782849 0.766629 0.134188
0.811978 0.772259 0.113436
0.828717 0.777432 0.105745
0.843168 0.783475 0.100465
0.856779 0.789837 0.0975662
0.86978 0.796384 0.0963302
0.882307 0.803159 0.0957046
0.894499 0.809857 0.0953994
0.906401 0.816434 0.0953536
0.918166 0.822766 0.0952773
0.925643 0.828275 0.097734
0.932097 0.83328 0.100664
0.938552 0.838056 0.103548
0 0.844724 0
0.00624094 0.854154 0
0.0124971 0.8636 0
0.0187533 0.872618 0
0.0249943 0.879011 0
0.0312505 0.884245 0
0.0374914 0.888808 0
0.0437476 0.891752 0
0.0500038 0.892607 0
0.0562448 0.890929 0
0.0750286 0.886427 0
0.179553 0.868513 0
0.298085 0.846418 0.0150454
0.412177 0.824079 0.0930953
0.49839 0.809369 0.15816
0.561257 0.802701 0.197086
0.611811 0.802014 0.211276
0.65861 0.804776 0.207965
0.7019 0.809125 0.19295
0.742687 0.814725 0.168811
0.781216 0.820996 0.140749
0.813733 0.827359 0.116304
0.832914 0.832181 0.105348
0.847822 0.837491 0.0986648
0.861067 0.842863 0.0961929
0.873762 0.848539 0.0945449
0.886015 0.854475 0.09337
0.897917 0.860166 0.0925307
0.909422 0.864958 0.0914321
0.920821 0.86952 0.0903944
0.928862 0.873457 0.0915999
0.935256 0.876982 0.0937819
0.941649 0.880491 0.0957961
0 0.907027 0
0.00624094 0.915511 0
0.0124971 0.920958 0
0.0187533 0.923354 0
0.0249943 0.925948 0
0.0312505 0.929183 0
0.0374914 0.931243 0
0.0437476 0.931243 0
0.0500038 0.931243 0
0.0562448 0.931243 0
0.0795758 0.929061 0
0.166033 0.924239 0
0.275288 0.912077 0.000381476
0.388067 0.891722 0.0320745
0.481498 0.874113 0.0998856
0.55285 0.863249 0.151492
0.610483 0.858488 0.179065
0.660258 0.858335 0.184985
0.704128 0.860868 0.175616
0.744228 0.865156 0.157214
0.780789 0.870344 0.13431
0.81294 0.875486 0.112627
0.836027 0.880079 0.0986038
0.851362 0.884001 0.0932326
0.864637 0.887999 0.0903792
0.876921 0.892012 0.0884108
0.88864 0.895247 0.0868544
0.899977 0.897856 0.0855116
0.91104 0.900343 0.0843824
0.922026 0.902663 0.0832074
0.930266 0.904692 0.0837262
0.936507 0.906523 0.0853437
0.942748 0.908232 0.0869917
0 0.937499 0
0.00624094 0.937499 0
0.0124971 0.937499 0
0.0187533 0.937499 0
0.0249943 0.937499 0
0.0312505 0.937499 0
0.0374914 0.937499 0
0.0437476 0.937499 0
0.0500038 0.937499 0
0.0564126 0.937499 0
0.0920577 0.937499 0
0.174029 0.937499 0
0.272541 0.937285 0
0.379431 0.930327 0.0121767
0.470848 0.915312 0.0654154
0.544381 0.904479 0.117754
0.605127 0.899092 0.149004
0.65771 0.897734 0.160678
0.702724 0.89929 0.15613
0.742763 0.902296 0.14255
0.778531 0.905959 0.124727
0.810483 0.909712 0.106844
0.835157 0.912795 0.0941482
0.852583 0.915084 0.0874342
0.866163 0.917144 0.0839551
0.878035 0.918074 0.0819562
0.889403 0.918944 0.0803693
0.90042 0.919814 0.079057
0.911208 0.920653 0.0779126
0.92192 0.921492 0.0767224
0.93019 0.92221 0.076936
0.936355 0.922759 0.0783398
0.942519 0.923308 0.0796521
0 0.943755 0
0.00624094 0.943755 0
0.0124971 0.943755 0
0.0187533 0.943755 0
0.0249943 0.943755 0
0.0312505 0.943755 0
0.0374914 0.943755 0
0.0437476 0.943755 0
0.0500038 0.943755 0
0.0562448 0.943755 0
0.10634 0.943755 0
0.186801 0.943755 0
0.280964 0.943755 0
0.383963 0.943755 0.00563058
0.470848 0.932998 0.0601205
0.542382 0.922942 0.109194
0.603189 0.917464 0.140902
0.655207 0.916228 0.152651
0.700252 0.917464 0.150576
0.739818 0.920241 0.138186
0.775021 0.923308 0.122377
0.806287 0.926299 0.10605
0.833875 0.928893 0.0913252
0.852155 0.930266 0.0838331
0.866011 0.931151 0.0799268
0.878233 0.931945 0.0773022
0.889403 0.932647 0.075639
0.900282 0.933364 0.0741436
0.910948 0.934066 0.0728466
0.921508 0.934783 0.0714733
0.929717 0.935332 0.0715038
0.935882 0.935805 0.0725719
0.942061 0.936233 0.0735943
0 0.949996 0
0.00624094 0.949996 0
0.0124971 0.949996 0
0.0187533 0.949996 0
0.0249943 0.949996 0
0.0312505 0.949996 0
0.0374914 0.949996 0
0.0437476 0.949996 0
0.0500038 0.949996 0
0.0594644 0.949996 0
0.121111 0.949996 0
0.199817 0.949996 0
0.291081 0.949996 0
0.388632 0.949996 0.0100557
0.473457 0.946593 0.0580453
0.541909 0.938674 0.104356
0.602167 0.932784 0.135485
0.65391 0.930938 0.14815
0.698451 0.931746 0.146441
0.737743 0.933989 0.135592
0.77232 0.93669 0.121004
0.803006 0.939361 0.105592
0.830564 0.941817 0.0910201
0.850706 0.943328 0.0818647
0.865843 0.944259 0.0766613
0.878462 0.944869 0.073579
0.889555 0.945281 0.0716869
0.900298 0.945724 0.0700389
0.910842 0.946136 0.0686046
0.921279 0.946517 0.0671092
0.929198 0.946853 0.0670329
0.935393 0.947112 0.0678111
0.941588 0.947341 0.0686351
0 0.956252 0
0.00624094 0.956252 0
0.0124971 0.956252 0
0.0187533 0.956252 0
0.0249943 0.956252 0
0.0312505 0.956252 0
0.0374914 0.956252 0
0.0437476 0.956252 0
0.0500038 0.956252 0
0.0718242 0.956252 0
0.134752 0.956252 0
0.212161 0.956252 0
0.299336 0.956252 0
0.394064 0.956252 0.00880446
0.474617 0.955856 0.0559396
0.54255 0.951873 0.101488
0.601831 0.947173 0.131136
0.653468 0.944793 0.144564
0.697658 0.945251 0.14316
0.736614 0.947051 0.133547
0.770657 0.949462 0.119387
0.80087 0.951843 0.10457
0.827695 0.953857 0.0907912
0.850446 0.954986 0.0796216
0.865782 0.955276 0.0740673
0.878416 0.955535 0.0707713
0.889784 0.955825 0.0684215
0.900404 0.956146 0.0667124
0.910826 0.956252 0.0650797
0.921141 0.956252 0.0634928
0.928695 0.956252 0.0634318
0.934905 0.956252 0.0639963
0.941131 0.956252 0.0645762
0 0.962493 0
0.00624094 0.962493 0
0.0124971 0.962493 0
0.0187533 0.962493 0
0.0249943 0.962493 0
0.0312505 0.962493 0
0.0374914 0.962493 0
0.0437476 0.962493 0
0.0500038 0.962493 0
0.0795758 0.962493 0
0.14725 0.962493 0
0.223041 0.962493 0
0.307698 0.962493 0
0.398383 0.962493 0.00936904
0.476127 0.962493 0.0542916
0.542611 0.962249 0.0978103
0.601999 0.959747 0.127993
0.653101 0.957977 0.14078
0.69723 0.957992 0.140505
0.735805 0.959426 0.131151
0.769528 0.960601 0.117723
0.799374 0.961349 0.103471
0.826123 0.962112 0.0899062
0.848722 0.962493 0.0789044
0.865324 0.962493 0.0722515
0.878309 0.962493 0.068452
0.890043 0.962493 0.0656596
0.900542 0.962493 0.0638743
0.910857 0.962493 0.0620737
0.921111 0.962493 0.0603799
0.928252 0.962493 0.0603494
0.934478 0.962493 0.0607462
0.940703 0.962493 0.0611429
0 0.96875 0
0.00624094 0.96875 0
0.0124971 0.96875 0
0.0187533 0.96875 0
0.0249943 0.96875 0
0.0312505 0.96875 0
0.0374914 0.96875 0
0.0437476 0.96875 0
0.0560464 0.96875 0
