LUT color transfer/LUTs/63.cube
TITLE "Generate by Resolve"
LUT_3D_SIZE 5
0 0 0
0.0982376 0 0.000122072
0.584558 9.15541e-05 0.0419165
0.949996 0 0.0323491
1 0 0.0315251
0 0.0893721 0
0.0881819 0.0882124 0
0.640452 0.0605173 0.0431983
0.949996 0.0500038 0.029633
1 0.0537728 0.039765
0.068513 0.492393 0.0727855
0.14345 0.549569 0.0750439
0.565988 0.561135 0.169299
0.873137 0.594202 0.0514992
0.935103 0.670954 0.0863661
0 0.949996 0
0.0500038 0.949996 0
0.602167 0.932784 0.135485
0.865843 0.944259 0.0766613
0.941588 0.947341 0.0686351
0 1 0
0.0976272 1 0
0.620401 1 0.135836
0.86566 1 0.0648508
0.938842 1 0.0505684
0 0 0.151904
0.086183 0 0.141833
0.556237 0.00173953 0.114046
0.949996 0 0.0977798
1 0 0.101778
0 0.0885481 0.105898
0.0889448 0.0882277 0.112078
0.625513 0.0687572 0.133486
0.949996 0.0500038 0.144625
1 0.0653391 0.229877
0.0713054 0.514061 0.141192
0.152941 0.568765 0.156985
0.576562 0.579721 0.253986
0.850889 0.618875 0.195651
0.915572 0.68748 0.241474
0 0.949996 0.0500038
0.0500038 0.949996 0.0500038
0.607141 0.924758 0.267903
0.864042 0.937072 0.238178
0.940002 0.941619 0.226108
0 1 0.0500038
0.0791791 1 0.0500038
0.619165 0.99968 0.267796
0.85713 1 0.228992
0.934157 1 0.208804
0 0 0.82565
0.0644541 0 0.780377
0.489143 0.00663767 0.559472
0.949996 0 0.665309
1 0 0.701473
0 0.0686809 0.710109
0.0710613 0.0736858 0.727794
0.583474 0.074876 0.640726
0.949996 0.0500038 0.805417
1 0.0691386 0.883986
0.143679 0.5028 0.593072
0.242069 0.549203 0.656535
0.597009 0.577707 0.645411
0.882338 0.613092 0.709194
0.966461 0.670985 0.780545
0 0.938613 0.72665
0.139345 0.925231 0.792248
0.598718 0.912428 0.683391
0.853895 0.919844 0.681987
0.963561 0.925948 0.700404
0.053666 0.996612 0.899092
0.1897 0.984985 0.894575
0.612345 0.985656 0.710246
0.850584 0.994202 0.68159
0.950957 0.997787 0.689433
0 0 0.949996
0.0552071 0 0.949996
0.564477 0 0.949996
0.949996 0 0.949996
1 0 0.949996
0 0.0568399 0.949996
0.058854 0.0661173 0.949996
0.671839 0.0500038 0.949996
0.949996 0.0500038 0.949996
1 0.0812695 0.949996
0.0494087 0.537057 0.949996
0.167758 0.577966 0.949996
0.580179 0.595956 0.877256
0.875395 0.628824 0.908598
0.956664 0.678798 0.934524
0.0510262 0.907835 0.949996
0.151537 0.914611 0.949996
0.635554 0.890242 0.949996
0.842771 0.913481 0.949996
0.975464 0.921386 0.949996
0.0693217 0.987488 0.949996
0.162921 0.985977 0.949996
0.646143 0.964996 0.949996
0.83505 0.992096 0.949996
0.957794 0.99913 0.949996
0 0 1
0.0547341 0 1
0.560952 0 1
0.949996 0 1
1 0 1
0 0.0597543 1
0.0605173 0.0766918 1
0.694301 0.0501869 1
0.949996 0.0500038 1
1 0.111101 1
0.0416876 0.564492 1
0.162799 0.604334 1
0.594965 0.621118 0.952926
0.882277 0.649958 0.981308
0.959686 0.692195 0.997757
0.0541695 0.911086 1
0.153826 0.916762 1
0.637629 0.891814 1
0.843702 0.9131 1
0.97116 0.920882 1
0.0697185 0.987335 1
0.16286 0.985824 1
0.644434 0.964813 1
0.835294 0.990311 1
0.957366 0.998535 1
