LUT color transfer/LUTs/63.cube
TITLE "Generate by Resolve"
LUT_3D_SIZE 9
0 0 0
0.0401923 3.0518e-05 6.10361e-05
0.0982376 0 0.000122072
0.29427 0.00543221 0.0270695
0.584558 9.15541e-05 0.0419165
0.925002 0 0.03299
0.949996 0 0.0323491
0.975006 0 0.0319066
1 0 0.0315251
9.15541e-05 0.0387884 0
0.0385443 0.0382849 0
0.0944533 0.0359197 0
0.301122 0.0371862 0.0289616
0.617716 0.0249943 0.0408026
0.925002 0.0249943 0.0328985
0.949996 0.0249943 0.0321813
0.975006 0.0249943 0.0316167
1 0.0249943 0.0307927
0 0.0893721 0
0.0335546 0.0920882 0
0.0881819 0.0882124 0
0.310643 0.0823529 0.0325017
0.640452 0.0605173 0.0431983
0.925002 0.0500038 0.0304875
0.949996 0.0500038 0.029633
0.975006 0.0500038 0.0312657
1 0.0537728 0.039765
0.00839246 0.246845 0.0108339
0.0439307 0.266514 0.0166934
0.0922408 0.278828 0.0188296
0.295232 0.278218 0.0451972
0.593805 0.265339 0.0832227
0.925002 0.226169 0.017319
0.949996 0.249866 0.00814832
0.975006 0.29514 0.00750744
1 0.35021 0.0111391
0.068513 0.492393 0.0727855
0.094377 0.529625 0.0709087
0.14345 0.549569 0.0750439
0.343847 0.548699 0.136873
0.565988 0.561135 0.169299
0.810742 0.569711 0.0699168
0.873137 0.594202 0.0514992
0.914611 0.634119 0.0611276
0.935103 0.670954 0.0863661
0 0.844724 0
0.0249943 0.879011 0
0.0500038 0.892607 0
0.298085 0.846418 0.0150454
0.611811 0.802014 0.211276
0.781216 0.820996 0.140749
0.861067 0.842863 0.0961929
0.909422 0.864958 0.0914321
0.941649 0.880491 0.0957961
0 0.949996 0
0.0249943 0.949996 0
0.0500038 0.949996 0
0.291081 0.949996 0
0.602167 0.932784 0.135485
0.77232 0.93669 0.121004
0.865843 0.944259 0.0766613
0.910842 0.946136 0.0686046
0.941588 0.947341 0.0686351
0 0.975006 0
0.0249943 0.975006 0
0.0636149 0.975006 0
0.334371 0.975006 0
0.604486 0.975006 0.123262
0.767926 0.975006 0.114504
0.864622 0.975006 0.0687724
0.910933 0.975006 0.0569009
0.939773 0.975006 0.0556191
0 1 0
0.0249943 1 0
0.0976272 1 0
0.374777 1 0.00665293
0.620401 1 0.135836
0.771634 1 0.112123
0.86566 1 0.0648508
0.910826 1 0.0523232
0.938842 1 0.0505684
0 0 0.0413672
0.0399176 3.0518e-05 0.0409247
0.0942245 0 0.0389563
0.293278 0.00517281 0.057145
0.585229 9.15541e-05 0.0668956
0.925002 0 0.0579995
0.949996 0 0.0573281
0.975006 0 0.0569009
1 0 0.0565042
0.000122072 0.038529 0.0394141
0.0383612 0.0381018 0.0390173
0.0919356 0.035935 0.0378424
0.30164 0.0373083 0.0601358
0.621332 0.0249943 0.0681163
0.925002 0.0249943 0.0578775
0.949996 0.0249943 0.057145
0.975006 0.0249943 0.0594492
1 0.0249943 0.0648356
0 0.0904707 0.0335088
0.0336309 0.0935073 0.0344091
0.0898299 0.08925 0.0353246
0.314488 0.0834669 0.0667124
0.646403 0.0621958 0.0766918
0.925002 0.0500038 0.0650797
0.949996 0.0500038 0.0688029
0.975006 0.0500038 0.0767376
1 0.0601358 0.084184
0.010071 0.253285 0.0392767
0.0473182 0.274861 0.0493172
0.0954147 0.289281 0.0548257
0.303914 0.291325 0.0823529
0.599191 0.280018 0.122286
0.925002 0.244114 0.0610056
0.949996 0.265827 0.0545968
0.975006 0.313588 0.053666
1 0.370764 0.0642252
0.0690166 0.504784 0.0984054
0.0964523 0.54165 0.100359
0.146059 0.561547 0.108965
0.353902 0.558984 0.17528
0.573877 0.571572 0.207889
0.804471 0.582345 0.124285
0.863432 0.60795 0.116991
0.906661 0.64686 0.127672
0.926604 0.681132 0.155154
0 0.857435 0.0249943
0.0249943 0.889326 0.0249943
0.0500038 0.901442 0.0249943
0.31014 0.853758 0.0650492
0.616907 0.809903 0.255665
0.78088 0.826719 0.203189
0.861616 0.847669 0.164706
0.909178 0.867185 0.159808
0.940047 0.881666 0.165621
0 0.949996 0.0249943
0.0249943 0.949996 0.0249943
0.0500038 0.949996 0.0249943
0.295491 0.949996 0.0254368
0.605188 0.9299 0.195651
0.770977 0.933165 0.192905
0.866011 0.942016 0.145281
0.910903 0.944579 0.136049
0.940887 0.946075 0.136248
0 0.975006 0.0249943
0.0249943 0.975006 0.0249943
0.0592355 0.975006 0.0249943
0.334249 0.975006 0.0310521
0.605737 0.974823 0.182895
0.7664 0.975006 0.185443
0.862272 0.975006 0.138537
0.910246 0.975006 0.124285
0.938796 0.975006 0.122805
0 1 0.0249943
0.0249943 1 0.0249943
0.0913405 1 0.0249943
0.371283 1 0.0511635
0.620691 1 0.195834
0.769451 1 0.182864
0.862318 1 0.134844
0.90869 1 0.120317
0.936629 1 0.118486
0 0 0.151904
0.0372931 0 0.152605
0.086183 0 0.141833
0.289082 0.00430304 0.116045
0.556237 0.00173953 0.114046
0.925002 0 0.100557
0.949996 0 0.0977798
0.975006 0 0.0984207
1 0 0.101778
0 0.0371099 0.137255
0.0369421 0.0369573 0.138705
0.0850843 0.0354009 0.131502
0.298817 0.0365301 0.117449
0.590967 0.0259403 0.122332
0.925002 0.0249943 0.10692
0.949996 0.0249943 0.111223
0.975006 0.0249943 0.125902
1 0.0249943 0.15082
0 0.0885481 0.105898
0.0366369 0.0917525 0.112535
0.0889448 0.0882277 0.112078
0.31606 0.0837568 0.120073
0.625513 0.0687572 0.133486
0.925002 0.0500038 0.128298
0.949996 0.0500038 0.144625
0.975006 0.0500038 0.185595
1 0.0653391 0.229877
0.0087892 0.257954 0.0826581
0.048127 0.282139 0.093492
0.0969558 0.298451 0.0992752
0.308736 0.301717 0.125811
0.594751 0.293217 0.171466
0.924514 0.259739 0.120531
0.949996 0.281468 0.119524
0.975006 0.332174 0.145129
0.999023 0.391623 0.198367
0.0713054 0.514061 0.141192
0.101045 0.550683 0.145968
0.152941 0.568765 0.156985
0.358236 0.567147 0.218708
0.576562 0.579721 0.253986
0.790539 0.593149 0.200946
0.850889 0.618875 0.195651
0.895537 0.656107 0.20882
0.915572 0.68748 0.241474
0 0.865385 0.0500038
0.0249943 0.896956 0.0500038
0.0500038 0.907912 0.0500038
0.318395 0.856901 0.12343
0.618814 0.813092 0.314763
0.775769 0.827054 0.29041
0.860594 0.848051 0.253559
0.90721 0.86566 0.249775
0.93753 0.879057 0.256687
0 0.949996 0.0500038
0.0249943 0.949996 0.0500038
0.0500038 0.949996 0.0500038
0.294957 0.949996 0.0653086
0.607141 0.924758 0.267903
0.768399 0.926726 0.284413
0.864042 0.937072 0.238178
0.910307 0.940246 0.226261
0.940002 0.941619 0.226108
0 0.975006 0.0500038
0.0249943 0.975006 0.0500038
0.0500038 0.975006 0.0500038
0.327718 0.975006 0.0796674
0.605692 0.973602 0.255192
0.764141 0.972137 0.276661
0.857969 0.974914 0.233097
0.9093 0.975006 0.214069
0.938018 0.975006 0.212177
0 1 0.0500038
0.0249943 1 0.0513161
0.0791791 1 0.0500038
0.362081 1 0.105974
0.619165 0.99968 0.267796
0.766171 1 0.274006
0.85713 1 0.228992
0.905882 1 0.211139
0.934157 1 0.208804
0.00120546 0.00195315 0.348348
0.0347448 0.00260929 0.349813
0.0746471 0.00363165 0.341695
0.251072 0.0105898 0.324742
0.478843 0.0173037 0.301091
0.8804 0 0.353933
0.949996 0 0.350729
0.975006 0 0.363424
1 0 0.387411
0.00323491 0.0369726 0.339117
0.0372473 0.0378882 0.34229
0.0774701 0.0381018 0.338445
0.264302 0.0416266 0.330358
0.503624 0.0428626 0.324498
0.904692 0.0249943 0.406043
0.949996 0.0249943 0.423957
0.975006 0.0249943 0.458198
1 0.0249943 0.496315
0.00665293 0.0823529 0.318502
0.0419471 0.0874952 0.330053
0.0847486 0.0860609 0.335073
0.289204 0.0889448 0.337346
0.537743 0.094255 0.350332
0.896284 0.0500038 0.446494
0.949996 0.0500038 0.481514
0.975006 0.0500038 0.522835
1 0.0814069 0.550866
0.0413519 0.241413 0.309957
0.0858778 0.266575 0.344549
0.137469 0.282994 0.371511
0.322957 0.298253 0.354391
0.589456 0.298772 0.381628
0.791409 0.302098 0.422995
0.8495 0.326604 0.451423
0.883986 0.376837 0.49482
0.903181 0.426017 0.530968
0.0819409 0.516457 0.270375
0.12195 0.548913 0.313313
0.175402 0.564797 0.346456
0.343679 0.576471 0.334737
0.581003 0.583062 0.371038
0.782834 0.594415 0.405432
0.843641 0.619516 0.440497
0.89073 0.653956 0.486458
0.921691 0.682261 0.52195
0 0.858045 0.141176
0.0249943 0.889754 0.181643
0.0507362 0.89279 0.222339
0.356954 0.834165 0.324971
0.616617 0.80734 0.440803
0.766766 0.815808 0.46392
0.856825 0.834241 0.482521
0.904433 0.850385 0.510399
0.937285 0.862684 0.532311
0 0.949996 0.180758
0.0249943 0.949996 0.218067
0.0500038 0.949996 0.236606
0.322362 0.947478 0.283772
0.61941 0.909499 0.431464
0.768475 0.911116 0.469627
0.856779 0.919463 0.468559
0.912337 0.924575 0.472847
0.942824 0.925566 0.482658
0 0.975006 0.317617
0.0249943 0.975006 0.345586
0.0500038 0.975006 0.335332
0.360601 0.975006 0.337606
0.622324 0.956359 0.436851
0.767376 0.954391 0.466712
0.852796 0.961761 0.451621
0.909926 0.966812 0.441489
0.939544 0.967147 0.442649
0 1 0.427649
0.0249943 1 0.433265
0.0835126 1 0.402426
0.405066 1 0.391546
0.634195 0.982559 0.455802
0.769268 0.986557 0.466468
0.851209 0.995789 0.438849
0.905898 0.99881 0.421927
0.93521 0.998993 0.420127
0 0 0.82565
0.0250248 0 0.822171
0.0644541 0 0.780377
0.235401 0.00320439 0.609293
0.489143 0.00663767 0.559472
0.836591 0 0.641093
0.949996 0 0.665309
0.975006 0 0.680766
1 0 0.701473
0 0.0252842 0.795254
0.0251164 0.0252537 0.79649
0.0662242 0.0255436 0.768093
0.253452 0.0327306 0.620737
0.541772 0.0256657 0.612634
0.904326 0.0249943 0.710491
0.949996 0.0249943 0.733577
0.975006 0.0249943 0.766415
1 0.0249943 0.807919
0 0.0686809 0.710109
0.0254673 0.0740826 0.732021
0.0710613 0.0736858 0.727794
0.27599 0.0865187 0.608454
0.583474 0.074876 0.640726
0.923171 0.0500038 0.763821
0.949996 0.0500038 0.805417
0.975006 0.0500038 0.849592
1 0.0691386 0.883986
0.050782 0.240284 0.535271
0.0929885 0.269505 0.573449
0.146258 0.288716 0.59559
0.30985 0.306325 0.591333
0.572595 0.310018 0.606027
0.774502 0.317693 0.645045
0.833677 0.344305 0.677928
0.880766 0.393088 0.722301
0.906889 0.440803 0.754971
0.143679 0.5028 0.593072
0.18584 0.53463 0.634882
0.242069 0.549203 0.656535
0.380362 0.564782 0.645838
0.597009 0.577707 0.645411
0.812436 0.58558 0.671916
0.882338 0.613092 0.709194
0.931655 0.645411 0.749722
0.966461 0.670985 0.780545
0.0341039 0.803433 0.6495
0.0700236 0.832029 0.701518
0.157488 0.831449 0.728725
0.401999 0.805447 0.690562
0.581445 0.816526 0.646937
0.758328 0.815579 0.654826
0.872206 0.827527 0.67834
0.934783 0.842985 0.703944
0.96791 0.85507 0.7205
0 0.938613 0.72665
0.0505379 0.933318 0.77145
0.139345 0.925231 0.792248
0.411673 0.902068 0.735195
0.598718 0.912428 0.683391
0.75285 0.917067 0.665614
0.853895 0.919844 0.681987
0.924834 0.924147 0.694301
0.963561 0.925948 0.700404
0.0213321 0.975006 0.852399
0.0888991 0.972503 0.86804
0.165896 0.964858 0.864347
0.446403 0.944717 0.776577
0.605035 0.956054 0.702052
0.753887 0.958465 0.67274
0.850919 0.959854 0.682216
0.919814 0.963165 0.690044
0.955779 0.963882 0.692592
0.053666 0.996612 0.899092
0.111757 0.991745 0.899992
0.1897 0.984985 0.894575
0.470512 0.967361 0.793484
0.612345 0.985656 0.710246
0.756893 0.991516 0.675334
0.850584 0.994202 0.68159
0.917449 0.997391 0.687861
0.950957 0.997787 0.689433
0 0 0.925002
0.0249943 0 0.925002
0.0566415 0 0.925002
0.237812 0 0.925002
0.573129 0 0.925002
0.860441 0 0.925002
0.949996 0 0.925002
0.975006 0 0.925002
1 0 0.925002
0 0.0249943 0.925002
0.0249943 0.0249943 0.925002
0.0579995 0.0249943 0.925002
0.264118 0.0249943 0.925002
0.618524 0.0249943 0.925002
0.904707 0.0249943 0.925002
0.949996 0.0249943 0.925002
0.975006 0.0249943 0.925002
1 0.0249943 0.925002
0 0.0580911 0.925002
0.0249943 0.0631418 0.925002
0.0590372 0.0646525 0.925002
0.29865 0.0536812 0.925002
0.664515 0.0500038 0.925002
0.925002 0.0500038 0.925002
0.949996 0.0500038 0.925002
0.975006 0.0500038 0.925002
1 0.0709239 0.925002
0 0.244572 0.925002
0.0249943 0.279438 0.925002
0.0671244 0.299016 0.925002
0.296834 0.306874 0.858152
0.579385 0.311604 0.800259
0.836652 0.301472 0.873442
0.888899 0.33225 0.875105
0.911238 0.388678 0.859785
0.918578 0.441733 0.847974
0.0755322 0.524865 0.91725
0.113252 0.557 0.925002
0.183139 0.56817 0.925002
0.384024 0.57174 0.836454
0.582605 0.588129 0.832563
0.780362 0.596368 0.85275
0.874891 0.621057 0.861967
0.924681 0.649195 0.875273
0.958068 0.672297 0.888167
0.0666209 0.789303 0.925002
0.0978714 0.818051 0.925002
0.169375 0.822354 0.925002
0.441016 0.790539 0.924681
0.62826 0.794034 0.900725
0.754314 0.805814 0.905303
0.866484 0.816403 0.908598
0.952255 0.828489 0.910613
0.988281 0.839628 0.91284
0.0480964 0.907942 0.925002
0.0964828 0.912596 0.925002
0.159319 0.912749 0.925002
0.435599 0.887495 0.925002
0.640299 0.891447 0.925002
0.756268 0.907759 0.923674
0.848295 0.915923 0.919936
0.925292 0.920516 0.910567
0.97995 0.922957 0.904845
0.0619669 0.963287 0.925002
0.106371 0.962615 0.925002
0.164279 0.960433 0.925002
0.456809 0.933684 0.925002
0.64567 0.934524 0.925002
0.757107 0.949462 0.925002
0.842313 0.957549 0.919814
0.914855 0.961883 0.907073
0.967865 0.96347 0.900542
0.0704509 0.9879 0.925002
0.113008 0.98732 0.925002
0.171054 0.984817 0.925002
0.476768 0.958465 0.925002
0.651759 0.966155 0.925002
0.757794 0.985351 0.925002
0.837613 0.995773 0.914855
0.907439 0.999664 0.89984
0.957137 1 0.894621
0 0 0.949996
0.0249943 0 0.949996
0.0552071 0 0.949996
0.223056 0 0.949996
0.564477 0 0.949996
0.847318 0 0.949996
0.949996 0 0.949996
0.975006 0 0.949996
1 0 0.949996
0 0.0249943 0.949996
0.0249943 0.0249943 0.949996
0.0569924 0.0249943 0.949996
0.253162 0.0249943 0.949996
0.610544 0.0249943 0.949996
0.900465 0.0249943 0.949996
0.949996 0.0249943 0.949996
0.975006 0.0249943 0.949996
1 0.0249943 0.949996
0 0.0568399 0.949996
0.0249943 0.0629435 0.949996
0.058854 0.0661173 0.949996
0.297002 0.0539712 0.949996
0.671839 0.0500038 0.949996
0.925002 0.0500038 0.949996
0.949996 0.0500038 0.949996
0.975006 0.0526741 0.949996
1 0.0812695 0.949996
0 0.250568 0.949996
0.0249943 0.287495 0.949996
0.0655985 0.308797 0.949996
0.295705 0.315496 0.939162
0.586755 0.319173 0.863371
0.843503 0.310033 0.929412
0.896284 0.343481 0.929702
0.915831 0.401282 0.913481
0.923064 0.453696 0.899504
0.0494087 0.537057 0.949996
0.097673 0.566079 0.949996
0.167758 0.577966 0.949996
0.381643 0.579278 0.902083
0.580179 0.595956 0.877256
0.772808 0.603861 0.897658
0.875395 0.628824 0.908598
0.924407 0.656596 0.921904
0.956664 0.678798 0.934524
0.0538186 0.798047 0.949996
0.0918746 0.824414 0.949996
0.151705 0.831296 0.949996
0.41976 0.798199 0.949996
0.627314 0.795346 0.945647
0.751385 0.80557 0.948577
0.855543 0.81706 0.949996
0.944915 0.828367 0.949996
0.9841 0.838697 0.949996
0.0510262 0.907835 0.949996
0.0972152 0.91281 0.949996
0.151537 0.914611 0.949996
0.402716 0.893202 0.949996
0.635554 0.890242 0.949996
0.754955 0.904921 0.949996
0.842771 0.913481 0.949996
0.917266 0.918441 0.949996
0.975464 0.921386 0.949996
0.0616159 0.962844 0.949996
0.105745 0.962188 0.949996
0.158282 0.961212 0.949996
0.423545 0.938689 0.949996
0.640345 0.93283 0.949996
0.755779 0.94612 0.949996
0.83772 0.954314 0.949996
0.907744 0.958755 0.949996
0.966293 0.961303 0.949996
0.0693217 0.987488 0.949996
0.111711 0.986893 0.949996
0.162921 0.985977 0.949996
0.445701 0.963348 0.949996
0.646143 0.964996 0.949996
0.757443 0.982315 0.949996
0.83505 0.992096 0.949996
0.902693 0.996811 0.949996
0.957794 0.99913 0.949996
0 0 0.975006
0.0249943 0 0.975006
0.0548562 0 0.975006
0.219638 0 0.975006
0.560449 0 0.975006
0.843961 0 0.975006
0.949996 0 0.975006
0.975006 0 0.975006
1 0 0.975006
0 0.0249943 0.975006
0.0249943 0.0249943 0.975006
0.0570382 0.0249943 0.975006
0.254353 0.0249943 0.975006
0.613443 0.0249943 0.975006
0.904753 0.0249943 0.975006
0.949996 0.0249943 0.975006
0.975006 0.0249943 0.975006
1 0.0249943 0.975006
0 0.0571908 0.975006
0.0249943 0.0667277 0.975006
0.059556 0.0702678 0.975006
0.307607 0.055314 0.975006
0.682216 0.0500038 0.975006
0.925002 0.0500038 0.975006
0.949996 0.0500038 0.975006
0.975006 0.0622721 0.975006
1 0.0968795 0.975006
0 0.263752 0.975006
0.0249943 0.302831 0.975006
0.0707561 0.324956 0.975006
0.306493 0.332479 0.974701
0.596338 0.335256 0.908049
0.846159 0.328267 0.968536
0.893385 0.364263 0.961929
0.911742 0.420478 0.947112
0.922148 0.468544 0.930159
0.0440223 0.550317 0.975006
0.0938277 0.578759 0.975006
0.162799 0.591608 0.975006
0.393484 0.591806 0.949798
0.587121 0.608743 0.917998
0.776272 0.615854 0.938109
0.878248 0.640192 0.949676
0.925734 0.666285 0.961929
0.957641 0.686305 0.970489
0.0528267 0.809964 0.975006
0.0933394 0.832761 0.975006
0.148974 0.841337 0.975006
0.413779 0.809842 0.975006
0.632822 0.803021 0.974945
0.757107 0.811276 0.975006
0.855375 0.822904 0.975006
0.94284 0.833173 0.975006
0.981216 0.84239 0.975006
0.0524758 0.909331 0.975006
0.0983597 0.914015 0.975006
0.152514 0.915496 0.975006
0.391089 0.896941 0.975006
0.636164 0.890929 0.975006
0.757168 0.904662 0.975006
0.842908 0.91313 0.975006
0.915755 0.918074 0.975006
0.972946 0.920989 0.975006
0.0622721 0.96257 0.975006
0.106203 0.961944 0.975006
0.158541 0.960983 0.975006
0.408698 0.941955 0.975006
0.639399 0.932815 0.975006
0.757153 0.94522 0.975006
0.837232 0.953384 0.975006
0.905898 0.957916 0.975006
0.96492 0.960662 0.975006
0.0693523 0.987335 0.975006
0.111635 0.98677 0.975006
0.162676 0.985824 0.975006
0.430716 0.966171 0.975006
0.644617 0.964813 0.975006
0.758511 0.981353 0.975006
0.834791 0.990997 0.975006
0.901152 0.995895 0.975006
0.958038 0.998886 0.975006
0 0 1
0.0249943 0 1
0.0547341 0 1
0.219104 0 1
0.560952 0 1
0.845411 0 1
0.949996 0 1
0.975006 0 1
1 0 1
0 0.0249943 1
0.0249943 0.0249943 1
0.0573892 0.0249943 1
0.258427 0.0249943 1
0.619455 0.0249943 1
0.912245 0.0249943 1
0.949996 0.0249943 1
0.975006 0.0249943 1
1 0.0249943 1
0 0.0597543 1
0.0249943 0.0721141 1
0.0605173 0.0766918 1
0.320867 0.0583047 1
0.694301 0.0501869 1
0.925002 0.0500038 1
0.949996 0.0500038 1
0.975006 0.0726482 1
1 0.111101 1
0 0.280125 1
0.0251621 0.319448 1
0.0767987 0.340902 1
0.321447 0.34963 0.998627
0.606531 0.351583 0.940856
0.842298 0.34873 0.986969
0.885328 0.385351 0.985916
0.903243 0.438926 0.962448
0.91989 0.482872 0.952407
0.0416876 0.564492 1
0.0916915 0.592371 1
0.162799 0.604334 1
0.407675 0.603983 0.98558
0.594965 0.621118 0.952926
0.781445 0.627146 0.97229
0.882277 0.649958 0.981308
0.928252 0.673548 0.990036
0.959686 0.692195 0.997757
0.051667 0.823377 1
0.0949264 0.841108 1
0.150774 0.847364 1
0.416907 0.819394 1
0.638346 0.810468 1
0.762966 0.817227 1
0.856565 0.828672 1
0.942779 0.83743 1
0.980133 0.845457 1
0.0541695 0.911086 1
0.0998703 0.915496 1
0.153826 0.916762 1
0.393683 0.898177 1
0.637629 0.891814 1
0.75935 0.904845 1
0.843702 0.9131 1
0.915251 0.918059 1
0.97116 0.920882 1
0.0633249 0.962539 1
0.107057 0.961929 1
0.159152 0.960967 1
0.412192 0.941985 1
0.639628 0.933074 1
0.758343 0.944808 1
0.83769 0.95285 1
0.905013 0.957443 1
0.963333 0.960235 1
0.0697185 0.987335 1
0.111849 0.986755 1
0.16286 0.985824 1
0.431373 0.96611 1
0.644434 0.964813 1
0.759457 0.980819 1
0.835294 0.990311 1
0.900679 0.995392 1
0.957366 0.998535 1
