LUT color transfer/LUTs/65.cube
TITLE "Generate by Resolve"
LUT_3D_SIZE 33
0 0 0
0.0187381 0 0
0.0374914 0 0
0.0562448 0 0
0.0749981 0 0
0.0937362 0 0
0.11249 0 0
0.132097 0 0
0.157687 0 0
0.189776 0 0
0.224079 0 0
0.259495 0 0
0.297642 0 0
0.343282 0 0
0.398337 0 0
0.464286 0 0
0.562036 0 0
0.656336 0 0
0.714916 0 0
0.755734 0 0
0.77499 0 0
0.793744 0 0
0.812497 0 0
0.83125 0 0
0.850004 0 0
0.868742 0 0
0.887495 0 0
0.906249 0 0
0.925002 0 0
0.943755 0 0
0.962493 0 0
0.981247 0 0
1 0 0
0 0.0187381 0
0.0187381 0.0187381 0
0.0374914 0.0187381 0
0.0562448 0.0187381 0
0.0749981 0.0187381 0
0.0937362 0.0187381 0
0.11249 0.0187381 0
0.132219 0.0187381 0
0.157855 0.0187381 0
0.189899 0.0187381 0
0.224186 0.0187381 0
0.259632 0.0187381 0
0.297871 0.0187381 0
0.34374 0.0187381 0
0.398947 0.0187381 0
0.465705 0.0187381 0
0.56437 0.0187381 0
0.657832 0.0187381 0
0.71606 0.0187381 0
0.756252 0.0187381 0
0.77499 0.0187381 0
0.793744 0.0187381 0
0.812497 0.0187381 0
0.83125 0.0187381 0
0.850004 0.0187381 0
0.868742 0.0187381 0
0.887495 0.0187381 0
0.906249 0.0187381 0
0.925002 0.0187381 0
0.943755 0.0187381 0
0.962493 0.0187381 0
0.981247 0.0187381 0
1 0.0187381 0
0 0.0374914 0
0.0187381 0.0374914 0
0.0374914 0.0374914 0
0.0562448 0.0374914 0
0.0749981 0.0374914 0
0.0937362 0.0374914 0
0.11249 0.0374914 0
0.132433 0.0374914 0
0.158373 0.0374914 0
0.1906 0.0374914 0
0.224964 0.0374914 0
0.260212 0.0374914 0
0.298589 0.0374914 0
0.345083 0.0374914 0
0.400595 0.0374914 0
0.469078 0.0374914 0
0.569528 0.0374914 0
0.660838 0.0374914 0
0.718349 0.0374914 0
0.756252 0.0374914 0
0.77499 0.0374914 0
0.793744 0.0374914 0
0.812497 0.0374914 0
0.83125 0.0374914 0
0.850004 0.0374914 0
0.868742 0.0374914 0
0.887495 0.0374914 0
0.906249 0.0374914 0
0.925002 0.0374914 0
0.943755 0.0374914 0
0.962493 0.0374914 0
0.981247 0.0374914 0
1 0.0374914 0
0 0.0562448 0
0.0187381 0.0562448 0
0.0374914 0.0562448 0
0.0562448 0.0562448 0
0.0749981 0.0562448 0
0.0937362 0.0562448 0
0.11249 0.0562448 0
0.132464 0.0562448 0
0.159075 0.0562448 0
0.191638 0.0562448 0
0.226139 0.0562448 0
0.261799 0.0562448 0
0.300618 0.0562448 0
0.34725 0.0562448 0
0.403388 0.0562448 0
0.474403 0.0562448 0
0.577264 0.0562448 0
0.665476 0.0562448 0
0.72163 0.0562448 0
0.756252 0.0562448 0
0.77499 0.0562448 0
0.793744 0.0562448 0
0.812497 0.0562448 0
0.83125 0.0562448 0
0.850004 0.0562448 0
0.868742 0.0562448 0
0.887495 0.0562448 0
0.906249 0.0562448 0
0.925002 0.0562448 0
0.943755 0.0562448 0
0.962493 0.0562448 0
0.981247 0.0562448 0
1 0.0562448 0
0 0.0749981 0
0.0187381 0.0749981 0
0.0374914 0.0749981 0
0.0562448 0.0749981 0
0.0749981 0.0749981 0
0.0937362 0.0749981 0
0.112505 0.0749981 0
0.13228 0.0749981 0
0.159503 0.0749981 0
0.192676 0.0749981 0
0.227649 0.0749981 0
0.263752 0.0749981 0
0.303731 0.0749981 0
0.352346 0.0749981 0
0.40824 0.0749981 0
0.481407 0.0749981 0
0.58648 0.0749981 0
0.671351 0.0749981 0
0.724926 0.0749981 0
0.756252 0.0749981 0
0.77499 0.0749981 0
0.793744 0.0749981 0
0.812497 0.0749981 0
0.83125 0.0749981 0
0.850004 0.0749981 0
0.868742 0.0749981 0
0.887495 0.0749981 0
0.906249 0.0749981 0
0.925002 0.0749981 0
0.943755 0.0749981 0
0.962493 0.0749981 0
0.981247 0.0749981 0
1 0.0749981 0
0 0.0963455 0
0.0187381 0.0963455 0
0.0374914 0.0964218 0
0.0562448 0.0965591 0
0.0749981 0.0966659 0
0.0937362 0.0966201 0
0.112535 0.096437 0
0.132555 0.0957656 0
0.160021 0.0950179 0
0.193637 0.0940871 0
0.229328 0.0937362 0
0.265705 0.0937362 0
0.306416 0.0937362 0
0.357397 0.0937362 0
0.415381 0.0937362 0
0.492653 0.0937362 0
0.598321 0.0937362 0
0.679011 0.0937362 0
0.728588 0.0937362 0
0.756252 0.0937362 0
0.77499 0.0937362 0
0.793744 0.0937362 0
0.812497 0.0937362 0
0.83125 0.0937362 0
0.850004 0.0937362 0
0.868742 0.0937362 0
0.887495 0.0937362 0
0.906249 0.0937362 0
0.925002 0.0937362 0
0.943755 0.0937362 0
0.962493 0.0937362 0
0.981247 0.0937362 0
1 0.0937362 0
0 0.11989 0
0.0187381 0.120012 0
0.0374914 0.120165 0
0.0562448 0.120439 0
0.0749981 0.120714 0
0.0937362 0.120821 0
0.112566 0.120668 0
0.133516 0.119432 0
0.160479 0.118395 0
0.19266 0.117479 0
0.228977 0.115999 0
0.26717 0.114305 0
0.309239 0.112902 0
0.361288 0.11249 0
0.421256 0.11249 0
0.503227 0.11249 0
0.610803 0.11249 0
0.686992 0.11249 0
0.732845 0.11249 0
0.756252 0.11249 0
0.77499 0.11249 0
0.793744 0.11249 0
0.812497 0.11249 0
0.83125 0.11249 0
0.850004 0.11249 0
0.868742 0.11249 0
0.887495 0.11249 0
0.906249 0.11249 0
0.925002 0.11249 0
0.943755 0.11249 0
0.962493 0.11249 0
0.981247 0.11249 0
1 0.11249 0
0 0.145525 0
0.0187381 0.1458 0
0.0374914 0.146273 0
0.0562448 0.146761 0
0.0749981 0.147189 0
0.0937362 0.147463 0
0.11249 0.147463 0
0.133669 0.145953 0
0.161334 0.144244 0
0.192798 0.142916 0
0.228382 0.140963 0
0.268116 0.137881 0
0.312032 0.134386 0
0.364935 0.131456 0
0.425437 0.131243 0
0.507958 0.131243 0
0.618112 0.131243 0
0.691615 0.131243 0
0.737011 0.131243 0
0.756252 0.131243 0
0.77499 0.131243 0
0.793744 0.131243 0
0.812497 0.131243 0
0.83125 0.131243 0
0.850004 0.131243 0
0.868742 0.131243 0
0.887495 0.131243 0
0.906249 0.131243 0
0.925002 0.131243 0
0.943755 0.131243 0
0.962493 0.131243 0
0.981247 0.131243 0
1 0.131243 0
0 0.173007 0
0.0187381 0.17348 0
0.0374914 0.174044 0
0.0562448 0.174685 0
0.0749981 0.175204 0
0.0937362 0.175601 0
0.11249 0.175738 0
0.133165 0.174502 0
0.161822 0.172366 0
0.194354 0.170672 0.000457771
0.228855 0.169284 0.000427253
0.269444 0.166369 0
0.316121 0.162173 0
0.370367 0.156634 0
0.429984 0.152224 0
0.507942 0.149996 0
0.614801 0.149996 0
0.691173 0.149996 0
0.73637 0.149996 0
0.756252 0.149996 0
0.77499 0.149996 0
0.793744 0.149996 0
0.812497 0.149996 0
0.83125 0.149996 0
0.850004 0.149996 0
0.868742 0.149996 0
0.887495 0.149996 0
0.906249 0.149996 0
0.925002 0.149996 0
0.943755 0.151522 0
0.962493 0.158206 0
0.981247 0.164843 0
1 0.171435 0
0 0.201236 0
0.0187381 0.201938 0
0.0374914 0.202731 0
0.0562448 0.203571 0
0.0749981 0.204364 0
0.0937362 0.205035 0
0.11249 0.205402 0
0.132265 0.204791 0
0.160693 0.202792 0
0.196231 0.200488 0.00169375
0.231357 0.199313 0.00340276
0.272587 0.197162 0.000854505
0.321096 0.19321 1.5259e-05
0.37705 0.187976 0
0.436973 0.182177 0
0.511727 0.174975 0
0.612924 0.16875 0
0.693599 0.16875 0
0.737301 0.16875 0
0.756252 0.16875 0
0.77499 0.16875 0
0.793744 0.16875 0
0.812497 0.16875 0
0.83125 0.170153 0
0.850004 0.175311 0
0.868742 0.181064 0
0.887495 0.187182 0
0.906249 0.193896 0
0.925002 0.201358 0
0.943755 0.20882 0
0.962493 0.216358 0
0.981247 0.223896 0
1 0.231342 0
0 0.231342 0
0.0187381 0.23238 0
0.0374914 0.23357 0
0.0562448 0.234821 0
0.0749981 0.236042 0
0.0937362 0.23714 0
0.11249 0.237934 0
0.131548 0.238041 0
0.157321 0.23711 0
0.196033 0.234806 0.0012665
0.235767 0.233158 0.00721752
0.278431 0.232181 0.0074464
0.329152 0.229603 0.0037995
0.385885 0.225956 0.00103761
0.446052 0.222141 4.57771e-05
0.518349 0.215991 0
0.614359 0.205203 0
0.698756 0.198779 0
0.737499 0.19971 0
0.756252 0.204578 0
0.77499 0.210697 0
0.793744 0.217731 0
0.812497 0.223102 0
0.83125 0.228687 0
0.850004 0.234897 0
0.868742 0.241749 0
0.887495 0.24892 0
0.906249 0.256382 0
0.925002 0.263966 0
0.943755 0.27187 0
0.962493 0.279469 0
0.981247 0.286824 0
1 0.294331 0.00158694
0 0.264683 0
0.0187381 0.266239 0
0.0374914 0.26833 0
0.0562448 0.270542 0
0.0749981 0.272465 0
0.0937362 0.274296 0
0.11249 0.275669 0
0.131258 0.276585 0
0.153185 0.277012 0
0.192111 0.276341 4.57771e-05
0.239368 0.274556 0.00694286
0.287968 0.274327 0.0127871
0.341482 0.274205 0.0130007
0.397971 0.273915 0.010544
0.455894 0.273808 0.00640879
0.523186 0.272007 0.00112917
0.612085 0.266133 0
0.700679 0.261082 0
0.737499 0.262257 0
0.756252 0.268208 0
0.77499 0.275044 0
0.793744 0.282307 0
0.812497 0.28864 0
0.83125 0.294682 0
0.850004 0.301076 0
0.868742 0.307897 0
0.887495 0.315358 0
0.906249 0.323308 0
0.925002 0.331167 0
0.943755 0.339132 0
0.962493 0.347585 0
0.981247 0.356008 0.000274662
1 0.364675 0.00270085
0 0.303853 0
0.0187381 0.306798 0
0.0374914 0.310048 0
0.0562448 0.313451 0
0.0749981 0.316701 0
0.0937362 0.3196 0
0.11249 0.322591 0
0.131243 0.324636 0
0.150515 0.326848 0
0.185992 0.329122 0
0.239628 0.328801 0.00430304
0.299641 0.328405 0.014725
0.358633 0.330129 0.0201724
0.414939 0.333333 0.0225071
0.469886 0.337026 0.0219425
0.530159 0.339147 0.0170748
0.601678 0.33901 0.00799573
0.686198 0.33611 0
0.737499 0.334752 0
0.756252 0.338766 0
0.77499 0.345083 0
0.793744 0.352331 0
0.812497 0.359335 0
0.83125 0.366033 0
0.850004 0.3729 0
0.868742 0.380148 0
0.887495 0.387747 0
0.906249 0.395895 0
0.925002 0.404456 0
0.943755 0.413291 0
0.962493 0.422095 0
0.981247 0.430625 0.000335698
1 0.439155 0.00173953
0 0.351949 0
0.0187381 0.356268 0
0.0374914 0.361044 0
0.0562448 0.366415 0
0.0749981 0.372107 0
0.0937362 0.377127 0
0.11249 0.381323 0
0.131243 0.38436 0
0.149996 0.388159 0
0.182605 0.393194 0
0.241306 0.394461 0.00315862
0.312871 0.393118 0.0163424
0.378302 0.394491 0.0266728
0.434958 0.398733 0.0333867
0.488029 0.403479 0.0364691
0.542733 0.407614 0.0349737
0.600916 0.410849 0.028748
0.665797 0.412955 0.0151369
0.734707 0.413138 0.00192264
0.756252 0.414649 0
0.77499 0.420066 0
0.793744 0.42681 0
0.812497 0.433814 0
0.83125 0.440757 0
0.850004 0.447501 0
0.868742 0.454673 0
0.887495 0.462455 0
0.906249 0.470588 0
0.925002 0.478538 0
0.943755 0.486748 0
0.962493 0.495048 0
0.981247 0.5028 6.10361e-05
1 0.510307 0.000213626
0 0.409369 0
0.0187381 0.416022 0
0.0374914 0.423117 0
0.0562448 0.430457 0
0.0749981 0.437659 0
0.0937362 0.444495 0
0.11249 0.450355 0
0.131243 0.454551 0
0.149996 0.458976 0
0.1841 0.464652 0
0.246693 0.465827 0.00318914
0.327916 0.46154 0.0185855
0.398749 0.460182 0.0332799
0.456672 0.46305 0.0440681
0.50901 0.467857 0.0510872
0.560418 0.473136 0.0542763
0.611246 0.478706 0.0525063
0.66215 0.484276 0.0438544
0.718929 0.488502 0.0237736
0.756161 0.490166 0.00456245
0.77499 0.492927 0
0.793744 0.498787 0
0.812497 0.505364 0
0.83125 0.512093 0
0.850004 0.518929 0
0.868742 0.525505 0
0.887495 0.532357 0
0.906249 0.539635 0
0.925002 0.546868 0
0.943755 0.553506 0
0.962493 0.560113 0
0.981247 0.566674 0
1 0.572473 0
0 0.477653 0
0.0187381 0.486 0
0.0374914 0.495186 0
0.0562448 0.504768 0
0.0749981 0.514046 0
0.0937362 0.521996 0
0.11249 0.528954 0
0.131243 0.533989 0
0.150011 0.537346 0
0.178775 0.540581 0
0.246448 0.538796 0.000259403
0.337987 0.531121 0.0163882
0.416587 0.526925 0.0373541
0.477806 0.527672 0.0544137
0.529686 0.531441 0.0662089
0.578058 0.536522 0.074052
0.623301 0.542336 0.0769207
0.666621 0.548638 0.0729686
0.711589 0.555047 0.0564279
0.753445 0.559976 0.0277562
0.77499 0.562936 0.0062562
0.793744 0.565988 0.000198367
0.812497 0.570977 0
0.83125 0.576242 0
0.850004 0.581888 0
0.868742 0.58793 0
0.887495 0.593317 0
0.906249 0.598886 0
0.925002 0.604517 0
0.943755 0.609827 0
0.962493 0.614466 0
0.981247 0.618982 0
1 0.623468 0
0 0.556374 0
0.0187381 0.566415 0
0.0374914 0.576883 0
0.0562448 0.587045 0
0.0749981 0.596841 0
0.0937362 0.605158 0
0.11249 0.611902 0
0.131243 0.616297 0
0.149996 0.618891 0
0.171405 0.620569 0
0.231281 0.616449 0
0.3402 0.601999 0.0112917
0.430655 0.592264 0.0378729
0.496513 0.589258 0.06215
0.548608 0.590829 0.0806897
0.594079 0.594736 0.093492
0.635309 0.599771 0.101076
0.673655 0.605371 0.102068
0.711421 0.611337 0.0915694
0.751842 0.617304 0.0618753
0.77499 0.621576 0.028397
0.793744 0.624216 0.00762951
0.812497 0.627024 0.000289921
0.83125 0.630503 0
0.850004 0.634546 0
0.868742 0.639094 0
0.887495 0.643732 0
0.906249 0.647807 0
0.925002 0.651942 0
0.943755 0.655879 0
0.962493 0.659358 0
0.981247 0.662486 0
1 0.665583 0
0 0.638361 0
0.0187381 0.647822 0
0.0374914 0.657435 0
0.0562448 0.666789 0
0.0749981 0.674464 0
0.0937362 0.680735 0
0.11249 0.686 0
0.131243 0.689662 0
0.149996 0.692805 0
0.16875 0.694636 0
0.210742 0.692378 0
0.32285 0.674449 0.00309758
0.439368 0.65449 0.0317693
0.514336 0.64593 0.0654459
0.566934 0.644373 0.0923476
0.609491 0.646082 0.111116
0.647211 0.649363 0.122774
0.681941 0.653422 0.127687
0.71574 0.657954 0.122301
0.751385 0.662989 0.0989853
0.77499 0.66772 0.0614328
0.793744 0.670832 0.0291905
0.812497 0.672938 0.00881971
0.83125 0.675166 0.00112917
0.850004 0.67805 0.000366217
0.868742 0.681544 0.000274662
0.887495 0.685176 0
0.906249 0.68867 1.5259e-05
0.925002 0.691859 0.000137331
0.943755 0.694881 0
0.962493 0.697551 0
0.981247 0.700053 0.000518807
1 0.702342 0.0047303
0 0.710979 0
0.0187381 0.718105 0
0.0374914 0.725078 0
0.0562448 0.731853 0
0.0749981 0.736782 0
0.0937362 0.736339 0
0.11249 0.736034 0
0.131243 0.736141 0
0.149996 0.736965 0
0.16875 0.737499 0
0.205234 0.737499 0
0.293568 0.737499 0
0.432349 0.715114 0.011902
0.528298 0.697139 0.056672
0.583032 0.691218 0.09691
0.623468 0.690379 0.124025
0.658289 0.691798 0.140078
0.690578 0.694255 0.147295
0.722072 0.697414 0.144701
0.754345 0.701152 0.127291
0.77499 0.70515 0.0932631
0.793744 0.708659 0.0554055
0.812497 0.710994 0.0282444
0.83125 0.712978 0.0121462
0.850004 0.715541 0.00639353
0.868742 0.71841 0.00614939
0.887495 0.721401 0.00576791
0.906249 0.724346 0.00523384
0.925002 0.72723 0.00408942
0.943755 0.729793 0.00564584
0.962493 0.731838 0.011368
0.981247 0.733761 0.0173648
1 0.735561 0.023621
0 0.756054 0
0.0187381 0.756207 0
0.0374914 0.756252 0
0.0562448 0.756252 0
0.0749981 0.756252 0
0.0937362 0.756252 0
0.11249 0.756252 0
0.131243 0.756252 0
0.149996 0.756252 0
0.169833 0.756252 0
0.21355 0.756252 0
0.280659 0.756252 0
0.407858 0.755383 0.00062562
0.5299 0.746303 0.026215
0.595514 0.733577 0.081529
0.635416 0.729274 0.125673
0.66836 0.728771 0.148836
0.699062 0.729976 0.158358
0.729458 0.732113 0.15668
0.755993 0.73489 0.142321
0.77499 0.738262 0.112596
0.793744 0.741634 0.076112
0.812497 0.744213 0.0462959
0.83125 0.746532 0.0301823
0.850004 0.749065 0.0265202
0.868742 0.751736 0.0256352
0.887495 0.754269 0.0247807
0.906249 0.755291 0.0243076
0.925002 0.755947 0.0236362
0.943755 0.756237 0.0240177
0.962493 0.756237 0.0315709
0.981247 0.756252 0.0391546
1 0.756252 0.0474403
0 0.77499 0
0.0187381 0.77499 0
0.0374914 0.77499 0
0.0562448 0.77499 0
0.0749981 0.77499 0
0.0937362 0.77499 0
0.11249 0.77499 0
0.131243 0.77499 0
0.149996 0.77499 0
0.171054 0.77499 0
0.219104 0.77499 0
0.283894 0.77499 0
0.394797 0.77499 0
0.52137 0.77499 0.00378424
0.601541 0.771206 0.0425727
0.645075 0.766323 0.102937
0.677455 0.763287 0.141924
0.707439 0.763149 0.157351
0.735775 0.764446 0.156512
0.756252 0.766583 0.142779
0.77499 0.769451 0.115816
0.793744 0.772183 0.0841993
0.812497 0.773693 0.0606546
0.83125 0.77467 0.0511788
0.850004 0.77499 0.0501411
0.868742 0.77499 0.0495613
0.887495 0.77499 0.0488899
0.906249 0.77499 0.0480049
0.925002 0.77499 0.04654
0.943755 0.77499 0.0450904
0.962493 0.77499 0.0559243
0.981247 0.77499 0.0674754
1 0.77499 0.0791028
0 0.793744 0
0.0187381 0.793744 0
0.0374914 0.793744 0
0.0562448 0.793744 0
0.0749981 0.793744 0
0.0937362 0.793744 0
0.11249 0.793744 0
0.131243 0.793744 0
0.149996 0.793744 0
0.17409 0.793744 0
0.223499 0.793744 0
0.289921 0.793744 0
0.398611 0.793744 0
0.514244 0.793744 0
0.603876 0.793744 0.00759899
0.652323 0.793744 0.0609751
0.68571 0.793744 0.115114
0.715282 0.793576 0.141268
0.737484 0.793469 0.144183
0.756252 0.793576 0.130953
0.77499 0.793744 0.108263
0.793744 0.793744 0.0840772
0.812497 0.793744 0.0751507
0.83125 0.793744 0.0740826
0.850004 0.793744 0.0744793
0.868742 0.793744 0.0761273
0.887495 0.793744 0.0788434
0.906249 0.793744 0.0817426
0.925002 0.793744 0.0849928
0.943755 0.793744 0.0906539
0.962493 0.793744 0.10428
0.981247 0.793744 0.117952
1 0.793744 0.130694
0 0.812497 0
0.0187381 0.812497 0
0.0374914 0.812497 0
0.0562448 0.812497 0
0.0749981 0.812497 0
0.0937362 0.812497 0
0.11249 0.812497 0
0.131243 0.812497 0
0.150134 0.812497 0
0.183185 0.812497 0
0.231632 0.812497 0
0.298146 0.812497 0
0.408042 0.812497 0
0.519631 0.812497 0
0.602899 0.812497 0.00180056
0.656062 0.812497 0.0289616
0.691951 0.812497 0.081239
0.718532 0.812497 0.11519
0.737499 0.812497 0.12607
0.756252 0.812497 0.118715
0.77499 0.812497 0.105577
0.793744 0.812497 0.103456
0.812497 0.812497 0.107027
0.83125 0.812497 0.111955
0.850004 0.812497 0.118791
0.868742 0.812497 0.126192
0.887495 0.812497 0.134279
0.906249 0.812497 0.141817
0.925002 0.812497 0.14873
0.943755 0.812497 0.154803
0.962493 0.812497 0.164614
0.981247 0.812497 0.174472
1 0.812497 0.183413
0 0.83125 0
0.0187381 0.83125 0
0.0374914 0.83125 0
0.0562448 0.83125 0
0.0749981 0.83125 0
0.0937362 0.83125 0
0.11249 0.83125 0
0.131243 0.83125 0
0.150607 0.83125 0
0.192752 0.83125 0
0.24123 0.83125 0
0.317861 0.83125 0
0.429465 0.83125 0
0.539071 0.83125 0
0.613077 0.83125 0
0.662715 0.83125 0.0258335
0.697719 0.83125 0.0813916
0.718746 0.83125 0.12372
0.737499 0.83125 0.140047
0.756252 0.83125 0.141421
0.77499 0.83125 0.145754
0.793744 0.83125 0.154208
0.812497 0.83125 0.161868
0.83125 0.83125 0.16878
0.850004 0.83125 0.17557
0.868742 0.83125 0.181689
0.887495 0.83125 0.188434
0.906249 0.83125 0.194705
0.925002 0.83125 0.200641
0.943755 0.83125 0.205463
0.962493 0.83125 0.211902
0.981247 0.83125 0.217899
1 0.83125 0.223453
0 0.850004 0
0.0187381 0.850004 0
0.0374914 0.850004 0
0.0562448 0.850004 0
0.0749981 0.850004 0
0.0937362 0.850004 0
0.11249 0.850004 0
0.131395 0.850004 0
0.161089 0.850004 0
0.202548 0.850004 0
0.254261 0.850004 0
0.33756 0.850004 0
0.452003 0.850004 0
0.555962 0.850004 0
0.62504 0.850004 0.00178531
0.671412 0.850004 0.0373541
0.699794 0.850004 0.105806
0.718746 0.850004 0.15259
0.737499 0.850004 0.17174
0.756252 0.850004 0.182208
0.77499 0.850004 0.194186
0.793744 0.850004 0.202945
0.812497 0.850004 0.209201
0.83125 0.850004 0.214572
0.850004 0.850004 0.219883
0.868742 0.850004 0.224521
0.887495 0.850004 0.229328
0.906249 0.850004 0.233845
0.925002 0.850004 0.237644
0.943755 0.850004 0.241428
0.962493 0.850004 0.24593
0.981247 0.850004 0.249882
1 0.850004 0.253285
0 0.868742 0
0.0187381 0.868742 0
0.0374914 0.868742 0
0.0562448 0.868742 0
0.0749981 0.868742 0
0.0937362 0.868742 0
0.112596 0.868742 0
0.133776 0.868742 0
0.171023 0.868742 0
0.21239 0.868742 0
0.265888 0.868742 0
0.35964 0.868742 0
0.472877 0.868742 0
0.572869 0.868742 0
0.634318 0.868742 0.00328069
0.676982 0.868742 0.0526284
0.699992 0.868742 0.129366
0.718746 0.868742 0.176928
0.737499 0.868742 0.201984
0.756252 0.868742 0.220844
0.77499 0.868742 0.232822
0.793744 0.868742 0.239796
0.812497 0.868742 0.244739
0.83125 0.868742 0.248447
0.850004 0.868742 0.252079
0.868742 0.868742 0.255375
0.887495 0.868742 0.258183
0.906249 0.868742 0.261234
0.925002 0.868742 0.263523
0.943755 0.868742 0.265095
0.962493 0.868742 0.267659
0.981247 0.868742 0.269673
1 0.868742 0.27155
0 0.887495 0
0.0187381 0.887495 0
0.0374914 0.887495 0
0.0562448 0.887495 0
0.0749981 0.887495 0.000122072
0.0937362 0.887495 4.57771e-05
0.11339 0.887495 0
0.143618 0.887495 0
0.180072 0.887495 0
0.221286 0.887495 0
0.282551 0.887495 0
0.379446 0.887495 0
0.492699 0.887495 0
0.583734 0.887495 0
0.642908 0.887495 0.00140383
0.679789 0.887495 0.0673686
0.699992 0.887495 0.147646
0.718746 0.887495 0.197024
0.737499 0.887495 0.228946
0.756252 0.887495 0.249897
0.77499 0.887495 0.26125
0.793744 0.887495 0.266651
0.812497 0.887495 0.269841
0.83125 0.887495 0.27245
0.850004 0.887495 0.274739
0.868742 0.887495 0.277043
0.887495 0.887495 0.278721
0.906249 0.887495 0.280278
0.925002 0.887495 0.281331
0.943755 0.887495 0.282353
0.962493 0.887495 0.283635
0.981247 0.887495 0.284611
1 0.887495 0.285603
0 0.906249 0
0.0187381 0.906249 0.000579843
0.0374914 0.906249 0.00122072
0.0562448 0.906249 0.00109865
0.0749981 0.906249 0.000366217
0.0944991 0.906249 0
0.118608 0.906249 0
0.151843 0.906249 3.0518e-05
0.187961 0.906249 9.15541e-05
