LUT color transfer/LUTs/65.cube
TITLE "Generate by Resolve"
LUT_3D_SIZE 9
0 0 0
0.0749981 0 0
0.157687 0 0
0.297642 0 0
0.562036 0 0
0.77499 0 0
0.850004 0 0
0.925002 0 0
1 0 0
0 0.0749981 0
0.0749981 0.0749981 0
0.159503 0.0749981 0
0.303731 0.0749981 0
0.58648 0.0749981 0
0.77499 0.0749981 0
0.850004 0.0749981 0
0.925002 0.0749981 0
1 0.0749981 0
0 0.173007 0
0.0749981 0.175204 0
0.161822 0.172366 0
0.316121 0.162173 0
0.614801 0.149996 0
0.77499 0.149996 0
0.850004 0.149996 0
0.925002 0.149996 0
1 0.171435 0
0 0.303853 0
0.0749981 0.316701 0
0.150515 0.326848 0
0.358633 0.330129 0.0201724
0.601678 0.33901 0.00799573
0.77499 0.345083 0
0.850004 0.3729 0
0.925002 0.404456 0
1 0.439155 0.00173953
0 0.556374 0
0.0749981 0.596841 0
0.149996 0.618891 0
0.430655 0.592264 0.0378729
0.635309 0.599771 0.101076
0.77499 0.621576 0.028397
0.850004 0.634546 0
0.925002 0.651942 0
1 0.665583 0
0 0.77499 0
0.0749981 0.77499 0
0.149996 0.77499 0
0.394797 0.77499 0
0.677455 0.763287 0.141924
0.77499 0.769451 0.115816
0.850004 0.77499 0.0501411
0.925002 0.77499 0.04654
1 0.77499 0.0791028
0 0.850004 0
0.0749981 0.850004 0
0.161089 0.850004 0
0.452003 0.850004 0
0.699794 0.850004 0.105806
0.77499 0.850004 0.194186
0.850004 0.850004 0.219883
0.925002 0.850004 0.237644
1 0.850004 0.253285
0 0.925002 0.00302129
0.0754864 0.925002 0.00244144
0.194858 0.925002 0.000823987
0.521584 0.925002 0
0.699992 0.925002 0.178759
0.77499 0.925002 0.289525
0.850004 0.925002 0.298192
0.925002 0.925002 0.301488
1 0.925002 0.302876
0 1 0.0187076
0.0874189 1 0.0159609
0.214298 1 0.00550851
0.550607 1 0
0.699992 1 0.218235
0.77499 1 0.302342
0.850004 1 0.309346
0.925002 1 0.311177
1 1 0.311177
0 0 0.0791791
0.0749981 0 0.0822461
0.157305 0 0.0811017
0.297887 0 0.0749981
0.562493 0 0.0749981
0.77499 0 0.0749981
0.850004 0 0.0749981
0.925002 0 0.0749981
1 0 0.0749981
0 0.0749981 0.0831617
0.0749981 0.0749981 0.0827192
0.16025 0.0749981 0.0822309
0.30518 0.0749981 0.0749981
0.590463 0.0749981 0.0749981
0.77499 0.0749981 0.0749981
0.850004 0.0749981 0.0749981
0.925002 0.0749981 0.0749981
1 0.0749981 0.0749981
0 0.174121 0.0785382
0.0749981 0.176638 0.0803998
0.161028 0.175067 0.0827497
0.326192 0.162448 0.0754559
0.622889 0.149996 0.0749981
0.77499 0.149996 0.0749981
0.850004 0.149996 0.0749981
0.925002 0.15378 0.0749981
1 0.182086 0.0776074
0 0.307958 0.0749981
0.0749981 0.322606 0.0749981
0.152239 0.336675 0.0753185
0.371984 0.343008 0.105226
0.613809 0.352377 0.093431
0.77499 0.357382 0.0749981
0.850004 0.382422 0.0788739
0.925002 0.414847 0.0866865
1 0.44947 0.0970779
0 0.570092 0.0749981
0.0749981 0.609445 0.0749981
0.149996 0.628443 0.0749981
0.439063 0.605203 0.127794
0.641535 0.609506 0.202136
0.77499 0.629664 0.129793
0.850004 0.641001 0.076997
0.925002 0.656825 0.0755169
1 0.669673 0.0891127
0 0.77499 0.0749981
0.0749981 0.77499 0.0749981
0.149996 0.77499 0.0749981
0.387961 0.77499 0.0751507
0.678523 0.764492 0.260563
0.77499 0.768597 0.26276
0.850004 0.774929 0.216114
0.925002 0.77499 0.205905
1 0.77499 0.249729
0 0.850004 0.0749981
0.0749981 0.850004 0.0779126
0.165103 0.850004 0.0787823
0.437842 0.850004 0.0749981
0.699367 0.850004 0.263462
0.77499 0.850004 0.347036
0.850004 0.850004 0.358846
0.925002 0.850004 0.365759
1 0.850004 0.372457
0 0.925002 0.102541
0.0764019 0.925002 0.104845
0.195468 0.925002 0.0975204
0.506004 0.925002 0.0749981
0.699992 0.925002 0.312856
0.77499 0.925002 0.390585
0.850004 0.925002 0.395697
0.925002 0.925002 0.397406
1 0.925002 0.398047
0 1 0.120058
0.0897993 1 0.118563
0.21236 1 0.106706
0.540063 1 0.0785229
0.699992 1 0.338247
0.77499 1 0.39704
0.850004 1 0.402121
0.925002 1 0.403388
1 1 0.403388
0 0 0.179553
0.0749981 0 0.184497
0.154452 0 0.188586
0.300969 0 0.165606
0.540825 0 0.149996
0.77499 0 0.149996
0.850004 0 0.149996
0.925002 0 0.149996
1 0 0.149996
0 0.075639 0.181674
0.0749981 0.0758831 0.182712
0.156512 0.0749981 0.189837
0.309377 0.0749981 0.167956
0.564874 0.0749981 0.149996
0.77499 0.0749981 0.149996
0.850004 0.0749981 0.149996
0.925002 0.0749981 0.149996
1 0.0749981 0.149996
0 0.176776 0.176989
0.0749981 0.179919 0.178653
0.156512 0.179263 0.182177
0.340627 0.161135 0.170932
0.598535 0.149996 0.149996
0.77499 0.149996 0.149996
0.850004 0.150027 0.151247
0.925002 0.163058 0.171344
1 0.192264 0.202258
0 0.314961 0.161028
0.0749981 0.333227 0.166125
0.152743 0.349798 0.17319
0.383719 0.357717 0.207309
0.627787 0.363256 0.195483
0.77499 0.36733 0.182635
0.850004 0.390021 0.190997
0.925002 0.422858 0.200076
1 0.459022 0.214572
0 0.576684 0.151812
0.0749981 0.613214 0.156985
0.158251 0.630793 0.185321
0.433066 0.622049 0.231388
0.645991 0.617853 0.319142
0.77499 0.63444 0.264729
0.850004 0.645975 0.182635
0.925002 0.660121 0.189532
1 0.67042 0.240955
0 0.77499 0.150713
0.0749981 0.77499 0.164965
0.150134 0.77499 0.172366
0.375479 0.77499 0.167285
0.677882 0.765316 0.387106
0.77499 0.767239 0.41799
0.850004 0.773404 0.400519
0.925002 0.77499 0.393088
1 0.77499 0.420386
0 0.850004 0.182254
0.0749981 0.850004 0.193484
0.169894 0.850004 0.194659
0.426413 0.850004 0.167361
0.698543 0.850004 0.406302
0.77499 0.850004 0.467323
0.850004 0.850004 0.471519
0.925002 0.850004 0.473457
1 0.850004 0.476234
0 0.925002 0.215045
0.0788891 0.925002 0.221576
0.200793 0.925002 0.22063
0.503182 0.925002 0.1935
0.699992 0.925002 0.431937
0.77499 0.925002 0.486946
0.850004 0.925002 0.490486
0.925002 0.925002 0.491417
1 0.925002 0.491707
0 1 0.237507
0.0929732 1 0.240436
0.230426 1 0.246845
0.533013 1 0.219989
0.699992 1 0.446662
0.77499 1 0.490776
0.850004 1 0.49482
0.925002 1 0.495644
1 1 0.495674
0 0 0.305806
0.0749981 0 0.312047
0.149996 0 0.326848
0.28806 0 0.315236
0.506844 0 0.275502
0.77322 0 0.269429
0.850004 0 0.261677
0.925002 0 0.267918
1 0 0.281819
0 0.0782635 0.305882
0.0749981 0.0784161 0.311482
0.149996 0.0759594 0.328084
0.296757 0.0749981 0.320424
0.529137 0.0749981 0.284504
0.77499 0.0749981 0.29868
0.850004 0.0749981 0.305226
0.925002 0.0749981 0.332998
1 0.0749981 0.369894
0 0.178058 0.311498
0.0749981 0.182269 0.314305
0.149996 0.181048 0.323949
0.328786 0.15967 0.350408
0.571923 0.149996 0.316579
0.77499 0.149996 0.3579
0.850004 0.149996 0.38854
0.925002 0.163317 0.436606
1 0.192554 0.484199
0 0.328298 0.293172
0.0749981 0.350576 0.306355
0.152834 0.368841 0.325948
0.372824 0.363653 0.394385
0.638712 0.364355 0.384253
0.77499 0.377539 0.403037
0.850004 0.401419 0.425055
0.925002 0.43682 0.457557
1 0.469795 0.488853
0.00105287 0.58912 0.323217
0.076524 0.624384 0.345678
0.185153 0.637751 0.386007
0.403342 0.6365 0.410529
0.648737 0.622614 0.459174
0.774975 0.631693 0.437308
0.850004 0.641443 0.436896
0.925002 0.652338 0.466896
1 0.661234 0.497032
0 0.77499 0.304906
0.0749981 0.77499 0.323125
0.152758 0.77499 0.347478
0.430961 0.77499 0.432975
0.671717 0.767208 0.516136
0.77499 0.767056 0.553765
0.850004 0.772259 0.549676
0.925002 0.77499 0.547082
1 0.77499 0.554299
0 0.850004 0.344991
0.0749981 0.850004 0.365621
0.184695 0.850004 0.421393
0.486091 0.850004 0.476097
0.686702 0.850004 0.524865
0.77499 0.850004 0.577142
0.850004 0.850004 0.579004
0.925002 0.850004 0.578866
1 0.850004 0.579614
0 0.925002 0.396582
0.0817121 0.925002 0.433143
0.254353 0.925002 0.508324
0.523461 0.925002 0.510033
0.696742 0.925002 0.534768
0.77499 0.925002 0.586191
0.850004 0.925002 0.589761
0.925002 0.925002 0.590173
1 0.925002 0.590158
0 1 0.438056
0.10277 1 0.476646
0.303395 1 0.535103
0.535027 1 0.519738
0.699992 1 0.543999
0.77499 1 0.588769
0.850004 1 0.594064
0.925002 1 0.595132
1 1 0.595178
0 0 0.550881
0.0749981 0 0.572732
0.149996 0 0.637491
0.257908 0 0.618235
0.516152 0 0.52462
0.764462 0 0.578332
0.850004 0 0.579248
0.925002 0 0.587152
1 0 0.598657
0 0.0754864 0.536873
0.0749981 0.0758068 0.561074
0.149996 0.0749981 0.649226
0.268956 0.0749981 0.630381
0.555032 0.0749981 0.556817
0.77499 0.0749981 0.608026
0.850004 0.0749981 0.615991
0.925002 0.0749981 0.631479
1 0.0749981 0.648096
0 0.179004 0.506096
0.0749981 0.182696 0.520592
0.149996 0.177707 0.571374
0.282094 0.159869 0.622492
0.594385 0.149996 0.588785
0.77499 0.149996 0.654002
0.850004 0.149996 0.676143
0.925002 0.163348 0.699107
1 0.193164 0.699992
0 0.341741 0.483574
0.0749981 0.369589 0.503487
0.149996 0.388861 0.507164
0.308705 0.386877 0.616846
0.638788 0.366583 0.630365
0.77499 0.388388 0.666957
0.850004 0.412161 0.675013
0.925002 0.44445 0.683803
1 0.474327 0.69099
0 0.616175 0.521523
0.0749981 0.651591 0.553613
0.154345 0.661768 0.584039
0.410117 0.650172 0.629374
0.64715 0.612665 0.636362
0.77499 0.623545 0.637842
0.850004 0.632517 0.64593
0.925002 0.642908 0.655756
1 0.651514 0.664286
0 0.77499 0.532006
0.0749981 0.77499 0.556954
0.151568 0.77499 0.589807
0.478813 0.77499 0.653132
0.649882 0.773678 0.639918
0.77499 0.767529 0.662165
0.850004 0.771069 0.655848
0.925002 0.773922 0.655726
1 0.77499 0.65893
0 0.850004 0.582986
0.0749981 0.850004 0.603418
0.173571 0.850004 0.647898
0.515084 0.850004 0.663371
0.661189 0.850004 0.649836
0.77499 0.850004 0.681468
0.850004 0.850004 0.684337
0.925002 0.850004 0.681376
1 0.850004 0.680201
0 0.925002 0.636667
0.0749981 0.925002 0.658061
0.224674 0.925002 0.682841
0.536034 0.925002 0.670451
0.669276 0.925002 0.655024
0.77499 0.925002 0.690333
0.850004 0.925002 0.699214
0.925002 0.925002 0.698741
1 0.925002 0.698146
0 1 0.665217
0.0765087 1 0.678614
0.255619 1 0.69073
0.543603 1 0.673136
0.67303 1 0.656535
0.77499 1 0.6925
0.850004 1 0.699992
0.925002 1 0.699992
1 1 0.699992
0 0 0.77499
0.0749981 0 0.77499
0.149996 0 0.77499
0.232837 0 0.77499
0.574777 0 0.77499
0.765942 0 0.759777
0.850004 0 0.762402
0.925002 0 0.766751
1 0 0.771801
0 0.0749981 0.77499
0.0749981 0.0749981 0.77499
0.149996 0.0749981 0.77499
0.240681 0.0749981 0.77499
0.599619 0.0749981 0.77499
0.77499 0.0749981 0.773266
0.850004 0.0749981 0.77499
0.925002 0.0749981 0.77499
1 0.0749981 0.77499
0 0.178897 0.77499
0.0749981 0.185351 0.77499
0.149996 0.180865 0.77499
0.248814 0.161074 0.77499
0.63888 0.149996 0.77499
0.77499 0.149996 0.77499
0.850004 0.151736 0.77499
0.925002 0.170214 0.77499
1 0.197177 0.77499
0 0.371908 0.717708
0.0749981 0.408225 0.729091
0.149996 0.42948 0.734249
0.242008 0.415396 0.77499
0.638193 0.376425 0.77499
0.77499 0.382467 0.77499
0.850004 0.406653 0.77499
0.925002 0.442649 0.77499
1 0.475746 0.77499
0 0.649561 0.730755
0.0749981 0.677287 0.753536
0.149996 0.687922 0.762341
0.344182 0.672938 0.766232
0.612116 0.628702 0.774563
0.77499 0.62533 0.77499
0.850004 0.633661 0.77499
0.925002 0.643427 0.77499
1 0.651362 0.77499
0 0.77499 0.764385
0.0749981 0.77499 0.772686
0.149996 0.77499 0.77499
0.431922 0.77499 0.774472
0.652628 0.77499 0.774609
0.77499 0.760006 0.772549
0.850004 0.76257 0.773571
0.925002 0.766659 0.77499
1 0.770291 0.77499
0 0.850004 0.774929
0.0749981 0.850004 0.77499
0.149996 0.850004 0.77499
0.489967 0.850004 0.774563
0.663691 0.850004 0.77499
0.77499 0.849973 0.77499
0.850004 0.850004 0.77499
0.925002 0.849989 0.77499
1 0.850004 0.77499
0 0.925002 0.77499
0.0749981 0.925002 0.77499
0.16849 0.925002 0.77499
0.520714 0.925002 0.773617
0.670161 0.925002 0.77499
0.77499 0.925002 0.77499
0.850004 0.924224 0.77499
0.925002 0.924224 0.77499
1 0.924514 0.77499
0 1 0.77499
0.0749981 1 0.77499
0.183078 1 0.77499
0.529839 1 0.773663
0.673289 1 0.77499
0.77499 1 0.77499
0.850004 0.999222 0.77499
0.925002 0.999222 0.77499
1 0.999222 0.77499
0 0 0.850004
0.0749981 0 0.850004
0.149996 0 0.850004
0.225345 0 0.850004
0.546487 0 0.850004
0.763195 0 0.850004
0.850004 0 0.850004
0.925002 0 0.850004
1 0 0.850004
0 0.0749981 0.850004
0.0749981 0.0749981 0.850004
0.149996 0.0749981 0.850004
0.226337 0.0749981 0.850004
0.581445 0.0749981 0.850004
0.77499 0.0749981 0.850004
0.850004 0.0749981 0.850004
0.925002 0.0749981 0.850004
1 0.0749981 0.850004
0 0.185275 0.850004
0.0749981 0.193332 0.850004
0.149996 0.188907 0.850004
0.23508 0.169451 0.850004
0.627619 0.149996 0.850004
0.77499 0.150088 0.850004
0.850004 0.153994 0.850004
0.925002 0.177172 0.850004
1 0.20351 0.850004
0 0.400427 0.847578
0.0749981 0.436698 0.848554
0.149996 0.453315 0.850004
0.227176 0.438544 0.850004
0.614023 0.39266 0.850004
0.77499 0.390127 0.850004
0.850004 0.415198 0.850004
0.925002 0.451133 0.850004
1 0.482567 0.850004
0 0.668223 0.848951
0.0749981 0.69189 0.850004
0.149996 0.697551 0.850004
0.269551 0.697459 0.850004
0.595453 0.642054 0.850004
0.77499 0.62945 0.850004
0.850004 0.63621 0.850004
0.925002 0.645136 0.850004
1 0.652476 0.850004
0 0.77499 0.850004
0.0749981 0.77499 0.850004
0.149996 0.77499 0.850004
0.400381 0.77499 0.850004
0.646555 0.77499 0.850004
0.774304 0.76289 0.850004
0.850004 0.762768 0.850004
0.925002 0.766827 0.850004
1 0.770275 0.850004
0 0.850004 0.850004
0.0749981 0.850004 0.850004
0.149996 0.850004 0.850004
0.483284 0.850004 0.850004
0.661601 0.850004 0.850004
0.77499 0.849973 0.850004
0.850004 0.849226 0.850004
0.925002 0.849226 0.850004
1 0.849226 0.850004
0 0.925002 0.850004
0.0749981 0.925002 0.850004
0.164294 0.925002 0.850004
0.514153 0.925002 0.848798
0.667292 0.925002 0.850004
0.77499 0.924727 0.850004
0.850004 0.924224 0.850004
0.925002 0.924224 0.850004
1 0.924224 0.850004
0 1 0.850004
0.0749981 1 0.850004
0.176272 1 0.850004
0.523629 1 0.8486
0.669978 1 0.850004
0.77499 0.999603 0.850004
0.850004 0.999222 0.850004
0.925002 0.999222 0.850004
1 0.999222 0.850004
0 0 0.925002
0.0749981 0 0.925002
0.149996 0 0.925002
0.224994 0 0.925002
0.528603 0 0.925002
0.761318 0 0.925002
0.850004 0 0.925002
0.925002 0 0.925002
1 0 0.925002
0 0.0749981 0.925002
0.0749981 0.0749981 0.925002
0.149996 0.0749981 0.925002
0.226749 0.0749981 0.925002
0.572015 0.0749981 0.925002
0.774487 0.0749981 0.925002
0.850004 0.0749981 0.925002
0.925002 0.0749981 0.925002
1 0.0749981 0.925002
0 0.19237 0.925002
0.0749981 0.201617 0.925002
0.149996 0.197787 0.925002
0.231693 0.17847 0.925002
0.625208 0.149996 0.925002
0.77499 0.151797 0.925002
0.850004 0.159899 0.925002
0.925002 0.186023 0.925002
1 0.21236 0.925002
0 0.421805 0.925002
0.0749981 0.458579 0.925002
0.149996 0.473655 0.925002
0.224994 0.459358 0.925002
0.601877 0.409598 0.925002
0.77499 0.405325 0.925002
0.850004 0.428626 0.925002
0.925002 0.462501 0.925002
1 0.491356 0.925002
0 0.682963 0.925002
0.0749981 0.69897 0.925002
0.149996 0.699992 0.925002
0.262013 0.699992 0.925002
0.591165 0.652918 0.925002
0.77499 0.634531 0.925002
0.850004 0.639673 0.925002
0.925002 0.647669 0.925002
1 0.654337 0.925002
0 0.77499 0.925002
0.0749981 0.77499 0.925002
0.149996 0.77499 0.925002
0.384131 0.77499 0.925002
0.643244 0.77499 0.925002
0.77113 0.767468 0.925002
0.850004 0.764523 0.925002
0.925002 0.768032 0.925002
1 0.770657 0.925002
0 0.850004 0.925002
0.0749981 0.850004 0.925002
0.151308 0.850004 0.925002
0.482719 0.850004 0.924926
0.659846 0.850004 0.925002
0.77499 0.850004 0.925002
0.850004 0.849226 0.925002
0.925002 0.849226 0.925002
1 0.849226 0.925002
0 0.925002 0.925002
0.0749981 0.925002 0.925002
0.165316 0.925002 0.925002
0.513985 0.925002 0.923766
0.66656 0.925002 0.925002
0.77499 0.924727 0.925002
0.850004 0.924224 0.925002
0.925002 0.924224 0.925002
1 0.924224 0.925002
0 1 0.925002
0.0749981 1 0.925002
0.175998 1 0.925002
0.522652 1 0.923613
0.668986 1 0.925002
0.77499 0.999634 0.925002
0.850004 0.999222 0.925002
0.925002 0.999222 0.925002
1 0.999222 0.925002
0 0 1
0.0749981 0 1
0.149996 0 1
0.224994 0 1
0.512886 0 1
0.759274 0 1
0.850004 0 1
0.925002 0 1
1 0 1
0 0.0759136 1
0.0749981 0.0755474 1
0.149996 0.0749981 1
0.225986 0.0749981 1
0.565286 0.0749981 1
0.77499 0.0749981 1
0.850004 0.0749981 1
0.925002 0.0749981 1
1 0.0749981 1
0 0.200183 1
0.0749981 0.210269 1
0.149996 0.205249 1
0.229892 0.186557 1
0.63003 0.149996 1
0.77499 0.154971 1
0.850004 0.169558 1
0.925002 0.194751 1
1 0.221942 1
0 0.443595 1
0.0749981 0.476555 0.999847
0.149996 0.487343 0.999664
0.226978 0.472496 1
0.609628 0.421241 1
0.77499 0.418311 1
0.850004 0.441093 1
0.925002 0.472724 1
1 0.499077 1
0 0.694041 1
0.0749981 0.699992 1
0.149996 0.699992 1
0.277012 0.699992 1
0.600122 0.656764 1
0.77499 0.638239 1
0.850004 0.642908 1
0.925002 0.650187 1
1 0.656199 1
0 0.77499 1
0.0749981 0.77499 1
0.149996 0.77499 1
0.404486 0.77499 1
0.645136 0.77499 1
0.771817 0.770413 1
0.850004 0.766171 1
0.925002 0.769284 1
1 0.771038 1
0 0.850004 1
0.0749981 0.850004 1
0.152834 0.850004 1
0.488121 0.850004 0.999725
0.660502 0.850004 1
0.77499 0.850004 1
0.850004 0.849226 1
0.925002 0.849226 1
1 0.849226 1
0 0.925002 1
0.0749981 0.925002 1
0.166949 0.925002 1
0.515496 0.925002 0.998703
0.666773 0.925002 1
0.77499 0.924712 1
0.850004 0.924224 1
0.925002 0.924224 1
1 0.924224 1
0 1 1
0.0749981 1 1
0.176333 1 1
0.522805 1 0.998611
0.66891 1 1
0.77499 0.999634 1
0.850004 0.999222 1
0.925002 0.999222 1
1 0.999222 1
