LUT color transfer/LUTs/65.cube
TITLE "Generate by Resolve"
LUT_3D_SIZE 5
0 0 0
0.157687 0 0
0.562036 0 0
0.850004 0 0
1 0 0
0 0.173007 0
0.161822 0.172366 0
0.614801 0.149996 0
0.850004 0.149996 0
1 0.171435 0
0 0.556374 0
0.149996 0.618891 0
0.635309 0.599771 0.101076
0.850004 0.634546 0
1 0.665583 0
0 0.850004 0
0.161089 0.850004 0
0.699794 0.850004 0.105806
0.850004 0.850004 0.219883
1 0.850004 0.253285
0 1 0.0187076
0.214298 1 0.00550851
0.699992 1 0.218235
0.850004 1 0.309346
1 1 0.311177
0 0 0.179553
0.154452 0 0.188586
0.540825 0 0.149996
0.850004 0 0.149996
1 0 0.149996
0 0.176776 0.176989
0.156512 0.179263 0.182177
0.598535 0.149996 0.149996
0.850004 0.150027 0.151247
1 0.192264 0.202258
0 0.576684 0.151812
0.158251 0.630793 0.185321
0.645991 0.617853 0.319142
0.850004 0.645975 0.182635
1 0.67042 0.240955
0 0.850004 0.182254
0.169894 0.850004 0.194659
0.698543 0.850004 0.406302
0.850004 0.850004 0.471519
1 0.850004 0.476234
0 1 0.237507
0.230426 1 0.246845
0.699992 1 0.446662
0.850004 1 0.49482
1 1 0.495674
0 0 0.550881
0.149996 0 0.637491
0.516152 0 0.52462
0.850004 0 0.579248
1 0 0.598657
0 0.179004 0.506096
0.149996 0.177707 0.571374
0.594385 0.149996 0.588785
0.850004 0.149996 0.676143
1 0.193164 0.699992
0 0.616175 0.521523
0.154345 0.661768 0.584039
0.64715 0.612665 0.636362
0.850004 0.632517 0.64593
1 0.651514 0.664286
0 0.850004 0.582986
0.173571 0.850004 0.647898
0.661189 0.850004 0.649836
0.850004 0.850004 0.684337
1 0.850004 0.680201
0 1 0.665217
0.255619 1 0.69073
0.67303 1 0.656535
0.850004 1 0.699992
1 1 0.699992
0 0 0.850004
0.149996 0 0.850004
0.546487 0 0.850004
0.850004 0 0.850004
1 0 0.850004
0 0.185275 0.850004
0.149996 0.188907 0.850004
0.627619 0.149996 0.850004
0.850004 0.153994 0.850004
1 0.20351 0.850004
0 0.668223 0.848951
0.149996 0.697551 0.850004
0.595453 0.642054 0.850004
0.850004 0.63621 0.850004
1 0.652476 0.850004
0 0.850004 0.850004
0.149996 0.850004 0.850004
0.661601 0.850004 0.850004
0.850004 0.849226 0.850004
1 0.849226 0.850004
0 1 0.850004
0.176272 1 0.850004
0.669978 1 0.850004
0.850004 0.999222 0.850004
1 0.999222 0.850004
0 0 1
0.149996 0 1
0.512886 0 1
0.850004 0 1
1 0 1
0 0.200183 1
0.149996 0.205249 1
0.63003 0.149996 1
0.850004 0.169558 1
1 0.221942 1
0 0.694041 1
0.149996 0.699992 1
0.600122 0.656764 1
0.850004 0.642908 1
1 0.656199 1
0 0.850004 1
0.152834 0.850004 1
0.660502 0.850004 1
0.850004 0.849226 1
1 0.849226 1
0 1 1
0.176333 1 1
0.66891 1 1
0.850004 0.999222 1
1 0.999222 1
