LUT color transfer/LUTs/67.cube
TITLE "Generate by Resolve"
LUT_3D_SIZE 5
0 0 0
0.0653849 0 0
0.624063 0 0
0.949996 0 0
1 0 0
0 0.096025 0
0.0736706 0.0947433 0
0.72961 0.0500038 0
0.949996 0.0500038 0
1 0.0928969 0
0 0.612757 0
0.0500038 0.737804 0
0.770642 0.69955 0.202136
0.949996 0.7691 0
1 0.831189 0
0 0.949996 0
0.0721752 0.949996 0
0.89958 0.949996 0.211612
0.949996 0.949996 0.43978
1 0.949996 0.506569
0 1 0.0374304
0.178607 1 0.011017
0.899992 1 0.436469
0.949996 1 0.618692
1 1 0.622354
0 0 0.109117
0.0589151 0 0.127184
0.581659 0 0.0500038
0.949996 0 0.0500038
1 0 0.0500038
0 0.103578 0.104005
0.0630198 0.108537 0.114382
0.697078 0.0500038 0.0500038
0.949996 0.0500649 0.0525063
1 0.134539 0.154543
0 0.653391 0.0536507
0.0664988 0.761608 0.120638
0.791989 0.735698 0.388312
0.949996 0.791959 0.115267
1 0.840848 0.231907
0 0.949996 0.114519
0.0897993 0.949996 0.13933
0.897078 0.949996 0.5626
0.949996 0.949996 0.693049
1 0.949996 0.70248
0 1 0.22501
0.21088 1 0.243702
0.899992 1 0.643336
0.949996 1 0.739651
1 1 0.74136
0 0 0.60177
0.0500038 0 0.77499
0.532311 0 0.549249
0.949996 0 0.658518
1 0 0.697307
0 0.108003 0.512215
0.0500038 0.105425 0.642771
0.688762 0.0500038 0.677577
0.949996 0.0500038 0.852308
1 0.136324 0.899992
0 0.732372 0.543053
0.0586862 0.823545 0.668086
0.794308 0.725353 0.772732
0.949996 0.765042 0.791882
1 0.803052 0.82858
0 0.949996 0.66598
0.0971542 0.949996 0.795804
0.8224 0.949996 0.799695
0.949996 0.949996 0.868681
1 0.949996 0.860395
0 1 0.830457
0.26125 1 0.881483
0.846052 1 0.813077
0.949996 1 0.899992
1 1 0.899992
0 0 0.949996
0.0500038 0 0.949996
0.592981 0 0.949996
0.949996 0 0.949996
1 0 0.949996
0 0.120562 0.949996
0.0500038 0.127825 0.949996
0.755245 0.0500038 0.949996
0.949996 0.0579995 0.949996
1 0.157015 0.949996
0 0.836454 0.947906
0.0500038 0.895109 0.949996
0.690898 0.784131 0.949996
0.949996 0.772427 0.949996
1 0.804959 0.949996
0 0.949996 0.949996
0.0500038 0.949996 0.949996
0.823209 0.949996 0.949996
0.949996 0.948455 0.949996
1 0.948455 0.949996
0 1 0.949996
0.102556 1 0.949996
0.839948 1 0.949996
0.949996 0.998444 0.949996
1 0.998444 0.949996
0 0 1
0.0500038 0 1
0.52578 0 1
0.949996 0 1
1 0 1
0 0.150378 1
0.0500038 0.160494 1
0.760082 0.0500038 1
0.949996 0.089128 1
1 0.193881 1
0 0.88809 1
0.0500038 0.899992 1
0.700236 0.813519 1
0.949996 0.785809 1
1 0.812406 1
0 0.949996 1
0.0556802 0.949996 1
0.821012 0.949996 1
0.949996 0.948455 1
1 0.948455 1
0 1 1
0.102678 1 1
0.837842 1 1
0.949996 0.998444 1
1 0.998444 1
