LUT color transfer/LUTs/67.cube
TITLE "Generate by Resolve"
LUT_3D_SIZE 33
0 0 0
0.00624094 0 0
0.0124971 0 0
0.0187533 0 0
0.0249943 0 1.5259e-05
0.0312505 0 0
0.0374914 0 0
0.0454719 0 0
0.0653849 0 0
0.0983291 0 0
0.135683 0 0
0.17525 0 0
0.220295 0 0
0.280324 0 0
0.359182 0 0
0.459846 0 0
0.624063 0 0
0.78143 0 0
0.867338 0 0
0.917723 0 0
0.925002 0 0
0.931243 0 0
0.937499 0 0
0.943755 0 0
0.949996 0 0
0.956252 0 0
0.962493 0 0
0.96875 0 0
0.975006 0 0
0.981247 0 0
0.987503 0 0
0.993744 0 0
1 0 0
0 0.00624094 0
0.00624094 0.00624094 0
0.0124971 0.00624094 0
0.0187533 0.00624094 0
0.0249943 0.00624094 0
0.0312505 0.00624094 0
0.0374914 0.00624094 0
0.045716 0.00624094 0
0.0657054 0.00624094 0
0.098558 0.00624094 0
0.135882 0.00624094 0
0.175525 0.00624094 0
0.220737 0.00624094 0
0.281224 0.00624094 0
0.360418 0.00624094 0
0.462669 0.00624094 0
0.628748 0.00624094 0
0.784436 0.00624094 0
0.869642 0.00624094 0
0.918746 0.00624094 0
0.925002 0.00624094 0
0.931243 0.00624094 0
0.937499 0.00624094 0
0.943755 0.00624094 0
0.949996 0.00624094 0
0.956252 0.00624094 0
0.962493 0.00624094 0
0.96875 0.00624094 0
0.975006 0.00624094 0
0.981247 0.00624094 0
0.987503 0.00624094 0
0.993744 0.00624094 0
1 0.00624094 0
0 0.0124971 0
0.00624094 0.0124971 0
0.0124971 0.0124971 0
0.0187533 0.0124971 0
0.0249943 0.0124971 0
0.0312505 0.0124971 0
0.0374914 0.0124971 0
0.0461128 0.0124971 0
0.066743 0.0124971 0
0.0999619 0.0124971 0
0.137423 0.0124971 0
0.176684 0.0124971 0
0.222187 0.0124971 0
0.283925 0.0124971 0
0.363714 0.0124971 0
0.469413 0.0124971 0
0.639063 0.0124971 0
0.790433 0.0124971 0
0.87422 0.0124971 0
0.918746 0.0124971 0
0.925002 0.0124971 0
0.931243 0.0124971 0
0.937499 0.0124971 0
0.943755 0.0124971 0
0.949996 0.0124971 0
0.956252 0.0124971 0
0.962493 0.0124971 0
0.96875 0.0124971 0
0.975006 0.0124971 0
0.981247 0.0124971 0
0.987503 0.0124971 0
0.993744 0.0124971 0
1 0.0124971 0
0 0.0187533 1.5259e-05
0.00624094 0.0187533 0
0.0124971 0.0187533 0
0.0187533 0.0187533 0
0.0249943 0.0187533 0
0.0312505 0.0187533 0
0.0374914 0.0187533 0
0.0462043 0.0187533 0
0.0681621 0.0187533 0
0.102037 0.0187533 0
0.139788 0.0187533 0
0.179873 0.0187533 0
0.22623 0.0187533 0
0.288243 0.0187533 0
0.369284 0.0187533 0
0.480064 0.0187533 0
0.654521 0.0187533 0
0.79971 0.0187533 0
0.880766 0.0187533 0
0.918746 0.0187533 0
0.925002 0.0187533 0
0.931243 0.0187533 0
0.937499 0.0187533 0
0.943755 0.0187533 0
0.949996 0.0187533 0
0.956252 0.0187533 0
0.962493 0.0187533 0
0.96875 0.0187533 0
0.975006 0.0187533 0
0.981247 0.0187533 0
0.987503 0.0187533 0
0.993744 0.0187533 0
1 0.0187533 0
0 0.0249943 0
0.00624094 0.0249943 0
0.0124971 0.0249943 0
0.0187533 0.0249943 0
0.0249943 0.0249943 0
0.0312505 0.0249943 0
0.0375372 0.0249943 0
0.0458228 0.0249943 0
0.0690166 0.0249943 0
0.104112 0.0249943 0
0.142794 0.0249943 0
0.183749 0.0249943 0
0.232456 0.0249943 0
0.298466 0.0249943 0
0.378988 0.0249943 0
0.494087 0.0249943 0
0.672969 0.0249943 0
0.811475 0.0249943 0
0.887358 0.0249943 0
0.918746 0.0249943 0
0.925002 0.0249943 0
0.931243 0.0249943 0
0.937499 0.0249943 0
0.943755 0.0249943 0
0.949996 0.0249943 0
0.956252 0.0249943 0
0.962493 0.0249943 0
0.96875 0.0249943 0
0.975006 0.0249943 0
0.981247 0.0249943 0
0.987503 0.0249943 0
0.993744 0.0249943 0
1 0.0249943 0
0 0.0364538 0
0.00624094 0.0364538 0
0.0124971 0.0366064 0
0.0187533 0.0368811 0
0.0249943 0.0370794 0
0.0312505 0.0370031 0
0.0375982 0.0366369 0
0.0463569 0.0352941 0
0.0700542 0.0337835 0
0.106035 0.0319371 0
0.146181 0.0312505 0
0.187686 0.0312505 0
0.237858 0.0312505 0
0.308553 0.0312505 0
0.393271 0.0312505 0
0.516564 0.0312505 0
0.696635 0.0312505 0
0.826764 0.0312505 0
0.894682 0.0312505 0
0.918746 0.0312505 0
0.925002 0.0312505 0
0.931243 0.0312505 0
0.937499 0.0312505 0
0.943755 0.0312505 0
0.949996 0.0312505 0
0.956252 0.0312505 0
0.962493 0.0312505 0
0.96875 0.0312505 0
0.975006 0.0312505 0
0.981247 0.0312505 0
0.987503 0.0312505 0
0.993744 0.0312505 0
1 0.0312505 0
0 0.0522927 0
0.00624094 0.0525368 0
0.0124971 0.0528572 0
0.0187533 0.0534066 0
0.0249943 0.0539406 0
0.0312505 0.0541543 0
0.037644 0.0538491 0
0.0482948 0.0513619 0
0.0709697 0.0492866 0
0.104082 0.0474861 0
0.145464 0.0445106 0
0.190585 0.0411078 0
0.243488 0.0383307 0
0.31635 0.0374914 0
0.405035 0.0374914 0
0.537713 0.0374914 0
0.721599 0.0374914 0
0.842741 0.0374914 0
0.903181 0.0374914 0
0.918746 0.0374914 0
0.925002 0.0374914 0
0.931243 0.0374914 0
0.937499 0.0374914 0
0.943755 0.0374914 0
0.949996 0.0374914 0
0.956252 0.0374914 0
0.962493 0.0374914 0
0.96875 0.0374914 0
0.975006 0.0374914 0
0.981247 0.0374914 0
0.987503 0.0374914 0
0.993744 0.0374914 0
1 0.0374914 0
0 0.0723278 0
0.00624094 0.0728618 0
0.0124971 0.0738079 0
0.0187533 0.0747845 0
0.0249943 0.075639 0
0.0312505 0.0761883 0
0.0374914 0.0761883 0
0.0486 0.0731823 0
0.0726635 0.0697337 0
0.104372 0.0670939 0
0.144289 0.0631876 0
0.192508 0.057023 0
0.249088 0.0500343 0
0.323629 0.0441901 0
0.413367 0.0437476 0
0.547158 0.0437476 0
0.736233 0.0437476 0
0.851972 0.0437476 0
0.911528 0.0437476 0
0.918746 0.0437476 0
0.925002 0.0437476 0
0.931243 0.0437476 0
0.937499 0.0437476 0
0.943755 0.0437476 0
0.949996 0.0437476 0
0.956252 0.0437476 0
0.962493 0.0437476 0
0.96875 0.0437476 0
0.975006 0.0437476 0
0.981247 0.0437476 0
0.987503 0.0437476 0
0.993744 0.0437476 0
1 0.0437476 0
0 0.096025 0
0.00624094 0.0969558 0
0.0124971 0.0981003 0
0.0187533 0.099382 0
0.0249943 0.10042 0
0.0312505 0.101213 0
0.0374914 0.101488 0
0.0476081 0.0990158 0
0.0736706 0.0947433 0
0.107469 0.0913558 0.0009308
0.14522 0.0885786 0.000869764
0.195148 0.0827497 1.5259e-05
0.257237 0.0743572 0
0.334493 0.0632792 0
0.422461 0.0544594 0
0.547143 0.0500038 0
0.72961 0.0500038 0
0.851102 0.0500038 0
0.910246 0.0500038 0
0.918746 0.0500038 0
0.925002 0.0500038 0
0.931243 0.0500038 0
0.937499 0.0500038 0
0.943755 0.0500038 0
0.949996 0.0500038 0
0.956252 0.0500038 0
0.962493 0.0500038 0
0.96875 0.0500038 0
0.975006 0.0500038 0
0.981247 0.0530556 0
0.987503 0.0664225 0
0.993744 0.0796979 0
1 0.0928969 0
0 0.121233 0
0.00624094 0.122637 0
0.0124971 0.124224 0
0.0187533 0.125917 0
0.0249943 0.127474 0
0.0312505 0.128832 0
0.0374914 0.129564 0
0.0457923 0.128359 0
0.071397 0.124346 0
0.111223 0.119738 0.0033875
0.150225 0.117388 0.00680552
0.201434 0.113085 0.00170901
0.267185 0.10518 3.0518e-05
0.34786 0.0946975 0
0.436469 0.0831006 0
0.554711 0.0687114 0
0.725856 0.0562448 0
0.855955 0.0562448 0
0.912123 0.0562448 0
0.918746 0.0562448 0
0.925002 0.0562448 0
0.931243 0.0562448 0
0.937499 0.0562448 0
0.943755 0.0590677 0
0.949996 0.0693675 0
0.956252 0.0808881 0
0.962493 0.0931106 0
0.96875 0.106538 0
0.975006 0.121477 0
0.981247 0.1364 0
0.987503 0.151492 0
0.993744 0.166552 0
1 0.18143 0
0 0.150179 0
0.00624094 0.15227 0
0.0124971 0.154635 0
0.0187533 0.157137 0
0.0249943 0.159594 0
0.0312505 0.161807 0
0.0374914 0.163363 0
0.0443427 0.163592 0
0.0646525 0.161715 0
0.110811 0.157122 0.002533
0.15906 0.153826 0.014435
0.213138 0.151873 0.0148775
0.283314 0.146731 0.00759899
0.365515 0.139422 0.00209049
0.454612 0.131792 9.15541e-05
0.567956 0.119478 0
0.728725 0.0979171 0
0.866255 0.085069 0
0.912505 0.0869306 0
0.918746 0.0966812 0
0.925002 0.108904 0
0.931243 0.122957 0
0.937499 0.133715 0
0.943755 0.144884 0
0.949996 0.157305 0
0.956252 0.171023 0
0.962493 0.185351 0
0.96875 0.200275 0
0.975006 0.215457 0
0.981247 0.23125 0
0.987503 0.246433 0
0.993744 0.261158 0
1 0.276173 0.00317388
0 0.185626 0
0.00624094 0.188739 0
0.0124971 0.19292 0
0.0187533 0.197345 0
0.0249943 0.20119 0
0.0312505 0.204852 0
0.0374914 0.207599 0
0.0437781 0.20943 0
0.0563668 0.210285 0
0.102983 0.208942 9.15541e-05
0.166247 0.205356 0.0138857
0.232197 0.204913 0.0255589
0.307973 0.204669 0.0259861
0.389715 0.204074 0.021088
0.474281 0.203876 0.0128176
0.57763 0.200275 0.00224308
0.724178 0.18851 0
0.870115 0.178424 0
0.912505 0.180774 0
0.918746 0.19266 0
0.925002 0.206348 0
0.931243 0.22089 0
0.937499 0.233539 0
0.943755 0.245624 0
0.949996 0.258412 0
0.956252 0.272053 0
0.962493 0.286992 0
0.96875 0.302876 0
0.975006 0.318578 0
0.981247 0.334539 0
0.987503 0.351415 0
0.993744 0.368261 0.000564584
1 0.385626 0.00540169
0 0.232731 0
0.00624094 0.238605 0
0.0124971 0.245106 0
0.0187533 0.251911 0
0.0249943 0.258427 0
0.0312505 0.264225 0
0.0374914 0.270176 0
0.0437476 0.274281 0
0.0510414 0.278706 0
0.0907607 0.283253 0
0.166766 0.282612 0.00859083
0.255558 0.281819 0.0294499
0.34229 0.285252 0.0403601
0.423651 0.291676 0.0450141
0.502281 0.299062 0.0438697
0.591577 0.303304 0.0341497
0.703349 0.303014 0.0159915
0.841154 0.29723 0
0.912505 0.294514 0
0.918746 0.302556 0
0.925002 0.31516 0
0.931243 0.329671 0
0.937499 0.343664 0
0.943755 0.357076 0
0.949996 0.370809 0
0.956252 0.38529 0
0.962493 0.400488 0
0.96875 0.416785 0
0.975006 0.433921 0
0.981247 0.451575 0
0.987503 0.4692 0
0.993744 0.486244 0.000686656
1 0.503319 0.00347906
0 0.297658 0
0.00624094 0.306294 0
0.0124971 0.315847 0
0.0187533 0.326604 0
0.0249943 0.337972 0
0.0312505 0.348028 0
0.0374914 0.356405 0
0.0437476 0.362463 0
0.0500038 0.370077 0
0.0839857 0.380148 0
0.170123 0.382681 0.00631724
0.282002 0.380011 0.0326848
0.381613 0.382757 0.0533303
0.463691 0.391226 0.0667582
0.538582 0.400717 0.0729229
0.616724 0.408972 0.0699321
0.701823 0.415473 0.0575113
0.800351 0.419654 0.0302892
0.906935 0.420035 0.00384527
0.918746 0.423056 0
0.925002 0.433875 0
0.931243 0.447395 0
0.937499 0.461387 0
0.943755 0.475273 0
0.949996 0.488746 0
0.956252 0.503105 0
0.962493 0.518654 0
0.96875 0.534936 0
0.975006 0.550851 0
0.981247 0.567269 0
0.987503 0.583841 0
0.993744 0.599359 0.000137331
1 0.614374 0.000442512
0 0.381247 0
0.00624094 0.394553 0
0.0124971 0.408759 0
0.0187533 0.423423 0
0.0249943 0.437827 0
0.0312505 0.451499 0
0.0374914 0.463218 0
0.0437476 0.471595 0
0.0500038 0.480476 0
0.0869459 0.491798 0
0.180911 0.494163 0.00637827
0.312093 0.485588 0.0371557
0.422507 0.482872 0.0665599
0.507103 0.488609 0.0881514
0.58053 0.498207 0.102174
0.652094 0.508797 0.108553
0.722499 0.519921 0.105013
0.793057 0.53106 0.0876936
0.875349 0.539513 0.0475319
0.918578 0.542824 0.0091249
0.925002 0.548363 0
0.931243 0.560082 0
0.937499 0.573236 0
0.943755 0.586694 0
0.949996 0.600366 0
0.956252 0.613504 0
0.962493 0.627222 0
0.96875 0.641779 0
0.975006 0.656229 0
0.981247 0.66952 0
0.987503 0.68275 0
0.993744 0.695872 0
1 0.707454 0
0 0.486564 0
0.00624094 0.503258 0
0.0124971 0.52163 0
0.0187533 0.540795 0
0.0249943 0.55935 0
0.0312505 0.57525 0
0.0374914 0.589166 0
0.0437476 0.599237 0
0.0500496 0.605966 0
0.0763104 0.612436 0
0.180423 0.60885 0.000518807
0.332235 0.593515 0.0327611
0.458167 0.585107 0.0746929
0.549355 0.586603 0.108843
0.621897 0.594141 0.132418
0.687388 0.604303 0.148104
0.746609 0.61593 0.153841
0.801999 0.62855 0.145937
0.860685 0.641352 0.112871
0.91313 0.651209 0.0555123
0.925002 0.65713 0.0125124
0.931243 0.663233 0.000396735
0.937499 0.673228 0
0.943755 0.683742 0
0.949996 0.695033 0
0.956252 0.707118 0
0.962493 0.717876 0
0.96875 0.72903 0
0.975006 0.740276 0
0.981247 0.750927 0
0.987503 0.760174 0
0.993744 0.769223 0
1 0.77818 0
0 0.612757 0
0.00624094 0.632837 0
0.0124971 0.653773 0
0.0187533 0.674098 0
0.0249943 0.69369 0
0.0312505 0.710307 0
0.0374914 0.723812 0
0.0437476 0.732601 0
0.0500038 0.737804 0
0.0615854 0.741131 0
0.150072 0.732921 0
0.33666 0.704005 0.0225834
0.48632 0.684535 0.0757458
0.58677 0.678538 0.1243
0.659739 0.681666 0.161364
0.719402 0.689479 0.186984
0.770642 0.69955 0.202136
0.816068 0.710735 0.204135
0.860365 0.722683 0.183139
0.909941 0.7346 0.123751
0.925002 0.74316 0.0567941
0.931243 0.74844 0.0152438
0.937499 0.754055 0.000579843
0.943755 0.761013 0
0.949996 0.7691 0
0.956252 0.77821 0
0.962493 0.787457 0
0.96875 0.795621 0
0.975006 0.803876 0
0.981247 0.81178 0
0.987503 0.818723 0
0.993744 0.824979 0
1 0.831189 0
0 0.74548 0
0.00624094 0.764416 0
0.0124971 0.783612 0
0.0187533 0.802335 0
0.0249943 0.817685 0
0.0312505 0.830228 0
0.0374914 0.840742 0
0.0437476 0.848066 0
0.0500038 0.854353 0
0.0562448 0.858015 0
0.10901 0.853513 0
0.301961 0.817655 0.00619516
0.503746 0.777737 0.0635386
0.622431 0.760601 0.130892
0.696376 0.757519 0.184695
0.750256 0.760906 0.222217
0.794446 0.767483 0.245548
0.832639 0.775601 0.255375
0.868986 0.784649 0.244602
0.909026 0.794751 0.197971
0.925002 0.804211 0.12285
0.931243 0.810407 0.058381
0.937499 0.814649 0.0176242
0.943755 0.819089 0.00225834
0.949996 0.824857 0.000717174
0.956252 0.83183 0.000534066
0.962493 0.839124 0
0.96875 0.846098 3.0518e-05
0.975006 0.852491 0.000274662
0.981247 0.858503 0
0.987503 0.863859 0
0.993744 0.868864 0.00102235
1 0.873442 0.00946059
0 0.859464 0
0.00624094 0.873732 0
0.0124971 0.887663 0
0.0187533 0.901213 0
0.0249943 0.91107 0
0.0312505 0.910185 0
0.0374914 0.909575 0
0.0437476 0.909773 0
0.0500038 0.911421 0
0.0562448 0.912505 0
0.0979782 0.912505 0
0.243412 0.912505 0
0.489708 0.867735 0.0238193
0.650355 0.831785 0.113359
0.728557 0.819959 0.19382
0.77821 0.818265 0.248035
0.816571 0.821088 0.28014
0.849928 0.826017 0.294591
0.881666 0.832334 0.289403
0.914946 0.839811 0.254582
0.925002 0.847807 0.186542
0.931243 0.854826 0.110811
0.937499 0.85948 0.0564889
0.943755 0.863447 0.0242924
0.949996 0.868605 0.0127871
0.956252 0.874342 0.0122988
0.962493 0.880323 0.0115511
0.96875 0.886198 0.0104677
0.975006 0.891951 0.00816358
0.981247 0.897078 0.0112764
0.987503 0.901183 0.0227359
0.993744 0.905028 0.0347448
1 0.908614 0.0472572
0 0.918364 0
0.00624094 0.918669 0
0.0124971 0.918746 0
0.0187533 0.918746 0
0.0249943 0.918746 0
0.0312505 0.918746 0
0.0374914 0.918746 0
0.0437476 0.918746 0
0.0500038 0.918746 0
0.0584268 0.918746 0
0.114611 0.918746 0
0.217594 0.918746 0
0.440742 0.917021 0.00125124
0.653574 0.898878 0.0524147
0.753536 0.873426 0.163058
0.80209 0.86479 0.251347
0.836713 0.863798 0.297658
0.866896 0.866209 0.316732
0.896422 0.870481 0.313375
0.918242 0.876051 0.284642
0.925002 0.88278 0.225193
0.931243 0.889525 0.152209
0.937499 0.894682 0.092607
0.943755 0.899321 0.0603494
0.949996 0.904387 0.0530404
0.956252 0.909743 0.0512856
0.962493 0.914778 0.0495766
0.96875 0.916838 0.0486152
0.975006 0.918135 0.0472725
0.981247 0.91873 0.0480201
0.987503 0.91873 0.0631418
0.993744 0.918746 0.0783093
1 0.918746 0.0948806
0 0.925002 0
0.00624094 0.925002 0
0.0124971 0.925002 0
0.0187533 0.925002 0
0.0249943 0.925002 0
0.0312505 0.925002 0
0.0374914 0.925002 0
0.0437476 0.925002 0
0.0500038 0.925002 0
0.0608682 0.925002 0
0.125719 0.925002 0
0.224048 0.925002 0
0.414588 0.925002 0
0.6365 0.925002 0.00756847
0.765591 0.917418 0.0851301
0.821393 0.907668 0.205875
0.854917 0.901579 0.283848
0.883635 0.901289 0.314717
0.909041 0.903899 0.313024
0.918746 0.908171 0.285557
0.925002 0.913909 0.231617
0.931243 0.919356 0.168383
0.937499 0.922393 0.121309
0.943755 0.924346 0.102342
0.949996 0.925002 0.100298
0.956252 0.925002 0.0991226
0.962493 0.925002 0.0977646
0.96875 0.925002 0.0960098
0.975006 0.925002 0.0930953
0.981247 0.925002 0.0901808
0.987503 0.925002 0.111849
0.993744 0.925002 0.134966
1 0.925002 0.15819
0 0.931243 0
0.00624094 0.931243 0
0.0124971 0.931243 0
0.0187533 0.931243 0
0.0249943 0.931243 0
0.0312505 0.931243 0
0.0374914 0.931243 0
0.0437476 0.931243 0
0.0500038 0.931243 0
0.0669566 0.931243 0
0.134493 0.931243 0
0.236103 0.931243 0
0.422232 0.931243 0
0.622232 0.931243 0
0.77026 0.931243 0.0152132
0.835904 0.931243 0.121965
0.871427 0.931243 0.230243
0.899321 0.930922 0.282521
0.912474 0.930694 0.288365
0.918746 0.930907 0.261891
0.925002 0.931243 0.216526
0.931243 0.931243 0.168139
0.937499 0.931243 0.150301
0.943755 0.931243 0.148165
0.949996 0.931243 0.148959
0.956252 0.931243 0.152255
0.962493 0.931243 0.157687
0.96875 0.931243 0.163485
0.975006 0.931243 0.170001
0.981247 0.931243 0.181308
0.987503 0.931243 0.20856
0.993744 0.931243 0.235889
1 0.931243 0.261387
0 0.937499 0
0.00624094 0.937499 0
0.0124971 0.937499 0
0.0187533 0.937499 0
0.0249943 0.937499 0
0.0312505 0.937499 0
0.0374914 0.937499 0
0.0437476 0.937499 0
0.0502785 0.937499 0
0.0851301 0.937499 0
0.150774 0.937499 0
0.252537 0.937499 0
0.441108 0.937499 0
0.633021 0.937499 0
0.768307 0.937499 0.00361639
0.843381 0.937499 0.057908
0.883909 0.937499 0.162478
0.905806 0.937499 0.230381
0.912505 0.937499 0.252125
0.918746 0.937499 0.23743
0.925002 0.937499 0.211154
0.931243 0.937499 0.206897
0.937499 0.937499 0.214069
0.943755 0.937499 0.223911
0.949996 0.937499 0.237583
0.956252 0.937499 0.252399
0.962493 0.937499 0.268544
0.96875 0.937499 0.283635
0.975006 0.937499 0.297459
0.981247 0.937499 0.309606
0.987503 0.937499 0.329213
0.993744 0.937499 0.348928
1 0.937499 0.366827
0 0.943755 0
0.00624094 0.943755 0
0.0124971 0.943755 0
0.0187533 0.943755 0
0.0249943 0.943755 0
0.0312505 0.943755 0
0.0374914 0.943755 0
0.0437476 0.943755 0
0.0512245 0.943755 0
0.104265 0.943755 0
0.169986 0.943755 0
0.291997 0.943755 0
0.483955 0.943755 0
0.671901 0.943755 0
0.788663 0.943755 0
0.856703 0.943755 0.051667
0.89543 0.943755 0.162799
0.906249 0.943755 0.24744
0.912505 0.943755 0.280079
0.918746 0.943755 0.282856
0.925002 0.943755 0.291508
0.931243 0.943755 0.3084
0.937499 0.943755 0.323735
0.943755 0.943755 0.33756
0.949996 0.943755 0.351156
0.956252 0.943755 0.363378
0.962493 0.943755 0.376867
0.96875 0.943755 0.389395
0.975006 0.943755 0.401282
0.981247 0.943755 0.410925
0.987503 0.943755 0.423804
0.993744 0.943755 0.435782
1 0.943755 0.446921
0 0.949996 0
0.00624094 0.949996 0
0.0124971 0.949996 0
0.0187533 0.949996 0
0.0249943 0.949996 0
0.0312505 0.949996 0
0.0374914 0.949996 0
0.0440681 0.949996 0
0.0721752 0.949996 0
0.123857 0.949996 0
0.196048 0.949996 0
0.33138 0.949996 0
0.529015 0.949996 0
0.705669 0.949996 0
0.812589 0.949996 0.00357061
0.874083 0.949996 0.0746929
0.89958 0.949996 0.211612
0.906249 0.949996 0.305196
0.912505 0.949996 0.343481
0.918746 0.949996 0.364416
0.925002 0.949996 0.388373
0.931243 0.949996 0.405905
0.937499 0.949996 0.418387
0.943755 0.949996 0.429145
0.949996 0.949996 0.43978
0.956252 0.949996 0.449042
0.962493 0.949996 0.458656
0.96875 0.949996 0.467689
0.975006 0.949996 0.475303
0.981247 0.949996 0.482841
0.987503 0.949996 0.491859
0.993744 0.949996 0.499779
1 0.949996 0.506569
0 0.956252 0
0.00624094 0.956252 0
0.0124971 0.956252 0
0.0187533 0.956252 0
0.0249943 0.956252 0
0.0312505 0.956252 0
0.0376898 0.956252 0
0.0487984 0.956252 0
0.0920577 0.956252 0
0.143542 0.956252 0
0.219272 0.956252 0
0.37554 0.956252 0
0.570764 0.956252 0
0.739498 0.956252 0
0.831144 0.956252 0.00656138
0.885222 0.956252 0.105257
0.899992 0.956252 0.258732
0.906249 0.956252 0.353857
0.912505 0.956252 0.403967
0.918746 0.956252 0.441688
0.925002 0.956252 0.465629
0.931243 0.956252 0.479591
0.937499 0.956252 0.489479
0.943755 0.956252 0.496895
0.949996 0.956252 0.504173
0.956252 0.956252 0.51075
0.962493 0.956252 0.516365
0.96875 0.956252 0.522469
0.975006 0.956252 0.527047
0.981247 0.956252 0.53019
0.987503 0.956252 0.535317
0.993744 0.956252 0.539345
1 0.956252 0.543084
0 0.962493 0
0.00624094 0.962493 0
0.0124971 0.962493 0
0.0187533 0.962493 0
0.0249943 0.962493 0.000259403
0.0312505 0.962493 9.15541e-05
0.0393072 0.962493 0
0.0684977 0.962493 0
0.110155 0.962493 0
0.161334 0.962493 0
0.252628 0.962493 0
0.415137 0.962493 0
0.610422 0.962493 0
0.761242 0.962493 0
0.84831 0.962493 0.0027924
0.890837 0.962493 0.134737
0.899992 0.962493 0.295277
0.906249 0.962493 0.394049
0.912505 0.962493 0.457893
0.918746 0.962493 0.499794
0.925002 0.962493 0.522499
0.931243 0.962493 0.533303
0.937499 0.962493 0.539666
0.943755 0.962493 0.5449
0.949996 0.962493 0.549477
0.956252 0.962493 0.55407
0.962493 0.962493 0.557458
0.96875 0.962493 0.56054
0.975006 0.962493 0.562661
0.981247 0.962493 0.564706
0.987503 0.962493 0.567269
0.993744 0.962493 0.569238
1 0.962493 0.571206
0 0.96875 0
0.00624094 0.96875 0.00117494
0.0124971 0.96875 0.0024567
0.0187533 0.96875 0.00218204
0.0249943 0.96875 0.000747692
0.0327459 0.96875 0
0.0497139 0.96875 0
0.0849622 0.96875 4.57771e-05
0.125933 0.96875 0.000167849
