LUT color transfer/LUTs/67.cube
TITLE "Generate by Resolve"
LUT_3D_SIZE 9
0 0 0
0.0249943 0 1.5259e-05
0.0653849 0 0
0.220295 0 0
0.624063 0 0
0.925002 0 0
0.949996 0 0
0.975006 0 0
1 0 0
0 0.0249943 0
0.0249943 0.0249943 0
0.0690166 0.0249943 0
0.232456 0.0249943 0
0.672969 0.0249943 0
0.925002 0.0249943 0
0.949996 0.0249943 0
0.975006 0.0249943 0
1 0.0249943 0
0 0.096025 0
0.0249943 0.10042 0
0.0736706 0.0947433 0
0.257237 0.0743572 0
0.72961 0.0500038 0
0.925002 0.0500038 0
0.949996 0.0500038 0
0.975006 0.0500038 0
1 0.0928969 0
0 0.232731 0
0.0249943 0.258427 0
0.0510414 0.278706 0
0.34229 0.285252 0.0403601
0.703349 0.303014 0.0159915
0.925002 0.31516 0
0.949996 0.370809 0
0.975006 0.433921 0
1 0.503319 0.00347906
0 0.612757 0
0.0249943 0.69369 0
0.0500038 0.737804 0
0.48632 0.684535 0.0757458
0.770642 0.69955 0.202136
0.925002 0.74316 0.0567941
0.949996 0.7691 0
0.975006 0.803876 0
1 0.831189 0
0 0.925002 0
0.0249943 0.925002 0
0.0500038 0.925002 0
0.414588 0.925002 0
0.854917 0.901579 0.283848
0.925002 0.913909 0.231617
0.949996 0.925002 0.100298
0.975006 0.925002 0.0930953
1 0.925002 0.15819
0 0.949996 0
0.0249943 0.949996 0
0.0721752 0.949996 0
0.529015 0.949996 0
0.89958 0.949996 0.211612
0.925002 0.949996 0.388373
0.949996 0.949996 0.43978
0.975006 0.949996 0.475303
1 0.949996 0.506569
0 0.975006 0.00604257
0.0259709 0.975006 0.00488289
0.139727 0.975006 0.00163272
0.668177 0.975006 0
0.899992 0.975006 0.357519
0.925002 0.975006 0.579034
0.949996 0.975006 0.596384
0.975006 0.975006 0.60296
1 0.975006 0.605753
0 1 0.0374304
0.0498665 1 0.0319066
0.178607 1 0.011017
0.726223 1 0
0.899992 1 0.436469
0.925002 1 0.6047
0.949996 1 0.618692
0.975006 1 0.622354
1 1 0.622354
0 0 0.0333562
0.0249943 0 0.0395056
0.0646372 0 0.0372015
0.220783 0 0.0249943
0.62501 0 0.0249943
0.925002 0 0.0249943
0.949996 0 0.0249943
0.975006 0 0.0249943
1 0 0.0249943
0 0.0249943 0.0413367
0.0249943 0.0249943 0.0404517
0.0705119 0.0249943 0.0394751
0.23537 0.0249943 0.0249943
0.680934 0.0249943 0.0249943
0.925002 0.0249943 0.0249943
0.949996 0.0249943 0.0249943
0.975006 0.0249943 0.0249943
1 0.0249943 0.0249943
0 0.0982376 0.0320745
0.0249943 0.103288 0.0358282
0.0720684 0.10016 0.0404974
0.277394 0.0749065 0.0259251
0.745769 0.0500038 0.0249943
0.925002 0.0500038 0.0249943
0.949996 0.0500038 0.0249943
0.975006 0.0575723 0.0249943
1 0.114168 0.0302281
0 0.240925 0.0249943
0.0249943 0.270222 0.0249943
0.0544747 0.29836 0.0256504
0.368978 0.311009 0.0854658
0.727626 0.329778 0.0618753
0.925002 0.339773 0.0249943
0.949996 0.389853 0.0327611
0.975006 0.454719 0.0483864
1 0.523949 0.0691691
0 0.640192 0.0249943
0.0249943 0.718898 0.0249943
0.0500038 0.756878 0.0249943
0.503136 0.710414 0.130617
0.783093 0.71902 0.279301
0.925002 0.759319 0.1346
0.949996 0.78201 0.0290074
0.975006 0.813642 0.0260624
1 0.839353 0.0532387
0 0.925002 0.0249943
0.0249943 0.925002 0.0249943
0.0500038 0.925002 0.0249943
0.400916 0.925002 0.0253147
0.857069 0.903975 0.396139
0.925002 0.9122 0.400534
0.949996 0.92488 0.307225
0.975006 0.925002 0.286824
1 0.925002 0.374472
0 0.949996 0.0249943
0.0249943 0.949996 0.0308385
0.0802167 0.949996 0.0325933
0.500694 0.949996 0.0249943
0.898741 0.949996 0.401938
0.925002 0.949996 0.5691
0.949996 0.949996 0.592691
0.975006 0.949996 0.606531
1 0.949996 0.619928
0 0.975006 0.0800946
0.0278325 0.975006 0.0847181
0.140948 0.975006 0.0700542
0.637018 0.975006 0.0249943
0.899992 0.975006 0.50071
0.925002 0.975006 0.656199
0.949996 0.975006 0.666407
0.975006 0.975006 0.669825
1 0.975006 0.671107
0 1 0.115129
0.054612 1 0.112139
0.174716 1 0.0884413
0.70515 1 0.0320592
0.899992 1 0.551507
0.925002 1 0.669093
0.949996 1 0.67924
0.975006 1 0.681788
1 1 0.681788
0 0 0.109117
0.0249943 0 0.119005
0.0589151 0 0.127184
0.226947 0 0.0812085
0.581659 0 0.0500038
0.925002 0 0.0500038
0.949996 0 0.0500038
0.975006 0 0.0500038
1 0 0.0500038
0 0.026276 0.113359
0.0249943 0.0267643 0.115434
0.0630503 0.0249943 0.129686
0.243748 0.0249943 0.0859236
0.62977 0.0249943 0.0500038
0.925002 0.0249943 0.0500038
0.949996 0.0249943 0.0500038
0.975006 0.0249943 0.0500038
1 0.0249943 0.0500038
0 0.103578 0.104005
0.0249943 0.109834 0.107317
0.0630198 0.108537 0.114382
0.306264 0.072282 0.0918746
0.697078 0.0500038 0.0500038
0.925002 0.0500038 0.0500038
0.949996 0.0500649 0.0525063
0.975006 0.0761273 0.0927138
1 0.134539 0.154543
0 0.254932 0.0720531
0.0249943 0.291463 0.0822461
0.0554971 0.324605 0.0963912
0.392447 0.340444 0.16463
0.755581 0.351522 0.140963
0.925002 0.359655 0.115297
0.949996 0.405051 0.131991
0.975006 0.470726 0.150164
1 0.543053 0.179156
0 0.653391 0.0536507
0.0249943 0.726421 0.0639811
0.0664988 0.761608 0.120638
0.491127 0.744106 0.212787
0.791989 0.735698 0.388312
0.924971 0.768887 0.279484
0.949996 0.791959 0.115267
0.975006 0.820233 0.129076
1 0.840848 0.231907
0 0.925002 0.0514382
0.0249943 0.925002 0.0799573
0.0502785 0.925002 0.0947433
0.375952 0.925002 0.084596
0.855772 0.905638 0.524239
0.925002 0.909468 0.585992
0.949996 0.921828 0.551049
0.975006 0.925002 0.536171
1 0.925002 0.590784
0 0.949996 0.114519
0.0249943 0.949996 0.13698
0.0897993 0.949996 0.13933
0.477852 0.949996 0.0847334
0.897078 0.949996 0.5626
0.925002 0.949996 0.684657
0.949996 0.949996 0.693049
0.975006 0.949996 0.696925
1 0.949996 0.70248
0 0.975006 0.180087
0.0327916 0.975006 0.193179
0.151598 0.975006 0.191287
0.631373 0.975006 0.137011
0.899992 0.975006 0.61387
0.925002 0.975006 0.723903
0.949996 0.975006 0.730983
0.975006 0.975006 0.73283
1 0.975006 0.733425
0 1 0.22501
0.0609751 1 0.230869
0.21088 1 0.243702
0.691035 1 0.190005
0.899992 1 0.643336
0.925002 1 0.731579
0.949996 1 0.739651
0.975006 1 0.741299
1 1 0.74136
0 0 0.236622
0.0249943 0 0.249104
0.0500038 0 0.278706
0.201129 0 0.255482
0.513695 0 0.175998
0.921431 0 0.163882
0.949996 0 0.148379
0.975006 0 0.160845
1 0 0.188647
0 0.0315557 0.236774
0.0249943 0.0318303 0.247974
0.0500038 0.0269322 0.281193
0.218524 0.0249943 0.265843
0.558282 0.0249943 0.194003
0.925002 0.0249943 0.22237
0.949996 0.0249943 0.235462
0.975006 0.0249943 0.291005
1 0.0249943 0.364797
0 0.106142 0.248005
0.0249943 0.114534 0.25362
0.0500038 0.112093 0.272908
0.282597 0.0693523 0.325826
0.64387 0.0500038 0.258183
0.925002 0.0500038 0.34081
0.949996 0.0500038 0.40209
0.975006 0.0766308 0.498238
1 0.135134 0.593408
0 0.28159 0.211337
0.0249943 0.326146 0.237736
0.0556802 0.362692 0.276905
0.370657 0.352316 0.413779
0.777432 0.353719 0.393515
0.925002 0.380087 0.431083
0.949996 0.427863 0.47512
0.975006 0.49865 0.540124
1 0.564599 0.602701
0.00210575 0.678248 0.271443
0.0280766 0.748791 0.316365
0.120317 0.775525 0.397024
0.431708 0.773022 0.446067
0.797498 0.745235 0.543359
0.924956 0.763394 0.499641
0.949996 0.78291 0.498802
0.975006 0.804685 0.558801
1 0.822477 0.619089
0 0.925002 0.234821
0.0249943 0.925002 0.27126
0.0555276 0.925002 0.319966
0.486931 0.925002 0.490959
0.843442 0.909407 0.657298
0.925002 0.909133 0.732555
0.949996 0.919524 0.724376
0.975006 0.925002 0.719158
1 0.925002 0.733608
0 0.949996 0.314992
0.0249943 0.949996 0.356237
0.119402 0.949996 0.467796
0.597192 0.949996 0.577203
0.873396 0.949996 0.674739
0.925002 0.949996 0.779309
0.949996 0.949996 0.783017
0.975006 0.949996 0.782742
1 0.949996 0.784222
0 0.975006 0.418173
0.0384222 0.975006 0.491295
0.258701 0.975006 0.641642
0.671946 0.975006 0.64509
0.893477 0.975006 0.694545
0.925002 0.975006 0.797391
0.949996 0.975006 0.804532
0.975006 0.975006 0.805356
1 0.975006 0.805325
0 1 0.501122
0.0805524 1 0.578302
0.356817 1 0.695216
0.695064 1 0.664485
0.899992 1 0.713008
0.925002 1 0.802563
0.949996 1 0.813138
0.975006 1 0.815274
1 1 0.815366
0 0 0.60177
0.0249943 0 0.645472
0.0500038 0 0.77499
0.140826 0 0.736477
0.532311 0 0.549249
0.903929 0 0.656672
0.949996 0 0.658518
0.975006 0 0.674311
1 0 0.697307
0 0.0260014 0.573754
0.0249943 0.026627 0.622156
0.0500038 0.0249943 0.798474
0.162921 0.0249943 0.760769
0.610071 0.0249943 0.613642
0.925002 0.0249943 0.716075
0.949996 0.0249943 0.732006
0.975006 0.0249943 0.762966
1 0.0249943 0.796185
0 0.108003 0.512215
0.0249943 0.115389 0.541192
0.0500038 0.105425 0.642771
0.189197 0.0697642 0.745007
0.688762 0.0500038 0.677577
0.925002 0.0500038 0.808011
0.949996 0.0500038 0.852308
0.975006 0.0767224 0.898222
1 0.136324 0.899992
0 0.308492 0.467155
0.0249943 0.364172 0.506981
0.0500038 0.402731 0.514336
0.24242 0.398764 0.733715
0.777584 0.358175 0.760754
0.925002 0.40177 0.833906
0.949996 0.449332 0.850019
0.975006 0.513924 0.867628
1 0.573678 0.881987
0 0.732372 0.543053
0.0249943 0.803189 0.607217
0.0586862 0.823545 0.668086
0.445258 0.800351 0.758755
0.794308 0.725353 0.772732
0.925002 0.747097 0.775692
0.949996 0.765042 0.791882
0.975006 0.785824 0.811536
1 0.803052 0.82858
0 0.925002 0.564019
0.0249943 0.925002 0.613916
0.0531319 0.925002 0.679622
0.58265 0.925002 0.806271
0.799771 0.922377 0.779843
0.925002 0.910063 0.824338
0.949996 0.917144 0.811719
0.975006 0.922835 0.811475
1 0.925002 0.817853
0 0.949996 0.66598
0.0249943 0.949996 0.706844
0.0971542 0.949996 0.795804
0.655177 0.949996 0.826749
0.8224 0.949996 0.799695
0.925002 0.949996 0.862943
0.949996 0.949996 0.868681
0.975006 0.949996 0.86276
1 0.949996 0.860395
0 0.975006 0.773342
0.0249943 0.975006 0.816129
0.199359 0.975006 0.86569
0.697093 0.975006 0.840909
0.838544 0.975006 0.81004
0.925002 0.975006 0.88069
0.949996 0.975006 0.898436
0.975006 0.975006 0.89749
1 0.975006 0.8963
0 1 0.830457
0.0280308 1 0.857252
0.26125 1 0.881483
0.712215 1 0.846281
0.846052 1 0.813077
0.925002 1 0.885008
0.949996 1 0.899992
0.975006 1 0.899992
1 1 0.899992
0 0 0.925002
0.0249943 0 0.925002
0.0500038 0 0.925002
0.0906691 0 0.925002
0.649561 0 0.925002
0.906889 0 0.89456
0.949996 0 0.899809
0.975006 0 0.908507
1 0 0.918608
0 0.0249943 0.925002
0.0249943 0.0249943 0.925002
0.0500038 0.0249943 0.925002
0.106386 0.0249943 0.925002
0.699245 0.0249943 0.925002
0.925002 0.0249943 0.921538
0.949996 0.0249943 0.925002
0.975006 0.0249943 0.925002
1 0.0249943 0.925002
0 0.107805 0.925002
0.0249943 0.120729 0.925002
0.0500038 0.111742 0.925002
0.122637 0.0721599 0.925002
0.777768 0.0500038 0.925002
0.925002 0.0500038 0.925002
0.949996 0.0534829 0.925002
0.975006 0.0904555 0.925002
1 0.144366 0.925002
0 0.368811 0.810422
0.0249943 0.441444 0.833173
0.0500038 0.48397 0.843503
0.109026 0.455787 0.925002
0.776394 0.377844 0.925002
0.925002 0.389929 0.925002
0.949996 0.438315 0.925002
0.975006 0.510292 0.925002
1 0.576501 0.925002
0 0.799115 0.836515
0.0249943 0.854582 0.882063
0.0500038 0.875868 0.899687
0.313375 0.845899 0.907454
0.724239 0.757412 0.924117
0.925002 0.750683 0.924987
0.949996 0.767346 0.925002
0.975006 0.786847 0.925002
1 0.802716 0.925002
0 0.925002 0.903777
0.0249943 0.925002 0.920378
0.0500038 0.925002 0.925002
0.488853 0.925002 0.923964
0.805264 0.925002 0.924224
0.925002 0.895018 0.920089
0.949996 0.900145 0.922148
0.975006 0.908309 0.925002
1 0.915587 0.925002
0 0.949996 0.924865
0.0249943 0.949996 0.925002
0.0500038 0.949996 0.925002
0.604944 0.949996 0.924132
0.827375 0.949996 0.925002
0.925002 0.949935 0.925002
0.949996 0.949996 0.925002
0.975006 0.949981 0.925002
1 0.949996 0.925002
0 0.975006 0.925002
0.0249943 0.975006 0.925002
0.0869917 0.975006 0.925002
0.666438 0.975006 0.922255
0.840314 0.975006 0.925002
0.925002 0.975006 0.925002
0.949996 0.973449 0.925002
0.975006 0.973449 0.925002
1 0.974029 0.925002
0 1 0.925002
0.0249943 1 0.925002
0.116167 1 0.925002
0.684703 1 0.922332
0.846586 1 0.925002
0.925002 1 0.925002
0.949996 0.998444 0.925002
0.975006 0.998444 0.925002
1 0.998444 0.925002
0 0 0.949996
0.0249943 0 0.949996
0.0500038 0 0.949996
0.0757 0 0.949996
0.592981 0 0.949996
0.901396 0 0.949996
0.949996 0 0.949996
0.975006 0 0.949996
1 0 0.949996
0 0.0249943 0.949996
0.0249943 0.0249943 0.949996
0.0500038 0.0249943 0.949996
0.0776989 0.0249943 0.949996
0.662913 0.0249943 0.949996
0.925002 0.0249943 0.949996
0.949996 0.0249943 0.949996
0.975006 0.0249943 0.949996
1 0.0249943 0.949996
0 0.120562 0.949996
0.0249943 0.136675 0.949996
0.0500038 0.127825 0.949996
0.0951705 0.0888991 0.949996
0.755245 0.0500038 0.949996
0.925002 0.0501869 0.949996
0.949996 0.0579995 0.949996
0.975006 0.104341 0.949996
1 0.157015 0.949996
0 0.425864 0.945159
0.0249943 0.498405 0.947112
0.0500038 0.53164 0.949996
0.0793622 0.502098 0.949996
0.728054 0.41033 0.949996
0.925002 0.405249 0.949996
0.949996 0.455406 0.949996
0.975006 0.52726 0.949996
1 0.590127 0.949996
0 0.836454 0.947906
0.0249943 0.883787 0.949996
0.0500038 0.895109 0.949996
0.164111 0.894926 0.949996
0.690898 0.784131 0.949996
0.925002 0.758923 0.949996
0.949996 0.772427 0.949996
0.975006 0.790295 0.949996
1 0.804959 0.949996
0 0.925002 0.949996
0.0249943 0.925002 0.949996
0.0500038 0.925002 0.949996
0.425772 0.925002 0.949996
0.793118 0.925002 0.949996
0.923613 0.900786 0.949996
0.949996 0.900542 0.949996
0.975006 0.90866 0.949996
1 0.915557 0.949996
0 0.949996 0.949996
0.0249943 0.949996 0.949996
0.0500038 0.949996 0.949996
0.591577 0.949996 0.949996
0.823209 0.949996 0.949996
0.925002 0.949935 0.949996
0.949996 0.948455 0.949996
0.975006 0.948455 0.949996
1 0.948455 0.949996
0 0.975006 0.949996
0.0249943 0.975006 0.949996
0.0785992 0.975006 0.949996
0.65333 0.975006 0.947601
0.834577 0.975006 0.949996
0.925002 0.974456 0.949996
0.949996 0.973449 0.949996
0.975006 0.973449 0.949996
1 0.973449 0.949996
0 1 0.949996
0.0249943 1 0.949996
0.102556 1 0.949996
0.672267 1 0.947204
0.839948 1 0.949996
0.925002 0.999222 0.949996
0.949996 0.998444 0.949996
0.975006 0.998444 0.949996
1 0.998444 0.949996
0 0 0.975006
0.0249943 0 0.975006
0.0500038 0 0.975006
0.0749981 0 0.975006
0.557214 0 0.975006
0.897627 0 0.975006
0.949996 0 0.975006
0.975006 0 0.975006
1 0 0.975006
0 0.0249943 0.975006
0.0249943 0.0249943 0.975006
0.0500038 0.0249943 0.975006
0.0785077 0.0249943 0.975006
0.644038 0.0249943 0.975006
0.92398 0.0249943 0.975006
0.949996 0.0249943 0.975006
0.975006 0.0249943 0.975006
1 0.0249943 0.975006
0 0.134737 0.975006
0.0249943 0.153262 0.975006
0.0500038 0.145586 0.975006
0.0883955 0.10695 0.975006
0.750408 0.0500038 0.975006
0.925002 0.0536049 0.975006
0.949996 0.0698253 0.975006
0.975006 0.122072 0.975006
1 0.174716 0.975006
0 0.46862 0.975006
0.0249943 0.542153 0.975006
0.0500038 0.57232 0.975006
0.0749981 0.543725 0.975006
0.703761 0.444205 0.975006
0.925002 0.43566 0.975006
0.949996 0.482261 0.975006
0.975006 0.550011 0.975006
1 0.607721 0.975006
0 0.865934 0.975006
0.0249943 0.897963 0.975006
0.0500038 0.899992 0.975006
0.14905 0.899992 0.975006
0.682338 0.805844 0.975006
0.925002 0.76907 0.975006
0.949996 0.77937 0.975006
0.975006 0.795331 0.975006
1 0.808682 0.975006
0 0.925002 0.975006
0.0249943 0.925002 0.975006
0.0500038 0.925002 0.975006
0.393271 0.925002 0.975006
0.786496 0.925002 0.975006
0.917266 0.909941 0.975006
0.949996 0.904036 0.975006
0.975006 0.911086 0.975006
1 0.91632 0.975006
0 0.949996 0.975006
0.0249943 0.949996 0.975006
0.0526284 0.949996 0.975006
0.590463 0.949996 0.974838
0.819715 0.949996 0.975006
0.925002 0.949996 0.975006
0.949996 0.948455 0.975006
0.975006 0.948455 0.975006
1 0.948455 0.975006
0 0.975006 0.975006
0.0249943 0.975006 0.975006
0.0806439 0.975006 0.975006
0.652979 0.975006 0.972549
0.833112 0.975006 0.975006
0.925002 0.974456 0.975006
0.949996 0.973449 0.975006
0.975006 0.973449 0.975006
1 0.973449 0.975006
0 1 0.975006
0.0249943 1 0.975006
0.102007 1 0.975006
0.670314 1 0.972213
0.83798 1 0.975006
0.925002 0.999252 0.975006
0.949996 0.998444 0.975006
0.975006 0.998444 0.975006
1 0.998444 0.975006
0 0 1
0.0249943 0 1
0.0500038 0 1
0.0749981 0 1
0.52578 0 1
0.893538 0 1
0.949996 0 1
0.975006 0 1
1 0 1
0 0.0268406 1
0.0249943 0.0261082 1
0.0500038 0.0249943 1
0.0769818 0.0249943 1
0.630579 0.0249943 1
0.925002 0.0249943 1
0.949996 0.0249943 1
0.975006 0.0249943 1
1 0.0249943 1
0 0.150378 1
0.0249943 0.17055 1
0.0500038 0.160494 1
0.0847944 0.123125 1
0.760082 0.0500038 1
0.925002 0.0599527 1
0.949996 0.089128 1
0.975006 0.139528 1
1 0.193881 1
0 0.512215 1
0.0249943 0.578134 0.99968
0.0500038 0.599695 0.999313
0.0789502 0.570001 1
0.719265 0.467491 1
0.925002 0.461631 1
0.949996 0.507195 1
0.975006 0.570459 1
1 0.623178 1
0 0.88809 1
0.0249943 0.899992 1
0.0500038 0.899992 1
0.179034 0.899992 1
0.700236 0.813519 1
0.925002 0.776471 1
0.949996 0.785809 1
0.975006 0.800381 1
1 0.812406 1
0 0.925002 1
0.0249943 0.925002 1
0.0500038 0.925002 1
0.433982 0.925002 1
0.790265 0.925002 1
0.918639 0.915816 1
0.949996 0.907332 1
0.975006 0.913558 1
1 0.917082 1
0 0.949996 1
0.0249943 0.949996 1
0.0556802 0.949996 1
0.601267 0.949996 0.999451
0.821012 0.949996 1
0.925002 0.949996 1
0.949996 0.948455 1
0.975006 0.948455 1
1 0.948455 1
0 0.975006 1
0.0249943 0.975006 1
0.0838941 0.975006 1
0.655985 0.975006 0.997406
0.833555 0.975006 1
0.925002 0.974411 1
0.949996 0.973449 1
0.975006 0.973449 1
1 0.973449 1
0 1 1
0.0249943 1 1
0.102678 1 1
0.670619 1 0.997223
0.837842 1 1
0.925002 0.999268 1
0.949996 0.998444 1
0.975006 0.998444 1
1 0.998444 1
