LUT color transfer/LUTs/71.cube
TITLE "Generate by Resolve"
LUT_3D_SIZE 9
0 0.00686656 0.03888
0.0249943 0.0068513 0.0379797
0.0877546 0.00111391 0.0278019
0.352316 0 0
0.731868 0 0
0.925002 0 0
0.949996 0 0
0.975006 0 0
1 0 0
0 0.0596933 0.0311589
0.0249943 0.0597696 0.0299382
0.0780194 0.0530556 0.0193027
0.361471 0.0249943 0
0.753017 0.0249943 0
0.925002 0.0249943 0
0.949996 0.0249943 0
0.975006 0.0249943 0
1 0.0249943 0
0 0.136309 0.00254826
0.0249943 0.140154 0.00140383
0.0598764 0.13991 0
0.347417 0.0964981 0
0.781796 0.0500038 0
0.925002 0.0500038 0
0.949996 0.0500038 0
0.975006 0.0500038 0
1 0.0500038 0
0 0.272084 0
0.0249943 0.291844 0
0.0500038 0.314992 0
0.280476 0.283406 0.0141604
0.730907 0.23714 0
0.925002 0.216571 0
0.949996 0.202991 0
0.975006 0.209583 0
1 0.23537 0
0 0.557778 0
0.0249943 0.595056 0
0.0500038 0.632883 0
0.16405 0.621271 0
0.635035 0.557153 0.0261387
0.925002 0.566308 0.0208743
0.949996 0.561807 0.0207828
0.975006 0.573327 0.0238346
1 0.598169 0.030396
0 0.872038 0
0.0249943 0.900832 0
0.0500038 0.917876 0
0.1075 0.916793 0
0.627298 0.846586 0.00112917
0.909422 0.820218 0.0860914
0.949996 0.814755 0.114046
0.975006 0.818586 0.117113
1 0.827787 0.123919
0.0112306 0.949996 0.00862135
0.0362249 0.949996 0.00862135
0.0612345 0.949996 0.00862135
0.156207 0.949996 0
0.629465 0.949996 0
0.906828 0.941863 0.149767
0.949996 0.940764 0.199863
0.975006 0.940764 0.199863
1 0.940764 0.199863
0.0112306 0.975006 0.00862135
0.0362249 0.975006 0.00862135
0.0612345 0.975006 0.00862135
0.171466 0.975006 0
0.64126 0.975006 0
0.907317 0.966873 0.148104
0.949996 0.965759 0.199863
0.975006 0.965759 0.199863
1 0.965759 0.199863
0.0112306 1 0.00862135
0.0362249 1 0.00862135
0.0612345 1 0.00862135
0.202411 1 0
0.662455 1 0.00112917
0.906462 0.991882 0.149386
0.949996 0.990753 0.199863
0.975006 0.990753 0.199863
1 0.990753 0.199863
0 0.00407416 0.11339
0.0249943 0.00407416 0.112261
0.085832 0.000350958 0.0969406
0.352178 0 0.0351568
0.732799 0 0.0249943
0.925002 0 0.0249943
0.949996 0 0.0249943
0.975006 0 0.0249943
1 0 0.0249943
0.000320439 0.0567178 0.103334
0.0253147 0.0567788 0.102556
0.0787518 0.0514076 0.0888228
0.365301 0.0249943 0.035584
0.75845 0.0249943 0.0249943
0.925002 0.0249943 0.0249943
0.949996 0.0249943 0.0249943
0.975006 0.0249943 0.0249943
1 0.0249943 0.0249943
0 0.13492 0.075761
0.0249943 0.139254 0.0777447
0.0601816 0.14081 0.0704204
0.362997 0.0973983 0.0280308
0.794659 0.0500649 0.0249943
0.925002 0.0500038 0.0249943
0.949996 0.0500038 0.0249943
0.975006 0.0500038 0.0249943
1 0.0500038 0.0249943
0 0.27866 0.0249943
0.0249943 0.300618 0.0249943
0.0500038 0.325902 0.0249943
0.297322 0.293355 0.0415045
0.749203 0.248692 0.0249943
0.925002 0.227039 0.0249943
0.949996 0.213428 0.0249943
0.975006 0.219883 0.0249943
1 0.249348 0.0249943
0 0.570703 0.0249943
0.0249943 0.608789 0.0249943
0.0500038 0.647547 0.0249943
0.182269 0.631998 0.0249943
0.652506 0.569924 0.0525216
0.925002 0.57882 0.0493629
0.949996 0.573297 0.0488136
0.975006 0.584863 0.0517739
1 0.609415 0.0584268
0 0.881926 0.0249943
0.0249943 0.909682 0.0249943
0.0500038 0.921233 0.0249943
0.122194 0.921675 0.0249943
0.646265 0.851896 0.0261082
0.917556 0.827359 0.120974
0.949996 0.821134 0.143694
0.975006 0.823972 0.146227
1 0.832715 0.152728
0.0112306 0.949996 0.0336156
0.0362249 0.949996 0.0336156
0.0612345 0.949996 0.0336156
0.165606 0.949996 0.0249943
0.644129 0.949996 0.0249943
0.910613 0.94168 0.180545
0.949996 0.940764 0.224872
0.975006 0.940764 0.224872
1 0.940764 0.224872
0.0112306 0.975006 0.0336156
0.0362249 0.975006 0.0336156
0.0612345 0.975006 0.0336156
0.177768 0.975006 0.0249943
0.648447 0.975006 0.0249943
0.909789 0.966766 0.176364
0.949996 0.965759 0.224872
0.975006 0.965759 0.224872
1 0.965759 0.224872
0.0112306 1 0.0336156
0.0362249 1 0.0336156
0.0612345 1 0.0336156
0.206744 1 0.0249943
0.665827 1 0.0264439
0.90782 0.991806 0.17641
0.949996 0.990753 0.224872
0.975006 0.990753 0.224872
1 0.990753 0.224872
0 3.0518e-05 0.235462
0.0249943 0 0.233463
0.0785229 0 0.212802
0.343893 0 0.137362
0.730327 0 0.0500038
0.925002 0 0.0500038
0.949996 0 0.0500038
0.975006 0 0.0500038
1 0 0.0500038
0 0.0522011 0.218952
0.0249943 0.0524605 0.21796
0.0737621 0.0467231 0.205203
0.362036 0.0249943 0.139559
0.760891 0.0249943 0.0549172
0.925002 0.0249943 0.0500038
0.949996 0.0249943 0.0500038
0.975006 0.0249943 0.0500038
1 0.0249943 0.0500038
0.00151064 0.125917 0.19762
0.0260471 0.130602 0.203433
0.067155 0.133639 0.198062
0.374334 0.0951553 0.129259
0.805005 0.0501106 0.0567788
0.925002 0.0500038 0.0505531
0.949996 0.0500038 0.0500038
0.975006 0.0500038 0.0500038
1 0.0500038 0.0500038
0 0.281529 0.09514
0.0249943 0.305592 0.101396
0.0500038 0.331563 0.108507
0.308232 0.304158 0.124178
0.773816 0.25771 0.0584268
0.925002 0.232807 0.0501564
0.949996 0.220295 0.0500038
0.975006 0.227573 0.0500038
1 0.258412 0.0500038
0 0.581628 0.0500038
0.0249943 0.620676 0.0500038
0.0500038 0.659297 0.0500038
0.193942 0.642023 0.0500038
0.667689 0.582177 0.0918135
0.925002 0.588373 0.0776837
0.949996 0.581521 0.0760052
0.975006 0.592309 0.0788128
1 0.617029 0.0858778
0 0.889281 0.0500038
0.0249943 0.912963 0.0500038
0.0500038 0.923781 0.0500038
0.137713 0.925002 0.0500038
0.649073 0.815198 0.0833143
0.923995 0.832074 0.15407
0.949996 0.824643 0.171557
0.975006 0.826658 0.173266
1 0.834745 0.179446
0.0112306 0.949996 0.0586099
0.0362249 0.949996 0.0586099
0.0612345 0.949996 0.0586099
0.173312 0.949996 0.0500038
0.654139 0.949996 0.0500038
0.912795 0.941558 0.209201
0.949996 0.940764 0.249866
0.975006 0.940764 0.249866
1 0.940764 0.249866
0.0112306 0.975006 0.0586099
0.0362249 0.975006 0.0586099
0.0611734 0.975006 0.0587167
0.182116 0.975006 0.0500038
0.652674 0.975006 0.0500038
0.91136 0.966705 0.202808
0.949996 0.965759 0.249866
0.975006 0.965759 0.249866
1 0.965759 0.249866
0.0112306 1 0.0586099
0.0359808 1 0.0591135
0.0610971 1 0.0588693
0.208392 1 0.0500038
0.66627 1 0.0513008
0.907652 0.991806 0.201068
0.949996 0.990753 0.249866
0.975006 0.990753 0.249866
1 0.990753 0.249866
0 0 0.547295
0.0249943 0 0.544137
0.0542916 0 0.518151
0.313695 0 0.401862
0.710216 0 0.246326
0.925002 0 0.156878
0.949996 0 0.121706
0.975006 0 0.106249
1 0 0.0971695
0 0.0315099 0.530938
0.0249943 0.0320592 0.530312
0.0568399 0.0280766 0.515419
0.335332 0.0249943 0.414664
0.745388 0.0249943 0.270268
0.925002 0.0249943 0.182208
0.949996 0.0249943 0.15111
0.975006 0.0249943 0.144732
1 0.0249943 0.146349
0 0.11223 0.480629
0.0249943 0.117128 0.49221
0.0543679 0.120394 0.494469
0.360159 0.0823072 0.416114
0.799252 0.0500038 0.304768
0.925002 0.0500038 0.232746
0.949996 0.0500038 0.203555
0.975006 0.0500038 0.20412
1 0.0500038 0.228351
0 0.254276 0.407095
0.0249943 0.277089 0.438483
0.0500038 0.302266 0.468467
0.300649 0.308156 0.342397
0.795544 0.253574 0.276173
0.925002 0.227756 0.23946
0.949996 0.213764 0.216861
0.975006 0.22237 0.21677
1 0.254047 0.243061
0 0.579812 0.218235
0.0249943 0.616617 0.249027
0.0500038 0.652735 0.28452
0.170397 0.656794 0.200092
0.66601 0.590967 0.268742
0.925002 0.59176 0.198322
0.949996 0.584283 0.185931
0.975006 0.59469 0.188952
1 0.618616 0.20911
0 0.894759 0.115023
0.0249943 0.917494 0.142687
0.0500038 0.924651 0.17557
0.124346 0.925002 0.139773
0.63888 0.817716 0.233356
0.923751 0.832425 0.236408
0.949996 0.825238 0.223651
0.975006 0.826459 0.221073
1 0.8336 0.226017
0 0.949996 0.153262
0.0249943 0.949996 0.167605
0.0500038 0.949996 0.18732
0.123049 0.949996 0.117723
0.63711 0.949996 0.145785
0.907134 0.944976 0.251347
0.949996 0.943374 0.276204
0.975006 0.94287 0.2766
1 0.942626 0.276921
0 0.975006 0.163577
0.0249943 0.975006 0.18323
0.0500038 0.975006 0.191852
0.130205 0.975006 0.109972
0.632105 0.975006 0.0988937
0.910216 0.971191 0.22121
0.949996 0.967178 0.276799
0.975006 0.966659 0.276524
1 0.966461 0.276463
0 1 0.207889
0.0249943 1 0.229999
0.0500038 1 0.223499
0.14992 1 0.121798
0.641749 1 0.101884
0.905715 0.99588 0.216892
0.949996 0.991623 0.276768
0.975006 0.991196 0.276081
1 0.991012 0.275669
0 0 0.893858
0.0249943 0 0.892714
0.0500038 0 0.883848
0.270008 0 0.799756
0.671443 0 0.648737
0.925002 0 0.521859
0.949996 0 0.45124
0.975006 0 0.426627
1 0 0.414939
0 0.0249943 0.890288
0.0249943 0.0249943 0.890364
0.0500343 0.0249943 0.885832
0.29453 0.0249943 0.818692
0.712184 0.0249943 0.684642
0.925002 0.0249943 0.569863
0.949996 0.0249943 0.52639
0.975006 0.0249943 0.53225
1 0.0249943 0.549645
0 0.0875563 0.868437
0.0249943 0.0934005 0.88101
0.0500038 0.0977188 0.890501
0.332723 0.0608682 0.835782
0.777935 0.0500038 0.741466
0.925002 0.0500038 0.668849
0.949996 0.0500038 0.644572
0.975006 0.0500038 0.655604
1 0.0500038 0.692775
0 0.238071 0.781155
0.0249943 0.262135 0.814069
0.0500038 0.288884 0.842802
0.288365 0.289265 0.79443
0.784802 0.235447 0.738079
0.925002 0.211139 0.700328
0.949996 0.198276 0.677836
0.975006 0.206851 0.689723
1 0.236957 0.730541
0 0.536721 0.738872
0.0249943 0.572106 0.775479
0.0500038 0.607126 0.809796
0.21355 0.615579 0.751781
0.667643 0.593317 0.60531
0.925002 0.573999 0.573556
0.949996 0.566827 0.56051
0.975006 0.576181 0.567102
1 0.597787 0.590997
0 0.862409 0.662821
0.0249943 0.890867 0.712428
0.0500038 0.916869 0.761028
0.111894 0.916915 0.693996
0.585245 0.868864 0.50106
0.904021 0.822126 0.565316
0.949996 0.816297 0.539879
0.975006 0.816632 0.537591
1 0.82211 0.547707
0 0.949996 0.656901
0.0249943 0.949996 0.69987
0.0500038 0.949996 0.739147
0.0915389 0.949996 0.64863
0.551324 0.949996 0.447837
0.870344 0.938018 0.576989
0.949996 0.944915 0.522728
0.975006 0.945052 0.509224
1 0.944671 0.502724
0 0.975006 0.704051
0.0249943 0.975006 0.737148
0.0500038 0.975006 0.745327
0.0946059 0.975006 0.636957
0.545129 0.975006 0.429725
0.870558 0.97084 0.577157
0.949996 0.969696 0.546181
0.975006 0.970474 0.474739
1 0.970626 0.462455
0 1 0.774563
0.0249943 1 0.796338
0.0500038 1 0.78616
0.110842 1 0.652247
0.547524 1 0.429175
0.869047 0.99588 0.572473
0.949996 0.994797 0.540825
0.975006 0.995758 0.451682
1 0.995956 0.435935
0 0 0.925002
0.0249943 0 0.925002
0.0500038 0 0.925002
0.229419 0 0.925002
0.631327 0 0.925002
0.922087 0 0.886625
0.949996 0 0.833234
0.975006 0 0.823392
1 0 0.822232
0 0.0249943 0.925002
0.0249943 0.0249943 0.925002
0.0500038 0.0249943 0.925002
0.258335 0.0249943 0.925002
0.674022 0.0249943 0.925002
0.923888 0.0249943 0.901808
0.949996 0.0249943 0.877195
0.975006 0.0249943 0.883284
1 0.0249943 0.892363
0 0.0757763 0.925002
0.0249943 0.082063 0.925002
0.0500038 0.0875257 0.925002
0.313451 0.0545815 0.925002
0.750805 0.0500038 0.925002
0.925002 0.0500038 0.923247
0.949996 0.0500038 0.919844
0.975006 0.0500038 0.920729
1 0.0500038 0.924254
0 0.22797 0.925002
0.0249943 0.25301 0.925002
0.0500038 0.281117 0.925002
0.284199 0.277531 0.925002
0.782757 0.224872 0.925002
0.925002 0.201984 0.925002
0.949996 0.189914 0.925002
0.975006 0.198901 0.925002
1 0.230045 0.925002
0 0.528069 0.925002
0.0249943 0.561791 0.925002
0.0500038 0.594812 0.925002
0.217975 0.610742 0.925002
0.666285 0.584695 0.924514
0.925002 0.561852 0.923934
0.949996 0.554086 0.91812
0.975006 0.563088 0.923064
1 0.584222 0.920592
0 0.826505 0.925002
0.0341192 0.852461 0.925002
0.0810407 0.874907 0.925002
0.181964 0.880232 0.925002
0.604517 0.839323 0.918532
0.904234 0.81236 0.823758
0.949996 0.802029 0.807095
0.975006 0.801785 0.803143
1 0.806607 0.804715
0.0236362 0.949996 0.925002
0.0598611 0.949996 0.925002
0.0949111 0.949996 0.925002
0.148714 0.949996 0.925002
0.53756 0.949996 0.888273
0.870588 0.949035 0.78587
0.949996 0.946059 0.790204
0.975006 0.94583 0.781216
1 0.941863 0.774868
0.0324407 0.975006 0.925002
0.0672618 0.975006 0.925002
0.0935531 0.975006 0.925002
0.146456 0.975006 0.925002
0.52108 0.975006 0.871504
0.850431 0.974258 0.763912
0.949996 0.970901 0.783703
0.975006 0.970275 0.75581
1 0.970092 0.746349
0.0535134 1 0.925002
0.0858625 1 0.925002
0.106401 1 0.925002
0.158267 1 0.925002
0.515801 1 0.86421
0.841474 0.998962 0.742947
0.949996 0.995926 0.784695
0.975006 0.995026 0.74229
1 0.994751 0.724575
0 0 0.949996
0.0249943 0 0.949996
0.0500038 0 0.949996
0.212665 0 0.949996
0.610239 0 0.949996
0.893416 0 0.949996
0.949996 0 0.949996
0.975006 0 0.94992
1 0 0.949996
0 0.0249943 0.949996
0.0249943 0.0249943 0.949996
0.0500038 0.0249943 0.949996
0.245792 0.0249943 0.949996
0.662867 0.0249943 0.949996
0.922515 0.0249943 0.949996
0.949996 0.0249943 0.949996
0.975006 0.0249943 0.949996
1 0.0249943 0.949996
0 0.0670176 0.949996
0.0249943 0.0739452 0.949996
0.0500038 0.0802472 0.949996
0.309041 0.0528725 0.949996
0.749081 0.0500038 0.949996
0.925002 0.0500038 0.949996
0.949996 0.0500038 0.949996
0.975006 0.0500038 0.949996
1 0.0500038 0.949996
0 0.221134 0.949996
0.0249943 0.246815 0.949996
0.0500038 0.274708 0.949996
0.286885 0.271015 0.949996
0.783444 0.219089 0.949996
0.925002 0.197055 0.949996
0.949996 0.185931 0.949996
0.975006 0.195178 0.949996
1 0.227787 0.949996
0 0.525444 0.949996
0.0249943 0.557687 0.949996
0.0501259 0.590661 0.949996
0.219409 0.607736 0.949996
0.670207 0.581399 0.949996
0.925002 0.558618 0.949996
0.949996 0.550713 0.949996
0.975006 0.558968 0.949996
1 0.579919 0.949996
0.0367132 0.814511 0.949996
0.0708171 0.841703 0.949996
0.104723 0.866926 0.949996
0.196384 0.873167 0.949996
0.614221 0.832731 0.949996
0.905104 0.808164 0.949996
0.949996 0.794949 0.949996
0.975006 0.793835 0.949996
1 0.797848 0.949996
0.0779583 0.949996 0.949996
0.102953 0.949996 0.949996
0.127947 0.949996 0.949996
0.176165 0.949996 0.949996
0.573831 0.949996 0.949996
0.860868 0.948226 0.949996
0.949996 0.949554 0.945342
0.975006 0.94815 0.941848
1 0.941421 0.937148
0.0779583 0.975006 0.949996
0.102953 0.975006 0.949996
0.127947 0.975006 0.949996
0.177737 0.975006 0.949996
0.561669 0.97496 0.949996
0.843137 0.973236 0.94995
0.949996 0.974731 0.936522
0.975006 0.974426 0.926513
1 0.974121 0.917128
0.0779583 1 0.949996
0.102953 1 0.949996
0.127947 1 0.949996
0.178988 1 0.949996
0.554452 1 0.949996
0.825849 0.998688 0.947021
0.949996 0.999298 0.922683
0.975006 0.99884 0.908248
1 0.998489 0.897032
0 0 0.975006
0.0249943 0 0.975006
0.0500038 0 0.975006
0.205646 0 0.975006
0.603845 0 0.975006
0.891585 0 0.975006
0.949996 0 0.975006
0.975006 0 0.975006
1 0 0.975006
0 0.0249943 0.975006
0.0249943 0.0249943 0.975006
0.0500038 0.0249943 0.975006
0.242939 0.0249943 0.975006
0.664302 0.0249943 0.975006
0.921798 0.0249943 0.975006
0.949996 0.0249943 0.975006
0.975006 0.0249943 0.975006
1 0.0249943 0.975006
0 0.0633097 0.975006
0.0249943 0.0705425 0.975006
0.0500038 0.0774243 0.975006
0.314809 0.0503243 0.975006
0.757946 0.0500038 0.975006
0.925002 0.0500038 0.975006
0.949996 0.0500038 0.975006
0.975006 0.0500038 0.975006
1 0.0500038 0.975006
0 0.220523 0.975006
0.0249943 0.247868 0.975006
0.0500038 0.276997 0.975006
0.297749 0.272099 0.975006
0.790814 0.220722 0.975006
0.925002 0.198596 0.975006
0.949996 0.187701 0.975006
0.975006 0.197787 0.975006
1 0.233173 0.975006
0 0.528527 0.975006
0.0249943 0.56022 0.975006
0.0501259 0.594415 0.975006
0.228595 0.611032 0.975006
0.679393 0.583764 0.975006
0.925002 0.560861 0.975006
0.949996 0.553017 0.975006
0.975006 0.559777 0.975006
1 0.580941 0.975006
0.0376898 0.81799 0.975006
0.0719005 0.844877 0.975006
0.105623 0.869291 0.975006
0.203418 0.874525 0.975006
0.619043 0.83357 0.975006
0.906004 0.808194 0.975006
0.949996 0.794171 0.975006
0.975006 0.792309 0.975006
1 0.795926 0.975006
0.0779583 0.949996 0.975006
0.102953 0.949996 0.975006
0.127947 0.949996 0.975006
0.178714 0.949996 0.975006
0.575326 0.949996 0.975006
0.861143 0.948165 0.975006
0.949996 0.949996 0.975006
0.975006 0.944915 0.975006
1 0.938231 0.975006
0.0779583 0.975006 0.975006
0.102953 0.975006 0.975006
0.127947 0.975006 0.975006
0.176959 0.975006 0.975006
0.559533 0.974975 0.975006
0.842817 0.972641 0.975006
0.949996 0.975006 0.975006
0.975006 0.975006 0.975006
1 0.975006 0.975006
0.0779583 1 0.975006
0.102953 1 0.975006
0.127947 1 0.975006
0.177035 1 0.975006
0.550561 1 0.975006
0.826719 0.997223 0.975006
0.949996 1 0.975006
0.975006 1 0.975006
1 1 0.97464
0 0 1
0.0249943 0 1
0.0500038 0 1
0.200824 0 1
0.600015 0 1
0.89102 0 1
0.949996 0 1
0.975006 0 1
1 0 1
0 0.0249943 1
0.0249943 0.0249943 1
0.0500038 0.0249943 1
0.242847 0.0249943 1
0.669398 0.0249943 1
0.920699 0.0249943 1
0.949996 0.0249943 1
0.975006 0.0249943 1
1 0.0249943 1
0 0.0607004 1
0.0249943 0.068574 1
0.0500038 0.0763714 1
0.326863 0.0500038 1
0.765118 0.0500038 1
0.925002 0.0500038 1
0.949996 0.0500038 1
0.975006 0.0500038 1
1 0.0500038 1
0 0.222644 1
0.0249943 0.250751 1
0.0500038 0.282734 1
0.31191 0.277592 1
0.802228 0.226307 1
0.925002 0.204013 1
0.949996 0.195087 1
0.975006 0.207553 1
1 0.247745 1
0 0.533165 1
0.0249943 0.564813 1
0.0500038 0.601343 1
0.240314 0.61825 1
0.69102 0.589288 1
0.925002 0.566247 1
0.949996 0.559014 1
0.975006 0.566369 1
1 0.58851 1
0.0392157 0.822446 1
0.0735027 0.849653 1
0.107393 0.874083 1
0.211902 0.878752 1
0.625803 0.836072 1
0.906813 0.809735 1
0.949996 0.795117 1
0.975006 0.79292 1
1 0.796902 1
0.0779583 0.949996 1
0.102953 0.949996 1
0.127947 0.949996 1
0.182864 0.949996 1
0.578607 0.949996 1
0.862272 0.948211 1
0.949996 0.949798 1
0.975006 0.941985 1
1 0.935943 1
0.0779583 0.975006 1
0.102953 0.975006 1
0.127947 0.975006 1
0.177264 0.975006 1
0.55964 0.974975 1
0.841901 0.972625 1
0.949996 0.975006 1
0.975006 0.975006 1
1 0.975006 1
0.0779583 1 1
0.102953 1 1
0.127947 1 1
0.176959 1 1
0.549462 1 1
0.825299 0.997192 1
0.949996 1 1
0.975006 1 1
1 1 1
