LUT color transfer/LUTs/71.cube
TITLE "Generate by Resolve"
LUT_3D_SIZE 33
0 0.00686656 0.03888
0.00624094 0.0068513 0.0386206
0.0124971 0.0068513 0.0384375
0.0187533 0.00688182 0.0382849
0.0249943 0.0068513 0.0379797
0.0312505 0.00683604 0.0376593
0.0389563 0.00509651 0.0352941
0.0567178 0.00311284 0.0322423
0.0877546 0.00111391 0.0278019
0.13193 0 0.0210269
0.188739 0 0.0116579
0.258442 0 0.00140383
0.352316 0 0
0.459876 0 0
0.557336 0 0
0.643061 0 0
0.731868 0 0
0.818906 0 0
0.891447 0 0
0.917021 0 0
0.925002 0 0
0.931243 0 0
0.937499 0 0
0.943755 0 0
0.949996 0 0
0.956252 0 0
0.962493 0 0
0.96875 0 0
0.975006 0 0
0.981247 0 0
0.987503 0 0
0.993744 0 0
1 0 0
0.000167849 0.0186923 0.0372625
0.00642405 0.018616 0.0370336
0.0126802 0.0186313 0.0368505
0.0189364 0.0186007 0.0366522
0.0251926 0.0185092 0.0363775
0.0314488 0.0183719 0.0361791
0.0389563 0.0167086 0.0340581
0.0554818 0.0143893 0.0308537
0.0858625 0.0110475 0.0265202
0.130694 0.00755322 0.0204166
0.188006 0.00630198 0.0115969
0.258045 0.00624094 0.00146487
0.35201 0.00624094 0
0.460166 0.00624094 0
0.55758 0.00624094 0
0.643793 0.00624094 0
0.733089 0.00624094 0
0.820523 0.00624094 0
0.892134 0.00624094 0
0.917144 0.00624094 0
0.925002 0.00624094 0
0.931243 0.00624094 0
0.937499 0.00624094 0
0.943755 0.00624094 0
0.949996 0.00624094 0
0.956252 0.00624094 0
0.962493 0.00624094 0
0.96875 0.00624094 0
0.975006 0.00624094 0
0.981247 0.00624094 0
0.987503 0.00624094 0
0.993744 0.00624094 0
1 0.00624094 0
0.000228885 0.0309453 0.0358892
0.00648508 0.0308995 0.0356298
0.0127565 0.0308232 0.0353246
0.0190127 0.0307927 0.0351263
0.0252842 0.0306706 0.0349432
0.0315404 0.030457 0.0347295
0.0388342 0.0290684 0.0327611
0.0542153 0.0269017 0.0291447
0.0837262 0.0228733 0.0244602
0.129351 0.0167086 0.0188296
0.18764 0.0128939 0.0105135
0.258457 0.0124971 0.00123598
0.354162 0.0124971 0
0.462654 0.0124971 0
0.560143 0.0124971 0
0.646693 0.0124971 0
0.736721 0.0124971 0
0.82446 0.0124971 0
0.893751 0.0124971 0
0.917372 0.0124971 0
0.925002 0.0124971 0
0.931243 0.0124971 0
0.937499 0.0124971 0
0.943755 0.0124971 0
0.949996 0.0124971 0
0.956252 0.0124971 0
0.962493 0.0124971 0
0.96875 0.0124971 0
0.975006 0.0124971 0
0.981247 0.0124971 0
0.987503 0.0124971 0
0.993744 0.0124971 0
1 0.0124971 0
7.62951e-05 0.0446479 0.034699
0.00631724 0.0445716 0.0343633
0.0125887 0.0445411 0.0341039
0.0188296 0.0445258 0.033875
0.0250858 0.04448 0.0336461
0.031342 0.0442817 0.0334173
0.0379797 0.043061 0.0318761
0.0521401 0.0412146 0.0276493
0.0809339 0.0374456 0.0219272
0.127398 0.0302281 0.0162509
0.187137 0.0226596 0.00863661
0.259861 0.0188907 0.000793469
0.358175 0.0187533 0
0.467674 0.0187533 0
0.565881 0.0187533 0
0.652827 0.0187533 0
0.743404 0.0187533 0
0.831159 0.0187533 0
0.896208 0.0187533 0
0.917723 0.0187533 0
0.925002 0.0187533 0
0.931243 0.0187533 0
0.937499 0.0187533 0
0.943755 0.0187533 0
0.949996 0.0187533 0
0.956252 0.0187533 0
0.962493 0.0187533 0
0.96875 0.0187533 0
0.975006 0.0187533 0
0.981247 0.0187533 0
0.987503 0.0187533 0
0.993744 0.0187533 0
1 0.0187533 0
0 0.0596933 0.0311589
0.00624094 0.0596628 0.0308537
0.0124971 0.0596475 0.0305486
0.0187533 0.0597696 0.0302281
0.0249943 0.0597696 0.0299382
0.0312505 0.0596475 0.0296941
0.0374914 0.0586252 0.0287022
0.0500343 0.0569009 0.0245975
0.0780194 0.0530556 0.0193027
0.1252 0.0459754 0.0135042
0.186267 0.0360266 0.00581369
0.260151 0.0255283 0.000274662
0.361471 0.0249943 0
0.473442 0.0249943 0
0.572412 0.0249943 0
0.66067 0.0249943 0
0.753017 0.0249943 0
0.840711 0.0249943 0
0.900053 0.0249943 0
0.918212 0.0249943 0
0.925002 0.0249943 0
0.931243 0.0249943 0
0.937499 0.0249943 0
0.943755 0.0249943 0
0.949996 0.0249943 0
0.956252 0.0249943 0
0.962493 0.0249943 0
0.96875 0.0249943 0
0.975006 0.0249943 0
0.981247 0.0249943 0
0.987503 0.0249943 0
0.993744 0.0249943 0
1 0.0249943 0
0 0.0761883 0.0256046
0.00624094 0.0762493 0.0252232
0.0124971 0.0764324 0.0247501
0.0187533 0.0766155 0.0243229
0.0249943 0.0767376 0.0239261
0.0312505 0.0767224 0.0235752
0.0374914 0.0761883 0.022797
0.0478676 0.0746624 0.0191348
0.0741741 0.0706188 0.0170443
0.121218 0.0639048 0.0134432
0.183001 0.0542458 0.00355535
0.258991 0.0405432 1.5259e-05
0.363928 0.0326543 0
0.478782 0.0312505 0
0.578531 0.0312505 0
0.668498 0.0312505 0
0.762478 0.0312505 0
0.84976 0.0312505 0
0.903777 0.0312505 0
0.91873 0.0312505 0
0.925002 0.0312505 0
0.931243 0.0312505 0
0.937499 0.0312505 0
0.943755 0.0312505 0
0.949996 0.0312505 0
0.956252 0.0312505 0
0.962493 0.0312505 0
0.96875 0.0312505 0
0.975006 0.0312505 0
0.981247 0.0312505 0
0.987503 0.0312505 0
0.993744 0.0312505 0
1 0.0312505 0
0 0.094377 0.018265
0.00624094 0.0945602 0.0178683
0.0124971 0.0948653 0.017319
0.0187533 0.0952773 0.0167697
0.0249943 0.0955978 0.0162661
0.0312505 0.0957809 0.0158083
0.0374914 0.0957198 0.0152132
0.0453803 0.0944839 0.012726
0.0702678 0.0902876 0.0119478
0.116991 0.0836042 0.0128176
0.177493 0.0750286 0.00329595
0.256062 0.0614176 0
0.364004 0.044007 0
0.482231 0.0375677 0
0.583185 0.0374914 0
0.675868 0.0374914 0
0.771847 0.0374914 0
0.858213 0.0374914 0
0.9075 0.0374914 0
0.918746 0.0374914 0
0.925002 0.0374914 0
0.931243 0.0374914 0
0.937499 0.0374914 0
0.943755 0.0374914 0
0.949996 0.0374914 0
0.956252 0.0374914 0
0.962493 0.0374914 0
0.96875 0.0374914 0
0.975006 0.0374914 0
0.981247 0.0374914 0
0.987503 0.0374914 0
0.993744 0.0374914 0
1 0.0374914 0
0 0.114214 0.0102846
0.00624094 0.114626 0.00987259
0.0124971 0.115145 0.00924697
0.0187533 0.115801 0.00862135
0.0249943 0.116442 0.00796521
0.0312505 0.11696 0.00738537
0.0374914 0.117388 0.00695811
0.0439612 0.116808 0.0055848
0.0656138 0.113069 0.00494392
0.112062 0.106096 0.0102693
0.169665 0.0986191 0.00622568
0.248493 0.086244 0
0.359091 0.0661784 0
0.481224 0.0447089 0
0.584314 0.0437476 0
0.680323 0.0437476 0
0.778592 0.0437476 0
0.865934 0.0437476 0
0.911116 0.0437476 0
0.918746 0.0437476 0
0.925002 0.0437476 0
0.931243 0.0437476 0
0.937499 0.0437476 0
0.943755 0.0437476 0
0.949996 0.0437476 0
0.956252 0.0437476 0
0.962493 0.0437476 0
0.96875 0.0437476 0
0.975006 0.0437476 0
0.981247 0.0437476 0
0.987503 0.0437476 0
0.993744 0.0437476 0
1 0.0437476 0
0 0.136309 0.00254826
0.00624094 0.137118 0.00238041
0.0124971 0.138018 0.00204471
0.0187533 0.139116 0.00170901
0.0249943 0.140154 0.00140383
0.0312505 0.141131 0.00111391
0.0374914 0.142184 0.0010071
0.0437476 0.142535 0.000595102
0.0598764 0.13991 0
0.104799 0.132448 0.00502022
0.162921 0.124773 0.0107118
0.236042 0.115129 0.00166323
0.347417 0.0964981 0
0.474434 0.0738079 0
0.580362 0.0555123 0
0.680095 0.0500038 0
0.781796 0.0500038 0
0.872648 0.0500038 0
0.912383 0.0500038 0
0.918746 0.0500038 0
0.925002 0.0500038 0
0.931243 0.0500038 0
0.937499 0.0500038 0
0.943755 0.0500038 0
0.949996 0.0500038 0
0.956252 0.0500038 0
0.962493 0.0500038 0
0.96875 0.0500038 0
0.975006 0.0500038 0
0.981247 0.0500038 0
0.987503 0.0500038 0
0.993744 0.0500038 0
1 0.0500038 0
0 0.161715 0
0.00624094 0.163073 0
0.0124971 0.164508 0
0.0187533 0.166125 0
0.0249943 0.167773 0
0.0312505 0.169238 0
0.0374914 0.170977 0
0.0437476 0.172366 0
0.0538949 0.171099 0
0.0917372 0.164324 0.00112917
0.156863 0.155032 0.0104372
0.223774 0.147509 0.0102083
0.327718 0.132753 0.0009308
0.458671 0.111238 0
0.569421 0.0922103 0
0.674067 0.0743877 0
0.780468 0.0608225 0
0.875761 0.0575265 0
0.912505 0.057023 0
0.918746 0.0571908 0
0.925002 0.0572366 0
0.931243 0.0570687 0
0.937499 0.0564889 0
0.943755 0.0562448 0
0.949996 0.0562448 0
0.956252 0.0562448 0
0.962493 0.0562448 0
0.96875 0.05626 0
0.975006 0.0562448 0
0.981247 0.0562448 0
0.987503 0.0562448 0
0.993744 0.0562448 0
1 0.0564584 0
0 0.191485 0
0.00624094 0.193469 0
0.0124971 0.195605 0
0.0187533 0.197955 0
0.0249943 0.200275 0
0.0312505 0.202487 0
0.0374914 0.204868 0
0.0437476 0.207584 0
0.05037 0.207919 0
0.0745251 0.203159 0
0.14493 0.192706 0.00456245
0.215442 0.184314 0.016022
0.306279 0.174273 0.007187
0.433753 0.156512 0
0.550286 0.138674 0
0.66038 0.121508 0
0.772808 0.106584 0
0.871748 0.0957351 0
0.912505 0.0924849 0
0.918746 0.0961929 0
0.925002 0.0911269 0
0.931243 0.0857862 0
0.937499 0.0822919 0
0.943755 0.0804303 0
0.949996 0.0779583 0
0.956252 0.0768139 0
0.962493 0.0775769 0
0.96875 0.0793622 0
0.975006 0.0814832 0
0.981247 0.0828107 0
0.987503 0.0835279 0
0.993744 0.0896315 0
1 0.0963302 0
0 0.226993 0
0.00624094 0.23003 0
0.0124971 0.233295 0
0.0187533 0.236637 0
0.0249943 0.240131 0
0.0312505 0.243519 0
0.0374914 0.246693 0
0.0437476 0.251545 0
0.0500038 0.253635 0
0.0624704 0.251102 0
0.121996 0.24155 0
0.206577 0.229374 0.0115053
0.291188 0.22121 0.0172122
0.404242 0.209476 0.00198367
0.521996 0.194705 0
0.637415 0.178973 0
0.757488 0.16463 0
0.862608 0.154803 0
0.912505 0.150134 0
0.918746 0.153216 0
0.925002 0.148211 0
0.931243 0.14287 0
0.937499 0.139101 0
0.943755 0.136599 0
0.949996 0.135409 0
0.956252 0.135454 0
0.962493 0.136034 0
0.96875 0.137316 0
0.975006 0.139651 0
0.981247 0.141924 0
0.987503 0.144533 0
0.993744 0.151614 0
1 0.159442 0
0 0.272084 0
0.00624094 0.276646 0
0.0124971 0.281636 0
0.0187533 0.286763 0
0.0249943 0.291844 0
0.0312505 0.297139 0
0.0374914 0.302602 0
0.0437476 0.310048 0
0.0500038 0.314992 0
0.0565499 0.314778 0
0.0911421 0.308431 0
0.184756 0.295201 0
0.280476 0.283406 0.0141604
0.386282 0.273686 0.0174105
0.492882 0.263386 0.00627146
0.604822 0.251087 0
0.730907 0.23714 0
0.844602 0.226886 0
0.909865 0.221164 0
0.918746 0.221332 0
0.925002 0.216571 0
0.931243 0.210819 0
0.937499 0.206729 0
0.943755 0.20415 0
0.949996 0.202991 0
0.956252 0.20325 0
0.962493 0.204425 0
0.96875 0.20676 0
0.975006 0.209583 0
0.981247 0.212558 0
0.987503 0.216083 0
0.993744 0.225406 0
1 0.23537 0
0 0.330098 0
0.00624094 0.33637 0
0.0124971 0.343297 0
0.0187533 0.351019 0
0.0249943 0.35848 0
0.0312505 0.366049 0
0.0374914 0.372869 0
0.0437476 0.382284 0
0.0500038 0.389288 0
0.0562448 0.390707 0
0.0704509 0.38735 0
0.149111 0.377462 0
0.263493 0.361105 0.00386053
0.375937 0.349264 0.0188754
0.475456 0.342184 0.0196994
0.575448 0.334737 0.0105287
0.696132 0.324071 9.15541e-05
0.813565 0.313771 0
0.898405 0.306432 0
0.918746 0.302388 0
0.925002 0.297658 0
0.931243 0.291173 0
0.937499 0.286641 0
0.943755 0.283833 0
0.949996 0.283024 0
0.956252 0.284031 0
0.962493 0.286061 0
0.96875 0.288991 0
0.975006 0.293599 0
0.981247 0.298573 0
0.987503 0.303532 0
0.993744 0.31426 0
1 0.325811 0
0 0.400046 0
0.00624094 0.408606 0
0.0124971 0.417762 0
0.0187533 0.426795 0
0.0249943 0.43566 0
0.0312505 0.444251 0
0.0374914 0.452262 0
0.0437476 0.462806 0
0.0500038 0.470787 0
0.0562448 0.473503 0
0.062501 0.471977 0
0.115526 0.465934 0
0.237018 0.449424 0
0.365133 0.433463 0.00643931
0.46949 0.426352 0.0201724
0.566186 0.420081 0.0220493
0.670924 0.412512 0.0134432
0.778607 0.404974 0.00387579
0.873106 0.39881 1.5259e-05
0.918746 0.394476 0
0.925002 0.389944 0
0.931243 0.383856 0
0.937499 0.379492 0
0.943755 0.377142 0
0.949996 0.376669 0
0.956252 0.378561 0
0.962493 0.381857 0
0.96875 0.386175 0
0.975006 0.391257 0
0.981247 0.396735 0
0.987503 0.402243 1.5259e-05
0.993744 0.414054 0
1 0.426459 0
0 0.478477 0
0.00624094 0.4878 0
0.0124971 0.49752 0
0.0187533 0.50721 0
0.0249943 0.516396 0
0.0312505 0.525017 0
0.0374914 0.532876 0
0.0437476 0.543587 0
0.0500038 0.551614 0
0.0562448 0.554574 0
0.062501 0.553552 0
0.0831464 0.550179 0
0.202716 0.537636 0
0.344152 0.517723 0.000167849
0.458762 0.505776 0.0113222
0.556542 0.497032 0.023209
0.654948 0.492729 0.0252384
0.754116 0.489296 0.0204929
0.84152 0.487144 0.0116884
0.918196 0.485603 0.0033875
0.925002 0.483421 0.00303655
0.931243 0.478782 0.00292973
0.937499 0.475273 0.00277714
0.943755 0.473625 0.0034638
0.949996 0.473945 0.00404364
0.956252 0.47628 0.00436408
0.962493 0.47982 0.00427253
0.96875 0.484459 0.00408942
0.975006 0.488777 0.00515755
0.981247 0.493889 0.00637827
0.987503 0.499184 0.00772107
0.993744 0.510094 0.00999466
1 0.520912 0.012314
0 0.557778 0
0.00624094 0.567117 0
0.0124971 0.576638 0
0.0187533 0.586038 0
0.0249943 0.595056 0
0.0312505 0.603647 0
0.0374914 0.61239 0
0.0437476 0.623865 0
0.0500038 0.632883 0
0.0562448 0.636316 0
0.062501 0.634852 0
0.0687419 0.631861 0
0.16405 0.621271 0
0.306706 0.59823 0
0.434836 0.573404 0.0021973
0.533959 0.554482 0.0166934
0.635035 0.557153 0.0261387
0.738216 0.564828 0.030808
0.820157 0.565133 0.0284123
0.89279 0.565896 0.022797
0.925002 0.566308 0.0208743
0.931243 0.563836 0.0213016
0.937499 0.561776 0.0208743
0.943755 0.561151 0.0206607
0.949996 0.561807 0.0207828
0.956252 0.56347 0.0212711
0.962493 0.565957 0.0219577
0.96875 0.56936 0.0228428
0.975006 0.573327 0.0238346
0.981247 0.578012 0.024979
0.987503 0.582147 0.0260929
0.993744 0.589868 0.0281682
1 0.598169 0.030396
0 0.638056 0
0.00624094 0.648432 0
0.0124971 0.658808 0
0.0187533 0.669276 0
0.0249943 0.678935 0
0.0312505 0.688136 0
0.0374914 0.69633 0
0.0437476 0.707774 0
0.0500038 0.715953 0
0.0562448 0.719203 0
0.062501 0.717723 0
0.0687419 0.715099 0
0.1355 0.703243 0
0.276753 0.670298 0
0.41352 0.634058 0
0.518502 0.609491 0.00723278
0.61297 0.610681 0.0220188
0.723659 0.635309 0.0339513
0.806119 0.63975 0.0390936
0.873808 0.63975 0.0381476
0.92224 0.639994 0.0377508
0.931243 0.63859 0.039704
0.937499 0.6365 0.0395209
0.943755 0.635706 0.0393072
0.949996 0.636286 0.0395056
0.956252 0.637827 0.0398871
0.962493 0.640284 0.0404974
0.96875 0.64332 0.041413
0.975006 0.64683 0.0426642
0.981247 0.650675 0.0439307
0.987503 0.654521 0.0451209
0.993744 0.66183 0.0473945
1 0.669657 0.049836
0 0.72221 0
0.00624094 0.732021 0
0.0124971 0.741817 0
0.0187533 0.751492 0
0.0249943 0.760632 0
0.0312505 0.76907 0
0.0374914 0.776379 0
0.0437476 0.786709 0
0.0500038 0.794873 0
0.0562448 0.798276 0
0.062501 0.797238 0
0.0687419 0.7944 0
0.1205 0.779385 0
0.264408 0.731762 0
0.401923 0.701152 0
0.517632 0.694667 0.000183108
0.624781 0.704692 0.0153048
0.723537 0.712551 0.0336767
0.799283 0.710552 0.0441138
0.86331 0.709789 0.0489509
0.913893 0.709728 0.0547646
0.931243 0.70901 0.0613718
0.937499 0.707164 0.0617075
0.943755 0.706477 0.0612802
0.949996 0.706813 0.061387
0.956252 0.707591 0.0618753
0.962493 0.709148 0.0626383
0.96875 0.711421 0.0635996
0.975006 0.714046 0.064622
0.981247 0.717006 0.0657054
0.987503 0.719615 0.066743
0.993744 0.724437 0.0690776
1 0.730129 0.0717937
0 0.801083 0
0.00624094 0.810239 0
0.0124971 0.819379 0
0.0187533 0.828031 0
0.0249943 0.83595 0
0.0312505 0.843824 0
0.0374914 0.850843 0
0.0437476 0.86038 0
0.0500038 0.867277 0
0.0562448 0.870253 0
0.062501 0.86923 0
0.0687419 0.866667 0
0.107347 0.862593 0
0.222889 0.850004 0
0.36585 0.827893 0
0.511742 0.805097 0
0.630335 0.787289 0.00740063
0.722683 0.776837 0.0298161
0.796658 0.772015 0.0455787
0.858564 0.769589 0.0557259
0.910399 0.768475 0.070222
0.931243 0.767178 0.0841382
0.937499 0.765438 0.0863966
0.943755 0.764355 0.0859388
0.949996 0.764248 0.0859083
0.956252 0.765042 0.0863355
0.962493 0.766339 0.0869459
0.96875 0.768322 0.0878004
0.975006 0.77026 0.0889601
0.981247 0.772213 0.0903182
0.987503 0.774014 0.0915236
0.993744 0.777569 0.0936599
1 0.782193 0.0964218
0 0.872038 0
0.00624094 0.879103 0
0.0124971 0.886442 0
0.0187533 0.893812 0
0.0249943 0.900832 0
0.0312505 0.907637 0
0.0374914 0.910811 0
0.0437476 0.915434 0
0.0500038 0.917876 0
0.0562448 0.918639 0
0.062501 0.91812 0
0.0687419 0.917647 0
0.1075 0.916793 0
0.212436 0.911482 0
0.348165 0.896254 0
0.498802 0.869963 0
0.627298 0.846586 0.00112917
0.722057 0.833432 0.0219272
0.796353 0.827131 0.0440223
0.857206 0.822995 0.061799
0.909422 0.820218 0.0860914
0.930907 0.817945 0.109316
0.937499 0.816098 0.115084
0.943755 0.815091 0.114412
0.949996 0.814755 0.114046
0.956252 0.815335 0.114244
0.962493 0.816098 0.114977
0.96875 0.817258 0.116014
0.975006 0.818586 0.117113
0.981247 0.820066 0.118257
0.987503 0.821424 0.119265
0.993744 0.824033 0.121157
1 0.827787 0.123919
0 0.921965 0
0.00624094 0.925216 0
0.0124971 0.928496 0
0.0187533 0.931243 0
0.0249943 0.931243 0
0.0312505 0.931243 0
0.0374914 0.931243 0
0.0437476 0.931243 0
0.0500038 0.931243 0
0.0562448 0.931243 0
0.062501 0.931243 0
0.0758831 0.931243 0
0.126879 0.931243 0
0.215625 0.931243 0
0.339254 0.930831 0
0.490745 0.924102 0
0.62623 0.900603 0
0.722438 0.885084 0.0128939
0.797772 0.877165 0.0431525
0.857389 0.871519 0.0716869
0.90869 0.866865 0.106905
0.930816 0.863584 0.139132
0.937499 0.861387 0.146517
0.943755 0.860029 0.145342
0.949996 0.859281 0.144747
0.956252 0.859205 0.144701
0.962493 0.859632 0.145098
0.96875 0.860395 0.145785
0.975006 0.861295 0.146532
0.981247 0.862242 0.147326
0.987503 0.863249 0.14815
0.993744 0.864927 0.149508
1 0.867887 0.152026
0 0.937499 0
0.00660716 0.937499 0.000274662
0.0151369 0.937499 0.00201419
0.0236973 0.937499 0.00381476
0.0321508 0.937499 0.00549325
0.0404974 0.937499 0.0071107
0.0486458 0.937499 0.00854505
0.0549783 0.937499 0.00862135
0.0612345 0.937499 0.00862135
0.0674754 0.937499 0.00862135
0.0737316 0.937499 0.00862135
0.0919356 0.937499 0.00343328
0.150805 0.937499 0
0.233906 0.937499 0
0.347036 0.937499 0
0.492515 0.937499 0
0.626612 0.936584 0
0.724392 0.928054 0.0128176
0.799664 0.920439 0.0494698
0.858854 0.913527 0.0900893
0.909514 0.908171 0.133577
0.931243 0.904433 0.169146
0.937499 0.901823 0.176593
0.943755 0.900008 0.175082
0.949996 0.898939 0.174121
0.956252 0.898466 0.173648
0.962493 0.898436 0.173632
0.96875 0.898787 0.173968
0.975006 0.899382 0.174533
0.981247 0.899947 0.175051
0.987503 0.900603 0.175662
0.993744 0.901793 0.17673
1 0.904021 0.178698
0.0112306 0.943755 0.00862135
0.0174716 0.943755 0.00862135
0.0237278 0.943755 0.00862135
0.029984 0.943755 0.00862135
0.0362249 0.943755 0.00862135
0.0424811 0.943755 0.00862135
0.0487221 0.943755 0.00862135
0.0549783 0.943755 0.00862135
0.0612345 0.943755 0.00862135
0.0674754 0.943755 0.00862135
0.0737316 0.943755 0.00862135
0.0882582 0.943755 0.00509651
0.153079 0.943755 0
0.23331 0.943755 0
0.350256 0.943755 0
0.495674 0.943755 0
0.627222 0.943755 0
0.725978 0.943755 0.0134585
0.799649 0.941985 0.0558633
0.859373 0.937911 0.103273
0.909499 0.935454 0.151278
0.931243 0.933181 0.186831
0.937499 0.93106 0.196063
0.943755 0.92929 0.195392
0.949996 0.927993 0.194247
0.956252 0.927321 0.193652
0.962493 0.927108 0.193454
0.96875 0.927504 0.19379
0.975006 0.928283 0.194461
0.981247 0.929427 0.195438
0.987503 0.930816 0.196658
0.993744 0.932509 0.198123
1 0.934112 0.199512
0.0112306 0.949996 0.00862135
0.0174716 0.949996 0.00862135
0.0237278 0.949996 0.00862135
0.029984 0.949996 0.00862135
0.0362249 0.949996 0.00862135
0.0424811 0.949996 0.00862135
0.0487221 0.949996 0.00862135
0.0549783 0.949996 0.00862135
0.0612345 0.949996 0.00862135
0.0674754 0.949996 0.00862135
0.0737316 0.949996 0.00862135
0.0940719 0.949996 0.00482185
0.156207 0.949996 0
0.237751 0.949996 0
0.353063 0.949996 0
0.49839 0.949996 0
0.629465 0.949996 0
0.725658 0.949996 0.0123903
0.798611 0.948119 0.0551156
0.858488 0.944183 0.1019
0.906828 0.941863 0.149767
0.931243 0.940902 0.185092
0.937499 0.940764 0.19794
0.943755 0.940764 0.199863
0.949996 0.940764 0.199863
0.956252 0.940764 0.199863
0.962493 0.940764 0.199863
0.96875 0.940764 0.199863
0.975006 0.940764 0.199863
0.981247 0.940764 0.199863
0.987503 0.940764 0.199863
0.993744 0.940764 0.199863
1 0.940764 0.199863
0.0112306 0.956252 0.00862135
0.0174716 0.956252 0.00862135
0.0237278 0.956252 0.00862135
0.029984 0.956252 0.00862135
0.0362249 0.956252 0.00862135
0.0424811 0.956252 0.00862135
0.0487221 0.956252 0.00862135
0.0549783 0.956252 0.00862135
0.0612345 0.956252 0.00862135
0.0674754 0.956252 0.00862135
0.0740063 0.956252 0.00848402
0.0988174 0.956252 0.00198367
0.160525 0.956252 0
0.241718 0.956252 0
0.358877 0.956252 0
0.505028 0.956252 0
0.634791 0.956252 0
0.72604 0.956252 0.0134127
0.798901 0.954253 0.0549783
0.858106 0.950484 0.101778
0.907134 0.94815 0.149126
0.930846 0.947173 0.184146
0.937499 0.947005 0.197772
0.943755 0.947005 0.199863
0.949996 0.947005 0.199863
0.956252 0.947005 0.199863
0.962493 0.947005 0.199863
0.96875 0.947005 0.199863
0.975006 0.947005 0.199863
0.981247 0.947005 0.199863
0.987503 0.947005 0.199863
0.993744 0.947005 0.199863
1 0.947005 0.199863
0.0112306 0.962493 0.00862135
0.0174716 0.962493 0.00862135
0.0237278 0.962493 0.00862135
0.029984 0.962493 0.00862135
0.0362249 0.962493 0.00862135
0.0424811 0.962493 0.00862135
0.0487221 0.962493 0.00862135
0.0549783 0.962493 0.00862135
0.0612345 0.962493 0.00862135
0.0674754 0.962493 0.00862135
0.073991 0.962493 0.00851453
0.100542 0.962493 0.00112917
0.164752 0.962493 0
0.244877 0.962493 0
0.36733 0.962493 0
0.513146 0.962493 0
0.63711 0.962493 0
0.727337 0.962493 0.0149996
0.799359 0.960723 0.055024
0.857969 0.956771 0.101946
0.908049 0.954421 0.148852
0.930266 0.953399 0.184955
0.937499 0.953262 0.198383
0.943755 0.953262 0.199863
0.949996 0.953262 0.199863
0.956252 0.953262 0.199863
0.962493 0.953262 0.199863
0.96875 0.953262 0.199863
0.975006 0.953262 0.199863
0.981247 0.953262 0.199863
0.987503 0.953262 0.199863
0.993744 0.953262 0.199863
1 0.953262 0.199863
0.0112306 0.96875 0.00862135
0.0174716 0.96875 0.00862135
0.0237278 0.96875 0.00862135
0.029984 0.96875 0.00862135
0.0362249 0.96875 0.00862135
0.0424811 0.96875 0.00862135
0.0487221 0.96875 0.00862135
0.0549783 0.96875 0.00862135
0.0612345 0.96875 0.00862135
