LUT color transfer/LUTs/71.cube
TITLE "Generate by Resolve"
LUT_3D_SIZE 5
0 0.00686656 0.03888
0.0877546 0.00111391 0.0278019
0.731868 0 0
0.949996 0 0
1 0 0
0 0.136309 0.00254826
0.0598764 0.13991 0
0.781796 0.0500038 0
0.949996 0.0500038 0
1 0.0500038 0
0 0.557778 0
0.0500038 0.632883 0
0.635035 0.557153 0.0261387
0.949996 0.561807 0.0207828
1 0.598169 0.030396
0.0112306 0.949996 0.00862135
0.0612345 0.949996 0.00862135
0.629465 0.949996 0
0.949996 0.940764 0.199863
1 0.940764 0.199863
0.0112306 1 0.00862135
0.0612345 1 0.00862135
0.662455 1 0.00112917
0.949996 0.990753 0.199863
1 0.990753 0.199863
0 3.0518e-05 0.235462
0.0785229 0 0.212802
0.730327 0 0.0500038
0.949996 0 0.0500038
1 0 0.0500038
0.00151064 0.125917 0.19762
0.067155 0.133639 0.198062
0.805005 0.0501106 0.0567788
0.949996 0.0500038 0.0500038
1 0.0500038 0.0500038
0 0.581628 0.0500038
0.0500038 0.659297 0.0500038
0.667689 0.582177 0.0918135
0.949996 0.581521 0.0760052
1 0.617029 0.0858778
0.0112306 0.949996 0.0586099
0.0612345 0.949996 0.0586099
0.654139 0.949996 0.0500038
0.949996 0.940764 0.249866
1 0.940764 0.249866
0.0112306 1 0.0586099
0.0610971 1 0.0588693
0.66627 1 0.0513008
0.949996 0.990753 0.249866
1 0.990753 0.249866
0 0 0.893858
0.0500038 0 0.883848
0.671443 0 0.648737
0.949996 0 0.45124
1 0 0.414939
0 0.0875563 0.868437
0.0500038 0.0977188 0.890501
0.777935 0.0500038 0.741466
0.949996 0.0500038 0.644572
1 0.0500038 0.692775
0 0.536721 0.738872
0.0500038 0.607126 0.809796
0.667643 0.593317 0.60531
0.949996 0.566827 0.56051
1 0.597787 0.590997
0 0.949996 0.656901
0.0500038 0.949996 0.739147
0.551324 0.949996 0.447837
0.949996 0.944915 0.522728
1 0.944671 0.502724
0 1 0.774563
0.0500038 1 0.78616
0.547524 1 0.429175
0.949996 0.994797 0.540825
1 0.995956 0.435935
0 0 0.949996
0.0500038 0 0.949996
0.610239 0 0.949996
0.949996 0 0.949996
1 0 0.949996
0 0.0670176 0.949996
0.0500038 0.0802472 0.949996
0.749081 0.0500038 0.949996
0.949996 0.0500038 0.949996
1 0.0500038 0.949996
0 0.525444 0.949996
0.0501259 0.590661 0.949996
0.670207 0.581399 0.949996
0.949996 0.550713 0.949996
1 0.579919 0.949996
0.0779583 0.949996 0.949996
0.127947 0.949996 0.949996
0.573831 0.949996 0.949996
0.949996 0.949554 0.945342
1 0.941421 0.937148
0.0779583 1 0.949996
0.127947 1 0.949996
0.554452 1 0.949996
0.949996 0.999298 0.922683
1 0.998489 0.897032
0 0 1
0.0500038 0 1
0.600015 0 1
0.949996 0 1
1 0 1
0 0.0607004 1
0.0500038 0.0763714 1
0.765118 0.0500038 1
0.949996 0.0500038 1
1 0.0500038 1
0 0.533165 1
0.0500038 0.601343 1
0.69102 0.589288 1
0.949996 0.559014 1
1 0.58851 1
0.0779583 0.949996 1
0.127947 0.949996 1
0.578607 0.949996 1
0.949996 0.949798 1
1 0.935943 1
0.0779583 1 1
0.127947 1 1
0.549462 1 1
0.949996 1 1
1 1 1
