LUT color transfer/LUTs/72.cube
TITLE "Generate by Resolve"
LUT_3D_SIZE 9
0 0.00843824 0.0280613
0.0274205 0.00717174 0.0235752
0.101762 0.00350958 0.00460822
0.285405 0.0139773 0
0.925383 0 0
1 0 0
1 0 0
1 0 0
1 0 0
0.00440986 0.0396429 0
0.0210269 0.033814 0.00788891
0.0805829 0.0255894 0.00254826
0.262211 0.0139162 0
0.903243 0 0
1 0 0
1 0 0
1 0 0
1 0 0
0.0444953 0.0710765 0
0.0445716 0.0709697 0
0.0706798 0.0707103 0.00416571
0.245365 0.0429389 0.00047303
0.901625 0 0
1 0 0
1 0 0
1 0 0
1 0 0
0.120821 0.163546 0
0.128679 0.17322 0
0.142107 0.189776 0
0.252125 0.208255 0.0412604
0.736339 0.168582 0.00323491
1 0.0945449 0
1 0.100908 0
1 0.15404 0
1 0.1953 0
0.346227 0.440574 0
0.373816 0.474815 0
0.396216 0.506127 0
0.481941 0.517433 0.00663767
0.708034 0.559915 0.136385
1 0.551034 0
1 0.551675 0
1 0.607996 0
1 0.658457 0
0.702647 0.840909 0
0.736614 0.869017 0
0.749859 0.879988 0
0.76199 0.890089 0
0.999847 0.865843 0
1 0.895888 0
1 0.889311 0
1 0.905913 0
1 0.927901 0
0.768475 0.895445 0
0.768475 0.895445 0
0.768475 0.895445 0
0.768475 0.895445 0
1 0.884215 0
1 0.94876 0
1 0.955367 0
1 0.955367 0
1 0.955367 0
0.768475 0.895445 0
0.768475 0.895445 0
0.768475 0.895445 0
0.785183 0.893416 0
1 0.890929 0
1 0.949828 0
1 0.955367 0
1 0.955367 0
1 0.955367 0
0.768475 0.895445 0
0.768475 0.895445 0
0.768475 0.895445 0
0.807233 0.890837 0
1 0.896742 0
1 0.951034 0
1 0.955367 0
1 0.955367 0
1 0.955367 0
0.000488289 0.00575265 0.0783398
0.0258793 0.00485237 0.072282
0.10219 0.000717174 0.0488746
0.281514 0.0139773 0
0.920882 0 0
1 0 0
1 0 0
1 0 0
1 0 0
0.000854505 0.0372015 0.0527199
0.0101472 0.0332036 0.0548257
0.0812085 0.0230259 0.0357977
0.260533 0.013901 0
0.902037 0 0
1 0 0
1 0 0
1 0 0
1 0 0
0.0289464 0.0757916 0
0.0289158 0.0762798 0
0.0684825 0.0720989 0.0175021
0.248661 0.044007 0.000747692
0.913176 0 0
1 0 0
1 0 0
1 0 0
1 0 0
0.122713 0.165881 0
0.131563 0.176761 0
0.147112 0.195972 0
0.261097 0.215152 0.0438544
0.757687 0.17615 0.00270085
1 0.104738 0
1 0.11162 0
1 0.16466 0
1 0.207218 0
0.354299 0.450599 0
0.381842 0.48571 0
0.404746 0.5187 0
0.497322 0.527367 0.00546273
0.722438 0.570947 0.135058
1 0.561898 0
1 0.563745 0
1 0.619623 0
1 0.667048 0
0.712459 0.849027 0
0.745724 0.876554 0
0.754192 0.883589 0
0.766125 0.893523 0
0.999939 0.871336 0
1 0.900938 0
1 0.893462 0
1 0.908751 0
1 0.929397 0
0.768475 0.895445 0
0.768475 0.895445 0
0.768475 0.895445 0
0.768475 0.895445 0
1 0.884489 0
1 0.948837 0
1 0.955367 0
1 0.955367 0
1 0.955367 0
0.768475 0.895445 0
0.768475 0.895445 0
0.768475 0.895445 0
0.784497 0.893492 0
1 0.890547 0
1 0.949554 0
1 0.955367 0
1 0.955367 0
1 0.955367 0
0.768475 0.895445 0
0.768475 0.895445 0
0.768475 0.895445 0
0.802686 0.89131 0
1 0.895674 0
1 0.950545 0
1 0.955367 0
1 0.955367 0
1 0.955367 0
0.00677501 0.000640879 0.16347
0.0242771 0.000244144 0.159945
0.087068 0.000717174 0.143252
0.283162 0.0110628 0.038468
0.911055 0 0
1 0 0
1 0 0
1 0 0
1 0 0
0.00387579 0.027924 0.148348
0.0110018 0.0256504 0.144228
0.0730755 0.0180667 0.129335
0.266102 0.0106661 0.0360723
0.897444 0 0
1 0 0
1 0 0
1 0 0
1 0 0
0.000610361 0.0780194 0.0907301
0.000686656 0.0790417 0.091371
0.0467994 0.0745556 0.104082
0.262959 0.0414435 0.037644
0.920638 0 0
1 0 0
1 0 0
1 0 0
1 0 0
0.123125 0.169329 0
0.131319 0.18378 0
0.142489 0.207294 0
0.271702 0.225406 0.0519417
0.779889 0.185168 0.00210575
1 0.115007 0
1 0.121859 0
1 0.178317 0
1 0.223362 0
0.35996 0.457679 0
0.388556 0.495109 0
0.411978 0.529274 0
0.512551 0.536538 0.00669871
0.733898 0.579568 0.133806
1 0.568856 0
1 0.571237 0
1 0.627146 0
1 0.674327 0
0.716075 0.852018 0
0.748745 0.879057 0
0.757107 0.886 0
0.76672 0.893996 0
0.999954 0.872831 0
1 0.901732 0
1 0.893004 0
1 0.906905 0
1 0.926253 0
0.768475 0.895445 0
0.768475 0.895445 0
0.768475 0.895445 0
0.768475 0.895445 0
1 0.884153 0
1 0.948531 0
1 0.955367 0
1 0.955367 0
1 0.955367 0
0.768475 0.895445 0
0.768475 0.895445 0
0.768475 0.895445 0
0.778378 0.894194 0
1 0.889006 0
1 0.948425 0
1 0.955367 0
1 0.955367 0
1 0.955367 0
0.768475 0.895445 0
0.768475 0.895445 0
0.768475 0.895445 0
0.797452 0.89189 0
1 0.893187 0
1 0.949523 0
1 0.955367 0
1 0.955367 0
1 0.955367 0
0.0151064 0 0.529183
0.0157015 0 0.505135
0.0634165 0 0.429297
0.241337 0.00953689 0.32755
0.779355 0 0.143008
1 0 0.00561532
1 0 0
1 0 0
1 0 0
0.016907 0.00254826 0.452934
0.0168917 0.00222782 0.437583
0.0546426 0.00209049 0.398154
0.225864 0.00991836 0.315694
0.760052 0 0.13753
1 0 0.011368
1 0 0.0028687
1 0 0.0155947
1 0 0.0351568
0.0221561 0.0470436 0.374365
0.0224613 0.0480507 0.379782
0.0479896 0.049836 0.380392
0.22945 0.0293126 0.324147
0.826749 0 0.179812
1 0 0.064683
1 0 0.0770123
1 0 0.145785
1 0 0.225025
0.013489 0.192126 0.208118
0.0170443 0.20882 0.224948
0.0219883 0.234928 0.248188
0.199878 0.243687 0.321233
0.69482 0.209613 0.203784
1 0.110414 0.0763256
1 0.116304 0.0826886
1 0.182925 0.154147
1 0.23389 0.210834
0.294209 0.489799 0.0117494
0.30338 0.531212 0.0107424
0.304021 0.569223 0.0112306
0.413489 0.576974 0.0683146
0.714 0.592706 0.226291
1 0.576913 0.00154116
1 0.576638 0.0031281
1 0.632593 0.0226596
1 0.682521 0.0500801
0.721599 0.856916 0
0.752636 0.882521 0
0.759472 0.888472 0
0.753491 0.898726 0
1 0.874525 0
1 0.903105 0
1 0.891646 0
1 0.903258 0
1 0.920974 0
0.7682 0.895552 0
0.767681 0.895735 0
0.765316 0.896574 0
0.766629 0.896101 0
1 0.88336 0
1 0.947616 0
1 0.955367 0
1 0.955367 0
1 0.955367 0
0.684901 0.924483 0
0.668956 0.9299 0
0.67808 0.926802 0
0.730053 0.910338 0
1 0.88629 0
1 0.946487 0
1 0.955367 0
1 0.955367 0
1 0.955367 0
0.617334 0.947188 0
0.621973 0.945647 0
0.642329 0.938796 0
0.714244 0.91957 0
1 0.889372 0
1 0.947692 0
1 0.955367 0
1 0.955367 0
1 0.955367 0
0.0246891 0 1
0.0246891 0 1
0.0544594 0 1
0.333059 0 0.995254
0.774441 0 0.8318
1 0 0.73994
1 0 0.681682
1 0 0.698863
1 0 0.72076
0.0246433 0 1
0.0246738 0 1
0.0458839 0 1
0.312032 0 0.99382
0.767254 0 0.828183
1 0 0.759747
1 0 0.734951
1 0 0.782254
1 0 0.820294
0.0171664 0 1
0.016968 0 1
0.0264897 0 1
0.319295 0 0.999985
0.850233 0 0.906981
1 0 0.84715
1 0 0.861631
1 0 0.919615
1 0 0.968933
0.00790417 0.140536 0.898939
0.0049897 0.160311 0.938125
0.00370794 0.187472 0.96817
0.215976 0.206867 0.838788
0.69543 0.178393 0.751415
1 0.0751354 0.840238
1 0.0789807 0.848508
1 0.148501 0.89752
1 0.19649 0.92929
0.0567941 0.538521 0.551934
0.0461738 0.581842 0.592157
0.033875 0.616815 0.623224
0.0955215 0.640726 0.654932
0.585702 0.609735 0.702571
0.947143 0.599268 0.620569
0.947097 0.596918 0.617227
0.953399 0.643473 0.663935
0.960662 0.687358 0.708415
0.0829023 1 0.00962844
0.0697795 1 0.0307012
0.0609751 1 0.0462348
0.049073 1 0.0542458
0.814679 0.911421 0.419608
0.989349 0.900694 0.603159
1 0.894911 0.544427
1 0.902617 0.557824
1 0.91751 0.589349
0.124208 1 0.00529488
0.0868238 1 0.0260166
0.0775158 1 0.0318151
0.0884108 1 0.0108797
0.817014 0.937301 0.235203
1 0.947509 0.459327
1 0.969253 0.199619
1 0.968795 0.172534
1 0.968841 0.179461
0 1 0.178012
0 1 0.20206
0 1 0.176623
0.0310979 1 0.0936141
0.819883 0.937087 0.278721
1 0.94461 0.411566
1 0.966949 0.127153
1 0.965438 0.0942245
1 0.964858 0.0843519
0 1 0.299962
0 1 0.287907
0 1 0.235233
0.00103761 1 0.150713
0.825833 0.936614 0.335866
1 0.944595 0.419669
1 0.965988 0.104417
1 0.963684 0.0649119
1 0.962585 0.0489204
0.0246891 0 1
0.0246891 0 1
0.0301976 0 1
0.282475 0 1
0.772946 0 1
1 0 1
1 0 1
1 0 1
1 0 1
0.0246891 0 1
0.0246891 0 1
0.0275273 0 1
0.268025 0 1
0.7738 0 1
1 0 1
1 0 1
1 0 1
1 0 1
0.0227054 0 1
0.0221561 0 1
0.0215457 0 1
0.28806 0 1
0.833402 0 1
1 0 1
1 0 1
1 0 1
1 0 1
0 0.110445 1
0 0.133227 1
0 0.162249 1
0.197192 0.169482 1
0.77969 0.117388 0.992203
1 0.043946 1
1 0.0478218 1
1 0.106172 1
1 0.153979 1
0.0333715 0.500008 1
0.0248875 0.543053 1
0.0176394 0.575525 1
0.0467689 0.605997 1
0.60882 0.590921 0.927855
0.961852 0.58233 0.952941
0.964004 0.57821 0.953307
0.96556 0.623117 0.954437
0.969192 0.666773 0.957458
0 1 0.945678
0 1 0.957137
0 1 0.958801
0 1 0.962203
0.421134 0.987991 0.962768
0.904479 0.90425 0.932784
1 0.882856 0.903639
1 0.88896 0.908782
1 0.904189 0.923186
0 1 0.891875
0 1 0.921599
0 1 0.928267
0 1 0.924727
0.254139 1 0.878401
0.917449 0.978317 0.801068
1 0.983536 0.857572
1 0.982376 0.851347
1 0.982376 0.851453
0 1 0.958831
0 1 0.958831
0 1 0.958816
0 1 0.958602
0.245335 1 0.88069
0.909957 0.97258 0.77026
1 0.980117 0.833585
1 0.979431 0.822385
1 0.978851 0.816541
0 1 0.958831
0 1 0.958831
0 1 0.958831
0 1 0.958602
0.264515 1 0.90866
0.904189 0.972549 0.767147
1 0.977493 0.818967
1 0.977478 0.80148
1 0.976471 0.790082
0.0246891 0 1
0.0246891 0 1
0.0285801 0 1
0.264591 0 1
0.757809 0 1
1 0 1
1 0 1
1 0 1
1 0 1
0.0246891 0 1
0.0246891 0 1
0.0263981 0 1
0.254948 0 1
0.765103 0 1
1 0 1
1 0 1
1 0 1
1 0 1
0.023209 0 1
0.0227512 0 1
0.0221256 0 1
0.290455 0 1
0.838682 0 1
1 0 1
1 0 1
1 0 1
1 0 1
0 0.109987 1
0 0.135775 1
0 0.167361 1
0.203296 0.175357 1
0.784939 0.122499 0.99118
1 0.047013 1
1 0.0521096 1
1 0.116747 1
1 0.167834 1
0.0329137 0.501625 1
0.0242161 0.546197 1
0.0161135 0.581216 1
0.0467536 0.611307 1
0.611231 0.593042 0.928206
0.960967 0.582589 0.95285
0.963989 0.577844 0.953277
0.96553 0.622675 0.954406
0.9691 0.665629 0.957366
0 1 0.998703
0 1 0.985061
0 1 0.977523
0 1 0.971374
0.398184 0.988525 0.995651
0.904341 0.895552 1
1 0.87396 0.994675
1 0.878248 0.995132
1 0.891676 0.996521
0 1 0.958831
0 1 0.958831
0 1 0.958831
0 1 0.958831
0.158679 1 0.99263
0.812131 0.999832 0.971557
1 0.995972 0.9897
1 0.993713 0.990372
1 0.993835 0.990387
0 1 0.958831
0 1 0.958831
0 1 0.958831
0 1 0.958831
0.13225 1 0.993011
0.784283 0.9991 0.968246
0.992599 0.996933 0.979232
1 0.994766 0.973175
1 0.994369 0.9673
0 1 0.958831
0 1 0.958831
0 1 0.958831
0 1 0.958831
0.1523 1 0.99353
0.775036 0.998871 0.966903
0.980194 0.996979 0.956649
1 0.993133 0.95053
1 0.991958 0.937697
0.0246891 0 1
0.0246891 0 1
0.0281071 0 1
0.259541 0 1
0.754849 0 1
1 0 1
1 0 1
1 0 1
1 0 1
0.0246891 0 1
0.0246891 0 1
0.0263066 0 1
0.25507 0 1
0.769024 0 1
1 0 1
1 0 1
1 0 1
1 0 1
0.0231937 0 1
0.0225223 0 1
0.0225223 0 1
0.303075 0 1
0.854017 0 1
1 0 1
1 0 1
1 0 1
1 0 1
0 0.119814 1
0 0.146349 1
0 0.180575 1
0.219379 0.191043 1
0.798688 0.141695 0.986572
1 0.0638895 1
1 0.0717021 1
1 0.140703 1
1 0.188632 1
0.0291447 0.522774 1
0.0191501 0.568292 1
0.00956741 0.608362 1
0.0530556 0.637537 1
0.632288 0.613031 0.931579
0.962371 0.600366 0.953063
0.963882 0.59559 0.953063
0.966705 0.637858 0.955383
0.970352 0.678386 0.958419
0 1 0.99382
0 1 0.977722
0 1 0.969375
0 1 0.96701
0.413764 0.992615 0.991623
0.908873 0.901015 1
1 0.877073 0.995056
1 0.879774 0.995331
1 0.892271 0.996597
0 1 0.958831
0 1 0.958831
0 1 0.958831
0 1 0.958831
0.161212 1 0.992569
0.810895 0.999802 0.971405
1 0.995682 0.989593
1 0.992905 0.990478
1 0.99324 0.990463
0 1 0.958831
0 1 0.958831
0 1 0.958831
0 1 0.958831
0.12256 1 0.993164
0.779339 0.998932 0.967712
0.986526 0.998367 0.98471
1 0.99585 0.990051
1 0.99585 0.990051
0 1 0.958831
0 1 0.958831
0 1 0.958831
0 1 0.958831
0.134737 1 0.993362
0.765805 0.998627 0.966445
0.957732 0.999588 0.982483
1 0.99585 0.990051
1 0.99585 0.990051
0.0246891 0 1
0.0246891 0 1
0.0277409 0 1
0.256916 0 1
0.75346 0 1
1 0 1
1 0 1
1 0 1
1 0 1
0.0246891 0 1
0.0246891 0 1
0.0264286 0 1
0.258488 0 1
0.774609 0 1
1 0 1
1 0 1
1 0 1
1 0 1
0.0231022 0 1
0.0221561 0 1
0.023682 0 1
0.318257 0 1
0.869993 0 1
1 0 1
1 0 1
1 0 1
1 0 1
0 0.128786 1
0 0.155917 1
0 0.193378 1
0.231968 0.203494 1
0.808087 0.155413 0.983459
1 0.0753948 1
1 0.0861219 1
1 0.15613 1
1 0.205631 1
0.0251774 0.541192 1
0.0151522 0.585428 1
0.00679026 0.629526 1
0.0571756 0.657816 1
0.649332 0.629679 0.934401
0.964233 0.615946 0.953872
0.964614 0.609689 0.953643
0.967727 0.650004 0.956222
0.971145 0.686412 0.959091
0 1 0.986969
0 1 0.969619
0 1 0.965057
0 1 0.963149
0.433005 0.992432 0.986587
0.915755 0.908553 1
1 0.882734 0.995712
1 0.884215 0.995865
1 0.89604 0.996918
0 1 0.958831
0 1 0.958831
0 1 0.958831
0 1 0.958831
0.172015 1 0.992309
0.812451 0.999802 0.971633
1 0.995514 0.989609
1 0.992966 0.990478
1 0.993896 0.990417
0 1 0.958831
0 1 0.958831
0 1 0.958831
0 1 0.958831
0.123156 1 0.993362
0.777935 0.998856 0.967544
0.983536 0.998459 0.984649
1 0.99585 0.990051
1 0.99585 0.990051
0 1 0.958831
0 1 0.958831
0 1 0.958831
0 1 0.958831
0.130434 1 0.993317
0.761868 0.998581 0.966155
0.952819 0.999771 0.982086
1 0.99585 0.990051
1 0.99585 0.990051
