LUT color transfer/LUTs/72.cube
TITLE "Generate by Resolve"
LUT_3D_SIZE 33
0 0.00843824 0.0280613
0.00326543 0.00857557 0.0266575
0.00846876 0.00846876 0.0255436
0.0156405 0.0081178 0.0247196
0.0274205 0.00717174 0.0235752
0.0408179 0.00622568 0.0209659
0.0562753 0.00523384 0.0170291
0.0757305 0.00411994 0.0116732
0.101762 0.00350958 0.00460822
0.13489 0.00523384 0.000259403
0.173449 0.00892653 0
0.22092 0.0126345 0
0.285405 0.0139773 0
0.381277 0.0102693 0
0.542885 0 0
0.773907 0 0
0.925383 0 0
1 0 0
1 0 0
1 0 0
1 0 0
1 0 0
1 0 0
1 0 0
1 0 0
1 0 0
1 0 0
1 0 0
1 0 0
1 0 0
1 0 0
1 0 0
1 0 0
0 0.0168307 0.019501
0.00151064 0.0160372 0.020264
0.00535592 0.0149538 0.0213016
0.0133059 0.0135958 0.0227817
0.0236362 0.0123293 0.0218814
0.0364691 0.0107118 0.0198978
0.0521859 0.00857557 0.0166781
0.0715953 0.00575265 0.012253
0.097673 0.00341802 0.00560006
0.13048 0.00488289 0.000366217
0.169253 0.00849927 0
0.215564 0.012314 0
0.277684 0.0141451 0
0.371267 0.0108034 0
0.523125 0 0
0.753216 0 0
0.917449 0 0
1 0 0
1 0 0
1 0 0
1 0 0
1 0 0
1 0 0
1 0 0
1 0 0
1 0 0
1 0 0
1 0 0
1 0 0
1 0 0
1 0 0
1 0 0
1 0 0
1.5259e-05 0.0252079 0.0110018
0.000610361 0.0242161 0.0124361
0.00201419 0.0229496 0.0147707
0.010544 0.0208896 0.019028
0.0197452 0.0196689 0.0195315
0.0309148 0.0185855 0.0173342
0.0462806 0.0163729 0.0146944
0.0657359 0.0132601 0.0108034
0.0917067 0.00921645 0.0047303
0.125704 0.00697337 0.000289921
0.164981 0.00834669 0
0.210864 0.0120394 0
0.271855 0.0140536 0
0.363043 0.0112459 0
0.505562 0 0
0.735973 0 0
0.910948 0 0
0.999603 0 0
1 0 0
1 0 0
1 0 0
1 0 0
1 0 0
1 0 0
1 0 0
1 0 0
1 0 0
1 0 0
1 0 0
1 0 0
1 0 0
1 0 0
1 0 0
6.10361e-05 0.0327001 0.00357061
0.0010071 0.0318914 0.00424201
0.00375372 0.0303044 0.00555428
0.0113222 0.028275 0.0102998
0.0196536 0.0266423 0.0146181
0.0280308 0.0260166 0.016144
0.0419013 0.0241855 0.0135348
0.0606851 0.0212406 0.0093843
0.0862135 0.0164034 0.00349432
0.120867 0.0111696 1.5259e-05
0.161135 0.00965896 0
0.206607 0.01178 0
0.267185 0.0139925 0
0.356374 0.0116121 0
0.492943 0 0
0.725048 0 0
0.906615 0 0
0.996689 0 0
1 0 0
1 0 0
1 0 0
1 0 0
1 0 0
1 0 0
1 0 0
1 0 0
1 0 0
1 0 0
1 0 0
1 0 0
1 0 0
1 0 0
1 0 0
0.00440986 0.0396429 0
0.00399786 0.0391546 0
0.00700389 0.0377356 0
0.0128176 0.0358434 0.00263981
0.0210269 0.033814 0.00788891
0.0274357 0.0332799 0.0136568
0.0383307 0.0323033 0.0127718
0.0554665 0.0299535 0.00852979
0.0805829 0.0255894 0.00254826
0.115282 0.019089 0
0.157015 0.0138247 0
0.202258 0.0122072 0
0.262211 0.0139162 0
0.349722 0.0119631 0
0.483803 0.000488289 0
0.713634 0 0
0.903243 0 0
0.994934 0 0
1 0 0
1 0 0
1 0 0
1 0 0
1 0 0
1 0 0
1 0 0
1 0 0
1 0 0
1 0 0
1 0 0
1 0 0
1 0 0
1 0 0
1 0 0
0.0127413 0.0460975 0
0.012314 0.0457771 0
0.0134432 0.0448157 0
0.0167391 0.043473 0.000259403
0.0242008 0.0412757 0.00157168
0.0318761 0.0400397 0.00851453
0.039826 0.0397955 0.0112612
0.0528115 0.0386511 0.00872816
0.0755016 0.0353094 0.00267033
0.109331 0.0287938 4.57771e-05
0.152697 0.0209506 0
0.199069 0.0160525 0
0.257633 0.0145876 0
0.343267 0.012314 0
0.47715 0.0011902 0
0.70631 0 0
0.901656 0 0
0.994034 0 0
1 0 0
1 0 0
1 0 0
1 0 0
1 0 0
1 0 0
1 0 0
1 0 0
1 0 0
1 0 0
1 0 0
1 0 0
1 0 0
1 0 0
1 0 0
0.0220188 0.0531624 0
0.0216983 0.0529183 0
0.0216983 0.0523995 0
0.0227207 0.0516365 0
0.0284733 0.049958 0
0.0365301 0.0483253 0.0028687
0.0441749 0.0476387 0.00746166
0.052018 0.0480049 0.0083772
0.0710918 0.0458686 0.00396735
0.102693 0.0404669 4.57771e-05
0.14728 0.0317693 0
0.195727 0.0231785 0
0.252659 0.016495 0
0.336217 0.0126955 0
0.470359 0.00213626 0
0.699245 0 0
0.902617 0 0
0.992309 0 0
1 0 0
1 0 0
1 0 0
1 0 0
1 0 0
1 0 0
1 0 0
1 0 0
1 0 0
1 0 0
1 0 0
1 0 0
1 0 0
1 0 0
1 0 0
0.032578 0.0612192 0
0.0323491 0.0610513 0
0.0320592 0.0608377 0
0.0324254 0.0604868 0
0.0349126 0.059617 0
0.041062 0.0581826 0.000228885
0.0514229 0.0565042 0.00167849
0.0551461 0.057847 0.00601205
0.0686046 0.0573739 0.00576791
0.0970169 0.0536965 0.00102235
0.140673 0.0458839 0
0.192355 0.0357214 0
0.248096 0.0244297 0
0.328405 0.0145113 0
0.463523 0.00323491 0
0.694621 0 0
0.904845 0 0
0.9906 0 0
1 0 0
1 0 0
1 0 0
1 0 0
1 0 0
1 0 0
1 0 0
1 0 0
1 0 0
1 0 0
1 0 0
1 0 0
1 0 0
1 0 0
1 0 0
0.0444953 0.0710765 0
0.0444953 0.0710765 0
0.0444495 0.0710155 0
0.0444495 0.070985 0
0.0445716 0.0709697 0
0.0479896 0.0703136 0
0.0569619 0.0688945 0
0.0656748 0.068574 0.00146487
0.0706798 0.0707103 0.00416571
0.0924544 0.0690776 0.00437934
0.132982 0.0634775 0.000503548
0.187289 0.0538643 1.5259e-05
0.245365 0.0429389 0.00047303
0.324392 0.0287633 0
0.45359 0.00875868 0
0.688472 0 0
0.901625 0 0
0.98999 0 0
1 0 0
1 0 0
1 0 0
1 0 0
1 0 0
1 0 0
1 0 0
1 0 0
1 0 0
1 0 0
1 0 0
1 0 0
1 0 0
1 0 0
1 0 0
0.0570382 0.0846571 0
0.0572518 0.0849165 0
0.0574655 0.0851911 0
0.0577859 0.0856031 0
0.0580301 0.0859083 0
0.0589456 0.0862593 0
0.0631723 0.0863355 0
0.0741131 0.0852369 0
0.0844892 0.0854047 0.00158694
0.0927138 0.0880293 0.00550851
0.126574 0.0853895 0.00636301
0.180194 0.0785077 0.00292973
0.243275 0.0682536 0.00389105
0.322347 0.0553445 0.00169375
0.439536 0.0352636 0
0.66836 0.00242618 0
0.896376 0 0
0.993378 0 0
1 0 0
1 0 0
1 0 0
1 0 0
1 0 0
1 0 0
1 0 0
1 0 0
1 0 0
1 0 0
1 0 0
1 0 0
1 0 0
1 0 0
1 0 0
0.0722362 0.103578 0
0.0726787 0.104143 0
0.0732586 0.104845 0
0.0738842 0.105638 0
0.0745251 0.106432 0
0.0755779 0.107744 0
0.0767681 0.109209 0
0.0824445 0.109728 0
0.0946212 0.109285 0
0.112612 0.110475 0.00328069
0.126696 0.114656 0.0112306
0.174716 0.110704 0.0131228
0.239673 0.103639 0.0125277
0.317922 0.0935225 0.0121614
0.425711 0.0791791 0.0039826
0.618097 0.043595 0
0.869902 0.00735485 0
0.99939 0.00115969 0
1 1.5259e-05 0
1 0 0
1 0 0
1 0 0
1 0 0
1 0 0
1 0 0
1 0 0
1 0 0
1 0 0
1 0 0
1 0 0
1 0 0
1 0 0
1 0.00633249 0
0.092668 0.128893 0
0.0936904 0.130159 0
0.094789 0.131502 0
0.0960555 0.133059 0
0.0973068 0.134615 0
0.0987259 0.136355 0
0.100847 0.138964 0
0.103746 0.142046 0
0.108553 0.144198 0
0.130358 0.144564 0
0.156146 0.147234 0.0120851
0.179156 0.153841 0.0224155
0.240787 0.150622 0.0276341
0.316106 0.14406 0.0283055
0.415763 0.134508 0.0230411
0.561013 0.115602 0.00483711
0.814603 0.0702678 0
0.987976 0.043122 0
1 0.0303044 0
1 0.0208743 0
1 0.0153658 0
1 0.0127565 0
1 0.0125734 0
1 0.0150301 0
1 0.0197299 0
1 0.026154 0
1 0.0343633 0
1 0.0448615 0
1 0.0537118 0
1 0.0627604 0
1 0.0715801 0
1 0.0808881 0
1 0.0901961 0
0.120821 0.163546 0
0.12253 0.165652 0
0.124514 0.168093 0
0.126604 0.170657 0
0.128679 0.17322 0
0.130632 0.175616 0
0.134279 0.180133 0
0.138308 0.185092 0
0.142107 0.189776 0
0.151186 0.192477 0
0.18706 0.192782 0.0059205
0.218799 0.199008 0.0308232
0.252125 0.208255 0.0412604
0.324926 0.206287 0.0489967
0.413336 0.203937 0.0485389
0.532189 0.197024 0.0367132
0.736339 0.168582 0.00323491
0.954971 0.134844 0
1 0.120699 0
1 0.106035 0
1 0.0945449 0
1 0.0882124 0
1 0.0874342 0
1 0.0923171 0
1 0.100908 0
1 0.111818 0
1 0.124392 0
1 0.138888 0
1 0.15404 0
1 0.163851 0
1 0.174197 0
1 0.184543 0
1 0.1953 0
0.158694 0.210269 0
0.161913 0.214282 0
0.165255 0.218433 0
0.168994 0.223087 0
0.172595 0.227573 0
0.175921 0.231724 0
0.179324 0.235966 0
0.18471 0.242679 0
0.190433 0.249836 0
0.195056 0.25565 0
0.216052 0.258076 0.00325017
0.269093 0.259174 0.0321965
0.300694 0.270527 0.0562753
0.345525 0.281651 0.0673381
0.429389 0.283574 0.0753033
0.531289 0.284749 0.0698711
0.676982 0.274144 0.0365454
0.903822 0.244633 1.5259e-05
1 0.226703 0
1 0.212726 0
1 0.200412 0
1 0.193225 0
1 0.190768 0
1 0.194781 0
1 0.203281 0
1 0.215503 0
1 0.229862 0
1 0.245655 0
1 0.263355 0
1 0.277592 0
1 0.289479 0
1 0.30135 0
1 0.312016 0
0.208911 0.272938 0
0.213519 0.278721 0
0.218128 0.28452 0
0.222889 0.290486 0
0.227665 0.296468 0
0.231968 0.301869 0
0.236027 0.306889 0
0.242451 0.314794 0
0.250019 0.324102 0
0.257145 0.33286 0
0.263493 0.337438 0.000427253
0.31043 0.33669 0.0225986
0.37319 0.340612 0.0648051
0.401511 0.359045 0.0854963
0.458656 0.37142 0.096849
0.552331 0.374838 0.101061
0.664378 0.373938 0.0800183
0.840803 0.358557 0.0144656
0.998444 0.338811 0
1 0.325414 0
1 0.312764 0
1 0.305394 0
1 0.302922 0
1 0.305837 0
1 0.315648 0
1 0.328801 0
1 0.344472 0
1 0.360891 0
1 0.379797 0
1 0.398566 0
1 0.410819 0
1 0.422049 0
1 0.433463 0
0.271489 0.350378 0
0.277256 0.357443 0
0.283391 0.364752 0
0.29012 0.372778 0
0.296666 0.380575 0
0.302449 0.387472 0
0.307073 0.392966 0
0.313039 0.400092 0
0.321614 0.410285 0
0.330465 0.42092 0
0.335561 0.427176 0
0.358755 0.427329 0.00547799
0.433371 0.424933 0.0524453
0.489708 0.432975 0.0980697
0.513939 0.453895 0.114351
0.58291 0.463523 0.122896
0.67982 0.4663 0.11516
0.808713 0.463493 0.0584878
0.979919 0.45211 0.000762951
1 0.442969 0
1 0.43238 0
1 0.425437 0
1 0.422446 0
1 0.425772 0
1 0.434684 0
1 0.4477 0
1 0.462745 0
1 0.479606 0
1 0.496757 0
1 0.516182 0
1 0.529412 0
1 0.54023 0
1 0.551049 0
0.346227 0.440574 0
0.352926 0.44889 0
0.359823 0.45745 0
0.366918 0.466255 0
0.373816 0.474815 0
0.379416 0.482185 0
0.384283 0.489235 0
0.388144 0.494774 0
0.396216 0.506127 0
0.404211 0.517464 0
0.410163 0.525963 0
0.413092 0.527718 0
0.481941 0.517433 0.00663767
0.567498 0.514549 0.0776532
0.609155 0.528527 0.122377
0.636469 0.549828 0.13611
0.708034 0.559915 0.136385
0.814542 0.562799 0.0957198
0.951507 0.560494 0.0170748
1 0.556497 0
1 0.551034 0
1 0.544289 0
1 0.542046 0
1 0.544533 0
1 0.551675 0
1 0.562799 0
1 0.576791 0
1 0.592187 0
1 0.607996 0
1 0.624353 0
1 0.64036 0
1 0.649882 0
1 0.658457 0
0.421134 0.542596 0
0.428031 0.552682 0
0.435157 0.563333 0
0.442298 0.573983 0
0.448829 0.583749 0
0.45478 0.59263 0
0.459525 0.599725 0
0.462699 0.604456 0
0.46952 0.614038 0
0.477836 0.625177 0
0.486061 0.635843 0
0.489677 0.640238 0
0.526116 0.630686 0
0.63827 0.612696 0.00706493
0.707301 0.611856 0.0788434
0.730098 0.631022 0.126452
0.760723 0.651576 0.13196
0.840299 0.660792 0.101213
0.950134 0.662974 0.0330663
1 0.661738 0
1 0.660838 0
1 0.655406 0
1 0.65333 0
1 0.6551 0
1 0.660029 0
1 0.669429 0
1 0.68127 0
1 0.694148 0
1 0.707073 0
1 0.719707 0
1 0.733303 0
1 0.743328 0
1 0.750088 0
0.503334 0.657496 0
0.511803 0.667796 0
0.520272 0.67808 0
0.528252 0.687785 0
0.536248 0.69749 0
0.543633 0.704616 0
0.550195 0.71043 0
0.554467 0.714229 0
0.56054 0.720165 0
0.570611 0.730312 0
0.582574 0.740887 0
0.589303 0.746578 0
0.590539 0.744396 0
0.698589 0.723827 0
0.795377 0.710033 0.00430304
0.838483 0.714473 0.0392157
0.852399 0.734112 0.074815
0.888792 0.751385 0.0629892
0.970855 0.756497 0.0200046
1 0.755138 0
1 0.755627 0
1 0.752728 0
1 0.750362 0
1 0.750774 0
1 0.753643 0
1 0.760037 0
1 0.768612 0
1 0.778531 0
1 0.788785 0
1 0.798733 0
1 0.808911 0
1 0.819089 0
1 0.824308 0
0.605158 0.759289 0
0.614679 0.767544 0
0.623407 0.774853 0
0.632151 0.782162 0
0.640879 0.789471 0
0.648798 0.796094 0
0.65536 0.801572 0
0.659449 0.80499 0
0.664027 0.808804 0
0.674952 0.817807 0
0.686442 0.827268 0
0.693065 0.832746 0
0.69279 0.832547 0
0.749676 0.819974 0
0.857618 0.804349 0
0.929335 0.798337 0
0.955352 0.807431 0.000534066
0.966415 0.825315 0.00518807
0.994247 0.834791 0.00204471
1 0.834394 0
1 0.832166 0
1 0.830549 0
1 0.827955 0
1 0.827405 0
1 0.828885 0
1 0.833204 0
1 0.839353 0
1 0.846464 0
1 0.85417 0
1 0.861769 0
1 0.869123 0
1 0.87628 0
1 0.881651 0
0.702647 0.840909 0
0.711208 0.84799 0
0.719249 0.854658 0
0.728069 0.861936 0
0.736614 0.869017 0
0.743923 0.875059 0
0.746899 0.877531 0
0.748455 0.878813 0
0.749859 0.879988 0
0.756741 0.885695 0
0.761288 0.889464 0
0.763928 0.891661 0
0.76199 0.890089 0
0.786496 0.883894 0
0.893034 0.869825 0
0.977401 0.862928 0
0.999847 0.865843 0
1 0.880491 0
1 0.894118 0
1 0.898421 0
1 0.895888 0
1 0.893126 0
1 0.890349 0
1 0.889082 0
1 0.889311 0
1 0.891585 0
1 0.895399 0
1 0.90042 0
1 0.905913 0
1 0.911635 0
1 0.917296 0
1 0.922652 0
1 0.927901 0
0.762005 0.890074 0
0.765011 0.892576 0
0.7682 0.895216 0
0.768475 0.895445 0
0.768475 0.895445 0
0.768475 0.895445 0
0.768475 0.895445 0
0.768475 0.895445 0
0.768475 0.895445 0
0.768475 0.895445 0
0.768475 0.895445 0
0.768475 0.895445 0
0.768475 0.895445 0
0.78732 0.893187 0
0.889845 0.883146 0
0.98146 0.879606 0
1 0.885222 0
1 0.903151 0
1 0.924819 0
1 0.937194 0
1 0.94136 0
1 0.940948 0
1 0.938903 0
1 0.937087 0
1 0.936034 0
1 0.936263 0
1 0.937758 0
1 0.940246 0
1 0.942931 0
1 0.945418 0
1 0.947662 0
1 0.949676 0
1 0.9514 0
0.768475 0.895445 0
0.768475 0.895445 0
0.768475 0.895445 0
0.768475 0.895445 0
0.768475 0.895445 0
0.768475 0.895445 0
0.768475 0.895445 0
0.768475 0.895445 0
0.768475 0.895445 0
0.768475 0.895445 0
0.768475 0.895445 0
0.768475 0.895445 0
0.768475 0.895445 0
0.783963 0.893568 0
0.882551 0.883665 0
0.975219 0.879744 0
1 0.884596 0
1 0.90161 0
1 0.924269 0
1 0.940734 0
1 0.950042 0
1 0.954055 0
1 0.955291 0
1 0.955367 0
1 0.955367 0
1 0.955367 0
1 0.955352 0
1 0.955352 0
1 0.955261 0
1 0.955123 0
1 0.955154 0
1 0.955245 0
1 0.955367 0
0.768475 0.895445 0
0.768475 0.895445 0
0.768475 0.895445 0
0.768475 0.895445 0
0.768475 0.895445 0
0.768475 0.895445 0
0.768475 0.895445 0
0.768475 0.895445 0
0.768475 0.895445 0
0.768475 0.895445 0
0.768475 0.895445 0
0.768475 0.895445 0
0.768475 0.895445 0
0.782818 0.893706 0
0.880354 0.883864 0
0.973007 0.879744 0
1 0.884138 0
1 0.900221 0
1 0.922591 0
1 0.939391 0
1 0.949279 0
1 0.953658 0
1 0.955184 0
1 0.955367 0
1 0.955367 0
1 0.955367 0
1 0.955367 0
1 0.955367 0
1 0.955367 0
1 0.955367 0
1 0.955367 0
1 0.955367 0
1 0.955367 0
0.768475 0.895445 0
0.768475 0.895445 0
0.768475 0.895445 0
0.768475 0.895445 0
0.768475 0.895445 0
0.768475 0.895445 0
0.768475 0.895445 0
0.768475 0.895445 0
0.768475 0.895445 0
0.768475 0.895445 0
0.768475 0.895445 0
0.768475 0.895445 0
0.768475 0.895445 0
0.78822 0.89305 0
0.885954 0.883513 0
0.976181 0.879667 0
1 0.884215 0
1 0.899962 0
1 0.921828 0
1 0.938674 0
1 0.94876 0
1 0.953368 0
1 0.955077 0
1 0.955352 0
1 0.955367 0
1 0.955367 0
1 0.955367 0
1 0.955367 0
1 0.955367 0
1 0.955367 0
1 0.955367 0
1 0.955367 0
1 0.955367 0
0.768475 0.895445 0
0.768475 0.895445 0
0.768475 0.895445 0
0.768475 0.895445 0
0.768475 0.895445 0
0.768475 0.895445 0
0.768475 0.895445 0
0.768475 0.895445 0
0.768475 0.895445 0
0.768475 0.895445 0
0.768475 0.895445 0
0.768475 0.895445 0
0.768475 0.895445 0
0.802319 0.891417 0
0.899123 0.882673 0
0.984039 0.879622 0
1 0.884901 0
1 0.900908 0
1 0.922301 0
1 0.938674 0
1 0.948577 0
1 0.953201 0
1 0.954986 0
1 0.955337 0
1 0.955367 0
1 0.955367 0
1 0.955367 0
1 0.955367 0
1 0.955367 0
1 0.955367 0
1 0.955367 0
1 0.955367 0
1 0.955367 0
0.768475 0.895445 0
0.768475 0.895445 0
0.768475 0.895445 0
0.768475 0.895445 0
0.768475 0.895445 0
0.768475 0.895445 0
0.768475 0.895445 0
0.768475 0.895445 0
0.768475 0.895445 0
0.768475 0.895445 0
0.768475 0.895445 0
0.768475 0.895445 0
0.768475 0.895445 0
0.823453 0.889174 0
0.918166 0.881605 0
0.994217 0.879728 0
1 0.886244 0
1 0.902907 0
1 0.923552 0
1 0.939178 0
1 0.948699 0
1 0.953216 0
1 0.954971 0
1 0.955337 0
1 0.955367 0
1 0.955367 0
1 0.955367 0
1 0.955367 0
1 0.955367 0
1 0.955367 0
1 0.955367 0
1 0.955367 0
1 0.955367 0
0.768475 0.895445 0
0.768475 0.895445 0
0.768475 0.895445 0
0.768475 0.895445 0
0.768475 0.895445 0
0.768475 0.895445 0
0.768475 0.895445 0
0.768475 0.895445 0
0.768475 0.895445 0
