LUT color transfer/LUTs/72.cube
TITLE "Generate by Resolve"
LUT_3D_SIZE 5
0 0.00843824 0.0280613
0.101762 0.00350958 0.00460822
0.925383 0 0
1 0 0
1 0 0
0.0444953 0.0710765 0
0.0706798 0.0707103 0.00416571
0.901625 0 0
1 0 0
1 0 0
0.346227 0.440574 0
0.396216 0.506127 0
0.708034 0.559915 0.136385
1 0.551675 0
1 0.658457 0
0.768475 0.895445 0
0.768475 0.895445 0
1 0.884215 0
1 0.955367 0
1 0.955367 0
0.768475 0.895445 0
0.768475 0.895445 0
1 0.896742 0
1 0.955367 0
1 0.955367 0
0.00677501 0.000640879 0.16347
0.087068 0.000717174 0.143252
0.911055 0 0
1 0 0
1 0 0
0.000610361 0.0780194 0.0907301
0.0467994 0.0745556 0.104082
0.920638 0 0
1 0 0
1 0 0
0.35996 0.457679 0
0.411978 0.529274 0
0.733898 0.579568 0.133806
1 0.571237 0
1 0.674327 0
0.768475 0.895445 0
0.768475 0.895445 0
1 0.884153 0
1 0.955367 0
1 0.955367 0
0.768475 0.895445 0
0.768475 0.895445 0
1 0.893187 0
1 0.955367 0
1 0.955367 0
0.0246891 0 1
0.0544594 0 1
0.774441 0 0.8318
1 0 0.681682
1 0 0.72076
0.0171664 0 1
0.0264897 0 1
0.850233 0 0.906981
1 0 0.861631
1 0 0.968933
0.0567941 0.538521 0.551934
0.033875 0.616815 0.623224
0.585702 0.609735 0.702571
0.947097 0.596918 0.617227
0.960662 0.687358 0.708415
0.124208 1 0.00529488
0.0775158 1 0.0318151
0.817014 0.937301 0.235203
1 0.969253 0.199619
1 0.968841 0.179461
0 1 0.299962
0 1 0.235233
0.825833 0.936614 0.335866
1 0.965988 0.104417
1 0.962585 0.0489204
0.0246891 0 1
0.0285801 0 1
0.757809 0 1
1 0 1
1 0 1
0.023209 0 1
0.0221256 0 1
0.838682 0 1
1 0 1
1 0 1
0.0329137 0.501625 1
0.0161135 0.581216 1
0.611231 0.593042 0.928206
0.963989 0.577844 0.953277
0.9691 0.665629 0.957366
0 1 0.958831
0 1 0.958831
0.158679 1 0.99263
1 0.995972 0.9897
1 0.993835 0.990387
0 1 0.958831
0 1 0.958831
0.1523 1 0.99353
0.980194 0.996979 0.956649
1 0.991958 0.937697
0.0246891 0 1
0.0277409 0 1
0.75346 0 1
1 0 1
1 0 1
0.0231022 0 1
0.023682 0 1
0.869993 0 1
1 0 1
1 0 1
0.0251774 0.541192 1
0.00679026 0.629526 1
0.649332 0.629679 0.934401
0.964614 0.609689 0.953643
0.971145 0.686412 0.959091
0 1 0.958831
0 1 0.958831
0.172015 1 0.992309
1 0.995514 0.989609
1 0.993896 0.990417
0 1 0.958831
0 1 0.958831
0.130434 1 0.993317
0.952819 0.999771 0.982086
1 0.99585 0.990051
