LUT color transfer/LUTs/75.cube
TITLE "Generate by Resolve"
LUT_3D_SIZE 33
0 0.000198367 0.000579843
0.000106813 0.000122072 0.000335698
0.00155642 9.15541e-05 0.000228885
0.00972 4.57771e-05 0.000122072
0.0274052 3.0518e-05 0.000122072
0.0490883 9.15541e-05 0.000396735
0.0733196 4.57771e-05 0.000488289
0.102251 0 0.000213626
0.139528 0 3.0518e-05
0.1953 0 0
0.26952 0 0
0.34876 0 0
0.424903 0 0
0.498039 0 0
0.568017 0 0
0.633677 0 0
0.687495 0 0
0.732677 0 0
0.770077 0 0
0.80061 0 0
0.826459 0 0
0.848188 0 0
0.866697 0 0
0.882383 0 0
0.895659 0 0
0.907378 0 0
0.917906 0 0
0.927581 0 0
0.935836 0 0
0.940749 0 0
0.941726 0 0
0.941726 0 0
0.941726 0 0
0 0.00627146 0.000366217
9.15541e-05 0.00610361 0.000366217
0.00109865 0.00602731 0.000381476
0.0105135 0.00526436 0.000289921
0.031693 0.00410468 0.000396735
0.0572824 0.00318914 0.000640879
0.0864271 0.00177005 0.000488289
0.121187 0.000427253 0.000167849
0.160616 0 3.0518e-05
0.211688 0 0
0.280446 0 0
0.357595 0 0
0.431968 0 0
0.505623 0 0
0.574929 0 0
0.640024 0 0
0.694499 0 0
0.738048 0 0
0.774304 0 0
0.804807 0 0
0.830243 0 0
0.851682 0 0
0.869825 0 0
0.885237 0 0
0.898573 0 0
0.910445 0 0
0.921172 0 0
0.93109 0 0
0.937972 0 0
0.941085 0 0
0.941756 0 0
0.941878 0 0
0.942092 0 0
9.15541e-05 0.0193332 0.000320439
0.000122072 0.018967 0.000366217
0.000534066 0.0188907 0.000350958
0.00944533 0.0172274 0.000274662
0.032105 0.0142519 0.00030518
0.0619821 0.0122377 0.00047303
0.0990616 0.00910964 0.000320439
0.145144 0.00445563 7.62951e-05
0.197375 0.000732433 1.5259e-05
0.254856 0 0
0.317342 0 0
0.380163 0 0
0.446998 0 0
0.515267 0 0
0.582483 0 0
0.645853 0 0
0.699535 0 0
0.74226 0 0
0.778317 0 0
0.808331 0 0
0.83331 0 0
0.85478 0 0
0.872999 0 0
0.888685 0 0
0.902022 0 0
0.914015 0 0
0.925063 0 0
0.935363 0 0
0.940246 6.10361e-05 0
0.942245 0.000289921 0
0.943389 0.00062562 0
0.944793 0.00115969 0
0.9467 0.00201419 0
0.000106813 0.0445258 0.000289921
0.000106813 0.0439002 0.000350958
0.000137331 0.0430304 0.000396735
0.0075227 0.0395972 0.000335698
0.0287633 0.0341039 0.000167849
0.0603952 0.0308843 0.000106813
0.100679 0.0270848 6.10361e-05
0.155291 0.0193332 1.5259e-05
0.226932 0.00849927 0
0.307607 0.00047303 0
0.382147 0 0
0.435935 0 0
0.489189 0 0
0.545617 0 0
0.602518 0 0
0.658412 0 0
0.708217 0 0
0.748379 0 0
0.78262 0 0
0.812222 0 0
0.83682 0 0
0.858137 0 0
0.876875 0 0
0.892821 0 0
0.90695 0 0
0.919997 0 0
0.932586 0.000259403 0
0.943618 0.000961318 0
0.949325 0.00311284 0
0.952224 0.00590524 0
0.955352 0.00926223 0
0.958785 0.0131838 0
0.962386 0.0179751 0
1.5259e-05 0.0782483 0.00015259
1.5259e-05 0.0772717 0.000198367
1.5259e-05 0.0747692 0.000228885
0.00582895 0.0691081 0.000213626
0.0242618 0.0612345 0.000106813
0.0538491 0.0557717 3.0518e-05
0.0928206 0.0516976 0
0.145663 0.0441444 0
0.22179 0.0307774 0
0.323842 0.0130312 0
0.431998 0.00306706 0
0.508675 0.000701915 0
0.564813 0.000167849 0
0.61207 0 0
0.654627 0 0
0.698116 0 0
0.735363 0 0
0.768032 0 0
0.797711 0 0
0.825269 0 0
0.849348 0 0
0.871473 0.000106813 0
0.891173 0.000656138 0
0.909133 0.00210575 0
0.926177 0.00454719 0
0.941527 0.0083772 0
0.954177 0.0133974 0
0.962676 0.0187228 0
0.96788 0.0248417 0
0.971191 0.0317235 0
0.97435 0.038407 1.5259e-05
0.977615 0.0453803 3.0518e-05
0.981018 0.052842 0.00015259
0 0.111543 1.5259e-05
0 0.110582 3.0518e-05
0 0.107668 3.0518e-05
0.0030518 0.100771 1.5259e-05
0.0171817 0.0907301 1.5259e-05
0.0456245 0.0831769 0
0.0831159 0.0791485 0
0.131182 0.073518 0
0.198642 0.0630655 0
0.292393 0.0460822 0
0.410636 0.0240635 0
0.522805 0.0111086 0
0.613367 0.0049897 0
0.681926 0.00213626 0
0.73022 0.000946059 0
0.763531 0.00062562 0
0.792218 0.0009308 0
0.818875 0.00172427 0
0.843595 0.00299077 0
0.867765 0.00483711 0
0.890471 0.00720226 0
0.911513 0.0103151 0
0.930312 0.0147402 0
0.94728 0.0222019 0
0.961135 0.0308995 0
0.971664 0.0401465 0
0.978149 0.0482643 0
0.982254 0.0552987 0
0.985183 0.0611887 0
0.98793 0.0669566 0
0.990829 0.073106 1.5259e-05
0.993851 0.0796826 0.000137331
0.996078 0.0868391 0.00112917
0 0.148699 0
0 0.148714 0
0 0.145449 0
0.00062562 0.13817 0
0.00770581 0.126207 0
0.0334936 0.115328 0
0.0725719 0.110506 0
0.118761 0.106355 0
0.18262 0.0979477 0
0.267765 0.0842756 0
0.377829 0.0649729 0
0.497734 0.0447242 0
0.609689 0.0303044 0
0.701946 0.0209659 0
0.771649 0.0157321 0
0.815946 0.0153353 0
0.852354 0.0172122 0
0.88452 0.0208286 0
0.913634 0.0263371 0
0.933822 0.0323186 0
0.950011 0.0385443 0
0.963165 0.0452277 0
0.972702 0.0520485 0
0.980377 0.0597238 0
0.986816 0.068101 0
0.991226 0.0759747 0.000442512
0.994232 0.0836805 0.00154116
0.996002 0.0906691 0.00314336
0.997086 0.0971847 0.0049897
0.998077 0.104387 0.00715648
0.998489 0.11284 0.0101015
0.99884 0.122911 0.0135348
0.999237 0.13402 0.0171664
0 0.19382 0
0 0.195056 0
0 0.192554 0
0 0.18587 0
0.00132753 0.172488 0
0.0171054 0.15761 0
0.0563973 0.15024 0
0.103868 0.145739 0
0.163943 0.139605 0
0.246509 0.129015 0
0.350988 0.113191 0
0.465095 0.0969253 0
0.578424 0.0812238 0
0.682429 0.0687877 0
0.773236 0.0606394 0
0.834363 0.0609445 0
0.886458 0.0644083 3.0518e-05
0.930678 0.0700847 0.000640879
0.964355 0.0772259 0.00358587
0.979477 0.0817273 0.00451667
0.986786 0.0855879 0.00486763
0.990814 0.0901656 0.00540169
0.993347 0.0963455 0.00672923
0.995331 0.103609 0.00854505
0.996963 0.111772 0.0107424
0.998184 0.120348 0.0132296
0.998947 0.128923 0.0159762
0.999298 0.138018 0.0189364
0.999573 0.148547 0.0220798
0.999817 0.159579 0.0251469
0.999969 0.170825 0.0281376
1 0.182696 0.0312505
1 0.194827 0.0342718
0 0.249439 0
0 0.252567 0
0 0.252354 0
0 0.246952 0
0 0.233707 0
0.00402838 0.214435 0
0.0328679 0.202014 0
0.0844129 0.19588 0
0.143786 0.190738 0
0.220539 0.183612 0
0.325948 0.170886 0
0.437583 0.157321 0
0.548424 0.14493 0
0.653681 0.135164 0
0.751492 0.128298 0
0.825742 0.129168 0.000320439
0.890806 0.13286 0.00267033
0.945663 0.138842 0.00761425
0.980438 0.146548 0.0171664
0.995392 0.150118 0.0219577
0.998322 0.151431 0.0235599
0.99881 0.154253 0.0243076
0.999146 0.159121 0.0256046
0.99942 0.165331 0.0271916
0.999664 0.173358 0.029221
0.999893 0.182727 0.0315099
0.999969 0.192981 0.0339208
1 0.204654 0.036408
1 0.216571 0.0387121
1 0.228565 0.0408331
1 0.241382 0.0429847
1 0.254322 0.0449836
1 0.267765 0.0468147
0 0.316945 0
0 0.322499 0
0 0.32517 0
0 0.32282 0
0 0.311147 0
0.000900282 0.288197 0
0.0146029 0.268482 0
0.0580148 0.259968 0
0.12134 0.254307 0
0.195941 0.249165 0
0.295186 0.240314 0
0.410529 0.227955 0
0.522118 0.218051 0
0.627298 0.210727 0
0.725978 0.2065 0
0.805875 0.207645 0.000808728
0.876051 0.211109 0.00520333
0.937575 0.217105 0.0137636
0.976028 0.225467 0.0273136
0.996323 0.231113 0.0365301
1 0.233921 0.0414893
1 0.234836 0.0420691
1 0.237858 0.0426795
1 0.242893 0.0434882
1 0.250233 0.0446326
1 0.259159 0.0459297
1 0.270237 0.047303
1 0.28249 0.0486458
1 0.294972 0.0498665
1 0.307927 0.0509651
1 0.32076 0.0518959
1 0.334844 0.0526131
1 0.347906 0.0531472
0 0.396689 0
0 0.40441 0
0 0.410132 0
0 0.411063 0
0 0.402716 0
0 0.379538 0
0.00415045 0.353689 0
0.0324865 0.340902 0
0.0945296 0.333303 0
0.172457 0.327581 0
0.265126 0.320912 0
0.37731 0.311574 0
0.49102 0.302144 0
0.60116 0.295384 0
0.702052 0.290501 0
0.782834 0.291279 0.000976577
0.853574 0.295048 0.00520333
0.915129 0.30045 0.013489
0.961791 0.308598 0.0271763
0.990845 0.316655 0.0394903
1 0.322728 0.0495613
1 0.323903 0.0517128
1 0.326238 0.0525826
1 0.329503 0.0528115
1 0.335943 0.0530709
1 0.344625 0.053315
1 0.354726 0.0535134
1 0.366354 0.0536355
1 0.378927 0.0537118
1 0.392294 0.0535897
1 0.40705 0.0533608
1 0.421271 0.0531319
1 0.434699 0.0529488
0 0.485435 0
0 0.494591 0
0 0.502678 0
0 0.507057 0
0 0.501823 0
0 0.481804 0
0.000579843 0.45391 0
0.0170291 0.43357 0
0.0693065 0.424018 0
0.149828 0.416434 0
0.243061 0.408728 0
0.350362 0.400122 0
0.460304 0.392523 0
0.56791 0.384695 0
0.672724 0.378119 0
0.757168 0.376577 0.00015259
0.830686 0.378439 0.00170901
0.892256 0.384268 0.00515755
0.941238 0.391959 0.0170138
0.978271 0.400275 0.0301518
0.999634 0.409171 0.0439918
1 0.413901 0.0502327
1 0.416831 0.052903
1 0.420523 0.0531777
1 0.425589 0.0531624
1 0.433112 0.0530861
1 0.442344 0.0529183
1 0.453239 0.0526741
1 0.465736 0.0523079
1 0.479088 0.0518044
1 0.492332 0.0511788
1 0.505287 0.0500343
1 0.518151 0.0487831
0 0.577951 0
0 0.586801 0
0 0.595163 0
0 0.602045 0
0 0.601602 0
0 0.584924 0
0 0.555322 0
0.0074464 0.530007 0
0.0479591 0.516686 0
0.127169 0.507088 0
0.222995 0.497383 0
0.328618 0.486976 0
0.434791 0.478492 0
0.539147 0.471015 0
0.642466 0.463783 0
0.730526 0.4607 0
0.808606 0.461357 0.00047303
0.872694 0.464714 0.00154116
0.923506 0.471366 0.00712596
0.965545 0.479088 0.0165103
0.996262 0.487602 0.03122
0.999374 0.494865 0.0416266
1 0.501167 0.0476692
1 0.505577 0.0496986
1 0.510384 0.0494545
1 0.517342 0.0489662
1 0.52578 0.0483253
1 0.53608 0.0474403
1 0.547997 0.0463264
1 0.560143 0.0452125
1 0.572824 0.0440833
1 0.584695 0.0425879
1 0.596902 0.0407416
0 0.667399 0
0 0.676143 0
0 0.684352 0
0 0.691951 0
0 0.693889 0
0 0.681437 0
0 0.652735 0
0.00189212 0.623362 0
0.0326696 0.606973 0
0.106325 0.596399 0
0.203296 0.584146 0
0.309697 0.571511 0
0.413794 0.561135 0
0.514733 0.553338 0
0.61445 0.546731 0
0.705684 0.542931 0
0.785962 0.541299 0
0.853422 0.542977 0
0.905806 0.548257 0.00137331
0.951263 0.554879 0.00628672
0.988495 0.563592 0.0169223
0.99707 0.571801 0.0286259
0.999969 0.578653 0.037171
1 0.584497 0.0415808
1 0.589975 0.0417945
1 0.597009 0.0411078
1 0.605798 0.0400549
1 0.615228 0.0386969
1 0.62591 0.0367285
1 0.636973 0.0344701
1 0.647913 0.0317693
1 0.658503 0.0290837
1 0.669215 0.0264286
0 0.752346 0
0 0.760967 0
0.000259403 0.769848 0.00030518
0.0011902 0.776135 0.00135805
0.00181582 0.779446 0.00204471
0.00175479 0.770581 0.00196841
0.00102235 0.743816 0.0011902
0.000274662 0.71252 0.000381476
0.0234073 0.693553 0.000106813
0.0872358 0.68249 4.57771e-05
0.183642 0.669322 0
0.292424 0.654429 0
0.396689 0.642557 0
0.496483 0.633463 0
0.592096 0.62652 0
0.681666 0.62179 0
0.762768 0.619196 0
0.833371 0.619303 0
0.887739 0.623133 4.57771e-05
0.935607 0.629221 0.00047303
0.975616 0.635554 0.0018616
0.992752 0.643397 0.01149
0.999878 0.650828 0.0204623
1 0.657755 0.0266117
1 0.663127 0.0276799
1 0.669734 0.0263523
1 0.676158 0.0248417
1 0.684153 0.0230106
1 0.69247 0.021088
1 0.701549 0.018967
1 0.71107 0.016907
1 0.720928 0.0149538
1 0.730373 0.0131685
0.00552377 0.831571 0.00686656
0.00714122 0.84036 0.00828565
0.00762951 0.847761 0.00856031
0.00794995 0.854185 0.00883497
0.00746166 0.858274 0.00831617
0.00672923 0.852293 0.00758373
0.00511177 0.827604 0.0059968
0.00202945 0.794598 0.00274662
0.0222934 0.77322 0.00163272
0.0818341 0.761242 0.00280766
0.172412 0.748898 0.00425727
0.279484 0.732525 0.00402838
0.38587 0.718822 0.00297551
0.486473 0.707652 0.00189212
0.581048 0.698589 0.000885023
0.667826 0.692943 0.00030518
0.747234 0.689754 0
0.81709 0.688594 0
0.871702 0.692073 0
0.91957 0.69546 0.000122072
0.959991 0.700816 0.000457771
0.984482 0.706767 0.0041352
0.997314 0.713146 0.00849927
1 0.719676 0.0124971
1 0.725307 0.0141604
1 0.731121 0.0135042
1 0.736934 0.0124361
1 0.743633 0.0110628
1 0.751324 0.00943008
1 0.760113 0.00756847
1 0.768246 0.00595102
1 0.776547 0.00451667
1 0.784863 0.00323491
0.0196689 0.903502 0.0228428
0.0231632 0.91133 0.0263676
0.0267491 0.91809 0.0298619
0.0302434 0.922774 0.0331121
0.0321355 0.925704 0.0348058
0.0310216 0.92134 0.0335241
0.0244907 0.900145 0.0267948
0.015198 0.86862 0.0171511
0.0293584 0.845457 0.0123293
0.0829938 0.832883 0.0135195
0.168444 0.822019 0.0161898
0.271412 0.805982 0.0151369
0.378958 0.789746 0.0115663
0.479637 0.776486 0.00820935
0.574533 0.765743 0.00511177
0.659297 0.758999 0.00302129
0.736889 0.75465 0.00146487
0.805493 0.752407 0.000503548
0.858808 0.75375 0.000167849
0.906142 0.755901 0
0.946288 0.759579 0
0.975509 0.764218 0.000122072
0.993332 0.769772 0.000946059
0.999725 0.775128 0.00241093
0.999985 0.780865 0.00361639
1 0.786114 0.00326543
1 0.791653 0.00256352
1 0.797482 0.00178531
1 0.804425 0.00103761
1 0.811048 0.000732433
1 0.817441 0.000717174
1 0.82414 0.000671397
1 0.830488 0.000610361
0.0488594 0.960372 0.0522316
0.0513924 0.962875 0.0547951
0.0535286 0.964828 0.0569467
0.055375 0.967071 0.0588083
0.0570535 0.970123 0.0605173
0.0558022 0.96939 0.0592355
0.047837 0.957244 0.0512093
0.0347143 0.933623 0.0378424
0.0420996 0.912169 0.0296788
0.0892042 0.899321 0.0308385
0.169329 0.890074 0.0354314
0.267277 0.874296 0.0336156
0.375448 0.855894 0.026627
0.477333 0.840589 0.0198672
0.572427 0.827405 0.013489
0.656397 0.818692 0.00868238
0.731807 0.812665 0.00471504
0.798276 0.808911 0.00158694
0.850065 0.808576 0.000534066
0.896025 0.809308 0
0.934691 0.811734 0
0.965591 0.815106 1.5259e-05
0.987335 0.818601 0.00015259
0.998856 0.822263 0.000442512
0.999893 0.826612 0.00077821
1 0.830579 0.000823987
1 0.835126 0.000717174
1 0.840085 0.000534066
1 0.844968 0.000335698
1 0.850309 0.00015259
1 0.855756 4.57771e-05
1 0.861143 1.5259e-05
1 0.866819 0
0.0720531 0.987243 0.0756085
0.0742809 0.989181 0.0778668
0.0764935 0.991699 0.0801099
0.0786603 0.99443 0.0822919
0.0804303 0.996735 0.0840772
0.080293 0.997238 0.0839399
0.0732128 0.990753 0.0767834
0.0613413 0.980041 0.0647746
0.0628824 0.966644 0.0555581
0.102876 0.955795 0.0546273
0.177584 0.945922 0.0572824
0.270069 0.930404 0.0540322
0.377554 0.911147 0.0448463
0.479698 0.893645 0.0355383
0.575952 0.87892 0.0268406
0.658793 0.867842 0.0198367
0.732799 0.859525 0.0138705
0.797452 0.853986 0.00892653
0.847272 0.852247 0.00485237
0.891508 0.852018 0.00175479
0.928588 0.853346 0.000137331
0.958587 0.855589 0
0.981781 0.858076 0
0.996551 0.861082 0
0.999695 0.864485 0
1 0.868086 0
1 0.872084 0
1 0.875914 0
1 0.880125 0
1 0.884688 0
1 0.889174 0
1 0.893584 0
1 0.89807 0
0.0903487 1 0.0940871
0.0928817 1 0.0966506
0.0955978 0.999908 0.0993973
0.0961318 0.999115 0.0999466
0.0960555 0.999115 0.0998703
0.0948806 0.999207 0.0986954
0.0901808 0.998428 0.0939345
0.081529 0.996689 0.0851759
0.0815747 0.99295 0.0772869
0.11603 0.988479 0.0753948
0.186221 0.983352 0.0770123
0.273716 0.97322 0.0728161
0.379553 0.957198 0.0620279
0.482429 0.940688 0.0507668
0.5785 0.924651 0.0399634
0.661219 0.91165 0.0310979
0.735164 0.90132 0.0234836
0.798169 0.894102 0.0172885
0.846357 0.891081 0.011368
0.889036 0.889708 0.00619516
0.924163 0.889952 0.00242618
0.953048 0.891173 0.000900282
0.976974 0.892775 0.000213626
0.994018 0.895033 4.57771e-05
0.999481 0.897856 0
1 0.900786 0
1 0.9037 0
1 0.906737 0
1 0.910002 0
1 0.913436 0
1 0.917021 0
1 0.920378 0
1 0.923796 0
0.101427 1 0.105318
0.101564 1 0.105455
0.101808 1 0.105699
0.102358 1 0.106249
0.10309 1 0.106996
0.103304 1 0.10721
0.101579 1 0.10547
0.0968948 1 0.10071
0.0986038 1 0.0956283
0.128801 1 0.0939956
0.194354 0.999084 0.0945754
0.279652 0.997864 0.0894331
0.382742 0.99025 0.0774395
0.484703 0.978897 0.0646067
0.581643 0.963211 0.0519265
0.664591 0.948867 0.0416266
0.738613 0.936675 0.0328985
0.801007 0.928252 0.0264439
0.847944 0.923644 0.0208286
0.888884 0.920821 0.0151064
0.922148 0.919905 0.00877394
0.949828 0.920195 0.0037995
0.973754 0.920882 0.000961318
0.992172 0.922408 0.000259403
0.999207 0.923934 3.0518e-05
1 0.925887 0
1 0.92813 0
1 0.930465 0
1 0.933135 0
1 0.936004 0
1 0.938964 0
1 0.941939 0
1 0.945068 0
0.104295 1 0.108217
0.104738 1 0.108675
0.104967 1 0.108904
0.104967 1 0.108904
0.104967 1 0.108904
0.104936 1 0.108858
0.104372 1 0.108309
0.102754 1 0.106661
0.108919 1 0.104784
0.139239 1 0.104509
0.202243 1 0.10573
0.286107 1 0.100038
0.386526 0.997833 0.0880446
0.488197 0.993545 0.0742809
0.584649 0.986587 0.0607156
0.66833 0.975296 0.0492714
0.743618 0.964218 0.0395361
0.803983 0.955154 0.0326696
0.85069 0.949462 0.0273442
0.890761 0.945602 0.0222477
0.922255 0.944015 0.016434
0.948684 0.943542 0.0105745
0.972274 0.943984 0.00573739
0.991012 0.944686 0.002533
0.998764 0.945953 0.000915541
0.999939 0.947478 0.000274662
1 0.949172 4.57771e-05
1 0.951431 0
1 0.953613 0
1 0.955871 0
1 0.958419 0
1 0.960906 0
1 0.96347 0
0.104967 1 0.108904
0.104967 1 0.108904
0.104967 1 0.108904
0.104967 1 0.108904
0.104967 1 0.108904
0.104967 1 0.108904
0.104921 1 0.108858
0.104738 1 0.108659
0.114305 1 0.109163
0.146838 1 0.110933
0.207111 1 0.113466
0.292256 1 0.107485
0.38999 1 0.096025
0.492378 0.999817 0.0817731
0.588983 0.998993 0.0674449
0.673335 0.992996 0.0552071
0.748577 0.985245 0.0446326
0.807462 0.977752 0.0375219
0.85417 0.972 0.0323033
0.893538 0.967422 0.0278172
0.923552 0.965454 0.0229343
0.949126 0.964446 0.0173037
0.971649 0.964065 0.0116121
0.990448 0.96437 0.00648508
0.998276 0.965225 0.00323491
0.999863 0.966415 0.00143435
1 0.96788 0.000488289
1 0.969421 0.000106813
1 0.971115 1.5259e-05
1 0.972961 1.5259e-05
1 0.974975 4.57771e-05
1 0.976989 7.62951e-05
1 0.979019 0.000122072
0.104967 1 0.108904
0.104967 1 0.108904
0.104967 1 0.108904
0.104967 1 0.108904
0.104967 1 0.108904
0.104967 1 0.108904
0.104967 1 0.108904
0.105379 1 0.108949
0.115953 1 0.110048
0.151232 1 0.113191
0.214023 1 0.116365
0.298573 1 0.111269
0.395254 1 0.100649
0.499763 1 0.0861982
0.594781 1 0.0717479
0.67892 0.999268 0.0591287
0.755398 0.997879 0.0478981
0.812482 0.994522 0.0408026
0.859266 0.990463 0.035523
0.898054 0.986221 0.0314946
0.926131 0.983749 0.0274205
0.950759 0.982223 0.0225834
0.972488 0.981445 0.017319
0.990723 0.981292 0.0119936
0.997971 0.981781 0.00746166
0.999802 0.982574 0.00410468
1 0.983505 0.00178531
1 0.984695 0.00047303
1 0.985855 6.10361e-05
1 0.987045 0.000106813
1 0.988495 0.000274662
1 0.989929 0.00047303
1 0.991287 0.000732433
0.104967 1 0.108904
0.104967 1 0.108904
0.104967 1 0.108904
0.104967 1 0.108904
0.104967 1 0.108904
0.104967 1 0.108904
0.104967 1 0.108904
0.106386 1 0.109056
0.118425 1 0.110277
0.159258 1 0.114199
0.223865 1 0.116274
0.308553 1 0.11104
0.4056 1 0.100694
0.511177 1 0.0862593
0.604395 1 0.0722362
0.688746 0.999832 0.0597238
0.764645 0.999557 0.0486152
0.819669 0.998779 0.0419165
0.866102 0.997589 0.0367742
0.903075 0.996017 0.0332341
0.929976 0.994995 0.0297704
0.95375 0.994369 0.0256352
0.974609 0.993957 0.0209506
0.992309 0.993912 0.0160525
0.998337 0.994125 0.0116121
0.999878 0.994415 0.00787366
1 0.994797 0.00492866
1 0.9953 0.0031281
1 0.995834 0.00263981
1 0.996506 0.0027924
1 0.997116 0.00303655
1 0.99762 0.00329595
1 0.998016 0.00357061
0.104967 1 0.108904
0.104967 1 0.108904
0.104967 1 0.108904
0.104967 1 0.108904
0.104967 1 0.108904
0.104967 1 0.108904
0.104982 1 0.108904
0.107347 1 0.109163
0.122637 1 0.110704
0.171328 1 0.115175
0.237522 1 0.115953
0.323156 1 0.110094
0.419806 1 0.0994888
0.524071 1 0.0850233
0.617075 1 0.0713054
0.700694 1 0.0590066
0.774502 1 0.0483711
0.828351 1 0.0418708
0.872938 0.999786 0.0370794
0.90782 0.999359 0.0340276
0.93373 0.999069 0.0310826
0.95668 0.998871 0.0274968
0.976837 0.998764 0.023331
0.993957 0.998749 0.0188907
0.998642 0.998825 0.0147097
0.999924 0.998917 0.0110018
1 0.999054 0.00790417
1 0.999222 0.00588998
1 0.99942 0.00544747
1 0.999619 0.00555428
1 0.999832 0.00578317
1 0.999954 0.00601205
1 1 0.00624094
0.104967 1 0.108904
0.104967 1 0.108904
0.104967 1 0.108904
0.104967 1 0.108904
0.104967 1 0.108904
0.104967 1 0.108904
0.105333 1 0.108949
0.109545 1 0.109392
0.131746 1 0.111711
0.186435 1 0.115938
0.255375 1 0.115389
0.341924 1 0.108507
0.440803 1 0.096849
0.542321 1 0.0824903
0.633478 1 0.0691386
0.716167 1 0.057084
0.785626 1 0.0473182
0.837232 1 0.0412299
0.879484 1 0.0368658
0.912093 1 0.034165
0.937346 1 0.0315862
0.959655 1 0.0284733
0.978912 1 0.0248417
0.995071 1 0.0208896
0.998962 1 0.0170138
0.999969 1 0.013489
1 1 0.0103914
1 1 0.00836194
1 1 0.00799573
1 1 0.00807202
1 1 0.00820935
1 1 0.0083772
1 1 0.00852979
0.104967 1 0.108904
0.104967 1 0.108904
0.104967 1 0.108904
0.104967 1 0.108904
0.104967 1 0.108904
0.104967 1 0.108904
0.105379 1 0.108949
0.114076 1 0.109895
0.150912 1 0.113649
