LUT color transfer/LUTs/75.cube
TITLE "Generate by Resolve"
LUT_3D_SIZE 5
0 0.000198367 0.000579843
0.139528 0 3.0518e-05
0.687495 0 0
0.895659 0 0
0.941726 0 0
0 0.249439 0
0.143786 0.190738 0
0.890806 0.13286 0.00267033
0.999664 0.173358 0.029221
1 0.267765 0.0468147
0.0196689 0.903502 0.0228428
0.0293584 0.845457 0.0123293
0.736889 0.75465 0.00146487
0.999985 0.780865 0.00361639
1 0.830488 0.000610361
0.104967 1 0.108904
0.118425 1 0.110277
0.764645 0.999557 0.0486152
0.998337 0.994125 0.0116121
1 0.998016 0.00357061
0.104967 1 0.108904
0.210361 1 0.116991
0.838392 1 0.0412146
0.999924 1 0.019379
1 1 0.0127718
0 0 0.449454
0.313588 0 0.367681
0.774029 0 0.156069
0.918807 0 0.195514
0.923415 0 0.310292
0 0.250843 0.175738
0.134173 0.193469 0.18265
0.73959 0.171511 0.179278
0.993912 0.267201 0.283009
1 0.363577 0.375723
0.0209049 0.893202 0.0838636
0.0184787 0.834714 0.0559091
0.745861 0.754543 0.096376
1 0.770214 0.0888685
1 0.814328 0.116243
0.108385 1 0.183642
0.110719 1 0.143648
0.730556 0.999374 0.109682
0.995254 0.984497 0.0876478
1 0.987396 0.0855879
0.108675 1 0.335058
0.170809 1 0.219989
0.791272 1 0.139513
0.99617 1 0.112184
1 1 0.092195
0 0 0.960342
0.270573 0 0.933013
0.906111 0 0.90071
0.915709 0 0.892393
0.917693 0 0.921538
0 0.207477 0.911208
0.110658 0.166262 0.906401
0.897215 0.105913 0.878843
1 0.182101 0.88307
1 0.271595 0.941634
1.5259e-05 0.909834 0.731884
0.000900282 0.851957 0.664118
0.723461 0.734401 0.716594
0.980346 0.757641 0.743191
0.999649 0.800107 0.78378
0.0598154 1 0.836072
0.085832 1 0.780652
0.62771 0.997421 0.638178
0.965377 0.944656 0.630045
1 0.94522 0.611933
0.00939956 1 0.896101
0.096376 1 0.841245
0.669917 1 0.674723
0.95758 0.990356 0.668025
1 0.989303 0.619471
0 0 0.960998
0.262333 0 0.942107
0.906767 0 0.9243
0.918059 0 0.92668
0.918059 0 0.92668
0 0.211154 0.966125
0.116625 0.175463 0.991913
0.912902 0.121477 0.994797
1 0.144793 1
1 0.237201 1
0 0.902647 0.995819
0.00703441 0.834714 0.989044
0.728862 0.738857 0.993378
1 0.725536 0.992844
1 0.768673 0.990951
0 1 0.997757
0 1 0.985702
0.504494 0.999298 0.94844
0.949905 0.927031 0.902678
0.99884 0.927214 0.904387
0 1 0.997772
0.00175479 1 0.995712
0.578546 1 0.947982
0.938506 0.977417 0.894133
0.998123 0.9691 0.885664
0 0 0.960998
0.287572 0 0.938888
0.912612 0 0.925521
0.918059 0 0.92668
0.918059 0 0.92668
0 0.241215 0.964843
0.144244 0.205386 0.996185
0.938964 0.156756 0.999451
1 0.176623 1
1 0.269764 1
0 0.928161 0.997345
0.0121767 0.857633 0.994614
0.748898 0.75668 1
1 0.73846 1
1 0.779034 0.995575
0 1 0.997772
0 1 0.997818
0.479866 0.999619 0.990448
0.95259 0.92639 0.958389
0.995987 0.929808 0.950637
0 1 0.997772
0.00195315 1 0.996521
0.515465 1 0.972259
0.933349 0.97644 0.943496
0.997574 0.966217 0.939116
