LUT color transfer/LUTs/75.cube
TITLE "Generate by Resolve"
LUT_3D_SIZE 9
0 0.000198367 0.000579843
0.0274052 3.0518e-05 0.000122072
0.139528 0 3.0518e-05
0.424903 0 0
0.687495 0 0
0.826459 0 0
0.895659 0 0
0.935836 0 0
0.941726 0 0
1.5259e-05 0.0782483 0.00015259
0.0242618 0.0612345 0.000106813
0.22179 0.0307774 0
0.564813 0.000167849 0
0.735363 0 0
0.849348 0 0
0.926177 0.00454719 0
0.96788 0.0248417 0
0.981018 0.052842 0.00015259
0 0.249439 0
0 0.233707 0
0.143786 0.190738 0
0.548424 0.14493 0
0.890806 0.13286 0.00267033
0.998322 0.151431 0.0235599
0.999664 0.173358 0.029221
1 0.216571 0.0387121
1 0.267765 0.0468147
0 0.577951 0
0 0.601602 0
0.0479591 0.516686 0
0.434791 0.478492 0
0.808606 0.461357 0.00047303
0.996262 0.487602 0.03122
1 0.510384 0.0494545
1 0.547997 0.0463264
1 0.596902 0.0407416
0.0196689 0.903502 0.0228428
0.0321355 0.925704 0.0348058
0.0293584 0.845457 0.0123293
0.378958 0.789746 0.0115663
0.736889 0.75465 0.00146487
0.946288 0.759579 0
0.999985 0.780865 0.00361639
1 0.804425 0.00103761
1 0.830488 0.000610361
0.101427 1 0.105318
0.10309 1 0.106996
0.0986038 1 0.0956283
0.382742 0.99025 0.0774395
0.738613 0.936675 0.0328985
0.922148 0.919905 0.00877394
0.999207 0.923934 3.0518e-05
1 0.933135 0
1 0.945068 0
0.104967 1 0.108904
0.104967 1 0.108904
0.118425 1 0.110277
0.4056 1 0.100694
0.764645 0.999557 0.0486152
0.929976 0.994995 0.0297704
0.998337 0.994125 0.0116121
1 0.995834 0.00263981
1 0.998016 0.00357061
0.104967 1 0.108904
0.104967 1 0.108904
0.166033 1 0.114916
0.492576 1 0.0896162
0.808072 1 0.0445716
0.943862 1 0.0316625
0.999603 1 0.0197452
1 1 0.0118257
1 1 0.0120089
0.104967 1 0.108904
0.104967 1 0.108904
0.210361 1 0.116991
0.56614 1 0.0790875
0.838392 1 0.0412146
0.954833 1 0.0305791
0.999924 1 0.019379
1 1 0.0128328
1 1 0.0127718
0 9.15541e-05 0.126345
0.0514534 0.00015259 0.101732
0.232883 0 0.056199
0.456672 0 0.00883497
0.690288 0 1.5259e-05
0.826383 0 0
0.896056 0 0.000534066
0.93637 0 0.00918593
0.941634 0 0.0301366
0 0.0763561 0.0687572
0.0164645 0.0599374 0.0586862
0.168322 0.0406195 0.0435187
0.448859 0.00482185 0.0107424
0.715358 6.10361e-05 0.00134279
0.848814 0.000228885 0.00230411
0.924086 0.0109712 0.0168612
0.961013 0.0444343 0.0613565
0.969314 0.0898146 0.104524
0 0.243046 0.00508125
0 0.226139 0.00404364
0.145251 0.189532 0.02121
0.568963 0.140047 0
0.888075 0.135668 0.00335698
0.99585 0.166491 0.0315709
1 0.201953 0.0510414
1 0.252781 0.0776074
1 0.303929 0.107698
0 0.585534 0
0 0.603189 0
0.0422522 0.52369 0
0.443061 0.482856 0
0.816236 0.466529 0.00030518
0.994476 0.493812 0.032639
1 0.507362 0.0496071
1 0.535744 0.0480354
1 0.578882 0.0468605
0.0236057 0.91281 0.0268254
0.0342718 0.93077 0.0367895
0.0331579 0.850599 0.0131685
0.389349 0.796826 0.0120089
0.745052 0.761349 0.000976577
0.94963 0.767178 0
1 0.785611 0.00250248
1 0.801785 0.00216678
1 0.824002 0.00361639
0.101427 1 0.105318
0.103868 1 0.107774
0.102785 0.999985 0.0965896
0.389456 0.988525 0.0779278
0.746334 0.938491 0.0327153
0.925093 0.922484 0.00927749
0.998871 0.925566 7.62951e-05
1 0.933471 0
1 0.943557 3.0518e-05
0.104967 1 0.108904
0.104967 1 0.108904
0.112566 1 0.109712
0.388922 1 0.103349
0.761822 0.999588 0.0492409
0.929931 0.995453 0.0298009
0.998398 0.994263 0.0115663
1 0.99559 0.00236515
1 0.997086 0.00300603
0.105043 1 0.110491
0.104982 1 0.109255
0.148302 1 0.113436
0.44596 1 0.0960555
0.79472 1 0.0468299
0.940505 1 0.0320439
0.999222 1 0.0201114
1 1 0.01149
1 1 0.01149
0.10631 1 0.134447
0.105303 1 0.115373
0.186648 1 0.116487
0.512215 1 0.0868086
0.822263 1 0.0457465
0.949615 1 0.0311742
0.999298 1 0.0201572
1 1 0.0125734
1 1 0.0124361
0 0 0.449454
0.0326543 0 0.410452
0.313588 0 0.367681
0.648112 0 0.244068
0.774029 0 0.156069
0.860716 0 0.156847
0.918807 0 0.195514
0.927565 0 0.250034
0.923415 0 0.310292
0 0.0591287 0.362203
0.00737011 0.0447547 0.329046
0.222095 0.0142977 0.278553
0.560113 0.00105287 0.188937
0.765942 3.0518e-05 0.167391
0.876768 0.000122072 0.195865
0.937285 0.0100252 0.248432
0.965057 0.0390021 0.301534
0.985275 0.082826 0.35172
0 0.250843 0.175738
0 0.237491 0.157244
0.134173 0.193469 0.18265
0.462593 0.169284 0.170703
0.73959 0.171511 0.179278
0.908904 0.209064 0.222126
0.993912 0.267201 0.283009
1 0.316045 0.330892
1 0.363577 0.375723
0 0.569467 0.0814679
0 0.590448 0.0978103
0.0329747 0.521981 0.0773327
0.450294 0.482948 0.124315
0.833371 0.458915 0.099794
0.996765 0.479576 0.130846
1 0.49929 0.150103
1 0.535393 0.173037
1 0.582956 0.202365
0.0209049 0.893202 0.0838636
0.0310826 0.913191 0.116808
0.0184787 0.834714 0.0559091
0.356222 0.799847 0.0823835
0.745861 0.754543 0.096376
0.95433 0.756924 0.0798352
1 0.770214 0.0888685
1 0.788251 0.096788
1 0.814328 0.116243
0.100679 1 0.148348
0.105409 1 0.168933
0.0919814 0.99942 0.119921
0.328405 0.989715 0.103761
0.731746 0.932647 0.106538
0.91989 0.912902 0.089662
0.998398 0.914885 0.0717479
1 0.922301 0.0770886
1 0.933089 0.0927901
0.108385 1 0.183642
0.1084 1 0.184909
0.110719 1 0.143648
0.324285 1 0.128252
0.730556 0.999374 0.109682
0.920806 0.989975 0.110094
0.995254 0.984497 0.0876478
1 0.984985 0.0788891
1 0.987396 0.0855879
0.109377 1 0.25922
0.109422 1 0.221088
0.139956 1 0.183658
0.386618 1 0.146838
0.761257 1 0.1234
0.928969 1 0.124071
0.995651 1 0.103624
1 1 0.0894179
1 1 0.0896925
0.108675 1 0.335058
0.109468 1 0.27306
0.170809 1 0.219989
0.445319 1 0.161013
0.791272 1 0.139513
0.937301 1 0.136446
0.99617 1 0.112184
1 1 0.095201
1 1 0.092195
0 0 0.818418
0.0106661 0 0.80087
0.287129 0 0.765042
0.696544 0 0.699504
0.885618 0 0.662333
0.909331 0 0.615854
0.908904 0 0.627924
0.908751 0 0.673686
0.908965 0 0.73257
0 0.0340581 0.774273
0.000167849 0.0205997 0.756863
0.194385 0.00207523 0.716365
0.660258 0 0.668086
0.88249 0 0.671397
0.910887 0 0.652811
0.916136 0 0.65803
0.931304 0.00172427 0.675593
0.952895 0.0183566 0.712978
0 0.21265 0.669047
0 0.203296 0.665095
0.118822 0.170794 0.637034
0.563378 0.12076 0.5823
0.827436 0.135317 0.529366
0.948791 0.191028 0.540063
0.999832 0.251835 0.589837
1 0.299748 0.633967
1 0.345602 0.677424
0 0.59173 0.404028
0 0.61207 0.435752
0.0121462 0.530648 0.410254
0.430426 0.478904 0.467933
0.763592 0.467155 0.457328
0.923354 0.499077 0.497902
0.996658 0.546715 0.550591
1 0.590814 0.595804
1 0.628061 0.628138
0.017792 0.885008 0.461677
0.0260777 0.904341 0.497139
0.0157778 0.826902 0.391058
0.321401 0.800732 0.373449
0.741314 0.744167 0.392355
0.956756 0.743236 0.352483
0.999969 0.753918 0.357382
1 0.771282 0.373999
1 0.794675 0.408301
0.0949874 0.999985 0.511467
0.0984054 1 0.536416
0.0879225 0.997406 0.426307
0.29308 0.989136 0.356802
0.699229 0.928115 0.338216
0.908568 0.89778 0.347555
0.996445 0.899657 0.302022
1 0.906325 0.302388
1 0.915038 0.332418
0.102037 1 0.54992
0.10222 1 0.542657
0.108232 1 0.433341
0.2907 1 0.35845
0.679515 0.9991 0.303288
0.903532 0.973556 0.362966
0.985351 0.967437 0.321767
1 0.9682 0.297002
1 0.969619 0.306859
0.0975204 1 0.651347
0.10042 1 0.592844
0.124865 1 0.499565
0.338018 1 0.403357
0.700465 1 0.320745
0.907851 0.999695 0.371618
0.980926 0.997223 0.352499
0.999985 0.996841 0.315236
1 0.99649 0.310475
0.0910201 1 0.740826
0.0978256 1 0.663539
0.143893 1 0.567132
0.383398 1 0.446799
0.728954 1 0.358968
0.913832 1 0.396933
0.979614 0.999969 0.373617
0.999954 0.999969 0.335592
1 0.999954 0.321721
0 0 0.960342
0.00628672 0 0.960189
0.270573 0 0.933013
0.692332 0 0.879927
0.906111 0 0.90071
0.915297 0 0.886778
0.915709 0 0.892393
0.916899 0 0.910033
0.917693 0 0.921538
0 0.0233158 0.950088
0.000122072 0.0140536 0.944823
0.193805 0.000961318 0.922591
0.671016 0 0.873381
0.905318 0 0.902235
0.916487 0 0.903777
0.916716 0 0.899458
0.91841 0 0.896086
0.932418 0.00201419 0.912795
0 0.207477 0.911208
0 0.205386 0.910597
0.110658 0.166262 0.906401
0.559991 0.116091 0.87808
0.897215 0.105913 0.878843
0.998947 0.139361 0.883299
1 0.182101 0.88307
1 0.227573 0.909392
1 0.271595 0.941634
0 0.556497 0.836744
0 0.586297 0.8421
0.0242313 0.504372 0.822538
0.424353 0.468162 0.832242
0.836683 0.432776 0.817929
0.97081 0.475731 0.802319
0.999496 0.530282 0.815091
1 0.573587 0.837156
1 0.610498 0.857298
1.5259e-05 0.909834 0.731884
0.000503548 0.927703 0.759686
0.000900282 0.851957 0.664118
0.2392 0.810651 0.718929
0.723461 0.734401 0.716594
0.905898 0.736858 0.718441
0.980346 0.757641 0.743191
0.999893 0.780316 0.76524
0.999649 0.800107 0.78378
0.0477607 1 0.807279
0.0487526 1 0.820462
0.0497749 0.998428 0.745129
0.263294 0.981872 0.734874
0.65539 0.918441 0.657282
0.893065 0.878401 0.660731
0.989761 0.877043 0.629145
1 0.8822 0.630411
1 0.890425 0.650141
0.0598154 1 0.836072
0.0629892 1 0.836469
0.085832 1 0.780652
0.263966 1 0.740414
0.62771 0.997421 0.638178
0.880369 0.954787 0.648341
0.965377 0.944656 0.630045
0.999664 0.944244 0.609049
1 0.94522 0.611933
0.0357214 1 0.866712
0.0525673 1 0.848646
0.0906081 1 0.812253
0.301076 1 0.768566
0.642206 1 0.650706
0.879561 0.990723 0.64036
0.959304 0.974609 0.654231
0.996658 0.973129 0.618799
1 0.972351 0.60856
0.00939956 1 0.896101
0.0359655 1 0.864225
0.096376 1 0.841245
0.340856 1 0.796323
0.669917 1 0.674723
0.884092 0.998215 0.653361
0.95758 0.990356 0.668025
0.991928 0.989578 0.639872
1 0.989303 0.619471
0 0 0.960998
0.00242618 0 0.961227
0.261173 0 0.94226
0.688228 0 0.898924
0.905928 0 0.924117
0.918059 0 0.92668
0.918059 0 0.92668
0.918059 0 0.92668
0.918059 0 0.92668
0 0.0162356 0.961929
0.000503548 0.0132143 0.961715
0.201068 0.00129702 0.950942
0.680995 0 0.901015
0.909941 0 0.924987
0.918059 0 0.92668
0.91809 0 0.926711
0.918318 0 0.92694
0.929549 0.00140383 0.937972
0 0.206256 0.966339
0 0.208743 0.966278
0.111772 0.16968 0.990967
0.562432 0.122972 0.98262
0.907271 0.113832 0.99173
0.999176 0.126238 0.999283
1 0.147906 0.999298
1 0.19057 0.99971
1 0.237354 1
0 0.56083 0.958618
0 0.588235 0.962707
0.0296941 0.509987 0.965438
0.426047 0.477028 0.983169
0.847593 0.437354 0.980987
0.999725 0.450843 0.994507
1 0.476738 0.989822
1 0.51841 0.991836
1 0.557946 0.99646
0 0.902098 0.958022
0 0.920256 0.973205
0.00343328 0.839567 0.925048
0.284092 0.794858 0.947143
0.724529 0.731304 0.915587
0.945663 0.71986 0.912886
0.992569 0.744381 0.90544
0.999969 0.769131 0.909407
0.999863 0.788922 0.917006
0.000228885 1 0.93695
0 1 0.949279
0.000839246 1 0.895689
0.161868 0.993713 0.900587
0.594293 0.923919 0.873091
0.881498 0.8701 0.85008
0.961517 0.870771 0.849027
0.992294 0.879225 0.858686
0.997848 0.887495 0.867277
4.57771e-05 1 0.946319
3.0518e-05 1 0.946517
0.0101625 1 0.899428
0.202274 1 0.921065
0.599542 0.993317 0.8757
0.860517 0.94583 0.828656
0.954376 0.930816 0.824491
0.996246 0.928695 0.814618
1 0.928923 0.811063
0 1 0.980087
3.0518e-05 1 0.959197
0.00917067 1 0.915724
0.230442 1 0.933608
0.61323 1 0.877531
0.854582 0.982666 0.820813
0.946944 0.961227 0.831998
0.985397 0.957946 0.813748
1 0.956359 0.805982
0 1 0.994705
0 1 0.971679
0.0147097 1 0.933867
0.258488 1 0.943236
0.638727 1 0.882994
0.856153 0.996185 0.820615
0.945113 0.980606 0.831632
0.978851 0.976623 0.822919
0.999527 0.975006 0.809384
0 0 0.960998
0.00123598 0 0.961242
0.262333 0 0.942107
0.690959 0 0.899367
0.906767 0 0.9243
0.918059 0 0.92668
0.918059 0 0.92668
0.918059 0 0.92668
0.918059 0 0.92668
0 0.0170901 0.961959
0.000701915 0.0146639 0.961822
0.208743 0.00164797 0.950301
0.688869 0 0.900984
0.91191 0 0.925399
0.918059 0 0.92668
0.918166 0 0.926787
0.919387 0 0.927977
0.932631 0.00271611 0.941009
0 0.211154 0.966125
0 0.214572 0.966049
0.116625 0.175463 0.991913
0.57026 0.129015 0.98526
0.912902 0.121477 0.994797
0.999924 0.132418 0.999939
1 0.144793 1
1 0.186374 1
1 0.237201 1
0 0.570275 0.962203
0 0.594324 0.962951
0.0325017 0.516579 0.979385
0.432807 0.484825 1
0.853147 0.446845 1
0.999924 0.458091 1
1 0.4654 1
1 0.503136 1
1 0.547372 1
0 0.902647 0.995819
0 0.921279 0.99617
0.00703441 0.834714 0.989044
0.303853 0.799664 0.999939
0.728862 0.738857 0.993378
0.958312 0.720195 0.99292
1 0.725536 0.992844
1 0.746303 0.989029
1 0.768673 0.990951
0 1 0.999084
0 1 0.999451
0.00015259 1 0.995254
0.161212 0.989776 0.996887
0.598291 0.922011 0.969375
0.883986 0.868406 0.935302
0.969131 0.867201 0.926223
0.991485 0.878202 0.925841
0.998688 0.886656 0.92932
0 1 0.997757
0 1 0.99765
0 1 0.985702
0.13753 1 0.982544
0.504494 0.999298 0.94844
0.847959 0.945006 0.910246
0.949905 0.927031 0.902678
0.985702 0.925872 0.901946
0.99884 0.927214 0.904387
0 1 0.997772
0 1 0.997757
0 1 0.992248
0.156542 1 0.986755
0.550515 1 0.949035
0.845624 0.978317 0.907118
0.942275 0.957122 0.900008
0.981857 0.9523 0.891371
1 0.950088 0.886641
0 1 0.997772
0 1 0.997772
0.00175479 1 0.995712
0.178531 1 0.992157
0.578546 1 0.947982
0.845548 0.994171 0.903288
0.938506 0.977417 0.894133
0.974533 0.97142 0.894209
0.998123 0.9691 0.885664
0 0 0.960998
0.00106813 0 0.961257
0.272923 0 0.940764
0.701717 0 0.899565
0.909545 0 0.92488
0.918059 0 0.92668
0.918059 0 0.92668
0.918059 0 0.92668
0.918059 0 0.92668
0 0.0209506 0.962249
0.000854505 0.0175174 0.962097
0.215503 0.00247196 0.950256
0.69633 0 0.901701
0.912779 0 0.925566
0.918059 0 0.92668
0.918059 0 0.92668
0.922087 0 0.930648
0.940047 0.00691234 0.948333
0 0.224247 0.965576
0 0.224933 0.965713
0.129046 0.188922 0.994064
0.589761 0.143359 0.98854
0.925399 0.137713 0.998123
1 0.146761 1
1 0.159075 1
1 0.201465 1
1 0.252522 1
0 0.587564 0.962341
0 0.607645 0.9635
0.0429084 0.53196 0.982284
0.448341 0.498222 1
0.86041 0.461753 1
0.999817 0.470771 1
1 0.477653 1
1 0.515557 1
1 0.558297 1
0 0.914382 0.996643
0 0.928481 0.996796
0.0087892 0.84445 0.991089
0.317952 0.808026 1
0.737758 0.747097 1
0.961059 0.728298 1
1 0.729397 1
1 0.748821 1
1 0.772213 0.997086
0 1 0.999176
0 1 0.999237
0.000350958 1 1
0.182696 0.988907 1
0.629404 0.917922 0.998642
0.887114 0.871336 0.974914
0.98468 0.863905 0.968994
0.998901 0.872694 0.96022
1 0.881926 0.95729
0 1 0.997772
0 1 0.997772
0 1 0.997848
0.130724 1 1
0.470603 0.999435 0.988846
0.831174 0.95021 0.945235
0.947845 0.92726 0.937087
0.976135 0.928054 0.935393
0.993698 0.930312 0.937087
0 1 0.997772
0 1 0.997772
0 1 0.99678
0.148074 1 1
0.486564 1 0.975357
0.830823 0.981674 0.93724
0.940581 0.956405 0.929412
0.980209 0.950927 0.924681
0.99939 0.949142 0.922652
0 1 0.997772
0 1 0.997772
0.00144961 1 0.99649
0.16936 1 1
0.517464 1 0.971389
0.838163 0.993713 0.936645
0.934798 0.976898 0.922286
0.973587 0.969894 0.92372
0.997955 0.967117 0.917342
0 0 0.960998
0.00190738 0 0.961303
0.287572 0 0.938888
0.716686 0 0.89984
0.912612 0 0.925521
0.918059 0 0.92668
0.918059 0 0.92668
0.918059 0 0.92668
0.918059 0 0.92668
0 0.0269627 0.962676
0.000961318 0.0214542 0.962509
0.224445 0.00361639 0.950332
0.705516 0 0.902556
0.913603 0 0.925734
0.918059 0 0.92668
0.918059 0 0.92668
0.925963 0.000198367 0.934447
0.948943 0.0137789 0.957046
0 0.241215 0.964843
0 0.237308 0.965331
0.144244 0.205386 0.996185
0.611994 0.160037 0.99173
0.938964 0.156756 0.999451
1 0.16347 1
1 0.176623 1
1 0.218463 1
1 0.269764 1
0 0.60824 0.962753
0 0.621317 0.964324
0.0546578 0.55024 0.985595
0.466712 0.51397 1
0.870466 0.479652 1
0.999771 0.487739 1
1 0.494591 1
1 0.530632 1
1 0.572229 1
0 0.928161 0.997345
0 0.938811 0.997681
0.0121767 0.857633 0.994614
0.335164 0.81857 1
0.748898 0.75668 1
0.963638 0.73843 1
1 0.73846 1
1 0.757427 0.999771
1 0.779034 0.995575
0 1 0.999207
0 1 0.998871
0.000259403 1 0.999985
0.189181 0.99118 1
0.640482 0.920714 0.999725
0.891096 0.875257 0.981323
0.987472 0.866728 0.976852
0.999969 0.874632 0.96408
1 0.883589 0.959014
0 1 0.997772
0 1 0.997772
0 1 0.997818
0.137575 1 1
0.479866 0.999619 0.990448
0.838071 0.949218 0.962982
0.95259 0.92639 0.958389
0.982345 0.926726 0.952087
0.995987 0.929808 0.950637
0 1 0.997772
0 1 0.997772
0 1 0.996719
0.151659 1 1
0.490059 1 0.975692
0.816098 0.985534 0.945678
0.939132 0.956527 0.948577
0.974243 0.951919 0.947341
0.992828 0.951431 0.947417
0 1 0.997772
0 1 0.997772
0.00195315 1 0.996521
0.169436 1 1
0.515465 1 0.972259
0.829526 0.99527 0.947158
0.933349 0.97644 0.943496
0.973556 0.969238 0.942779
0.997574 0.966217 0.939116
