LUT color transfer/LUTs/76.cube
TITLE "Generate by Resolve"
LUT_3D_SIZE 9
0 7.62951e-05 0.000228885
0.0859541 1.5259e-05 4.57771e-05
0.205798 0 1.5259e-05
0.394949 0 0
0.57499 0 0
0.705577 0 0
0.80827 0 0
0.899336 0 0
0.976684 0 0
0 0.106294 6.10361e-05
0.0847028 0.0994888 4.57771e-05
0.238712 0.0872969 0
0.450919 0.0750591 0
0.594141 0.0749981 0
0.714733 0.0749981 0
0.820462 0.0768139 0
0.912154 0.0849317 0
0.992401 0.0961318 6.10361e-05
0 0.249775 0
0.0749981 0.243473 0
0.207507 0.226291 0
0.444358 0.207965 0
0.656321 0.203128 0.00106813
0.774319 0.210559 0.00941482
0.849867 0.219333 0.0116884
0.925002 0.236622 0.0154879
1 0.257099 0.0187228
0 0.456184 0
0.0749981 0.465629 0
0.169177 0.431662 0
0.398917 0.416388 0
0.623438 0.409537 0.000183108
0.77351 0.420035 0.0124819
0.850004 0.429145 0.019791
0.925002 0.44419 0.0185397
1 0.463752 0.0162966
0.00787366 0.661387 0.00914015
0.0878462 0.670283 0.0139315
0.161746 0.638178 0.00492866
0.376577 0.615885 0.00462348
0.594751 0.601862 0.000579843
0.753506 0.60383 0
0.849989 0.612345 0.00144961
0.925002 0.621759 0.000411994
1 0.632181 0.000244144
0.0405737 0.77499 0.0421302
0.116228 0.77499 0.0428016
0.189425 0.77499 0.0382544
0.378088 0.771099 0.0309758
0.595438 0.74966 0.0131685
0.743862 0.742962 0.00350958
0.849683 0.744564 1.5259e-05
0.925002 0.748257 0
1 0.753017 0
0.0419928 0.850004 0.0435645
0.116976 0.850004 0.0435645
0.19736 0.850004 0.0441138
0.387228 0.850004 0.0402686
0.605859 0.849821 0.0194553
0.74699 0.84799 0.0119173
0.849332 0.847654 0.00463874
0.925002 0.848325 0.00105287
1 0.84921 0.00143435
0.0419928 0.925002 0.0435645
0.116976 0.925002 0.0435645
0.216403 0.925002 0.0459754
0.422019 0.925002 0.0358434
0.623224 0.925002 0.0178378
0.752544 0.925002 0.012665
0.849836 0.925002 0.00790417
0.925002 0.925002 0.0047303
1 0.925002 0.00480659
0.0419928 1 0.0435645
0.116976 1 0.0435645
0.234134 1 0.0467994
0.451453 1 0.031632
0.635355 1 0.0164797
0.756924 1 0.0122225
0.849973 1 0.00775158
0.925002 1 0.00512703
1 1 0.00511177
0 3.0518e-05 0.125536
0.0955673 6.10361e-05 0.115679
0.243153 0 0.0974746
0.40766 0 0.0785229
0.576104 0 0.0749981
0.705547 0 0.0749981
0.808423 0 0.0751965
0.89955 0 0.0786603
0.976654 0 0.0870375
0 0.105531 0.102495
0.0815747 0.09897 0.0984665
0.217319 0.0912337 0.0923934
0.404547 0.0769207 0.0792859
0.586145 0.0750134 0.0755322
0.714519 0.0750896 0.0759136
0.819638 0.0793774 0.0817426
0.909407 0.0927749 0.0995346
0.987732 0.110918 0.116808
0 0.247211 0.0770275
0.0749981 0.240452 0.0766155
0.208103 0.225803 0.0834821
0.452583 0.206012 0.0749981
0.655222 0.204257 0.0763409
0.773342 0.216587 0.0876173
0.849989 0.230777 0.0953994
0.925002 0.251102 0.106035
1 0.271565 0.118074
0 0.459205 0.0749981
0.0749981 0.46627 0.0749981
0.166888 0.43447 0.0749981
0.402213 0.418128 0.0749981
0.62649 0.411612 0.0751202
0.772793 0.422522 0.0880446
0.850004 0.427939 0.0948348
0.925002 0.439292 0.0942092
1 0.45655 0.0937362
0.00944533 0.665125 0.0857252
0.0887007 0.672312 0.0897078
0.163256 0.640238 0.0802625
0.380743 0.618723 0.0798047
0.598016 0.604532 0.0753796
0.754849 0.606867 0.0749981
0.850004 0.614237 0.0759899
0.925002 0.620706 0.0758526
1 0.629602 0.0764324
0.0405737 0.77499 0.117113
0.116533 0.77499 0.118105
0.191104 0.77499 0.113619
0.380774 0.770413 0.106157
0.598535 0.750393 0.0880751
0.745037 0.743999 0.078706
0.849546 0.74522 0.0750134
0.925002 0.748394 0.0749981
1 0.752422 0.0749981
0.0419928 0.850004 0.118547
0.116976 0.850004 0.118547
0.195026 0.850004 0.118883
0.38056 0.850004 0.116335
0.604715 0.849836 0.0946822
0.74696 0.848188 0.0869154
0.849363 0.8477 0.0796216
0.925002 0.848234 0.0759289
1 0.848829 0.0761883
0.0420233 0.925002 0.119188
0.116991 0.925002 0.1187
0.209323 0.925002 0.120363
0.403388 0.925002 0.11342
0.617884 0.925002 0.0937209
0.751202 0.925002 0.0878157
0.849683 0.925002 0.0830396
0.925002 0.925002 0.0795911
1 0.925002 0.0795911
0.0425269 1 0.128771
0.117113 1 0.121141
0.224643 1 0.121584
0.429877 1 0.109712
0.628901 1 0.0932937
0.754849 1 0.0874647
0.849714 1 0.0830549
0.925002 1 0.0800183
1 1 0.0799573
0 0 0.329778
0.0880598 0 0.314168
0.275425 0 0.297063
0.484245 0 0.247623
0.609613 0 0.212421
0.71928 0 0.212741
0.817517 0 0.228199
0.896025 0 0.250004
0.96936 0 0.274113
0 0.0986496 0.294881
0.0779431 0.0928969 0.281605
0.238834 0.080705 0.261418
0.449042 0.0754101 0.225574
0.606378 0.0749981 0.216953
0.725704 0.0750439 0.228336
0.824903 0.0790112 0.249363
0.911025 0.0905928 0.270604
0.99411 0.108125 0.290684
0 0.250324 0.220295
0.0749981 0.244984 0.212894
0.203662 0.227375 0.223056
0.410025 0.2177 0.218265
0.595834 0.218601 0.221698
0.738552 0.233616 0.238834
0.847562 0.25687 0.263203
0.925002 0.276417 0.282353
1 0.29543 0.300282
0 0.452781 0.182589
0.0749981 0.461173 0.18912
0.16318 0.433783 0.180926
0.405112 0.418173 0.19971
0.633341 0.40856 0.189914
0.773709 0.416815 0.202335
0.850004 0.424704 0.210025
0.925002 0.439155 0.219211
1 0.458183 0.230945
0.00836194 0.657282 0.183536
0.0874342 0.665278 0.196719
0.157382 0.633875 0.172351
0.367483 0.619944 0.18294
0.598337 0.601816 0.18854
0.756725 0.602762 0.181933
0.850004 0.608087 0.185534
0.925002 0.61529 0.188708
1 0.625727 0.19649
0.0402686 0.77499 0.209339
0.117159 0.77499 0.217563
0.186786 0.774762 0.197955
0.356359 0.770886 0.191501
0.592691 0.748058 0.192615
0.742947 0.740154 0.185855
0.849363 0.740948 0.178683
0.925002 0.743908 0.180819
1 0.748226 0.187106
0.0433509 0.850004 0.223453
0.118349 0.850004 0.223957
0.194278 0.850004 0.207462
0.354711 0.850004 0.201297
0.592218 0.849744 0.193866
0.743313 0.845991 0.194034
0.848096 0.843793 0.185046
0.925002 0.843992 0.181552
1 0.844953 0.184222
0.0437476 0.925002 0.253681
0.118761 0.925002 0.238422
0.205982 0.925002 0.223453
0.379644 0.925002 0.208728
0.604501 0.925002 0.199359
0.746578 0.925002 0.199619
0.848264 0.925002 0.19144
0.925002 0.925002 0.185763
1 0.925002 0.18587
0.043473 1 0.284016
0.118776 1 0.25922
0.218326 1 0.23798
0.403128 1 0.214405
0.616495 1 0.205798
0.74992 1 0.204562
0.848463 1 0.194858
0.925002 1 0.188067
1 1 0.186877
0 0 0.552361
0.0792554 0 0.545342
0.264851 0 0.531014
0.503609 0 0.504799
0.654246 0 0.489921
0.73872 0 0.471336
0.813565 0 0.476158
0.888502 0 0.494469
0.963592 0 0.518013
0 0.0886244 0.534707
0.0750591 0.083238 0.527733
0.227741 0.0758221 0.511543
0.489097 0.0749981 0.492226
0.652995 0.0749981 0.493553
0.739361 0.0749981 0.486122
0.816449 0.0749981 0.488212
0.89752 0.0756847 0.495232
0.981155 0.0823377 0.510185
0 0.23505 0.492607
0.0749981 0.231312 0.491035
0.197528 0.218311 0.479805
0.450355 0.198291 0.457908
0.630976 0.20412 0.436744
0.754513 0.226398 0.441016
0.849928 0.250736 0.460929
0.925002 0.269886 0.478584
1 0.288243 0.495964
0 0.461692 0.386603
0.0749981 0.469825 0.399298
0.154849 0.437247 0.389105
0.397162 0.416556 0.412161
0.605432 0.411856 0.407919
0.744335 0.424628 0.424155
0.848661 0.443687 0.445228
0.925002 0.461311 0.463325
1 0.476219 0.476249
0.0071107 0.654002 0.409659
0.08542 0.661738 0.42385
0.156298 0.630747 0.381415
0.353552 0.620295 0.37438
0.596521 0.597665 0.381933
0.757702 0.597284 0.365988
0.849989 0.601556 0.367941
0.925002 0.608515 0.374594
1 0.617868 0.388312
0.037995 0.77499 0.429572
0.114351 0.77499 0.439567
0.185168 0.773953 0.395514
0.342229 0.770657 0.367712
0.57969 0.746242 0.360281
0.73843 0.734112 0.364019
0.848569 0.734859 0.3458
0.925002 0.73753 0.345953
1 0.741009 0.357961
0.0408179 0.850004 0.444953
0.115877 0.850004 0.442054
0.193286 0.850004 0.398337
0.341268 0.850004 0.368368
0.571801 0.849638 0.346303
0.736416 0.839414 0.370184
0.844144 0.836973 0.353704
0.925002 0.837278 0.343786
1 0.837842 0.347738
0.0390021 0.925002 0.485527
0.11516 0.925002 0.462135
0.199939 0.925002 0.424826
0.360204 0.925002 0.386343
0.580179 0.925002 0.353292
0.73814 0.92488 0.373648
0.842359 0.923888 0.365988
0.924987 0.923735 0.35108
1 0.923598 0.349187
0.036408 1 0.521324
0.114122 1 0.49041
0.207553 1 0.45185
0.378347 1 0.403723
0.591577 1 0.368582
0.740536 1 0.383764
0.84184 0.999985 0.374441
0.924987 0.999985 0.359228
1 0.999985 0.353689
0 0 0.684138
0.0775006 0 0.684077
0.258228 0 0.673198
0.50193 0 0.651957
0.66244 0 0.660288
0.741115 0 0.654704
0.816281 0 0.656947
0.891768 0 0.664012
0.967071 0 0.66862
0 0.0843214 0.680034
0.0750439 0.0806134 0.677928
0.227512 0.0753796 0.669032
0.4934 0.0749981 0.649348
0.66212 0.0749981 0.660883
0.741588 0.0749981 0.661509
0.816678 0.0749981 0.659785
0.892363 0.0749981 0.658427
0.972961 0.0757916 0.66511
0 0.23299 0.664485
0.0749981 0.232151 0.66424
0.194263 0.216495 0.662562
0.448997 0.196429 0.651225
0.658885 0.192355 0.65153
0.774578 0.205737 0.653315
0.850004 0.222827 0.653223
0.925002 0.241032 0.663752
1 0.258625 0.676646
0 0.447593 0.634699
0.0749981 0.45951 0.636835
0.159686 0.426734 0.629007
0.394736 0.412268 0.632898
0.634668 0.398108 0.627161
0.763317 0.41529 0.62092
0.84979 0.43711 0.626032
0.925002 0.454429 0.634867
1 0.469184 0.642908
0 0.663935 0.592752
0.0751965 0.671077 0.603876
0.150347 0.640787 0.565637
0.320684 0.624247 0.587564
0.58938 0.593759 0.586633
0.737362 0.594736 0.587366
0.84213 0.603052 0.597269
0.924956 0.612116 0.606088
0.999863 0.620035 0.613504
0.0191043 0.77499 0.622904
0.0944991 0.77499 0.628183
0.169909 0.774365 0.598047
0.330312 0.767742 0.593942
0.562158 0.742367 0.562905
0.732219 0.72636 0.564279
0.845899 0.725811 0.551659
0.925002 0.727886 0.552163
1 0.731167 0.560052
0.0239261 0.850004 0.634424
0.100191 0.850004 0.634577
0.184329 0.850004 0.612253
0.330587 0.850004 0.596155
0.55108 0.848966 0.555261
0.727153 0.831907 0.559335
0.836149 0.827863 0.55201
0.924865 0.827695 0.543618
1 0.828092 0.544762
0.0142824 0.925002 0.646677
0.0960098 0.925002 0.63946
0.186236 0.925002 0.624903
0.345434 0.925002 0.607416
0.556878 0.925002 0.560281
0.726818 0.921294 0.556146
0.833722 0.914839 0.561685
0.923659 0.914244 0.547509
1 0.913939 0.54342
0.00376898 1 0.658442
0.0893721 1 0.645685
0.18854 1 0.6365
0.361334 1 0.618524
0.567956 1 0.569879
0.728634 0.999283 0.561334
0.833021 0.996139 0.567208
0.921767 0.995834 0.555947
1 0.995727 0.547784
0 0 0.759396
0.0759594 0 0.759487
0.254459 0 0.751904
0.500282 0 0.734569
0.662364 0 0.74464
0.742214 0 0.745663
0.817227 0 0.745663
0.892226 0 0.745663
0.967224 0 0.745663
0 0.0814832 0.759762
0.0751965 0.0802777 0.759686
0.230426 0.0755169 0.755367
0.497383 0.0749981 0.735409
0.663966 0.0749981 0.744991
0.742214 0.0749981 0.745663
0.817227 0.0749981 0.745678
0.892332 0.0749981 0.745769
0.971817 0.0755474 0.750179
0 0.232486 0.761532
0.0749981 0.233494 0.761501
0.194705 0.217868 0.771389
0.449973 0.199176 0.768048
0.662898 0.195529 0.771695
0.77467 0.200488 0.774716
0.850004 0.209155 0.774716
0.925002 0.226215 0.774884
1 0.244938 0.77499
0 0.449317 0.758434
0.0749981 0.460288 0.760082
0.161868 0.428992 0.761181
0.395422 0.415808 0.768261
0.639033 0.399939 0.767391
0.774884 0.405325 0.772793
0.850004 0.415686 0.770916
0.925002 0.432364 0.771725
1 0.448173 0.773587
0 0.660838 0.758206
0.0749981 0.668101 0.764279
0.151369 0.635813 0.745022
0.338628 0.617945 0.753857
0.589807 0.592508 0.741238
0.753262 0.58793 0.740154
0.847028 0.597742 0.737179
0.924987 0.607645 0.73875
0.999939 0.615564 0.741802
9.15541e-05 0.77499 0.749783
0.0749981 0.77499 0.754711
0.150332 0.77499 0.733272
0.289738 0.772488 0.735225
0.537713 0.744564 0.724239
0.727596 0.723033 0.715023
0.834607 0.723308 0.714611
0.92192 0.726696 0.718471
0.99913 0.729992 0.721904
1.5259e-05 0.850004 0.753521
0.0749981 0.850004 0.753597
0.154055 0.850004 0.734768
0.305898 0.850004 0.74342
0.539818 0.847318 0.725277
0.719203 0.828336 0.706462
0.831754 0.822324 0.704799
0.923491 0.821469 0.700847
1 0.821561 0.699428
0 0.925002 0.767025
0.0749981 0.925002 0.758679
0.153658 0.925002 0.741283
0.317174 0.925002 0.74844
0.545296 0.925002 0.726009
0.716823 0.918059 0.703319
0.828779 0.909483 0.707805
0.919158 0.908171 0.700496
1 0.907546 0.697398
0 1 0.772885
0.0749981 1 0.763668
0.155871 1 0.748547
0.328389 1 0.7523
0.555489 1 0.728191
0.717464 0.998474 0.703243
0.828046 0.992248 0.707652
0.916533 0.990646 0.704158
0.999817 0.990005 0.698756
0 0 0.834394
0.0754864 0 0.834501
0.254917 0 0.826841
0.501381 0 0.80975
0.662699 0 0.819715
0.742214 0 0.820676
0.817227 0 0.820676
0.892226 0 0.820676
0.967224 0 0.820676
0 0.0818341 0.834791
0.0752728 0.0808576 0.83473
0.233494 0.0756542 0.830121
0.500542 0.0749981 0.810391
0.664759 0.0749981 0.820157
0.742214 0.0749981 0.820676
0.817258 0.0749981 0.820706
0.89276 0.0749981 0.821195
0.973053 0.0760815 0.826398
0 0.234455 0.836454
0.0749981 0.235828 0.836423
0.196643 0.220172 0.846769
0.453101 0.201602 0.844099
0.665156 0.198581 0.847913
0.77496 0.20296 0.849973
0.850004 0.207904 0.850004
0.925002 0.224537 0.850004
1 0.244877 0.850004
0 0.453101 0.834882
0.0749981 0.46273 0.835172
0.162997 0.431632 0.841749
0.398123 0.418921 0.850004
0.64126 0.403738 0.850004
0.77496 0.408225 0.850004
0.850004 0.411154 0.850004
0.925002 0.426246 0.850004
1 0.443946 0.850004
0 0.661051 0.848325
0.0749981 0.668513 0.848463
0.152804 0.633875 0.845609
0.346532 0.619867 0.849973
0.591546 0.595529 0.847349
0.758328 0.588083 0.847166
0.850004 0.590204 0.847135
0.925002 0.59852 0.845609
1 0.607462 0.846372
0 0.77499 0.849638
0.0749981 0.77499 0.849775
0.150057 0.77499 0.848096
0.289479 0.770901 0.848753
0.539315 0.743801 0.837751
0.728588 0.722362 0.824125
0.837659 0.721874 0.820493
0.921599 0.726284 0.82034
0.999481 0.729656 0.821729
0 0.850004 0.849104
0.0749981 0.850004 0.849058
0.149996 0.850004 0.844282
0.280003 0.850004 0.843015
0.501793 0.849714 0.829374
0.714183 0.828 0.814099
0.829953 0.820813 0.811063
0.91928 0.82034 0.810773
0.999542 0.82089 0.811749
0 0.925002 0.849104
0.0749981 0.925002 0.849104
0.149996 0.925002 0.846891
0.287617 0.925002 0.844694
0.520195 0.925002 0.829618
0.713252 0.91632 0.812848
0.826902 0.907851 0.809995
0.917739 0.905913 0.806546
1 0.905028 0.804654
0 1 0.849104
0.0749981 1 0.849104
0.150698 1 0.84828
0.296407 1 0.84686
0.531411 1 0.82919
0.713222 0.997665 0.811307
0.825406 0.990967 0.807645
0.914809 0.988571 0.807675
0.999252 0.98764 0.804257
0 0 0.909392
0.0754253 0 0.909499
0.259159 0 0.901305
0.505684 0 0.884825
0.663813 0 0.894957
0.742214 0 0.895674
0.817227 0 0.895674
0.892226 0 0.895674
0.967224 0 0.895674
0 0.0833753 0.909895
0.0753338 0.082002 0.909834
0.236194 0.0759747 0.905104
0.503532 0.0749981 0.885679
0.66511 0.0749981 0.895232
0.742214 0.0749981 0.895674
0.817227 0.0749981 0.895674
0.893828 0.0749981 0.897261
0.976013 0.07776 0.904326
0 0.239689 0.911238
0.0749981 0.239963 0.911284
0.201617 0.225559 0.922621
0.460899 0.20734 0.920409
0.670161 0.205081 0.924254
0.77499 0.208698 0.925002
0.850004 0.213626 0.925002
0.925002 0.230579 0.925002
1 0.250996 0.925002
0 0.460014 0.909941
0.0749981 0.468055 0.910399
0.167163 0.437781 0.917906
0.404334 0.424277 0.925002
0.64416 0.409705 0.925002
0.774929 0.413306 0.925002
0.850004 0.416052 0.925002
0.925002 0.43122 0.925002
1 0.44831 0.925002
0 0.665751 0.923659
0.0749981 0.671382 0.92372
0.153506 0.637781 0.921431
0.352178 0.623209 0.925002
0.595102 0.59884 0.925002
0.759426 0.591318 0.925002
0.850004 0.59176 0.925002
0.925002 0.599527 0.925002
1 0.608881 0.923827
0 0.77499 0.924666
0.0749981 0.77499 0.924697
0.150134 0.77499 0.925002
0.29807 0.770565 0.925002
0.551766 0.742168 0.924453
0.729839 0.723537 0.914961
0.84387 0.720562 0.912596
0.924559 0.724071 0.909087
1 0.727764 0.907912
0 0.850004 0.924102
0.0749981 0.850004 0.924102
0.149996 0.850004 0.924147
0.277287 0.850004 0.925002
0.488243 0.849775 0.920531
0.707469 0.830076 0.90309
0.829129 0.820905 0.89984
0.91545 0.821225 0.899153
0.997482 0.822126 0.89984
0 0.925002 0.924102
0.0749981 0.925002 0.924102
0.149996 0.925002 0.92372
0.28423 0.925002 0.925002
0.494621 0.925002 0.915145
0.707332 0.917662 0.899886
0.82623 0.907561 0.896757
0.917082 0.905379 0.894865
0.999756 0.904662 0.894057
0 1 0.924102
0.0749981 1 0.924102
0.150576 1 0.923598
0.292744 1 0.925002
0.506981 1 0.913558
0.710262 0.997482 0.899657
0.823911 0.990753 0.893919
0.914427 0.987961 0.894484
0.999176 0.986847 0.891936
0 0 0.984405
0.075761 0 0.984527
0.265019 0 0.975555
0.511666 0 0.95993
0.665034 0 0.970214
0.742214 0 0.970672
0.817227 0 0.970672
0.892226 0 0.970672
0.967224 0 0.970672
0 0.085771 0.985077
0.0753796 0.0835737 0.985
0.239765 0.0764324 0.980133
0.50721 0.0749981 0.961028
0.665431 0.0749981 0.970291
0.742214 0.0749981 0.970672
0.817227 0.0749981 0.970672
0.895384 0.0750744 0.973785
0.979583 0.0805066 0.982818
0 0.246479 0.985931
0.0749981 0.244923 0.98613
0.207691 0.232151 0.998474
0.469795 0.214008 0.996689
0.675578 0.212696 0.999786
0.77499 0.215381 1
0.850004 0.220645 1
0.925002 0.237385 1
1 0.257908 1
0 0.468284 0.985107
0.0749981 0.473518 0.985733
0.171847 0.44509 0.994232
0.411688 0.430579 1
0.648188 0.416861 1
0.774899 0.420096 1
0.850004 0.422827 1
0.925002 0.437247 1
1 0.45388 1
0 0.67126 0.998947
0.0749981 0.675517 0.999069
0.154864 0.643046 0.997848
0.35906 0.62742 1
0.599557 0.60267 1
0.760449 0.595361 1
0.850004 0.595376 1
0.925002 0.60296 0.999908
1 0.611612 0.99823
0 0.77499 0.99968
0.0749981 0.77499 0.999542
0.150103 0.77499 1
0.300664 0.771466 1
0.556191 0.743282 0.999893
0.731441 0.725093 0.992523
0.844984 0.721691 0.990738
0.924987 0.724849 0.985641
1 0.728435 0.983597
0 0.850004 0.999115
0.0749981 0.850004 0.999115
0.149996 0.850004 0.99913
0.280018 0.850004 1
0.491936 0.849851 0.996185
0.710231 0.829679 0.985199
0.831037 0.820554 0.983352
0.917937 0.820691 0.980835
0.998398 0.821927 0.980255
0 0.925002 0.999115
0.0749981 0.925002 0.999115
0.149996 0.925002 0.998688
0.285664 0.925002 1
0.496025 0.925002 0.99028
0.701442 0.919203 0.978271
0.82565 0.907607 0.979431
0.914702 0.905776 0.978943
0.997131 0.905562 0.978958
0 1 0.999115
0.0749981 1 0.999115
0.150774 1 0.998611
0.292775 1 1
0.506188 1 0.988907
0.706813 0.998108 0.978866
0.823331 0.990585 0.977401
0.914427 0.987701 0.977111
0.999039 0.986481 0.975647
