LUT color transfer/LUTs/76.cube
TITLE "Generate by Resolve"
LUT_3D_SIZE 33
0 7.62951e-05 0.000228885
0.0187839 4.57771e-05 0.000137331
0.038117 3.0518e-05 9.15541e-05
0.0601358 1.5259e-05 4.57771e-05
0.0859541 1.5259e-05 4.57771e-05
0.113375 3.0518e-05 0.00015259
0.141817 1.5259e-05 0.000198367
0.172137 0 9.15541e-05
0.205798 0 1.5259e-05
0.24686 0 0
0.295308 0 0
0.345739 0 0
0.394949 0 0
0.442954 0 0
0.489708 0 0
0.534707 0 0
0.57499 0 0
0.611826 0 0
0.645533 0 0
0.676493 0 0
0.705577 0 0
0.733028 0 0
0.759167 0 0
0.784207 0 0
0.80827 0 0
0.831693 0 0
0.854658 0 0
0.877272 0 0
0.899336 0 0
0.920058 0 0
0.939193 0 0
0.957946 0 0
0.976684 0 0
0 0.0212558 0.00015259
0.0187686 0.0211795 0.00015259
0.0379339 0.021149 0.00015259
0.060441 0.0208438 0.000122072
0.0876631 0.0203861 0.00015259
0.116655 0.0200198 0.000259403
0.147066 0.0194553 0.000198367
0.179721 0.0189059 7.62951e-05
0.214237 0.0187381 1.5259e-05
0.253422 0.0187381 0
0.299672 0.0187381 0
0.349279 0.0187381 0
0.397787 0.0187381 0
0.445991 0.0187381 0
0.49247 0.0187381 0
0.537255 0.0187381 0
0.577798 0.0187381 0
0.613962 0.0187381 0
0.647211 0.0187381 0
0.678172 0.0187381 0
0.707088 0.0187381 0
0.734417 0.0187381 0
0.760433 0.0187381 0
0.785351 0.0187381 0
0.80943 0.0187381 0
0.832929 0.0187381 0
0.85597 0.0187381 0
0.878691 0.0187381 0
0.900191 0.0187381 0
0.92018 0.0187381 0
0.939208 0.0187381 0
0.957992 0.0187381 0
0.976837 0.0187381 0
3.0518e-05 0.0452277 0.000122072
0.0187839 0.0450752 0.000137331
0.037705 0.0450446 0.000137331
0.0600137 0.0443885 0.000106813
0.0878309 0.043183 0.000122072
0.118532 0.0423896 0.000183108
0.152117 0.0411383 0.000122072
0.189303 0.0392767 3.0518e-05
0.228946 0.0377813 0
0.27068 0.0374914 0
0.314427 0.0374914 0
0.358312 0.0374914 0
0.4038 0.0374914 0
0.449851 0.0374914 0
0.495491 0.0374914 0
0.53959 0.0374914 0
0.579812 0.0374914 0
0.615656 0.0374914 0
0.648829 0.0374914 0
0.679576 0.0374914 0
0.708324 0.0374914 0
0.735668 0.0374914 0
0.7617 0.0374914 0
0.786725 0.0374914 0
0.810803 0.0374914 0
0.834363 0.0374914 0
0.857527 0.0374914 0
0.8804 0.0374914 0
0.901091 0.0375219 0
0.920638 0.0375982 0
0.939849 0.0377356 0
0.959167 0.0379644 0
0.978683 0.0383001 0
4.57771e-05 0.074052 0.000122072
0.0187839 0.0738079 0.000137331
0.0375525 0.0734569 0.00015259
0.0592508 0.0720836 0.000137331
0.0864881 0.0698863 6.10361e-05
0.117906 0.0686046 4.57771e-05
0.152758 0.0670787 3.0518e-05
0.193362 0.0639811 0
0.240772 0.0596475 0
0.291783 0.0564279 0
0.340352 0.0562448 0
0.380621 0.0562448 0
0.420676 0.0562448 0
0.461997 0.0562448 0
0.503502 0.0562448 0
0.54461 0.0562448 0
0.583276 0.0562448 0
0.618097 0.0562448 0
0.650553 0.0562448 0
0.681132 0.0562448 0
0.709728 0.0562448 0
0.737011 0.0562448 0
0.763241 0.0562448 0
0.788373 0.0562448 0
0.812772 0.0562448 0
0.836744 0.0562448 0
0.860533 0.0563516 0
0.883696 0.0566262 0
0.904723 0.0574807 0
0.924636 0.0586099 0
0.94464 0.0599374 0
0.964767 0.0615244 0
0.984955 0.0634318 0
0 0.106294 6.10361e-05
0.0187381 0.105898 7.62951e-05
0.0374914 0.104906 9.15541e-05
0.0585794 0.102632 7.62951e-05
0.0847028 0.0994888 4.57771e-05
0.115282 0.0973068 1.5259e-05
0.149615 0.0956741 0
0.189502 0.0926528 0
0.238712 0.0872969 0
0.298283 0.0802014 0
0.360296 0.0762188 0
0.40972 0.0752728 0
0.450919 0.0750591 0
0.488579 0.0749981 0
0.524346 0.0749981 0
0.560494 0.0749981 0
0.594141 0.0749981 0
0.625956 0.0749981 0
0.65658 0.0749981 0
0.686351 0.0749981 0
0.714733 0.0749981 0
0.742336 0.0750286 0
0.768963 0.0752575 0
0.794903 0.0758373 0
0.820462 0.0768139 0
0.84535 0.0783398 0
0.869169 0.080354 0
0.89131 0.082475 0
0.912154 0.0849317 0
0.932219 0.0876783 0
0.952239 0.0903487 0
0.97229 0.0931411 1.5259e-05
0.992401 0.0961318 6.10361e-05
0 0.138354 1.5259e-05
0.0187381 0.137972 1.5259e-05
0.0374914 0.136812 1.5259e-05
0.0574655 0.134051 0
0.0818647 0.130037 0
0.111986 0.127016 0
0.145739 0.125399 0
0.183719 0.12314 0
0.22945 0.118959 0
0.285695 0.112169 0
0.351751 0.103365 0
0.415366 0.0981918 0
0.470344 0.0957351 0
0.516518 0.0945907 0
0.554589 0.0941176 0
0.586664 0.0939956 0
0.616876 0.0941176 0
0.646296 0.0944228 0
0.674937 0.0949416 0
0.703349 0.0956741 0
0.731182 0.0966201 0
0.758358 0.0978714 0
0.784619 0.0996414 0
0.810162 0.102617 0
0.834455 0.106111 0
0.85742 0.109804 0
0.878752 0.113054 0
0.899153 0.115862 0
0.919066 0.118212 0
0.938918 0.120516 0
0.958831 0.122988 1.5259e-05
0.97879 0.125612 6.10361e-05
0.998428 0.128481 0.000457771
0 0.171969 0
0.0187381 0.171969 0
0.0374914 0.170672 0
0.0564889 0.167758 0
0.0780804 0.162982 0
0.107149 0.158618 0
0.141512 0.156695 0
0.178744 0.155032 0
0.223041 0.151675 0
0.275853 0.146197 0
0.338628 0.138476 0
0.405341 0.130388 0
0.468864 0.124605 0
0.524529 0.120882 0
0.57116 0.118791 0
0.60763 0.118624 0
0.64094 0.119387 0
0.672557 0.120821 0
0.702953 0.123018 0
0.729778 0.125429 0
0.755001 0.127901 0
0.779019 0.130587 0
0.801572 0.133318 0
0.823392 0.136385 0
0.844724 0.139727 0
0.865232 0.142885 0.000183108
0.885191 0.145968 0.000610361
0.904646 0.14876 0.0012665
0.923827 0.151369 0.00199893
0.942977 0.154253 0.0028687
0.961898 0.157626 0.00404364
0.980789 0.161654 0.00541695
0.999695 0.16611 0.00686656
0 0.208774 0
0.0187381 0.209262 0
0.0374914 0.20827 0
0.0562448 0.2056 0
0.0755169 0.200244 0
0.100587 0.194293 0
0.135058 0.191333 0
0.172793 0.189548 0
0.215564 0.187091 0
0.267353 0.182849 0
0.327886 0.176516 0
0.392279 0.170016 0
0.456367 0.163729 0
0.516716 0.158755 0
0.571786 0.155505 0
0.615 0.155627 0
0.654582 0.157 1.5259e-05
0.69102 0.159274 0.000259403
0.723247 0.162127 0.00143435
0.748043 0.163928 0.00180056
0.769711 0.165469 0.00195315
0.790082 0.1673 0.00216678
0.809827 0.169787 0.00268559
0.829374 0.172686 0.00341802
0.848783 0.175952 0.00430304
0.868025 0.179385 0.00529488
0.887083 0.182803 0.00639353
0.905959 0.18645 0.00756847
0.924834 0.190661 0.00883497
0.943679 0.195071 0.0100557
0.962493 0.199573 0.0112612
0.981247 0.204318 0.0124971
1 0.209171 0.0137026
0 0.249775 0
0.0187381 0.251026 0
0.0374914 0.250935 0
0.0562448 0.248768 0
0.0749981 0.243473 0
0.0953536 0.235767 0
0.125643 0.230793 0
0.165011 0.228351 0
0.207507 0.226291 0
0.256962 0.223438 0
0.317876 0.218341 0
0.381277 0.212924 0
0.444358 0.207965 0
0.505211 0.204059 0
0.563088 0.201312 0
0.611536 0.201663 0.000122072
0.656321 0.203128 0.00106813
0.697017 0.205524 0.00303655
0.729671 0.208606 0.00686656
0.754406 0.21004 0.0087892
0.774319 0.210559 0.00941482
0.793271 0.211688 0.00972
0.812146 0.213642 0.0102388
0.831006 0.216129 0.0108797
0.849867 0.219333 0.0116884
0.868696 0.223087 0.012604
0.887495 0.227176 0.0135653
0.906249 0.231861 0.0145571
0.925002 0.236622 0.0154879
0.943755 0.241413 0.0163424
0.962493 0.246555 0.0171969
0.981247 0.251713 0.0179904
1 0.257099 0.0187228
0 0.295521 0
0.0187381 0.297749 0
0.0374914 0.298817 0
0.0562448 0.297871 0
0.0749981 0.293202 0
0.0941024 0.284016 0
0.118334 0.276143 0
0.154452 0.272725 0
0.198535 0.270466 0
0.24712 0.268406 0
0.305562 0.264866 0
0.370459 0.259922 0
0.433845 0.255955 0
0.494667 0.25304 0
0.552895 0.251347 0
0.603601 0.251804 0.000320439
0.650416 0.253178 0.00209049
0.693782 0.255589 0.00550851
0.727916 0.25893 0.0109255
0.754772 0.261189 0.0146181
0.77499 0.262303 0.0166018
0.793744 0.262684 0.0168307
0.812497 0.26389 0.0170748
0.83125 0.265904 0.0173953
0.850004 0.268833 0.0178531
0.868742 0.272404 0.0183719
0.887495 0.276844 0.0189212
0.906249 0.281743 0.0194553
0.925002 0.286732 0.0199435
0.943755 0.29192 0.0203861
0.962493 0.297047 0.0207675
0.981247 0.302678 0.0210422
1 0.307912 0.0212558
0 0.346166 0
0.0187381 0.349264 0
0.0374914 0.351553 0
0.0562448 0.351919 0
0.0749981 0.348577 0
0.0937362 0.339315 0
0.114153 0.328969 0
0.144244 0.323857 0
0.187808 0.320821 0
0.23772 0.318532 0
0.293538 0.315862 0
0.357168 0.312123 0
0.421408 0.308354 0
0.484215 0.305653 0
0.543313 0.3037 0
0.594385 0.304006 0.000396735
0.641428 0.305516 0.00207523
0.684794 0.307668 0.00540169
0.72221 0.310933 0.0108644
0.752575 0.314153 0.0157931
0.77499 0.316579 0.0198215
0.793744 0.317052 0.0206912
0.812497 0.317983 0.0210269
0.83125 0.319295 0.0211185
0.850004 0.321874 0.0212253
0.868742 0.325338 0.0213321
0.887495 0.329381 0.0214084
0.906249 0.334035 0.0214542
0.925002 0.339071 0.0214847
0.943755 0.344411 0.0214389
0.962493 0.350317 0.0213474
0.981247 0.355993 0.0212558
1 0.361379 0.0211795
0 0.400412 0
0.0187381 0.404089 0
0.0374914 0.407309 0
0.0562448 0.409064 0
0.0749981 0.406973 0
0.0937362 0.398962 0
0.112718 0.387808 0
0.138048 0.379675 0
0.177722 0.375845 0
0.228672 0.372824 0
0.284718 0.369741 0
0.346395 0.366293 0
0.40911 0.363256 0
0.470909 0.360128 0
0.531579 0.357488 0
0.584115 0.356878 6.10361e-05
0.632273 0.357626 0.000686656
0.675639 0.359945 0.00205997
0.713985 0.363027 0.00680552
0.747555 0.366354 0.0120546
0.774853 0.369909 0.0175937
0.793744 0.371801 0.0200961
0.812497 0.372976 0.0211643
0.83125 0.374456 0.0212711
0.850004 0.376486 0.0212711
0.868742 0.379492 0.0212406
0.887495 0.383185 0.0211643
0.906249 0.387533 0.0210727
0.925002 0.392538 0.0209201
0.943755 0.397879 0.0207218
0.962493 0.403174 0.0204776
0.981247 0.408362 0.0200198
1 0.413504 0.0195163
0 0.456184 0
0.0187381 0.459709 0
0.0374914 0.463066 0
0.0562448 0.465812 0
0.0749981 0.465629 0
0.0937362 0.458961 0
0.11249 0.44712 0
0.134218 0.437003 0
0.169177 0.431662 0
0.219608 0.427832 0
0.276692 0.423941 0
0.337697 0.419791 0
0.398917 0.416388 0
0.459403 0.413397 0
0.519478 0.410513 0
0.573449 0.409277 0
0.623438 0.409537 0.000183108
0.667826 0.41088 0.000610361
0.706905 0.413535 0.00285344
0.742458 0.416632 0.00660716
0.77351 0.420035 0.0124819
0.7935 0.422934 0.0166476
0.812497 0.425467 0.0190738
0.83125 0.427222 0.0198825
0.850004 0.429145 0.019791
0.868742 0.431922 0.0195926
0.887495 0.435309 0.0193332
0.906249 0.439429 0.0189822
0.925002 0.44419 0.0185397
0.943755 0.449058 0.0180819
0.962493 0.454124 0.0176242
0.981247 0.458869 0.0170291
1 0.463752 0.0162966
0 0.510704 0
0.0187381 0.514199 0
0.0374914 0.517479 0
0.0562448 0.520516 0
0.0749981 0.521309 0
0.0937362 0.51632 0
0.11249 0.504845 0
0.132006 0.493095 0
0.163058 0.486534 0
0.211276 0.482307 0
0.268818 0.477409 0
0.330129 0.472343 0
0.390509 0.468193 0
0.449638 0.46508 0
0.508278 0.46244 0
0.563516 0.460914 0
0.614374 0.460273 0
0.660121 0.460929 0
0.699825 0.46305 0.000549325
0.736751 0.46569 0.00251774
0.770397 0.469184 0.00677501
0.792569 0.472465 0.0114443
0.812482 0.475212 0.0148623
0.83125 0.477546 0.0166323
0.850004 0.479728 0.0167086
0.868742 0.482551 0.0164492
0.887495 0.486061 0.016022
0.906249 0.489845 0.0154726
0.925002 0.494118 0.0146944
0.943755 0.498527 0.0137789
0.962493 0.502907 0.0127108
0.981247 0.507149 0.0116274
1 0.511437 0.0105745
0 0.563439 0
0.0187381 0.566888 0
0.0375982 0.570428 0.000122072
0.0567178 0.572946 0.000549325
0.0757153 0.574273 0.000823987
0.0944381 0.570733 0.000793469
0.112902 0.560021 0.00047303
0.13135 0.547509 0.00015259
0.15935 0.53991 4.57771e-05
0.203647 0.5355 1.5259e-05
0.260945 0.530221 0
0.323217 0.524269 0
0.383673 0.519524 0
0.442344 0.515877 0
0.499336 0.5131 0
0.553918 0.511208 0
0.605097 0.51017 0
0.652094 0.510216 0
0.692592 0.511757 1.5259e-05
0.730495 0.514183 0.000183108
0.76524 0.516716 0.000747692
0.790845 0.51986 0.00459297
0.812451 0.52282 0.00817884
0.83125 0.525597 0.0106508
0.850004 0.527749 0.0110781
0.868742 0.530388 0.010544
0.887495 0.532967 0.00993362
0.906249 0.536156 0.00920119
0.925002 0.539483 0.00843824
0.943755 0.543114 0.00758373
0.962493 0.546929 0.00675975
0.981247 0.550866 0.00598154
1 0.55465 0.00526436
0.00221256 0.61387 0.00274662
0.0216068 0.617395 0.00331121
0.0405432 0.620356 0.00341802
0.0594186 0.622919 0.00354009
0.0779736 0.624552 0.00332647
0.096437 0.622156 0.00303655
0.114534 0.612284 0.00239567
0.132052 0.599084 0.00109865
0.158907 0.590539 0.000656138
0.20148 0.585748 0.00112917
0.256458 0.580804 0.00170901
0.318029 0.574258 0.0016022
0.379339 0.56878 0.0011902
0.438331 0.564309 0.000762951
0.494911 0.560678 0.000350958
0.548379 0.558419 0.000122072
0.598886 0.557153 0
0.645579 0.55668 0
0.686168 0.558068 0
0.724071 0.559426 4.57771e-05
0.758999 0.561578 0.000183108
0.787549 0.563958 0.00166323
0.811429 0.566506 0.00340276
0.83125 0.569116 0.00500496
0.850004 0.571359 0.0056611
0.868742 0.573693 0.00540169
0.887495 0.576013 0.00497444
0.906249 0.578698 0.00442512
0.925002 0.581781 0.00376898
0.943755 0.58529 0.00303655
0.962493 0.58854 0.00238041
0.981247 0.591867 0.00180056
1 0.595193 0.00129702
0.00787366 0.661387 0.00914015
0.0280003 0.66453 0.010544
0.048188 0.667231 0.0119478
0.0683452 0.669108 0.0132448
0.0878462 0.670283 0.0139315
0.106157 0.668528 0.0134127
0.122286 0.66006 0.0107118
0.137331 0.64744 0.0068513
0.161746 0.638178 0.00492866
0.201938 0.633158 0.00540169
0.254871 0.628809 0.00646983
0.314809 0.622385 0.00605783
0.376577 0.615885 0.00462348
0.435599 0.61059 0.00328069
0.492302 0.606287 0.00204471
0.544961 0.603601 0.00120546
0.594751 0.601862 0.000579843
0.64094 0.600961 0.000198367
0.681025 0.601495 6.10361e-05
0.7187 0.60235 0
0.753506 0.60383 0
0.783948 0.605676 4.57771e-05
0.809827 0.607904 0.000381476
0.831144 0.610056 0.000961318
0.849989 0.612345 0.00144961
0.868742 0.614435 0.00131228
0.887495 0.616663 0.00102235
0.906249 0.618982 0.000717174
0.925002 0.621759 0.000411994
0.943755 0.624414 0.000289921
0.962493 0.626978 0.000289921
0.981247 0.629648 0.000274662
1 0.632181 0.000244144
0.0195468 0.702892 0.0208896
0.039292 0.703899 0.021912
0.0588998 0.704677 0.0227817
0.0783856 0.705577 0.0235142
0.0978103 0.706798 0.0242008
0.11606 0.706508 0.0236973
0.131624 0.70164 0.0204929
0.145129 0.692195 0.0151369
0.166827 0.683619 0.0118715
0.204425 0.678477 0.0123293
0.255222 0.674769 0.0141756
0.313161 0.668467 0.0134432
0.375174 0.661097 0.0106508
0.434684 0.654978 0.00794995
0.491463 0.649714 0.00540169
0.543801 0.64622 0.00347906
0.592721 0.643809 0.00187686
0.638056 0.642313 0.000640879
0.677516 0.642176 0.000213626
0.714656 0.642466 0
0.748867 0.643442 0
0.77998 0.644785 0
0.807431 0.646189 6.10361e-05
0.830793 0.647654 0.000183108
0.849958 0.649393 0.000320439
0.868742 0.65098 0.000335698
0.887495 0.652796 0.000289921
0.906249 0.65478 0.000213626
0.925002 0.656733 0.000137331
0.943755 0.658869 6.10361e-05
0.962493 0.661051 1.5259e-05
0.981247 0.663203 0
1 0.665476 0
0.0288243 0.732387 0.0302434
0.0484474 0.733166 0.0311437
0.0680858 0.734173 0.0320439
0.0877089 0.735271 0.0329137
0.107164 0.736187 0.0336309
0.125856 0.7364 0.0335699
0.141772 0.733806 0.0307164
0.155779 0.729519 0.0259098
0.175143 0.724147 0.0222171
0.209888 0.719814 0.0218509
0.258534 0.715862 0.0229191
0.314275 0.709651 0.0216068
0.376013 0.701961 0.0179446
0.43563 0.694957 0.0142214
0.492866 0.689067 0.0107424
0.544762 0.684642 0.00793469
0.593118 0.6813 0.00555428
0.63772 0.679088 0.00357061
0.676402 0.678386 0.0019379
0.71284 0.678294 0.000701915
0.746441 0.678828 6.10361e-05
0.777173 0.679728 0
0.805219 0.68072 0
0.829862 0.681926 0
0.849882 0.683284 0
0.868742 0.684733 0
0.887495 0.686336 0
0.906249 0.687861 0
0.925002 0.68954 0
0.943755 0.691371 0
0.962493 0.693172 0
0.981247 0.694926 0
1 0.696727 0
0.0361334 0.756252 0.037644
0.0558938 0.756252 0.0386664
0.0757305 0.756207 0.039765
0.0946975 0.755886 0.0399786
0.11342 0.755886 0.0399481
0.131701 0.755932 0.0394751
0.148562 0.755611 0.0375677
0.163851 0.754925 0.0340734
0.18262 0.753429 0.0309148
0.215152 0.751644 0.0301518
0.261982 0.749584 0.030808
0.315724 0.745541 0.0291295
0.376822 0.739132 0.0248112
0.436713 0.732525 0.0203098
0.493889 0.726116 0.0159915
0.545739 0.720913 0.0124361
0.594064 0.716777 0.0093843
0.63801 0.713878 0.00691234
0.676036 0.712673 0.00454719
0.711864 0.712139 0.00247196
0.744656 0.71223 0.000976577
0.77496 0.712718 0.000366217
0.803281 0.713359 9.15541e-05
0.828855 0.71426 1.5259e-05
0.84979 0.715389 0
0.868742 0.716564 0
0.887495 0.717723 0
0.906249 0.718944 0
0.925002 0.720256 0
0.943755 0.72163 0
0.962493 0.723064 0
0.981247 0.724392 0
1 0.725765 0
0.0405737 0.77499 0.0421302
0.0593729 0.77499 0.0421759
0.0782177 0.77499 0.0422827
0.0971847 0.77499 0.0424964
0.116228 0.77499 0.0428016
0.135058 0.77499 0.0428779
0.153124 0.77499 0.0421912
0.170001 0.77499 0.0402838
0.189425 0.77499 0.0382544
0.220264 0.77499 0.0375982
0.265232 0.774639 0.0378271
0.318105 0.774136 0.0357824
0.378088 0.771099 0.0309758
0.437629 0.766552 0.0258488
0.495155 0.760281 0.0207675
0.547082 0.754543 0.0166476
0.595438 0.74966 0.0131685
0.639139 0.746303 0.0105745
0.676677 0.744457 0.00833143
0.711803 0.743328 0.00604257
0.743862 0.742962 0.00350958
0.773678 0.743069 0.0015259
0.801999 0.743343 0.000381476
0.828122 0.743954 0.000106813
0.849683 0.744564 1.5259e-05
0.868742 0.745357 0
0.887495 0.746258 0
0.906249 0.747189 0
0.925002 0.748257 0
0.943755 0.749401 0
0.962493 0.750576 0
0.981247 0.751766 0
1 0.753017 0
0.0417182 0.793744 0.0432898
0.0606394 0.793744 0.043473
0.0794842 0.793744 0.0435645
0.0982223 0.793744 0.0435645
0.116976 0.793744 0.0435645
0.135714 0.793744 0.0435492
0.154238 0.793744 0.0433204
0.172351 0.793744 0.0426642
0.193561 0.793744 0.0419165
0.224445 0.793744 0.0417945
0.268391 0.793744 0.042298
0.320684 0.793744 0.0400092
0.379599 0.792874 0.0352178
0.439017 0.791165 0.0297093
0.496361 0.788388 0.0242924
0.548577 0.783871 0.0197147
0.597436 0.779431 0.0158083
0.64033 0.775814 0.0130617
0.677775 0.773526 0.0109407
0.712551 0.771984 0.00889601
0.743893 0.771359 0.00657664
0.77322 0.77116 0.00422675
0.801404 0.771344 0.00230411
0.827649 0.771618 0.0010071
0.8495 0.772137 0.000366217
0.868727 0.772732 0.000106813
0.887495 0.773419 1.5259e-05
0.906249 0.774319 0
0.925002 0.775189 0
0.943755 0.776104 0
0.962493 0.777111 0
0.981247 0.778103 0
1 0.779141 0
0.0419928 0.812497 0.0435645
0.0607309 0.812497 0.0435645
0.0794842 0.812497 0.0435645
0.0982223 0.812497 0.0435645
0.116976 0.812497 0.0435645
0.135729 0.812497 0.0435645
0.154467 0.812497 0.0435492
0.173144 0.812497 0.0434577
0.195712 0.812497 0.0436713
0.227481 0.812497 0.0443732
0.270329 0.812497 0.0453956
0.32314 0.812497 0.0429999
0.380987 0.812497 0.038407
0.440696 0.812421 0.0327001
0.498085 0.8121 0.026978
0.550576 0.809689 0.0220798
0.59942 0.806592 0.0178531
0.641733 0.803601 0.0150149
0.679164 0.801297 0.0129244
0.713664 0.799466 0.0111238
0.744411 0.798672 0.00917067
0.773388 0.798276 0.0069276
0.80116 0.798123 0.00463874
0.82742 0.798245 0.00259403
0.849302 0.798581 0.00129702
0.868696 0.799069 0.000579843
0.887495 0.799649 0.000198367
0.906249 0.800275 4.57771e-05
0.925002 0.800946 0
0.943755 0.801678 1.5259e-05
0.962493 0.802487 1.5259e-05
0.981247 0.803296 3.0518e-05
1 0.804105 4.57771e-05
0.0419928 0.83125 0.0435645
0.0607309 0.83125 0.0435645
0.0794842 0.83125 0.0435645
0.0982223 0.83125 0.0435645
0.116976 0.83125 0.0435645
0.135729 0.83125 0.0435645
0.154482 0.83125 0.0435645
0.173388 0.83125 0.0435798
0.196368 0.83125 0.0440223
0.229236 0.83125 0.0452735
0.273106 0.83125 0.04654
0.325673 0.83125 0.0445106
0.383093 0.83125 0.0402533
0.443656 0.83125 0.0344854
0.500404 0.83125 0.0287022
0.552804 0.830961 0.0236515
0.602152 0.830396 0.0191653
0.643732 0.829053 0.0163119
0.681208 0.827436 0.0142061
0.715465 0.825742 0.012604
0.745449 0.82475 0.0109712
0.774044 0.82414 0.00903334
0.801495 0.823819 0.0069276
0.827543 0.823774 0.00479133
0.84918 0.823957 0.00299077
0.868666 0.824277 0.00164797
0.887495 0.824659 0.000717174
0.906249 0.825132 0.000183108
0.925002 0.825589 1.5259e-05
0.943755 0.826062 4.57771e-05
0.962493 0.826642 0.000106813
0.981247 0.827222 0.000198367
1 0.827756 0.000289921
0.0419928 0.850004 0.0435645
0.0607309 0.850004 0.0435645
0.0794842 0.850004 0.0435645
0.0982223 0.850004 0.0435645
0.116976 0.850004 0.0435645
0.135729 0.850004 0.0435645
0.154482 0.850004 0.0435645
0.1738 0.850004 0.0436255
0.19736 0.850004 0.0441138
0.232441 0.850004 0.0456855
0.277043 0.850004 0.0465095
0.329656 0.850004 0.044419
0.387228 0.850004 0.0402686
0.448218 0.850004 0.0345006
0.50425 0.850004 0.0289006
0.556741 0.849928 0.0238804
0.605859 0.849821 0.0194553
0.646616 0.849515 0.0167697
0.68394 0.849027 0.0147097
0.717479 0.848402 0.0132906
0.74699 0.84799 0.0119173
0.77525 0.847745 0.0102541
0.80235 0.847578 0.0083772
0.828168 0.847562 0.00642405
0.849332 0.847654 0.00463874
0.868696 0.847761 0.00314336
0.887495 0.847913 0.00196841
0.906249 0.848112 0.00125124
0.925002 0.848325 0.00105287
0.943755 0.8486 0.00111391
0.962493 0.848844 0.00120546
0.981247 0.849042 0.00131228
1 0.84921 0.00143435
0.0419928 0.868742 0.0435645
0.0607309 0.868742 0.0435645
0.0794842 0.868742 0.0435645
0.0982223 0.868742 0.0435645
0.116976 0.868742 0.0435645
0.135729 0.868742 0.0435645
0.154482 0.868742 0.0435645
0.174182 0.868742 0.0436713
0.199054 0.868742 0.0442817
0.237278 0.868742 0.046067
0.282506 0.868742 0.0463722
0.3355 0.868742 0.0440375
0.39292 0.868742 0.0397955
0.453376 0.868742 0.0340124
0.509316 0.868742 0.0285191
0.561532 0.868742 0.0236057
0.609796 0.868742 0.0193484
0.65008 0.868742 0.0167544
0.686671 0.868666 0.0148318
0.719371 0.868498 0.013611
0.748486 0.868376 0.0124361
0.776425 0.868299 0.0110018
0.803235 0.868254 0.00933852
0.828824 0.868254 0.00755322
0.849454 0.868269 0.00588998
0.868727 0.868315 0.0043946
0.887495 0.868376 0.00315862
0.906249 0.868437 0.00234989
0.925002 0.868513 0.00218204
0.943755 0.868605 0.00222782
0.962493 0.868681 0.00230411
0.981247 0.868727 0.00241093
1 0.868742 0.00248722
0.0419928 0.887495 0.0435645
0.0607309 0.887495 0.0435645
0.0794842 0.887495 0.0435645
0.0982223 0.887495 0.0435645
0.116976 0.887495 0.0435645
0.135729 0.887495 0.0435645
0.15462 0.887495 0.0435798
0.175067 0.887495 0.0437629
0.202686 0.887495 0.0446784
0.24332 0.887495 0.0463722
0.289647 0.887495 0.0461585
0.343008 0.887495 0.0433967
0.401312 0.887495 0.0387427
0.46067 0.887495 0.03299
0.515877 0.887495 0.0276493
0.567712 0.887495 0.0228428
0.614252 0.887495 0.0189212
0.653635 0.887495 0.016495
0.689281 0.887495 0.0147402
0.72108 0.887495 0.0136721
0.749935 0.887495 0.0126345
0.7776 0.887495 0.0113985
0.804059 0.887495 0.00993362
0.829282 0.887495 0.00836194
0.849577 0.887495 0.00680552
0.868727 0.887495 0.00538643
0.887495 0.887495 0.00415045
0.906249 0.887495 0.00334173
0.925002 0.887495 0.00318914
0.943755 0.887495 0.00323491
0.962493 0.887495 0.00328069
0.981247 0.887495 0.00335698
1 0.887495 0.00341802
0.0419928 0.906249 0.0435645
0.0607309 0.906249 0.0435645
0.0794842 0.906249 0.0435645
0.0982223 0.906249 0.0435645
0.116976 0.906249 0.0435645
0.135729 0.906249 0.0435645
0.15465 0.906249 0.0435798
0.176867 0.906249 0.0439612
0.210361 0.906249 0.0454566
