LUT color transfer/LUTs/76.cube
TITLE "Generate by Resolve"
LUT_3D_SIZE 5
0 7.62951e-05 0.000228885
0.205798 0 1.5259e-05
0.57499 0 0
0.80827 0 0
0.976684 0 0
0 0.249775 0
0.207507 0.226291 0
0.656321 0.203128 0.00106813
0.849867 0.219333 0.0116884
1 0.257099 0.0187228
0.00787366 0.661387 0.00914015
0.161746 0.638178 0.00492866
0.594751 0.601862 0.000579843
0.849989 0.612345 0.00144961
1 0.632181 0.000244144
0.0419928 0.850004 0.0435645
0.19736 0.850004 0.0441138
0.605859 0.849821 0.0194553
0.849332 0.847654 0.00463874
1 0.84921 0.00143435
0.0419928 1 0.0435645
0.234134 1 0.0467994
0.635355 1 0.0164797
0.849973 1 0.00775158
1 1 0.00511177
0 0 0.329778
0.275425 0 0.297063
0.609613 0 0.212421
0.817517 0 0.228199
0.96936 0 0.274113
0 0.250324 0.220295
0.203662 0.227375 0.223056
0.595834 0.218601 0.221698
0.847562 0.25687 0.263203
1 0.29543 0.300282
0.00836194 0.657282 0.183536
0.157382 0.633875 0.172351
0.598337 0.601816 0.18854
0.850004 0.608087 0.185534
1 0.625727 0.19649
0.0433509 0.850004 0.223453
0.194278 0.850004 0.207462
0.592218 0.849744 0.193866
0.848096 0.843793 0.185046
1 0.844953 0.184222
0.043473 1 0.284016
0.218326 1 0.23798
0.616495 1 0.205798
0.848463 1 0.194858
1 1 0.186877
0 0 0.684138
0.258228 0 0.673198
0.66244 0 0.660288
0.816281 0 0.656947
0.967071 0 0.66862
0 0.23299 0.664485
0.194263 0.216495 0.662562
0.658885 0.192355 0.65153
0.850004 0.222827 0.653223
1 0.258625 0.676646
0 0.663935 0.592752
0.150347 0.640787 0.565637
0.58938 0.593759 0.586633
0.84213 0.603052 0.597269
0.999863 0.620035 0.613504
0.0239261 0.850004 0.634424
0.184329 0.850004 0.612253
0.55108 0.848966 0.555261
0.836149 0.827863 0.55201
1 0.828092 0.544762
0.00376898 1 0.658442
0.18854 1 0.6365
0.567956 1 0.569879
0.833021 0.996139 0.567208
1 0.995727 0.547784
0 0 0.834394
0.254917 0 0.826841
0.662699 0 0.819715
0.817227 0 0.820676
0.967224 0 0.820676
0 0.234455 0.836454
0.196643 0.220172 0.846769
0.665156 0.198581 0.847913
0.850004 0.207904 0.850004
1 0.244877 0.850004
0 0.661051 0.848325
0.152804 0.633875 0.845609
0.591546 0.595529 0.847349
0.850004 0.590204 0.847135
1 0.607462 0.846372
0 0.850004 0.849104
0.149996 0.850004 0.844282
0.501793 0.849714 0.829374
0.829953 0.820813 0.811063
0.999542 0.82089 0.811749
0 1 0.849104
0.150698 1 0.84828
0.531411 1 0.82919
0.825406 0.990967 0.807645
0.999252 0.98764 0.804257
0 0 0.984405
0.265019 0 0.975555
0.665034 0 0.970214
0.817227 0 0.970672
0.967224 0 0.970672
0 0.246479 0.985931
0.207691 0.232151 0.998474
0.675578 0.212696 0.999786
0.850004 0.220645 1
1 0.257908 1
0 0.67126 0.998947
0.154864 0.643046 0.997848
0.599557 0.60267 1
0.850004 0.595376 1
1 0.611612 0.99823
0 0.850004 0.999115
0.149996 0.850004 0.99913
0.491936 0.849851 0.996185
0.831037 0.820554 0.983352
0.998398 0.821927 0.980255
0 1 0.999115
0.150774 1 0.998611
0.506188 1 0.988907
0.823331 0.990585 0.977401
0.999039 0.986481 0.975647
