LUT color transfer/LUTs/78.cube
TITLE "Generate by Resolve"
LUT_3D_SIZE 33
0 0.000167849 0.000457771
0.00633249 0.000106813 0.000274662
0.0137484 7.62951e-05 0.000183108
0.0265202 3.0518e-05 9.15541e-05
0.0469215 3.0518e-05 9.15541e-05
0.0705119 7.62951e-05 0.000320439
0.0961471 4.57771e-05 0.000381476
0.125536 0 0.000167849
0.161624 0 1.5259e-05
0.212482 0 0
0.278111 0 0
0.347753 0 0
0.414923 0 0
0.479683 0 0
0.541909 0 0
0.600687 0 0
0.649989 0 0
0.692393 0 0
0.728557 0 0
0.759243 0 0
0.78616 0 0
0.809796 0 0
0.830854 0 0
0.849653 0 0
0.866529 0 0
0.882155 0 0
0.896819 0 0
0.910811 0 0
0.923659 0 0
0.933852 0 0
0.940871 0 0
0.947127 0 0
0.953384 0 0
0 0.0112612 0.000289921
0.00631724 0.0111238 0.000289921
0.0133822 0.0110781 0.00030518
0.0271611 0.0104524 0.000228885
0.0503548 0.00952163 0.000320439
0.0770733 0.00880446 0.000518807
0.10663 0.00766003 0.000396735
0.140688 0.0065919 0.000137331
0.178485 0.00624094 1.5259e-05
0.225605 0.00624094 0
0.286854 0.00624094 0
0.354818 0.00624094 0
0.420569 0.00624094 0
0.48574 0.00624094 0
0.547433 0.00624094 0
0.605768 0.00624094 0
0.655604 0.00624094 0
0.696681 0.00624094 0
0.731945 0.00624094 0
0.7626 0.00624094 0
0.789197 0.00624094 0
0.812589 0.00624094 0
0.833356 0.00624094 0
0.851942 0.00624094 0
0.868849 0.00624094 0
0.884596 0.00624094 0
0.899443 0.00624094 0
0.913619 0.00624094 0
0.925368 0.00624094 0
0.934127 0.00624094 0
0.940902 0.00624094 0
0.94725 0.00624094 0
0.953674 0.00624094 0
7.62951e-05 0.0279698 0.000244144
0.00634775 0.0276646 0.000289921
0.0129244 0.0276036 0.000274662
0.0262913 0.026276 0.000228885
0.0506905 0.0238956 0.000244144
0.080827 0.0222782 0.000381476
0.116747 0.019791 0.000259403
0.159869 0.0160678 6.10361e-05
0.207904 0.0130922 1.5259e-05
0.260136 0.0124971 0
0.316381 0.0124971 0
0.372869 0.0124971 0
0.432593 0.0124971 0
0.493462 0.0124971 0
0.553491 0.0124971 0
0.610437 0.0124971 0
0.659632 0.0124971 0
0.700053 0.0124971 0
0.735149 0.0124971 0
0.765408 0.0124971 0
0.791653 0.0124971 0
0.815076 0.0124971 0
0.835904 0.0124971 0
0.854704 0.0124971 0
0.871611 0.0124971 0
0.887465 0.0124971 0
0.902556 0.0124971 0
0.917037 0.0124971 0
0.927199 0.0125429 0
0.935042 0.012726 0
0.942214 0.0130007 0
0.949584 0.0134279 0
0.957366 0.0141146 0
9.15541e-05 0.0543679 0.000228885
0.00633249 0.0538643 0.000289921
0.012604 0.0531777 0.000320439
0.0247654 0.0504158 0.000274662
0.0480049 0.0460212 0.000137331
0.0795605 0.0434577 7.62951e-05
0.118044 0.0404212 4.57771e-05
0.167987 0.0342107 1.5259e-05
0.23154 0.0255436 0
0.302327 0.0191196 0
0.368215 0.0187533 0
0.417502 0.0187533 0
0.466346 0.0187533 0
0.517739 0.0187533 0
0.569512 0.0187533 0
0.620478 0.0187533 0
0.666575 0.0187533 0
0.704952 0.0187533 0
0.738598 0.0187533 0
0.768536 0.0187533 0
0.794461 0.0187533 0
0.817761 0.0187533 0
0.839002 0.0187533 0
0.858 0.0187533 0
0.875563 0.0187533 0
0.892241 0.0187533 0
0.908568 0.0189517 0
0.923644 0.0195163 0
0.934447 0.0212406 0
0.943023 0.0234684 0
0.951782 0.026154 0
0.960769 0.0292973 0
0.969909 0.0331273 0
1.5259e-05 0.0875868 0.000122072
0.0062562 0.0868238 0.00015259
0.0124971 0.0848096 0.000183108
0.0234073 0.0802777 0.000167849
0.0444038 0.0739757 9.15541e-05
0.0743267 0.0696117 1.5259e-05
0.111757 0.0663615 0
0.160281 0.0603189 0
0.227436 0.0496223 0
0.315328 0.0354314 0
0.408103 0.027451 0
0.475685 0.0255589 0
0.526848 0.0251316 0
0.570901 0.0249943 0
0.6112 0.0249943 0
0.652247 0.0249943 0
0.688289 0.0249943 0
0.720668 0.0249943 0
0.750668 0.0249943 0
0.778958 0.0249943 0
0.804471 0.0249943 0
0.828428 0.0250706 0
0.850431 0.0255283 0
0.871061 0.0266728 0
0.890944 0.0286412 0
0.909468 0.031693 0
0.925841 0.0357214 0
0.938888 0.0399634 0
0.94931 0.0448768 0
0.95819 0.05037 0
0.96698 0.0557259 0
0.975845 0.0613107 3.0518e-05
0.984817 0.067277 0.000122072
0 0.120485 1.5259e-05
0.00624094 0.119707 1.5259e-05
0.0124971 0.117388 1.5259e-05
0.0211948 0.111864 1.5259e-05
0.0387427 0.103838 1.5259e-05
0.0677501 0.0977951 0
0.10399 0.0945754 0
0.148684 0.0900587 0
0.208911 0.0816968 0
0.290166 0.0681163 0
0.391012 0.0504921 0
0.486992 0.0401312 0
0.565698 0.0352331 0
0.62678 0.0329595 0
0.671672 0.0320134 0
0.70457 0.0317388 0
0.733776 0.0319982 0
0.761349 0.0326238 0
0.787381 0.0336461 0
0.812955 0.035111 0
0.837369 0.0370031 0
0.860456 0.0395056 0
0.881758 0.0430457 0
0.901564 0.049012 0
0.918914 0.0559701 0
0.933577 0.0633555 0
0.945022 0.0698558 0
0.954543 0.0754864 0
0.963149 0.0802014 0
0.971603 0.0848096 0
0.980163 0.0897383 1.5259e-05
0.98883 0.0950027 0.000106813
0.996872 0.10071 0.000900282
0 0.156466 0
0.00624094 0.156466 0
0.0124971 0.153857 0
0.0192569 0.148028 0
0.0311742 0.13846 0
0.0580453 0.129763 0
0.095552 0.125902 0
0.138766 0.122591 0
0.196094 0.115846 0
0.270451 0.104921 0
0.364767 0.0894789 0
0.466941 0.0732738 0
0.562753 0.061738 0
0.642802 0.0542611 0
0.704814 0.0500801 0
0.746517 0.0497597 0
0.781888 0.0512703 0
0.81387 0.0541695 0
0.843397 0.0585641 0
0.865812 0.0633555 0
0.885008 0.0683299 0
0.901778 0.0736858 0
0.915663 0.0791485 0
0.928054 0.0852827 0
0.939452 0.0919814 0
0.949233 0.0982834 0.000350958
0.957885 0.104448 0.00123598
0.965545 0.110033 0.00251774
0.972671 0.115251 0.0039826
0.979706 0.121004 0.00572213
0.986282 0.127764 0.00807202
0.992813 0.135821 0.0108186
0.99939 0.144717 0.0137331
0 0.19881 0
0.00624094 0.199802 0
0.0124971 0.197787 0
0.0187533 0.192447 0
0.0260624 0.181735 0
0.0449226 0.169833 0
0.0826123 0.163943 0
0.126848 0.160342 0
0.181155 0.155428 0
0.253452 0.14696 0
0.343297 0.13431 0
0.440818 0.121294 0
0.537728 0.108721 0
0.627192 0.0987716 0
0.706096 0.0922713 0
0.761242 0.0925002 0
0.809171 0.0952773 3.0518e-05
0.850797 0.0998093 0.000518807
0.883986 0.105531 0.0028687
0.902327 0.109133 0.00361639
0.914427 0.112215 0.00390631
0.923903 0.115877 0.0043183
0.932174 0.120821 0.00538643
0.940017 0.126635 0.00683604
0.94757 0.133165 0.00859083
0.954803 0.140032 0.0105898
0.961654 0.146883 0.0127871
0.968185 0.154162 0.0151522
0.974655 0.162585 0.0176547
0.981109 0.171405 0.0201114
0.987472 0.180407 0.0225071
0.993744 0.189914 0.0249943
1 0.199603 0.0274052
0 0.249546 0
0.00624094 0.252049 0
0.0124971 0.251881 0
0.0187533 0.247562 0
0.0249943 0.236973 0
0.0344701 0.221546 0
0.0637827 0.211612 0
0.111269 0.206699 0
0.165026 0.202579 0
0.23267 0.196887 0
0.323247 0.186709 0
0.418814 0.17586 0
0.513741 0.165942 0
0.604196 0.158129 0
0.688701 0.152636 0
0.754345 0.153338 0.000244144
0.812634 0.156283 0.00213626
0.862776 0.161074 0.00608835
0.896849 0.167239 0.0137331
0.915053 0.170092 0.0175631
0.923644 0.171145 0.0188449
0.930297 0.173404 0.01944
0.936812 0.177295 0.0204776
0.943282 0.182269 0.0217594
0.949737 0.188678 0.0233768
0.956161 0.19617 0.0252079
0.962478 0.204379 0.0271305
0.96875 0.213718 0.0291295
0.975006 0.223255 0.0309606
0.981247 0.232853 0.0326696
0.987503 0.243107 0.0343938
0.993744 0.253452 0.035996
1 0.26421 0.0374609
0 0.309804 0
0.00624094 0.314244 0
0.0124971 0.316396 0
0.0187533 0.314504 0
0.0249943 0.305165 0
0.0319677 0.286809 0
0.0491798 0.271046 0
0.0901656 0.26421 0
0.147066 0.259693 0
0.213001 0.255573 0
0.29865 0.248493 0
0.397177 0.238605 0
0.492683 0.230686 0
0.583093 0.224826 0
0.668284 0.221454 0
0.738445 0.22237 0.000640879
0.800839 0.225132 0.00416571
0.856306 0.229938 0.011017
0.893324 0.236622 0.0218509
0.915801 0.241138 0.029221
0.925002 0.243381 0.0331884
0.931243 0.244114 0.0336461
0.937499 0.24654 0.0341497
0.943755 0.250553 0.0347906
0.949996 0.256443 0.0357061
0.956252 0.263569 0.0367437
0.962493 0.272435 0.0378424
0.96875 0.282231 0.0389105
0.975006 0.292226 0.0399023
0.981247 0.302586 0.0407721
0.987503 0.312856 0.0415198
0.993744 0.324132 0.0420844
1 0.334569 0.0425116
0 0.379843 0
0.00624094 0.386023 0
0.0124971 0.3906 0
0.0187533 0.391348 0
0.0249943 0.384665 0
0.0312505 0.36614 0
0.0408179 0.345449 0
0.069749 0.33521 0
0.125612 0.329137 0
0.194217 0.324559 0
0.274601 0.319234 0
0.370596 0.311757 0
0.467811 0.304219 0
0.562173 0.298802 0
0.649134 0.294896 0
0.720012 0.295521 0.00077821
0.782849 0.298543 0.00416571
0.838346 0.302846 0.0107881
0.881941 0.309377 0.0217288
0.911421 0.315831 0.0315862
0.925002 0.320668 0.0396429
0.931243 0.32163 0.0413672
0.937499 0.323491 0.0420691
0.943755 0.326101 0.0422522
0.949996 0.331258 0.0424659
0.956252 0.338201 0.0426642
0.962493 0.346273 0.0428016
0.96875 0.355581 0.0429084
0.975006 0.365637 0.0429694
0.981247 0.376333 0.0428626
0.987503 0.388128 0.0426947
0.993744 0.399512 0.0425116
1 0.410254 0.042359
0 0.457099 0
0.00624094 0.464424 0
0.0124971 0.470893 0
0.0187533 0.474388 0
0.0249943 0.470207 0
0.0312505 0.454185 0
0.0379644 0.431876 0
0.0573739 0.41561 0
0.10544 0.40795 0
0.17612 0.401892 0
0.256947 0.395743 0
0.349035 0.388846 0
0.443244 0.382773 0
0.535576 0.376516 0
0.625666 0.371237 0
0.699474 0.370016 0.000122072
0.764553 0.371496 0.00137331
0.82005 0.376165 0.00411994
0.865492 0.382315 0.013611
0.901366 0.388968 0.0241245
0.924712 0.396078 0.0351873
0.931243 0.399863 0.0401923
0.937499 0.402213 0.0423133
0.943755 0.405173 0.0425422
0.949996 0.409216 0.0425269
0.956252 0.415229 0.0424659
0.962493 0.422629 0.0423438
0.96875 0.431342 0.0421302
0.975006 0.441337 0.0418402
0.981247 0.452018 0.0414435
0.987503 0.462623 0.04094
0.993744 0.472969 0.0400244
1 0.483268 0.0390326
0 0.537362 0
0.00624094 0.544427 0
0.0124971 0.551125 0
0.0187533 0.556634 0
0.0249943 0.556283 0
0.0312505 0.542931 0
0.0375067 0.519249 0
0.0497139 0.499001 0
0.088365 0.48835 0
0.157977 0.480674 0
0.240894 0.472908 0
0.33164 0.464576 0
0.422827 0.457801 0
0.512566 0.45182 0
0.601465 0.446021 0
0.678157 0.443549 0
0.746883 0.444083 0.000381476
0.80441 0.446769 0.00123598
0.851301 0.452094 0.00569161
0.891188 0.458259 0.0132143
0.922011 0.46508 0.024979
0.930739 0.470893 0.0332952
0.937499 0.475944 0.0381323
0.943755 0.479454 0.039765
0.949996 0.483299 0.0395666
0.956252 0.488869 0.0391699
0.962493 0.495628 0.0386664
0.96875 0.503853 0.0379492
0.975006 0.51339 0.0370642
0.981247 0.52311 0.0361791
0.987503 0.533257 0.0352636
0.993744 0.542748 0.0340734
1 0.552514 0.0325933
0 0.615167 0
0.00624094 0.622156 0
0.0124971 0.628717 0
0.0187533 0.634806 0
0.0249943 0.636362 0
0.0312505 0.626398 0
0.0374914 0.603433 0
0.0452735 0.57995 0
0.0761273 0.566827 0
0.141314 0.558373 0
0.225132 0.548562 0
0.316503 0.53846 0
0.406043 0.530159 0
0.493034 0.523919 0
0.579049 0.518624 0
0.658305 0.515602 0
0.728771 0.51429 0
0.788983 0.515633 0
0.83714 0.51986 0.00109865
0.879759 0.525154 0.00503548
0.915801 0.532128 0.0135348
0.928893 0.538689 0.0229038
0.937469 0.544182 0.0297398
0.943755 0.548852 0.0332647
0.949996 0.553231 0.0334325
0.956252 0.558862 0.0328832
0.962493 0.565896 0.0320439
0.96875 0.573434 0.0309606
0.975006 0.581979 0.0293889
0.981247 0.590829 0.0275731
0.987503 0.599573 0.0254063
0.993744 0.608057 0.02327
1 0.616617 0.021149
0 0.689372 0
0.0062562 0.696269 0
0.0127108 0.70338 0.000244144
0.0196994 0.7084 0.00109865
0.0264439 0.711055 0.00163272
0.0326543 0.70396 0.00158694
0.0383154 0.682551 0.000946059
0.0439765 0.657511 0.00030518
0.0687266 0.642344 9.15541e-05
0.12604 0.633494 3.0518e-05
0.2094 0.62295 0
0.302678 0.611032 0
0.392355 0.601541 0
0.478431 0.594263 0
0.561166 0.588708 0
0.639078 0.584939 0
0.710216 0.582864 0
0.772946 0.58294 0
0.82269 0.586007 3.0518e-05
0.867231 0.590875 0.000381476
0.905486 0.595941 0.00148013
0.925444 0.602213 0.00920119
0.937407 0.608148 0.0163729
0.943755 0.613703 0.0212863
0.949996 0.61799 0.0221408
0.956252 0.623285 0.021088
0.962493 0.628428 0.0198825
0.96875 0.634821 0.0184024
0.975006 0.641474 0.0168612
0.981247 0.648737 0.0151675
0.987503 0.656352 0.0135348
0.993744 0.66424 0.0119631
1 0.671794 0.0105287
0.00442512 0.759014 0.00549325
0.0119631 0.766033 0.00662242
0.0186007 0.771969 0.0068513
0.0251011 0.777096 0.00706493
0.0309758 0.780377 0.00665293
0.0366369 0.775586 0.00607309
0.0415961 0.755825 0.00479133
0.0453651 0.729427 0.0021973
0.0678416 0.712322 0.00131228
0.121706 0.702739 0.00224308
0.200427 0.692866 0.00340276
0.292332 0.679759 0.00321965
0.383703 0.668803 0.00238041
0.47042 0.659876 0.00151064
0.552331 0.652613 0.000701915
0.628016 0.648112 0.000244144
0.69778 0.645548 0
0.759915 0.644617 0
0.809857 0.647395 0
0.854398 0.650111 9.15541e-05
0.893004 0.654398 0.000366217
0.918837 0.659159 0.00331121
0.935347 0.664271 0.00679026
0.943755 0.66949 0.00999466
0.949996 0.673991 0.0113222
0.956252 0.678645 0.0108034
0.962493 0.683299 0.00994888
0.96875 0.688655 0.00885023
0.975006 0.694804 0.00755322
0.981247 0.701839 0.00605783
0.987503 0.708354 0.00476081
0.993744 0.714992 0.00360113
1 0.72163 0.00259403
0.0157321 0.822797 0.0182803
0.0247807 0.829068 0.021088
0.0338903 0.83447 0.0238804
0.0429389 0.838224 0.0264897
0.0507057 0.840558 0.0278477
0.0560616 0.837079 0.0268101
0.057084 0.820111 0.0214237
0.0559091 0.794888 0.0137179
0.0734874 0.776364 0.00985733
0.122637 0.766308 0.0108186
0.197253 0.75761 0.0129549
0.285878 0.744793 0.0121004
0.378164 0.731792 0.00926223
0.464958 0.721187 0.00656138
0.547127 0.712596 0.00408942
0.621195 0.707195 0.00241093
0.689509 0.703716 0.00117494
0.750652 0.701915 0.000396735
0.799542 0.702998 0.000137331
0.843671 0.704723 0
0.882033 0.707668 0
0.91165 0.711376 0.000106813
0.932174 0.715816 0.000762951
0.943526 0.720104 0.0019379
0.949981 0.724697 0.00289921
0.956252 0.728893 0.00260929
0.962493 0.733318 0.00205997
0.96875 0.737987 0.00143435
0.975006 0.743542 0.000823987
0.981247 0.748837 0.000579843
0.987503 0.753948 0.000579843
0.993744 0.759304 0.000549325
1 0.764385 0.000488289
0.0390784 0.87454 0.0417792
0.047364 0.876554 0.0438392
0.055314 0.878111 0.0455482
0.0630503 0.879896 0.0470436
0.0706493 0.882338 0.0484169
0.0758831 0.881758 0.0473945
0.075761 0.872038 0.0409705
0.071519 0.853147 0.0302739
0.0836805 0.835981 0.023743
0.127611 0.825711 0.0246738
0.197971 0.818296 0.0283513
0.282567 0.805692 0.0269017
0.375357 0.790951 0.0213016
0.463111 0.778714 0.0158846
0.545449 0.768185 0.0107881
0.61886 0.761196 0.00694286
0.685435 0.75639 0.00376898
0.744869 0.753384 0.00128176
0.792554 0.753109 0.000427253
0.835569 0.753704 0
0.872755 0.755627 0
0.903731 0.758343 1.5259e-05
0.927367 0.761135 0.000122072
0.94284 0.764065 0.000366217
0.94992 0.767544 0.00062562
0.956252 0.770718 0.000656138
0.962493 0.77435 0.000579843
0.96875 0.778317 0.000427253
0.975006 0.782223 0.000274662
0.981247 0.786496 0.000122072
0.987503 0.790845 4.57771e-05
0.993744 0.795163 0
1 0.79971 0
0.0576333 0.902281 0.0604868
0.0656596 0.903853 0.0623026
0.0736858 0.905852 0.0640879
0.0816815 0.908034 0.0658427
0.0893416 0.90988 0.0672618
0.095491 0.910292 0.067155
0.0960708 0.905104 0.0614328
0.0928206 0.896544 0.0518196
0.100313 0.885817 0.0444495
0.138552 0.877134 0.0437018
0.204562 0.869245 0.0458228
0.28481 0.856825 0.0432288
0.377035 0.841413 0.035874
0.465003 0.82742 0.0284276
0.548257 0.815641 0.0214847
0.620783 0.806775 0.0158694
0.686229 0.800107 0.0110933
0.744213 0.795682 0.00714122
0.790326 0.794293 0.00389105
0.831952 0.79411 0.00140383
0.867872 0.795178 0.000106813
0.898116 0.796963 0
0.922927 0.798962 0
0.940993 0.801358 0
0.949752 0.804089 0
0.956252 0.806958 0
0.962493 0.810162 0
0.96875 0.81323 0
0.975006 0.816602 0
0.981247 0.820249 0
0.987503 0.823835 0
0.993744 0.827359 0
1 0.830961 0
0.072282 0.918746 0.0752728
0.0805524 0.918746 0.0773175
0.0889754 0.918669 0.0795148
0.0956588 0.918044 0.0799573
0.101839 0.918044 0.0798962
0.107149 0.918105 0.0789502
0.109651 0.917494 0.0751507
0.108965 0.916106 0.0681468
0.115267 0.9131 0.0618296
0.149065 0.909529 0.0603189
0.211475 0.905425 0.0616159
0.287709 0.897322 0.0582437
0.378637 0.884504 0.0496223
0.467201 0.871305 0.0406195
0.550301 0.858473 0.0319677
0.622736 0.848066 0.0248875
0.688136 0.839796 0.0187839
0.744778 0.834028 0.0138247
0.789593 0.831617 0.00909438
0.829984 0.830518 0.00495918
0.864332 0.830701 0.0019379
0.893675 0.831693 0.000717174
0.919081 0.832959 0.000167849
0.938964 0.834775 4.57771e-05
0.949584 0.837034 0
0.956252 0.839384 0
0.962493 0.841718 0
0.96875 0.844144 0
0.975006 0.846754 0
0.981247 0.8495 0
0.987503 0.852369 0
0.993744 0.855055 0
1 0.857786 0
0.0811475 0.925002 0.0842603
0.0874952 0.925002 0.0843671
0.0939345 0.925002 0.0845502
0.100633 0.925002 0.0849928
0.107469 0.925002 0.0855879
0.113893 0.925002 0.085771
0.118761 0.925002 0.0843671
0.121263 0.925002 0.0805676
0.128878 0.925002 0.0765087
0.159289 0.925002 0.0751965
0.21799 0.924269 0.0756695
0.29247 0.923293 0.0715496
0.381201 0.917205 0.0619516
0.469001 0.908125 0.0516976
0.552819 0.895567 0.0415351
0.625422 0.884092 0.0332952
0.690883 0.874342 0.0263218
0.747051 0.867597 0.021149
0.79086 0.86392 0.0166629
0.829862 0.861662 0.0120851
0.862715 0.860929 0.00701915
0.891112 0.861158 0.00303655
0.916503 0.861692 0.00077821
0.937484 0.862913 0.000198367
0.949371 0.864149 1.5259e-05
0.956252 0.865705 0
0.962493 0.867506 0
0.96875 0.869368 0
0.975006 0.871504 0
0.981247 0.873793 0
0.987503 0.876173 0
0.993744 0.878538 0
1 0.881056 0
0.0834363 0.931243 0.0865797
0.0900435 0.931243 0.0869459
0.0964675 0.931243 0.087129
0.102724 0.931243 0.087129
0.108965 0.931243 0.087129
0.11519 0.931243 0.0870985
0.121004 0.931243 0.0866407
0.125948 0.931243 0.0853285
0.137133 0.931243 0.0838178
0.167636 0.931243 0.0836042
0.224292 0.931243 0.0845808
0.297642 0.931243 0.0800336
0.384222 0.929519 0.0704356
0.471809 0.926085 0.0594186
0.555215 0.920516 0.0485695
0.628412 0.911482 0.0394293
0.694896 0.902632 0.031632
0.749432 0.895369 0.0261387
0.793057 0.890822 0.0218814
0.831357 0.887724 0.017792
0.862806 0.886458 0.0131533
0.890196 0.886091 0.00846876
0.915312 0.886427 0.00459297
0.936553 0.886992 0.00202945
0.949004 0.888014 0.000732433
0.956207 0.889235 0.000228885
0.962493 0.890593 4.57771e-05
0.96875 0.892393 0
0.975006 0.894133 0
0.981247 0.895949 0
0.987503 0.897993 0
0.993744 0.899977 0
1 0.902022 0
0.0839704 0.937499 0.087129
0.0902266 0.937499 0.087129
0.0964675 0.937499 0.087129
0.102724 0.937499 0.087129
0.108965 0.937499 0.087129
0.115221 0.937499 0.087129
0.121431 0.937499 0.0870832
0.127535 0.937499 0.0869306
0.141436 0.937499 0.0873274
0.173724 0.937499 0.0887465
0.228183 0.937499 0.0907759
0.302556 0.937499 0.0859846
0.386984 0.937499 0.0768292
0.475151 0.937362 0.0654154
0.558694 0.93669 0.0539559
0.63241 0.931899 0.0441596
0.698848 0.925704 0.0357061
0.752224 0.919707 0.0300145
0.795834 0.915099 0.0258335
0.833585 0.911437 0.0222477
0.863828 0.90985 0.0183413
0.890547 0.909056 0.0138399
0.914824 0.908751 0.00927749
0.93611 0.908995 0.00518807
0.948623 0.909682 0.00259403
0.956146 0.910628 0.00114443
0.962493 0.911803 0.000396735
0.96875 0.913039 7.62951e-05
0.975006 0.914382 1.5259e-05
0.981247 0.915877 1.5259e-05
0.987503 0.917479 4.57771e-05
0.993744 0.919097 6.10361e-05
1 0.920714 9.15541e-05
0.0839704 0.943755 0.087129
0.0902266 0.943755 0.087129
0.0964675 0.943755 0.087129
0.102724 0.943755 0.087129
0.108965 0.943755 0.087129
0.115221 0.943755 0.087129
0.121477 0.943755 0.087129
0.128054 0.943755 0.0871595
0.142763 0.943755 0.0880293
0.177234 0.943755 0.090547
0.233722 0.943755 0.0930953
0.307607 0.943755 0.0890211
0.391211 0.943755 0.0805219
0.481056 0.943755 0.0689555
0.563317 0.94374 0.0574044
0.636881 0.94316 0.047303
0.704326 0.942046 0.0383154
0.756237 0.939361 0.032639
0.799908 0.93611 0.0284123
0.837186 0.932723 0.0251926
0.865904 0.930755 0.0219425
0.891859 0.929534 0.0180667
0.915496 0.928908 0.0138552
0.936324 0.928786 0.00959792
0.948379 0.929168 0.00596628
0.9561 0.929808 0.00328069
0.962493 0.930556 0.00141909
0.96875 0.931502 0.000381476
0.975006 0.932433 4.57771e-05
0.981247 0.933379 7.62951e-05
0.987503 0.934539 0.000213626
0.993744 0.935699 0.000381476
1 0.936782 0.000595102
0.0839704 0.949996 0.087129
0.0902266 0.949996 0.087129
0.0964675 0.949996 0.087129
0.102724 0.949996 0.087129
0.108965 0.949996 0.087129
0.115221 0.949996 0.087129
0.121477 0.949996 0.087129
0.128847 0.949996 0.0872358
0.144747 0.949996 0.0882277
0.183658 0.949996 0.0913558
0.241581 0.949996 0.093019
0.315587 0.949996 0.0888228
0.399481 0.949996 0.0805524
0.490196 0.949996 0.0690013
0.571023 0.949996 0.0578012
0.644739 0.949874 0.047776
0.711711 0.949645 0.0388952
0.761975 0.949035 0.0335241
0.805371 0.948074 0.0294194
0.841215 0.946822 0.0265965
0.868971 0.945998 0.0238193
0.894255 0.945495 0.0205081
0.917189 0.945174 0.0167544
0.937606 0.945129 0.0128328
0.948669 0.945312 0.00927749
0.956146 0.945525 0.00630198
0.962493 0.94583 0.00395209
0.96875 0.946227 0.00250248
0.975006 0.94667 0.002121
0.981247 0.947204 0.00222782
0.987503 0.947692 0.00242618
0.993744 0.948089 0.00263981
1 0.948409 0.00285344
0.0839704 0.956252 0.087129
0.0902266 0.956252 0.087129
0.0964675 0.956252 0.087129
0.102724 0.956252 0.087129
0.108965 0.956252 0.087129
0.115221 0.956252 0.087129
0.121492 0.956252 0.087129
0.129625 0.956252 0.0873274
0.148104 0.956252 0.0885634
0.193317 0.956252 0.092134
0.252506 0.956252 0.0927596
0.327276 0.956252 0.0880751
0.410849 0.956252 0.0795911
0.500496 0.956252 0.0680247
0.581155 0.956252 0.0570382
0.654307 0.956252 0.0472114
0.7196 0.956252 0.0386969
0.768933 0.956252 0.0334936
0.810849 0.956085 0.0296635
0.845014 0.955734 0.0272221
0.871977 0.955505 0.0248569
0.896605 0.955352 0.0220035
0.918959 0.955261 0.0186618
0.938918 0.955245 0.0151217
0.948913 0.955306 0.01178
0.956191 0.955383 0.00880446
0.962493 0.955489 0.00631724
0.96875 0.955627 0.00471504
0.975006 0.955779 0.00434882
0.981247 0.955947 0.00444038
0.987503 0.956115 0.00462348
0.993744 0.956222 0.00480659
1 0.956252 0.0049897
0.0839704 0.962493 0.087129
0.0902266 0.962493 0.087129
0.0964675 0.962493 0.087129
0.102724 0.962493 0.087129
0.108965 0.962493 0.087129
0.115221 0.962493 0.087129
0.121767 0.962493 0.0871595
0.131395 0.962493 0.0875105
0.155398 0.962493 0.0893721
0.205386 0.962493 0.0927443
0.266804 0.962493 0.0923018
0.34229 0.962493 0.0868086
0.427634 0.962493 0.0774853
0.515114 0.962493 0.06598
0.594278 0.962493 0.055314
0.666682 0.962493 0.0456703
0.728496 0.962493 0.0378576
0.776028 0.962493 0.03299
0.816083 0.962493 0.0294804
0.848417 0.962493 0.0273289
0.874876 0.962493 0.0252689
0.89897 0.962493 0.0227817
0.920638 0.962493 0.0198672
0.939803 0.962493 0.0167086
0.949172 0.962493 0.013611
0.956222 0.962493 0.0107881
0.962493 0.962493 0.00831617
0.96875 0.962493 0.00668345
0.975006 0.962493 0.00639353
0.981247 0.962493 0.00645457
0.987503 0.962493 0.00657664
0.993744 0.962493 0.00669871
1 0.962493 0.00682078
0.0839704 0.96875 0.087129
0.0902266 0.96875 0.087129
0.0964675 0.96875 0.087129
0.102724 0.96875 0.087129
0.108965 0.96875 0.087129
0.115221 0.96875 0.087129
0.121798 0.96875 0.0871595
0.135012 0.96875 0.0879072
0.170733 0.96875 0.0909133
