LUT color transfer/LUTs/78.cube
TITLE "Generate by Resolve"
LUT_3D_SIZE 9
0 0.000167849 0.000457771
0.0469215 3.0518e-05 9.15541e-05
0.161624 0 1.5259e-05
0.414923 0 0
0.649989 0 0
0.78616 0 0
0.866529 0 0
0.923659 0 0
0.953384 0 0
1.5259e-05 0.0875868 0.000122072
0.0444038 0.0739757 9.15541e-05
0.227436 0.0496223 0
0.526848 0.0251316 0
0.688289 0.0249943 0
0.804471 0.0249943 0
0.890944 0.0286412 0
0.94931 0.0448768 0
0.984817 0.067277 0.000122072
0 0.249546 0
0.0249943 0.236973 0
0.165026 0.202579 0
0.513741 0.165942 0
0.812634 0.156283 0.00213626
0.923644 0.171145 0.0188449
0.949737 0.188678 0.0233768
0.975006 0.223255 0.0309606
1 0.26421 0.0374609
0 0.537362 0
0.0249943 0.556283 0
0.088365 0.48835 0
0.422827 0.457801 0
0.746883 0.444083 0.000381476
0.922011 0.46508 0.024979
0.949996 0.483299 0.0395666
0.975006 0.51339 0.0370642
1 0.552514 0.0325933
0.0157321 0.822797 0.0182803
0.0507057 0.840558 0.0278477
0.0734874 0.776364 0.00985733
0.378164 0.731792 0.00926223
0.689509 0.703716 0.00117494
0.882033 0.707668 0
0.949981 0.724697 0.00289921
0.975006 0.743542 0.000823987
1 0.764385 0.000488289
0.0811475 0.925002 0.0842603
0.107469 0.925002 0.0855879
0.128878 0.925002 0.0765087
0.381201 0.917205 0.0619516
0.690883 0.874342 0.0263218
0.862715 0.860929 0.00701915
0.949371 0.864149 1.5259e-05
0.975006 0.871504 0
1 0.881056 0
0.0839704 0.949996 0.087129
0.108965 0.949996 0.087129
0.144747 0.949996 0.0882277
0.399481 0.949996 0.0805524
0.711711 0.949645 0.0388952
0.868971 0.945998 0.0238193
0.948669 0.945312 0.00927749
0.975006 0.94667 0.002121
1 0.948409 0.00285344
0.0839704 0.975006 0.087129
0.108965 0.975006 0.087129
0.182818 0.975006 0.0919356
0.469062 0.975006 0.0717021
0.746456 0.975006 0.0356603
0.880095 0.975006 0.02533
0.949676 0.975006 0.0157931
0.975006 0.975006 0.00946059
1 0.975006 0.00959792
0.0839704 1 0.087129
0.108965 1 0.087129
0.21828 1 0.0935836
0.527901 1 0.0632792
0.770718 1 0.0329747
0.888869 1 0.0244602
0.949935 1 0.0155032
0.975006 1 0.0102693
1 1 0.0102235
0 7.62951e-05 0.12607
0.0661631 0.000122072 0.106386
0.236316 0 0.0699626
0.440345 0 0.0320592
0.652232 0 0.0250095
0.786114 0 0.0249943
0.866835 0 0.0254215
0.924102 0 0.0323339
0.953307 0 0.0491035
0 0.0860914 0.0800031
0.0381628 0.0729381 0.0719463
0.184665 0.057496 0.0598154
0.434089 0.0288548 0.0335851
0.672282 0.0250401 0.0260624
0.804044 0.0251774 0.0268406
0.889281 0.0337835 0.0384833
0.943816 0.0605478 0.0740826
0.975448 0.096849 0.108614
0 0.244434 0.0290684
0.0249943 0.230915 0.0282292
0.166201 0.201633 0.0419623
0.530175 0.162036 0.0249943
0.810468 0.158526 0.0276799
0.921675 0.183185 0.0502632
0.949996 0.211551 0.0658274
0.975006 0.252216 0.0870832
1 0.293141 0.111162
0 0.543435 0.0249943
0.0249943 0.557549 0.0249943
0.0838026 0.49395 0.0249943
0.42945 0.46128 0.0249943
0.752987 0.448218 0.0252384
0.920577 0.470039 0.0511177
0.949996 0.480888 0.064683
0.975006 0.503594 0.0634318
1 0.538109 0.0624857
0.0188907 0.830243 0.0464485
0.0524147 0.844617 0.0544289
0.076524 0.780484 0.0355383
0.386481 0.737453 0.0346075
0.69604 0.709072 0.0257877
0.884703 0.713741 0.0249943
0.949996 0.728481 0.0269932
0.975006 0.741421 0.0267338
1 0.759197 0.0278782
0.0811322 0.925002 0.109239
0.10808 0.925002 0.111208
0.132235 0.924987 0.102266
0.386557 0.915831 0.0873426
0.697063 0.875792 0.0511635
0.86508 0.862989 0.0324254
0.949096 0.865446 0.0250553
0.975006 0.871778 0.0249943
1 0.879835 0.0250095
0.0839704 0.949996 0.112123
0.108965 0.949996 0.112123
0.140047 0.949996 0.112764
0.386145 0.949996 0.107683
0.709453 0.949676 0.0643931
0.86894 0.946365 0.0488289
0.948714 0.945403 0.0342412
0.975006 0.946471 0.0268864
1 0.947662 0.0274052
0.0840314 0.975006 0.11339
0.10898 0.975006 0.112398
0.168643 0.975006 0.115755
0.431769 0.975006 0.101839
0.735775 0.975006 0.0624552
0.877394 0.975006 0.0506294
0.949371 0.975006 0.0410925
0.975006 0.975006 0.0341802
1 0.975006 0.0341802
0.0850538 1 0.132555
0.109239 1 0.117296
0.199313 1 0.118181
0.484779 1 0.0944533
0.757809 1 0.0616007
0.884688 1 0.0499275
0.949432 1 0.0411231
0.975006 1 0.03505
1 1 0.0349432
0 0 0.409552
0.0511177 0 0.378363
0.300862 0 0.344137
0.593484 0 0.245243
0.719219 0 0.174853
0.813565 0 0.175479
0.885054 0 0.206409
0.917052 0 0.250034
0.938735 0 0.298238
0 0.0722972 0.339757
0.0308995 0.0608072 0.313237
0.22768 0.0364385 0.272847
0.523095 0.0258488 0.201144
0.712749 0.0250095 0.183917
0.826413 0.0250858 0.206699
0.899825 0.0330205 0.248737
0.947051 0.056199 0.291218
0.98822 0.091249 0.33138
0 0.250675 0.1906
0.0249943 0.239994 0.175799
0.157336 0.204776 0.196124
0.445075 0.185428 0.186557
0.691676 0.187213 0.193423
0.852125 0.217243 0.227695
0.945129 0.263752 0.276402
0.975006 0.302831 0.314702
1 0.340871 0.350576
0 0.530571 0.115175
0.0249943 0.547356 0.128237
0.0763867 0.492576 0.111864
0.435233 0.461357 0.149447
0.76669 0.44213 0.129839
0.922408 0.458656 0.154665
0.949996 0.474434 0.170077
0.975006 0.503319 0.188418
1 0.54136 0.211887
0.0167239 0.814557 0.117098
0.0498665 0.830549 0.14345
0.0647898 0.767773 0.094728
0.359976 0.739879 0.115908
0.696681 0.703639 0.127092
0.888457 0.705547 0.113863
0.949996 0.716182 0.12108
0.975006 0.730587 0.127428
1 0.751461 0.142992
0.0805524 0.925002 0.168688
0.109316 0.925002 0.185153
0.123583 0.924529 0.145937
0.337728 0.916777 0.133013
0.685389 0.871107 0.135225
0.860914 0.855314 0.121721
0.948714 0.856901 0.107393
0.975006 0.862837 0.111666
1 0.871473 0.124239
0.086717 0.949996 0.196918
0.111711 0.949996 0.197925
0.138567 0.949996 0.16492
0.334417 0.949996 0.152605
0.684443 0.949493 0.137743
0.861631 0.941985 0.138064
0.946212 0.937606 0.120119
0.975006 0.937987 0.1131
1 0.93991 0.118456
0.0875105 0.975006 0.257374
0.112535 0.975006 0.226871
0.161959 0.975006 0.196933
0.384298 0.975006 0.167468
0.708995 0.975006 0.148714
0.868162 0.975006 0.149248
0.946517 0.975006 0.132906
0.975006 0.975006 0.121523
1 0.975006 0.121752
0.0869306 1 0.318044
0.112566 1 0.268452
0.186648 1 0.225986
0.43125 1 0.17882
0.733013 1 0.161608
0.87483 1 0.159152
0.946944 1 0.139742
0.975006 1 0.126162
1 1 0.123751
0 0 0.729732
0.0335241 0 0.715694
0.279698 0 0.687022
0.632242 0 0.634607
0.808499 0 0.604868
0.852461 0 0.567681
0.877119 0 0.577325
0.902007 0 0.613947
0.927169 0 0.661051
0 0.0522469 0.694408
0.0251316 0.041474 0.680491
0.205493 0.0266575 0.648081
0.603204 0.0249943 0.609461
0.805982 0.0249943 0.612116
0.853712 0.0249943 0.597238
0.882918 0.0249943 0.601419
0.920043 0.0263828 0.615473
0.96231 0.0396735 0.64538
0 0.220111 0.610239
0.0249943 0.212634 0.60708
0.145052 0.186633 0.584634
0.525704 0.146609 0.540841
0.761944 0.158251 0.498482
0.884031 0.202808 0.507042
0.949859 0.251469 0.546868
0.975006 0.289799 0.582162
1 0.326482 0.616938
0 0.548394 0.398215
0.0249943 0.56466 0.423606
0.0597238 0.499519 0.403204
0.419333 0.458122 0.449348
0.710872 0.448722 0.440864
0.863676 0.47425 0.47332
0.947326 0.512367 0.515465
0.975006 0.547646 0.551644
1 0.577447 0.577508
0.0142214 0.807996 0.444343
0.0458534 0.823468 0.472709
0.062623 0.761517 0.387854
0.332128 0.740581 0.373754
0.693049 0.695338 0.388876
0.89041 0.694591 0.356985
0.949981 0.703136 0.360891
0.975006 0.717021 0.374197
1 0.735729 0.401648
0.0759899 0.924987 0.484169
0.103716 0.925002 0.504128
0.120348 0.922927 0.416037
0.309468 0.916304 0.360449
0.659373 0.867491 0.345571
0.85185 0.843214 0.353033
0.947143 0.844724 0.316625
0.975006 0.850065 0.316915
1 0.857038 0.340932
0.0816358 0.949996 0.514931
0.106767 0.949996 0.509133
0.136584 0.949996 0.421668
0.307561 0.949996 0.361761
0.64361 0.949279 0.317632
0.847822 0.928847 0.365362
0.938293 0.923949 0.332418
0.975006 0.924559 0.312596
1 0.925689 0.320485
0.0780194 0.975006 0.596078
0.105333 0.975006 0.549279
0.149889 0.975006 0.474662
0.345418 0.975006 0.397681
0.660365 0.975006 0.331594
0.85127 0.974762 0.37229
0.934737 0.972778 0.357
0.97499 0.972473 0.327184
1 0.972183 0.323384
0.0728161 1 0.667659
0.103258 1 0.605829
0.165118 1 0.528695
0.38172 1 0.432441
0.683162 1 0.362173
0.856062 1 0.392538
0.933684 0.999985 0.373892
0.97496 0.999969 0.343465
1 0.999969 0.332372
0 0 0.868269
0.0300298 0 0.868147
0.266453 0 0.846403
0.62887 0 0.803937
0.824887 0 0.820569
0.857237 0 0.80943
0.882567 0 0.813916
0.908522 0 0.828031
0.934157 0 0.837232
0 0.0436408 0.860075
0.0250858 0.0362402 0.855863
0.205035 0.0257572 0.838071
0.611811 0.0249943 0.798703
0.824247 0.0249943 0.82179
0.858198 0.0249943 0.823026
0.883375 0.0249943 0.819562
0.909728 0.0249943 0.816876
0.945922 0.0266117 0.830243
0 0.215976 0.828962
0.0249943 0.214298 0.828489
0.138521 0.183001 0.825132
0.522988 0.14287 0.802472
0.817761 0.134722 0.803067
0.924163 0.161486 0.806638
0.949996 0.195666 0.806455
0.975006 0.232059 0.827512
1 0.267277 0.8533
0 0.520195 0.76939
0.0249943 0.54403 0.773678
0.0693828 0.478492 0.758038
0.414481 0.449531 0.765789
0.769345 0.421225 0.754345
0.901656 0.455573 0.741848
0.949599 0.499229 0.752071
0.975006 0.533867 0.769726
1 0.563394 0.785824
1.5259e-05 0.827878 0.685512
0.025391 0.842161 0.707759
0.050721 0.781567 0.631296
0.266361 0.748516 0.675135
0.678767 0.687526 0.673274
0.849729 0.689494 0.674754
0.934279 0.706111 0.694545
0.974914 0.724254 0.712184
0.999725 0.740078 0.727031
0.0382086 0.925002 0.74583
0.0640116 0.925002 0.756374
0.0898146 0.923735 0.696101
0.285634 0.910491 0.687892
0.624308 0.859754 0.625834
0.839445 0.827726 0.62858
0.941802 0.826627 0.603311
0.975006 0.830762 0.604318
1 0.837339 0.620111
0.0478523 0.949996 0.768856
0.0753796 0.949996 0.769177
0.118654 0.949996 0.724514
0.286168 0.949996 0.692317
0.602167 0.947936 0.610544
0.829297 0.913817 0.618662
0.922301 0.90573 0.604028
0.974731 0.905394 0.587228
1 0.906188 0.589548
0.0285801 0.975006 0.793362
0.0670481 0.975006 0.778927
0.122484 0.975006 0.749798
0.315862 0.975006 0.714855
0.613764 0.975006 0.620554
0.828656 0.967575 0.612284
0.917433 0.954681 0.623392
0.972335 0.953506 0.595026
1 0.95288 0.586847
0.0075227 1 0.816892
0.0537728 1 0.791379
0.127108 1 0.772992
0.347677 1 0.737057
0.635935 1 0.639765
0.832273 0.998581 0.62269
0.91606 0.992279 0.634424
0.968536 0.991653 0.611887
1 0.99144 0.595575
0 0 0.893797
0.0269322 0 0.89398
0.258946 0 0.878798
0.625589 0 0.844129
0.82475 0 0.864302
0.859449 0 0.866346
0.884443 0 0.866346
0.909453 0 0.866346
0.934447 0 0.866346
0 0.037995 0.894545
0.0254063 0.0355688 0.894362
0.210849 0.0260319 0.885756
0.619791 0.0249943 0.845808
0.827955 0.0249943 0.864988
0.859449 0.0249943 0.866346
0.884474 0.0249943 0.866361
0.909667 0.0249943 0.866545
0.943633 0.0261082 0.87538
0 0.215 0.89807
0.0249943 0.216999 0.898024
0.139422 0.185733 0.917769
0.524941 0.148363 0.911086
0.825818 0.14107 0.918379
0.924346 0.150988 0.924422
0.949996 0.168322 0.924437
0.975006 0.202457 0.924773
1 0.239887 0.925002
0 0.523659 0.89189
0.0249943 0.545586 0.895171
0.0737469 0.482994 0.897353
0.415839 0.456626 0.911543
0.778073 0.424887 0.909789
0.924788 0.435676 0.920607
0.949996 0.456382 0.916854
0.975006 0.489738 0.918471
1 0.521355 0.922164
0 0.821683 0.891417
0.0249943 0.836194 0.903563
0.0527352 0.771649 0.865049
0.302266 0.735882 0.882704
0.679622 0.685039 0.857466
0.881529 0.675883 0.855314
0.94406 0.695506 0.849348
0.974975 0.715312 0.852522
0.999893 0.731136 0.85861
0.000183108 0.925002 0.874556
0.0249943 0.925002 0.884428
0.0506752 0.925002 0.84155
0.204501 0.919966 0.845472
0.575433 0.864134 0.823468
0.830198 0.821088 0.805066
0.919219 0.821622 0.804227
0.968841 0.828382 0.811948
0.998276 0.834989 0.818814
4.57771e-05 0.949996 0.882048
0.0250095 0.949996 0.882216
0.0581216 0.949996 0.844541
0.23682 0.949996 0.861845
0.579629 0.944656 0.825559
0.813413 0.906661 0.78793
0.913497 0.894652 0.784604
0.972 0.892958 0.776684
1 0.893141 0.773846
0 0.975006 0.909072
0.0250248 0.975006 0.892363
0.0573281 0.975006 0.857588
0.259358 0.975006 0.871885
0.590585 0.975006 0.827024
0.808652 0.96112 0.781659
0.907561 0.943984 0.7906
0.963317 0.94136 0.775998
1 0.940093 0.769787
0 1 0.92076
0.0249943 1 0.902342
0.0617685 1 0.872084
0.281788 1 0.879591
0.610971 1 0.831403
0.809918 0.996948 0.781491
0.906096 0.984482 0.790311
0.958083 0.981292 0.783337
0.999619 0.980011 0.772503
0 0 0.918791
0.0259861 0 0.91899
0.259861 0 0.903685
0.627771 0 0.86949
0.825406 0 0.889433
0.859449 0 0.89134
0.884443 0 0.89134
0.909453 0 0.89134
0.934447 0 0.89134
0 0.0386664 0.91957
0.0255589 0.0367285 0.919463
0.216999 0.0263218 0.910231
0.626093 0.0249943 0.870787
0.829526 0.0249943 0.890318
0.859449 0.0249943 0.89134
0.884535 0.0249943 0.891432
0.910506 0.0249943 0.892378
0.946105 0.0271763 0.902815
0 0.218921 0.922896
0.0249943 0.221668 0.922835
0.143297 0.190372 0.943526
0.531212 0.153201 0.938216
0.83032 0.147173 0.94583
0.924926 0.155932 0.94995
0.949996 0.165835 0.949996
0.975006 0.1991 0.949996
1 0.23975 0.949996
0 0.531212 0.919768
0.0249943 0.550454 0.920363
0.0759899 0.488258 0.933501
0.421241 0.462867 0.949996
0.782528 0.432471 0.949996
0.924926 0.441474 0.949996
0.949996 0.447318 0.949996
0.975006 0.477501 0.949996
1 0.512901 0.949996
0 0.822126 0.946654
0.0249943 0.837018 0.946929
0.0556191 0.767773 0.941222
0.318074 0.739742 0.94995
0.683101 0.691081 0.944701
0.891646 0.676158 0.944335
0.949996 0.68043 0.944274
0.975006 0.697047 0.941222
1 0.714931 0.942763
0 0.925002 0.949279
0.0249943 0.925002 0.949554
0.0501259 0.925002 0.946197
0.203967 0.916823 0.947509
0.578622 0.862608 0.92549
0.832197 0.819715 0.898238
0.925307 0.818769 0.890974
0.968185 0.827558 0.890669
0.998947 0.834333 0.893446
0 0.949996 0.948211
0.0249943 0.949996 0.948119
0.0500038 0.949996 0.938567
0.185031 0.949996 0.936034
0.503594 0.949447 0.908751
0.803357 0.906004 0.878202
0.909926 0.89163 0.872145
0.963561 0.8907 0.871565
0.999084 0.891783 0.873503
0 0.975006 0.948211
0.0249943 0.975006 0.948211
0.0500038 0.975006 0.943801
0.200229 0.975006 0.939406
0.540413 0.975006 0.909224
0.801511 0.957656 0.875685
0.903822 0.940703 0.869993
0.960494 0.936843 0.863096
1 0.935073 0.859312
0 1 0.948211
0.0249943 1 0.948211
0.0514076 1 0.946563
0.217823 1 0.943725
0.562829 1 0.908385
0.801434 0.995331 0.872633
0.900801 0.981933 0.865309
0.954635 0.977142 0.86537
0.998505 0.97528 0.858534
0 0 0.943801
0.0258488 0 0.943999
0.26833 0 0.927611
0.636378 0 0.894652
0.827634 0 0.9149
0.859449 0 0.91635
0.884443 0 0.91635
0.909453 0 0.91635
0.934447 0 0.91635
0 0.0417639 0.944793
0.0256809 0.0390021 0.944686
0.2224 0.026978 0.93521
0.632059 0.0249943 0.896361
0.830228 0.0249943 0.91545
0.859449 0.0249943 0.91635
0.884443 0.0249943 0.91635
0.912673 0.0249943 0.919524
0.952041 0.0305333 0.933654
0 0.229404 0.947463
0.0249943 0.229938 0.94757
0.153246 0.201129 0.970245
0.546807 0.164691 0.965835
0.840314 0.160174 0.973495
0.925002 0.167407 0.975006
0.949996 0.177264 0.975006
0.975006 0.21117 0.975006
1 0.252018 0.975006
0 0.545052 0.944869
0.0249943 0.561105 0.9458
0.0843214 0.500572 0.96083
0.433677 0.473579 0.975006
0.788327 0.444404 0.975006
0.924849 0.451621 0.975006
0.949996 0.45713 0.975006
0.975006 0.487434 0.975006
1 0.52163 0.975006
0 0.831495 0.97232
0.0249943 0.842771 0.972427
0.057023 0.77557 0.967865
0.329366 0.74641 0.975006
0.690211 0.697673 0.975006
0.893843 0.682643 0.975006
0.949996 0.683513 0.975006
0.975006 0.699046 0.975006
1 0.717769 0.972671
0 0.925002 0.97435
0.0249943 0.925002 0.974395
0.0502785 0.925002 0.975006
0.221164 0.916121 0.975006
0.603525 0.859342 0.973907
0.834699 0.822065 0.954925
0.937743 0.816114 0.950195
0.974121 0.823148 0.943175
1 0.830549 0.940826
0 0.949996 0.97322
0.0249943 0.949996 0.97322
0.0500038 0.949996 0.973281
0.179568 0.949996 0.975006
0.476478 0.949554 0.966079
0.789944 0.910155 0.931197
0.908278 0.891798 0.924666
0.955901 0.892454 0.923308
0.994965 0.89424 0.924666
0 0.975006 0.97322
0.0249943 0.975006 0.97322
0.0500038 0.975006 0.972427
0.193454 0.975006 0.975006
0.48925 0.975006 0.955291
0.789654 0.960342 0.924788
0.902464 0.940124 0.918532
0.959167 0.935744 0.914748
0.999512 0.93431 0.913115
0 1 0.97322
0.0249943 1 0.97322
0.0511635 1 0.972198
0.210483 1 0.975006
0.51397 1 0.952117
0.795529 0.994965 0.924315
0.897826 0.981521 0.912825
0.953872 0.975906 0.91397
0.998352 0.973693 0.908873
0 0 0.968795
0.0265202 0 0.969039
0.280049 0 0.95111
0.648341 0 0.919875
0.830091 0 0.940429
0.859449 0 0.941344
0.884443 0 0.941344
0.909453 0 0.941344
0.934447 0 0.941344
0 0.0465705 0.970138
0.0257572 0.0421607 0.970001
0.229557 0.0278935 0.960266
0.639414 0.0249943 0.922042
0.830884 0.0249943 0.940581
0.859449 0.0249943 0.941344
0.884443 0.0249943 0.941344
0.91577 0.0251469 0.947555
0.959152 0.0360266 0.965637
0 0.242969 0.971862
0.0249943 0.239841 0.972259
0.165393 0.214313 0.996948
0.564584 0.178027 0.993378
0.851164 0.175402 0.999557
0.925002 0.180774 1
0.949996 0.191287 1
0.975006 0.224781 1
1 0.265812 1
0 0.561593 0.970199
0.0249943 0.572045 0.971466
0.0937209 0.51519 0.988479
0.448371 0.486168 1
0.796368 0.458732 1
0.924819 0.465187 1
0.949996 0.47068 1
0.975006 0.499504 1
1 0.532784 1
0 0.842527 0.997879
0.0249943 0.851057 0.998154
0.0597391 0.786114 0.995682
0.34313 0.754849 1
0.699123 0.705348 1
0.895918 0.690745 1
0.949996 0.690761 1
0.975006 0.705943 0.999817
1 0.723232 0.99646
0 0.925002 0.999374
0.0249943 0.925002 0.9991
0.0502022 0.925002 0.999985
0.226352 0.917937 1
0.612375 0.86157 0.999771
0.837888 0.825193 0.985061
0.939971 0.818387 0.981491
0.974975 0.824704 0.971267
1 0.831876 0.967208
0 0.949996 0.998215
0.0249943 0.949996 0.998215
0.0500038 0.949996 0.99826
0.185061 0.949996 1
0.483894 0.949691 0.992355
0.795468 0.909377 0.970382
0.912062 0.891112 0.96672
0.960876 0.891386 0.961669
0.996796 0.893843 0.96051
0 0.975006 0.998215
0.0249943 0.975006 0.998215
0.0500038 0.975006 0.997375
0.196323 0.975006 1
0.492042 0.975006 0.980545
0.777874 0.963424 0.956542
0.901305 0.940215 0.958862
0.954406 0.936538 0.95787
0.994263 0.936141 0.957931
0 1 0.998215
0.0249943 1 0.998215
0.0515602 1 0.997223
0.210544 1 1
0.512367 1 0.977798
0.788617 0.996216 0.957732
0.896681 0.981155 0.954803
0.953841 0.975387 0.954223
0.998062 0.972976 0.951293
