LUT color transfer/LUTs/78.cube
TITLE "Generate by Resolve"
LUT_3D_SIZE 5
0 0.000167849 0.000457771
0.161624 0 1.5259e-05
0.649989 0 0
0.866529 0 0
0.953384 0 0
0 0.249546 0
0.165026 0.202579 0
0.812634 0.156283 0.00213626
0.949737 0.188678 0.0233768
1 0.26421 0.0374609
0.0157321 0.822797 0.0182803
0.0734874 0.776364 0.00985733
0.689509 0.703716 0.00117494
0.949981 0.724697 0.00289921
1 0.764385 0.000488289
0.0839704 0.949996 0.087129
0.144747 0.949996 0.0882277
0.711711 0.949645 0.0388952
0.948669 0.945312 0.00927749
1 0.948409 0.00285344
0.0839704 1 0.087129
0.21828 1 0.0935836
0.770718 1 0.0329747
0.949935 1 0.0155032
1 1 0.0102235
0 0 0.409552
0.300862 0 0.344137
0.719219 0 0.174853
0.885054 0 0.206409
0.938735 0 0.298238
0 0.250675 0.1906
0.157336 0.204776 0.196124
0.691676 0.187213 0.193423
0.945129 0.263752 0.276402
1 0.340871 0.350576
0.0167239 0.814557 0.117098
0.0647898 0.767773 0.094728
0.696681 0.703639 0.127092
0.949996 0.716182 0.12108
1 0.751461 0.142992
0.086717 0.949996 0.196918
0.138567 0.949996 0.16492
0.684443 0.949493 0.137743
0.946212 0.937606 0.120119
1 0.93991 0.118456
0.0869306 1 0.318044
0.186648 1 0.225986
0.733013 1 0.161608
0.946944 1 0.139742
1 1 0.123751
0 0 0.868269
0.266453 0 0.846403
0.824887 0 0.820569
0.882567 0 0.813916
0.934157 0 0.837232
0 0.215976 0.828962
0.138521 0.183001 0.825132
0.817761 0.134722 0.803067
0.949996 0.195666 0.806455
1 0.267277 0.8533
1.5259e-05 0.827878 0.685512
0.050721 0.781567 0.631296
0.678767 0.687526 0.673274
0.934279 0.706111 0.694545
0.999725 0.740078 0.727031
0.0478523 0.949996 0.768856
0.118654 0.949996 0.724514
0.602167 0.947936 0.610544
0.922301 0.90573 0.604028
1 0.906188 0.589548
0.0075227 1 0.816892
0.127108 1 0.772992
0.635935 1 0.639765
0.91606 0.992279 0.634424
1 0.99144 0.595575
0 0 0.918791
0.259861 0 0.903685
0.825406 0 0.889433
0.884443 0 0.89134
0.934447 0 0.89134
0 0.218921 0.922896
0.143297 0.190372 0.943526
0.83032 0.147173 0.94583
0.949996 0.165835 0.949996
1 0.23975 0.949996
0 0.822126 0.946654
0.0556191 0.767773 0.941222
0.683101 0.691081 0.944701
0.949996 0.68043 0.944274
1 0.714931 0.942763
0 0.949996 0.948211
0.0500038 0.949996 0.938567
0.503594 0.949447 0.908751
0.909926 0.89163 0.872145
0.999084 0.891783 0.873503
0 1 0.948211
0.0514076 1 0.946563
0.562829 1 0.908385
0.900801 0.981933 0.865309
0.998505 0.97528 0.858534
0 0 0.968795
0.280049 0 0.95111
0.830091 0 0.940429
0.884443 0 0.941344
0.934447 0 0.941344
0 0.242969 0.971862
0.165393 0.214313 0.996948
0.851164 0.175402 0.999557
0.949996 0.191287 1
1 0.265812 1
0 0.842527 0.997879
0.0597391 0.786114 0.995682
0.699123 0.705348 1
0.949996 0.690761 1
1 0.723232 0.99646
0 0.949996 0.998215
0.0500038 0.949996 0.99826
0.483894 0.949691 0.992355
0.912062 0.891112 0.96672
0.996796 0.893843 0.96051
0 1 0.998215
0.0515602 1 0.997223
0.512367 1 0.977798
0.896681 0.981155 0.954803
0.998062 0.972976 0.951293
