LUT color transfer/LUTs/8.cube
LUT_3D_SIZE 16
-0.089649 -0.088072 -0.056945
-0.068997 -0.087527 -0.055915
0.024558 -0.085075 -0.051143
0.060968 -0.079727 -0.038651
0.123495 -0.068269 0.034624
0.216490 -0.041742 0.065000
0.335389 0.029967 0.094881
0.469599 0.042235 0.107999
0.606594 0.053249 0.118957
0.733408 0.064024 0.129685
0.836922 0.075010 0.140692
0.906988 0.086214 0.151902
0.949864 0.097090 0.162619
0.974543 0.106216 0.171483
0.986989 0.111953 0.176979
0.992844 0.114870 0.179782
-0.087907 -0.066112 -0.053544
-0.066439 -0.065279 -0.052421
0.025045 -0.061367 -0.047117
0.061348 -0.052147 -0.032259
0.123904 0.003145 0.040936
0.216926 0.043944 0.068050
0.335702 0.063818 0.096433
0.470001 0.077231 0.108906
0.606825 0.088749 0.119675
0.733645 0.098268 0.130300
0.836974 0.105975 0.141248
0.907030 0.112342 0.152430
0.949936 0.118223 0.163108
0.974539 0.123197 0.171931
0.987036 0.125911 0.177400
0.992875 0.126617 0.180135
-0.079748 0.045613 -0.033086
-0.053221 0.045813 -0.030790
0.027058 0.046783 -0.015543
0.062999 0.055443 0.036255
0.125650 0.072743 0.059112
0.218718 0.096905 0.086531
0.337452 0.120098 0.101903
0.471423 0.141193 0.112552
0.608045 0.158222 0.122641
0.734530 0.170152 0.132906
0.837601 0.176461 0.143646
0.907446 0.177611 0.154656
0.950189 0.176171 0.165218
0.974692 0.173601 0.173869
0.987141 0.169720 0.179121
0.992993 0.165063 0.181642
-0.057717 0.089347 0.055484
0.007791 0.089475 0.056537
0.036591 0.090026 0.060759
0.066347 0.091844 0.068264
0.129199 0.115444 0.089664
0.222357 0.146493 0.101153
0.340871 0.179458 0.110212
0.474409 0.209427 0.119083
0.610476 0.233156 0.128271
0.736376 0.248910 0.137985
0.838785 0.255608 0.148362
0.908165 0.253667 0.159106
0.950555 0.246921 0.169412
0.974971 0.238193 0.177749
0.987359 0.228300 0.182601
0.993136 0.218213 0.184699
0.011689 0.153128 0.097909
0.024998 0.153250 0.098289
0.054814 0.153780 0.099831
0.091745 0.154853 0.102654
0.134852 0.158434 0.106576
0.228193 0.198761 0.113396
0.346323 0.241436 0.120442
0.479129 0.280027 0.128102
0.614318 0.310376 0.136489
0.739152 0.330023 0.145658
0.840599 0.337416 0.155627
0.909272 0.332976 0.166057
0.951188 0.321772 0.175999
0.975421 0.307773 0.183894
0.987737 0.292562 0.188123
0.993484 0.277476 0.189554
0.025735 0.245107 0.116847
0.040382 0.245219 0.117063
0.078785 0.245763 0.117965
0.127543 0.246890 0.119738
0.179103 0.248658 0.122460
0.236408 0.254912 0.126135
0.354007 0.306723 0.132344
0.485783 0.353313 0.139331
0.619692 0.389775 0.147168
0.743139 0.412861 0.155906
0.843217 0.420722 0.165555
0.910756 0.413811 0.175668
0.952161 0.398452 0.185222
0.976184 0.379592 0.192487
0.988280 0.359317 0.195867
0.993909 0.339534 0.196344
0.040536 0.362202 0.134066
0.057869 0.362356 0.134237
0.106265 0.362873 0.134963
0.165713 0.363892 0.136427
0.228149 0.365522 0.138713
0.292479 0.367850 0.141900
0.364043 0.376191 0.145997
0.494471 0.429861 0.152689
0.626757 0.471558 0.160243
0.748520 0.497500 0.168740
0.846664 0.505266 0.178152
0.912732 0.495596 0.187995
0.953372 0.476092 0.197142
0.976924 0.452531 0.203688
0.988890 0.427411 0.205980
0.994537 0.402980 0.205264
0.057960 0.493910 0.152535
0.077292 0.494004 0.152691
0.133049 0.494447 0.153346
0.200973 0.495330 0.154670
0.272778 0.496750 0.156759
0.346721 0.498794 0.159693
0.422244 0.501453 0.163529
0.505350 0.510381 0.168283
0.635527 0.556270 0.175805
0.754944 0.584089 0.184220
0.850796 0.590964 0.193553
0.915204 0.578210 0.203224
0.954899 0.554439 0.211931
0.978050 0.526208 0.217641
0.989833 0.496336 0.218627
0.995261 0.467376 0.216407
0.079005 0.627528 0.173222
0.098840 0.627596 0.173365
0.157215 0.627968 0.173995
0.230433 0.628707 0.175255
0.308810 0.629861 0.177219
0.389666 0.631441 0.180046
0.472169 0.633605 0.183733
0.556096 0.636260 0.188364
0.646024 0.643960 0.193957
0.762746 0.672688 0.202478
0.855760 0.677878 0.211847
0.918180 0.661440 0.221434
0.956821 0.633269 0.229730
0.979365 0.600341 0.234513
0.990910 0.565753 0.233909
0.996153 0.532277 0.229887
0.104557 0.750345 0.196708
0.122648 0.750355 0.196845
0.178724 0.750656 0.197456
0.252950 0.751126 0.198678
0.334086 0.751938 0.200610
0.418410 0.753203 0.203373
0.504593 0.754765 0.207010
0.592073 0.756780 0.211578
0.680620 0.759178 0.217150
0.771642 0.763397 0.223731
0.861466 0.765903 0.233274
0.921509 0.745330 0.242864
0.958842 0.712455 0.250732
0.980860 0.674877 0.254404
0.992090 0.635565 0.251950
0.997190 0.597649 0.245830
0.134209 0.849111 0.223377
0.148958 0.849145 0.223532
0.198467 0.849316 0.224116
0.268737 0.849681 0.225324
0.348074 0.850217 0.227255
0.431676 0.851023 0.230002
0.517553 0.851969 0.233615
0.604861 0.853291 0.238195
0.693084 0.854829 0.243744
0.782066 0.856579 0.250335
0.867759 0.854890 0.258062
0.925342 0.829486 0.267726
0.961285 0.791785 0.275147
0.982649 0.749452 0.277586
0.993592 0.705633 0.272977
0.998430 0.663284 0.264381
0.166782 0.915126 0.252662
0.177895 0.915148 0.252811
0.218164 0.915227 0.253411
0.279810 0.915488 0.254620
0.352683 0.915841 0.256508
0.431310 0.916252 0.259224
0.513002 0.916891 0.262878
0.596522 0.917554 0.267412
0.681018 0.918494 0.272978
0.766352 0.919528 0.279588
0.852254 0.920767 0.287292
0.929562 0.913721 0.296098
0.964018 0.870937 0.302970
0.984632 0.823918 0.303995
0.995204 0.775565 0.296990
0.999764 0.729003 0.285589
0.199723 0.955395 0.282300
0.207879 0.955372 0.282405
0.239041 0.955486 0.282974
0.290311 0.955604 0.284160
0.354118 0.955798 0.286040
0.425102 0.956075 0.288675
0.500172 0.956414 0.292215
0.577649 0.956925 0.296653
0.656566 0.957471 0.302013
0.736538 0.958085 0.308442
0.816978 0.958876 0.315816
0.897787 0.959691 0.324317
0.966901 0.949455 0.333924
0.986820 0.897962 0.333389
0.996999 0.845365 0.323845
1.000946 0.795004 0.309432
0.227770 0.978629 0.307471
0.233857 0.978621 0.307567
0.257992 0.978666 0.308088
0.299806 0.978704 0.309159
0.354347 0.978878 0.310915
0.417028 0.979074 0.313414
0.484613 0.979362 0.316665
0.555291 0.979693 0.320821
0.627913 0.980083 0.325812
0.701640 0.980525 0.331772
0.776372 0.981044 0.338730
0.851511 0.981698 0.346602
0.926828 0.982398 0.355479
0.989159 0.970958 0.365415
0.999120 0.914452 0.353215
1.005780 0.863124 0.335728
0.245308 0.990604 0.323197
0.250154 0.990575 0.323347
0.269547 0.990644 0.323862
0.304229 0.990702 0.324805
0.351064 0.990808 0.326371
0.406233 0.991030 0.328592
0.466864 0.991220 0.331514
0.530996 0.991426 0.335216
0.597409 0.991790 0.339731
0.665414 0.992172 0.345073
0.734391 0.992567 0.351263
0.804001 0.993056 0.358324
0.874057 0.993691 0.366285
0.944185 0.994345 0.375167
1.000741 0.982820 0.384935
1.011133 0.931531 0.364262
0.254219 0.996224 0.331182
0.258174 0.996245 0.331293
0.274314 0.996214 0.331717
0.303813 0.996306 0.332572
0.344546 0.996400 0.333966
0.393529 0.996590 0.335917
0.448095 0.996771 0.338485
0.506492 0.996959 0.341730
0.567384 0.997220 0.345667
0.630045 0.997592 0.350308
0.694001 0.997927 0.355757
0.758579 0.998383 0.361928
0.823729 0.998758 0.368950
0.889089 0.999296 0.376743
0.954774 0.999872 0.385361
1.016998 0.999572 0.394813
-0.089472 -0.087881 0.038034
-0.068727 -0.087330 0.039766
0.024613 -0.084870 0.046457
0.061010 -0.079506 0.056954
0.123530 -0.067970 0.072882
0.216512 -0.041107 0.112539
0.335394 0.023335 0.131035
0.469643 0.036728 0.143263
0.606608 0.048331 0.153858
0.733400 0.059806 0.162750
0.836902 0.071631 0.170125
0.907008 0.083712 0.176389
0.949879 0.095270 0.182159
0.974553 0.104823 0.187037
0.986997 0.110781 0.189645
0.992851 0.113785 0.190315
-0.087720 -0.065826 0.043257
-0.066155 -0.064989 0.044715
0.025094 -0.061197 0.050352
0.061392 -0.052169 0.059752
0.123904 -0.022956 0.073083
0.216905 0.025078 0.095420
0.335685 0.036052 0.105859
0.469941 0.046198 0.115327
0.606795 0.056324 0.124841
0.733646 0.066788 0.134771
0.836911 0.077788 0.145288
0.907041 0.089181 0.156188
0.949953 0.100240 0.166710
0.974558 0.109480 0.175456
0.987035 0.115282 0.180911
0.992882 0.118230 0.183674
-0.079528 0.045686 0.059576
-0.053010 0.045879 0.060377
0.027107 0.046848 0.064237
0.063042 0.055470 0.071331
0.125661 0.071243 0.090623
0.218707 0.091077 0.100955
0.337414 0.112132 0.109729
0.471403 0.131433 0.118473
0.608009 0.147191 0.127578
0.734468 0.158486 0.137259
0.837613 0.164904 0.147609
0.907439 0.166922 0.158374
0.950193 0.166793 0.168773
0.974681 0.165655 0.177365
0.987139 0.163082 0.182630
0.993001 0.159497 0.185177
-0.057367 0.089386 0.091750
0.005980 0.089520 0.089151
0.036173 0.090078 0.091731
0.066383 0.091845 0.095743
0.129240 0.114253 0.102270
0.222354 0.143935 0.109228
0.340826 0.175615 0.116482
0.474379 0.204411 0.124332
0.610449 0.227328 0.132861
0.736329 0.242595 0.142144
0.838755 0.249201 0.152218
0.908136 0.247570 0.162768
0.950552 0.241401 0.172939
0.974960 0.233327 0.181229
0.987358 0.224112 0.186083
0.993144 0.214610 0.188193
0.011474 0.153169 0.116039
0.017973 0.153288 0.107247
0.052103 0.153813 0.108334
0.090724 0.154887 0.110425
0.134899 0.158418 0.113550
0.228203 0.197759 0.119313
0.346319 0.239446 0.125619
0.479126 0.277198 0.132743
0.614290 0.306910 0.140730
0.739151 0.326148 0.149601
0.840604 0.333394 0.159358
0.909245 0.329100 0.169641
0.951180 0.318193 0.179491
0.975427 0.304619 0.187321
0.987735 0.289764 0.191568
0.993491 0.275034 0.193013
0.025476 0.245149 0.133970
0.030217 0.245227 0.122590
0.073987 0.245786 0.123397
0.125226 0.246912 0.125015
0.178231 0.248688 0.127542
0.236468 0.254904 0.130963
0.354029 0.305902 0.136824
0.485782 0.351776 0.143510
0.619673 0.387638 0.151121
0.743096 0.410363 0.159646
0.843188 0.418047 0.169145
0.910746 0.411141 0.179148
0.952145 0.395968 0.188627
0.976174 0.377375 0.195859
0.988279 0.357370 0.199271
0.993862 0.337797 0.199782
0.040216 0.362268 0.152477
0.044435 0.362367 0.138635
0.099306 0.362904 0.139339
0.162145 0.363911 0.140742
0.226339 0.365563 0.142955
0.291777 0.367900 0.146045
0.364062 0.376104 0.150033
0.494486 0.429181 0.156547
0.626760 0.470345 0.163962
0.748487 0.495936 0.172319
0.846662 0.503515 0.181611
0.912728 0.493797 0.191406
0.953355 0.474380 0.200485
0.976916 0.450962 0.207026
0.988889 0.426019 0.209341
0.994546 0.401743 0.208667
0.057614 0.493938 0.171570
0.061652 0.494019 0.156551
0.124712 0.494451 0.157199
0.196412 0.495337 0.158494
0.270171 0.496759 0.160540
0.345306 0.498800 0.163439
0.421691 0.501483 0.167219
0.505389 0.510340 0.171941
0.635534 0.555681 0.179342
0.754898 0.583126 0.187672
0.850795 0.589822 0.196933
0.915189 0.576993 0.206545
0.954886 0.553262 0.215250
0.978043 0.525112 0.220964
0.989833 0.495360 0.221942
0.995269 0.466506 0.219791
0.078673 0.627558 0.191486
0.082679 0.627600 0.176919
0.148257 0.627972 0.177536
0.225242 0.628712 0.178784
0.305615 0.629869 0.180773
0.387720 0.631451 0.183569
0.471099 0.633619 0.187216
0.555618 0.636300 0.191832
0.646049 0.643949 0.197405
0.762752 0.672287 0.205876
0.855754 0.677241 0.215186
0.918170 0.660640 0.224738
0.956813 0.632485 0.233010
0.979393 0.599588 0.237765
0.990911 0.565072 0.237210
0.996161 0.531689 0.233227
0.104279 0.750333 0.212893
0.108275 0.750357 0.200253
0.170000 0.750659 0.200859
0.247609 0.751130 0.202066
0.330664 0.751943 0.204002
0.416199 0.753211 0.206760
0.503177 0.754776 0.210386
0.591285 0.756794 0.214954
0.680279 0.759165 0.220504
0.771655 0.763366 0.227087
0.861472 0.765577 0.236597
0.921506 0.744841 0.246140
0.958837 0.711894 0.254006
0.980857 0.674343 0.257679
0.992091 0.635115 0.255255
0.997169 0.597227 0.249171
0.134018 0.849094 0.236543
0.137875 0.849146 0.226843
0.190927 0.849317 0.227459
0.263811 0.849684 0.228643
0.344757 0.850167 0.230550
0.429429 0.850995 0.233306
0.516011 0.851977 0.236925
0.603857 0.853303 0.241493
0.692547 0.854810 0.247039
0.781816 0.856603 0.253674
0.867719 0.854824 0.261384
0.925346 0.829304 0.271000
0.961285 0.791522 0.278425
0.982648 0.749137 0.280874
0.993594 0.705311 0.276288
0.998438 0.662995 0.267690
0.166689 0.915145 0.262594
0.170478 0.915148 0.256091
0.212497 0.915227 0.256676
0.275836 0.915489 0.257904
0.349926 0.915843 0.259816
0.429347 0.916254 0.262534
0.511605 0.916894 0.266134
0.595554 0.917558 0.270692
0.680428 0.918500 0.276274
0.766014 0.919536 0.282865
0.852106 0.920798 0.290570
0.929548 0.913698 0.299372
0.964022 0.870817 0.306224
0.984633 0.823769 0.307234
0.995208 0.775442 0.300235
0.999772 0.728824 0.288894
0.199695 0.955390 0.289565
0.203389 0.955373 0.285645
0.235358 0.955487 0.286246
0.287518 0.955605 0.287424
0.352053 0.955800 0.289272
0.423590 0.956060 0.291945
0.499054 0.956417 0.295463
0.576864 0.956929 0.299880
0.656060 0.957475 0.305266
0.736129 0.958090 0.311633
0.816754 0.958883 0.319033
0.897741 0.959699 0.327534
0.966865 0.949448 0.337092
0.986824 0.897912 0.336551
0.997004 0.845276 0.326958
1.000952 0.794923 0.312691
0.227754 0.978639 0.312882
0.231363 0.978623 0.310753
0.255826 0.978668 0.311301
0.298051 0.978707 0.312354
0.353049 0.978880 0.314162
0.416050 0.979076 0.316587
0.483902 0.979365 0.319880
0.554779 0.979698 0.324050
0.627526 0.980087 0.329071
0.701442 0.980530 0.334956
0.776204 0.981049 0.341867
0.851436 0.981704 0.349794
0.926812 0.982351 0.358638
0.989166 0.970922 0.368473
0.999066 0.914431 0.356300
1.005786 0.863113 0.338882
0.245339 0.990613 0.327508
0.248932 0.990579 0.326491
0.268425 0.990648 0.326977
0.303350 0.990707 0.327981
0.350352 0.990807 0.329561
0.405686 0.991035 0.331752
0.466439 0.991225 0.334688
0.530707 0.991431 0.338389
0.597211 0.991796 0.342888
0.665262 0.992179 0.348175
0.734302 0.992573 0.354321
0.804007 0.993037 0.361412
0.874034 0.993697 0.369328
0.944174 0.994352 0.378217
1.000747 0.982845 0.387950
1.011139 0.931546 0.367380
0.254255 0.996231 0.334724
0.257819 0.996224 0.334496
0.273966 0.996221 0.334874
0.303534 0.996314 0.335754
0.344371 0.996408 0.337152
0.393343 0.996517 0.339077
0.447994 0.996778 0.341635
0.506445 0.996966 0.344869
0.567349 0.997227 0.348761
0.630045 0.997599 0.353476
0.694011 0.997935 0.358847
0.758574 0.998391 0.365017
0.823756 0.998766 0.372001
0.889127 0.999303 0.379732
0.954737 0.999881 0.388331
1.017004 0.999587 0.397717
-0.088666 -0.087065 0.115608
-0.067427 -0.086495 0.115800
0.024869 -0.084010 0.116597
0.061193 -0.078548 0.124503
0.123723 -0.066676 0.140339
0.216735 -0.038208 0.163113
0.335579 0.024052 0.186235
0.469817 0.037173 0.206138
0.606732 0.048687 0.222178
0.733547 0.060116 0.233373
0.836921 0.071916 0.239256
0.907032 0.083977 0.240198
0.949919 0.095518 0.238618
0.974526 0.105048 0.235938
0.987037 0.110984 0.232116
0.992844 0.113957 0.227577
-0.086883 -0.064442 0.116211
-0.064916 -0.063717 0.116393
0.025344 -0.059810 0.117184
0.061573 -0.050414 0.125077
0.124103 -0.015468 0.140542
0.217088 0.023590 0.159458
0.335931 0.034340 0.179445
0.470086 0.044355 0.197725
0.606918 0.054534 0.212606
0.733682 0.065200 0.223204
0.837064 0.076522 0.229153
0.907043 0.088275 0.230820
0.949951 0.099623 0.230436
0.974523 0.109047 0.229061
0.987072 0.114924 0.226421
0.992864 0.117888 0.222918
-0.078577 0.046148 0.118701
-0.051301 0.046347 0.118878
0.027318 0.046997 0.119629
0.063208 0.048659 0.121481
0.125702 0.051607 0.124783
0.218615 0.055897 0.129627
0.337241 0.061390 0.135697
0.471261 0.068091 0.142656
0.607852 0.075956 0.150271
0.734331 0.084975 0.158475
0.837480 0.095093 0.167281
0.907382 0.106009 0.176608
0.950106 0.116792 0.185868
0.974663 0.125879 0.193795
0.987172 0.131604 0.198826
0.992996 0.134500 0.201411
-0.055837 0.089584 0.129829
0.006417 0.089716 0.129562
0.031265 0.090267 0.124385
0.066566 0.091818 0.125705
0.129320 0.108685 0.128615
0.222326 0.131663 0.132567
0.340733 0.156807 0.137503
0.474235 0.180157 0.143515
0.610256 0.199112 0.150619
0.736211 0.212200 0.158799
0.838628 0.218620 0.168043
0.908078 0.218812 0.177963
0.950530 0.215740 0.187771
0.974939 0.211226 0.195895
0.987352 0.205348 0.200807
0.993139 0.198810 0.203073
0.011838 0.153358 0.149662
0.018154 0.153484 0.146960
0.038153 0.153932 0.132367
0.086042 0.155028 0.133568
0.135063 0.158324 0.135728
0.228274 0.193176 0.139829
0.346262 0.230358 0.144730
0.478994 0.264253 0.150642
0.614128 0.291085 0.157615
0.738944 0.308581 0.165664
0.840598 0.315312 0.174779
0.909130 0.311706 0.184580
0.951178 0.302358 0.194118
0.975384 0.290635 0.201859
0.987730 0.277675 0.206172
0.993486 0.264682 0.207788
0.025729 0.245332 0.173408
0.030322 0.245423 0.168931
0.048165 0.245862 0.143404
0.114142 0.247024 0.144417
0.174307 0.248796 0.146510
0.236632 0.254786 0.149438
0.354040 0.302079 0.154394
0.485782 0.344827 0.160267
0.619572 0.378223 0.167179
0.742995 0.399327 0.175148
0.843191 0.406345 0.184145
0.910677 0.399688 0.193796
0.952141 0.385359 0.203063
0.976135 0.367910 0.210264
0.988276 0.349135 0.213759
0.993896 0.330661 0.214447
0.040442 0.362440 0.198633
0.044492 0.362545 0.192516
0.061321 0.362959 0.157094
0.145097 0.363970 0.157918
0.218040 0.365627 0.159932
0.288594 0.368010 0.162777
0.364249 0.375983 0.166497
0.494504 0.426132 0.172451
0.626742 0.464999 0.179364
0.748367 0.489005 0.187319
0.846596 0.495809 0.196294
0.912672 0.486040 0.205813
0.953318 0.467088 0.214761
0.976897 0.444363 0.221291
0.988888 0.420208 0.223708
0.994580 0.396707 0.223202
0.057829 0.494086 0.222707
0.061689 0.494164 0.215374
0.078162 0.494487 0.173571
0.174693 0.495388 0.174311
0.258323 0.496826 0.176259
0.339045 0.498853 0.179052
0.419163 0.501555 0.182690
0.505501 0.510206 0.187252
0.635548 0.553318 0.194319
0.754897 0.579141 0.202337
0.850746 0.584948 0.211346
0.915125 0.571800 0.220779
0.954901 0.548229 0.229381
0.978018 0.520541 0.235084
0.989833 0.491273 0.236198
0.995305 0.462928 0.234213
0.078893 0.627726 0.244415
0.082720 0.627783 0.236516
0.099286 0.628012 0.193031
0.200827 0.628736 0.193761
0.291393 0.629952 0.195696
0.379239 0.631515 0.198442
0.466390 0.633657 0.202039
0.553748 0.636382 0.206587
0.646127 0.643860 0.212097
0.762698 0.670479 0.220329
0.855783 0.674361 0.229437
0.918178 0.657403 0.238843
0.956776 0.629173 0.247048
0.979373 0.596423 0.251837
0.990915 0.562245 0.251373
0.996105 0.529194 0.247574
0.104504 0.750429 0.263701
0.108357 0.750462 0.256002
0.124718 0.750670 0.215755
0.222843 0.751145 0.216548
0.315437 0.751965 0.218484
0.406456 0.753241 0.221217
0.497097 0.754819 0.224804
0.587832 0.756823 0.229362
0.678817 0.759244 0.234906
0.771760 0.763255 0.241459
0.861436 0.764246 0.250799
0.921495 0.742888 0.260226
0.958818 0.709807 0.268047
0.980845 0.672344 0.271746
0.992113 0.633219 0.269375
0.997189 0.595609 0.263445
0.134255 0.849155 0.281394
0.137997 0.849230 0.274714
0.154071 0.849324 0.241956
0.241378 0.849634 0.242871
0.330254 0.850184 0.244768
0.419728 0.851021 0.247524
0.509475 0.851989 0.251144
0.599686 0.853276 0.255697
0.690127 0.854819 0.261281
0.780797 0.856632 0.267896
0.867796 0.854746 0.275631
0.925365 0.828510 0.285106
0.961283 0.790391 0.292428
0.982646 0.747898 0.294817
0.993565 0.704187 0.290347
0.998473 0.662051 0.281916
0.166914 0.915192 0.298945
0.170624 0.915199 0.293941
0.186555 0.915229 0.270969
0.258213 0.915492 0.271995
0.337816 0.915837 0.273919
0.420909 0.916263 0.276656
0.505720 0.916908 0.280277
0.591487 0.917579 0.284807
0.677844 0.918528 0.290356
0.764459 0.919556 0.296923
0.851490 0.920777 0.304584
0.929601 0.913643 0.313322
0.963973 0.870365 0.320018
0.984641 0.823180 0.320993
0.995223 0.774865 0.314121
0.999761 0.728398 0.302966
0.199937 0.955403 0.317612
0.203589 0.955428 0.314364
0.219333 0.955491 0.300270
0.275564 0.955610 0.301380
0.343409 0.955806 0.303240
0.417277 0.956068 0.305870
0.494481 0.956427 0.309338
0.573610 0.956942 0.313740
0.653764 0.957493 0.319045
0.734649 0.958112 0.325402
0.815935 0.958860 0.332787
0.897404 0.959700 0.341176
0.966903 0.949430 0.350648
0.986766 0.897657 0.349997
0.997024 0.845075 0.340622
1.000980 0.794785 0.326485
0.227952 0.978595 0.334522
0.231579 0.978618 0.332682
0.247031 0.978678 0.325055
0.291064 0.978717 0.326109
0.347743 0.978891 0.327886
0.412016 0.979088 0.330299
0.480909 0.979378 0.333568
0.552605 0.979663 0.337598
0.625976 0.980104 0.342582
0.700412 0.980481 0.348472
0.775468 0.981071 0.355285
0.851075 0.981731 0.363064
0.926616 0.982384 0.371789
0.989200 0.970961 0.381574
0.999109 0.914352 0.369540
1.005814 0.863128 0.352355
0.245559 0.990612 0.344862
0.249089 0.990579 0.343928
0.264436 0.990668 0.340635
0.300021 0.990674 0.341591
0.347759 0.990827 0.343143
0.403684 0.991050 0.345336
0.464930 0.991209 0.348203
0.529613 0.991451 0.351829
0.596424 0.991781 0.356263
0.664717 0.992123 0.361515
0.734006 0.992599 0.367592
0.803801 0.993064 0.374590
0.873921 0.993671 0.382386
0.944142 0.994388 0.391092
1.000774 0.982945 0.400722
1.011166 0.931653 0.380436
0.254436 0.996234 0.349194
0.257983 0.996202 0.348928
0.273192 0.996256 0.348473
0.302863 0.996320 0.349285
0.343901 0.996441 0.350646
0.393071 0.996549 0.352585
0.447832 0.996810 0.355089
0.506387 0.997000 0.358259
0.567389 0.997260 0.362149
0.630166 0.997631 0.366757
0.694109 0.997966 0.372053
0.758803 0.998369 0.378181
0.823858 0.998799 0.385033
0.889300 0.999335 0.392716
0.954843 0.999914 0.401150
1.017031 0.999570 0.410389
-0.086979 -0.085328 0.155692
-0.064749 -0.084742 0.155808
0.030528 -0.082167 0.156337
0.061749 -0.076548 0.157379
0.124112 -0.063929 0.179033
0.217119 -0.031112 0.209392
0.335969 0.025435 0.241480
0.470138 0.038059 0.270280
0.606990 0.049395 0.293131
0.733752 0.060735 0.308263
0.837063 0.072480 0.314720
0.907082 0.084507 0.312765
0.949976 0.096014 0.306103
0.974540 0.105496 0.297518
0.987077 0.111392 0.287934
0.992859 0.114321 0.278267
-0.085128 -0.061573 0.156080
-0.062265 -0.060993 0.156194
0.031037 -0.056791 0.156715
0.062129 -0.046552 0.157759
0.124482 0.009462 0.179232
0.217481 0.024955 0.207771
0.336252 0.035271 0.238325
0.470401 0.045111 0.266107
0.607204 0.055183 0.288153
0.733877 0.065785 0.302824
0.837178 0.077077 0.309157
0.907183 0.088799 0.307472
0.949993 0.100107 0.301296
0.974609 0.109499 0.293317
0.987060 0.115337 0.284347
0.992889 0.118250 0.275236
-0.076496 0.053648 0.157729
-0.047422 0.053814 0.157844
0.027993 0.047578 0.158352
0.063720 0.049221 0.159393
0.126083 0.052193 0.175846
0.219015 0.056488 0.198413
0.337661 0.061960 0.223126
0.471554 0.068642 0.245985
0.608095 0.076488 0.264397
0.734575 0.085490 0.276996
0.837579 0.095611 0.282940
0.907454 0.106499 0.282708
0.950163 0.117265 0.279177
0.974728 0.126313 0.274349
0.987160 0.131986 0.268500
0.993065 0.134847 0.262240
-0.052534 0.090871 0.161046
0.007426 0.090971 0.161181
0.031683 0.091225 0.161673
0.066940 0.091776 0.162703
0.129359 0.093836 0.165619
0.222134 0.096987 0.170225
0.340449 0.101203 0.176177
0.473914 0.106630 0.183040
0.609983 0.113304 0.190331
0.735890 0.121242 0.197891
0.838540 0.130451 0.205648
0.907918 0.140622 0.213637
0.950426 0.150867 0.221685
0.974945 0.159600 0.228735
0.987344 0.165171 0.233283
0.993218 0.168000 0.235650
0.012566 0.153728 0.185121
0.018723 0.153838 0.184289
0.038582 0.154317 0.180356
0.073110 0.155281 0.168933
0.135425 0.158123 0.170552
0.228305 0.181733 0.173660
0.346101 0.208010 0.177630
0.478787 0.232827 0.182672
0.613897 0.253040 0.188826
0.738763 0.266780 0.196160
0.840393 0.272987 0.204645
0.909013 0.271982 0.213966
0.951186 0.267233 0.223244
0.975381 0.260826 0.230958
0.987724 0.252994 0.235518
0.993564 0.244606 0.237476
0.026241 0.245711 0.217515
0.030803 0.245808 0.215525
0.048591 0.246283 0.206048
0.082591 0.247175 0.178251
0.164495 0.249064 0.179598
0.236936 0.254481 0.182259
0.354077 0.293409 0.186385
0.485654 0.329132 0.191544
0.619399 0.357260 0.197782
0.742855 0.375132 0.205155
0.843001 0.380973 0.213676
0.910622 0.375341 0.222949
0.952093 0.363342 0.232013
0.976139 0.348900 0.239250
0.988273 0.333080 0.242969
0.993934 0.317432 0.244021
0.040902 0.362815 0.252017
0.044943 0.362934 0.248918
0.061757 0.363266 0.234100
0.095592 0.364092 0.190570
0.197971 0.365798 0.191565
0.281324 0.368220 0.194243
0.364500 0.375710 0.197770
0.494550 0.419482 0.203088
0.626647 0.453585 0.209464
0.748226 0.474398 0.216949
0.846479 0.479647 0.225517
0.912625 0.470063 0.234762
0.953299 0.452386 0.243541
0.976863 0.431525 0.250112
0.988888 0.409338 0.252812
0.994616 0.387712 0.252659
0.058288 0.494391 0.283862
0.062138 0.494459 0.279860
0.078612 0.494776 0.260892
0.112532 0.495447 0.205994
0.230128 0.496903 0.206764
