LUT color transfer/LUTs/8.cube
LUT_3D_SIZE 6
-0.089649 -0.088072 -0.056945
0.060968 -0.079727 -0.038651
0.335389 0.029967 0.094881
0.733408 0.064024 0.129685
0.949864 0.097090 0.162619
0.992844 0.114870 0.179782
-0.057717 0.089347 0.055484
0.066347 0.091844 0.068264
0.340871 0.179458 0.110212
0.736376 0.248910 0.137985
0.950555 0.246921 0.169412
0.993136 0.218213 0.184699
0.040536 0.362202 0.134066
0.165713 0.363892 0.136427
0.364043 0.376191 0.145997
0.748520 0.497500 0.168740
0.953372 0.476092 0.197142
0.994537 0.402980 0.205264
0.104557 0.750345 0.196708
0.252950 0.751126 0.198678
0.504593 0.754765 0.207010
0.771642 0.763397 0.223731
0.958842 0.712455 0.250732
0.997190 0.597649 0.245830
0.199723 0.955395 0.282300
0.290311 0.955604 0.284160
0.500172 0.956414 0.292215
0.736538 0.958085 0.308442
0.966901 0.949455 0.333924
1.000946 0.795004 0.309432
0.254219 0.996224 0.331182
0.303813 0.996306 0.332572
0.448095 0.996771 0.338485
0.630045 0.997592 0.350308
0.823729 0.998758 0.368950
1.016998 0.999572 0.394813
-0.086979 -0.085328 0.155692
0.061749 -0.076548 0.157379
0.335969 0.025435 0.241480
0.733752 0.060735 0.308263
0.949976 0.096014 0.306103
0.992859 0.114321 0.278267
-0.052534 0.090871 0.161046
0.066940 0.091776 0.162703
0.340449 0.101203 0.176177
0.735890 0.121242 0.197891
0.950426 0.150867 0.221685
0.993218 0.168000 0.235650
0.040902 0.362815 0.252017
0.095592 0.364092 0.190570
0.364500 0.375710 0.197770
0.748226 0.474398 0.216949
0.953299 0.452386 0.243541
0.994616 0.387712 0.252659
0.104980 0.750614 0.330655
0.158176 0.751171 0.246790
0.484339 0.754896 0.254037
0.771885 0.763074 0.270726
0.958831 0.705916 0.296663
0.997178 0.593075 0.292565
0.200349 0.955468 0.363711
0.251612 0.955621 0.329750
0.485850 0.956450 0.337330
0.731859 0.958072 0.353098
0.966955 0.949408 0.377763
1.001040 0.794753 0.354295
0.254744 0.996247 0.375564
0.303990 0.996347 0.376427
0.448835 0.996754 0.382132
0.631014 0.997658 0.393355
0.824456 0.998823 0.411143
1.017086 0.999651 0.435635
-0.070165 -0.067918 0.402525
0.148902 -0.051884 0.404080
0.340448 0.033185 0.410666
0.735137 0.064905 0.537309
0.950275 0.099393 0.521669
0.993050 0.116768 0.452169
0.008223 0.176383 0.407454
0.074260 0.095060 0.407909
0.344688 0.104389 0.414757
0.737264 0.124472 0.518569
0.950747 0.153976 0.500097
0.993319 0.170299 0.438235
0.044035 0.372303 0.428285
0.098701 0.372408 0.429539
0.367135 0.373907 0.436121
0.748740 0.389840 0.453925
0.953417 0.413855 0.470738
0.995104 0.427629 0.480736
0.108204 0.751827 0.556153
0.161328 0.752436 0.538490
0.417824 0.755879 0.481972
0.773053 0.762299 0.495000
0.959029 0.703483 0.514417
0.997691 0.623907 0.515029
0.203478 0.955711 0.552339
0.254605 0.955867 0.539493
0.489905 0.956690 0.544956
0.735718 0.958347 0.557627
0.967145 0.950463 0.576250
1.001944 0.813589 0.560433
0.257000 0.996389 0.504785
0.306212 0.996514 0.505503
0.528982 0.997030 0.579348
0.676782 0.997874 0.588715
0.844327 0.999109 0.601509
1.017550 0.999965 0.619184
0.009127 0.033177 0.758878
0.222277 0.029259 0.759630
0.477678 0.047497 0.763218
0.738826 0.072915 0.770120
0.950893 0.106167 0.741368
0.993336 0.121718 0.633685
0.020740 0.243390 0.761437
0.085376 0.102206 0.761491
0.455746 0.111896 0.765077
0.740739 0.130973 0.772073
0.951383 0.160270 0.734510
0.993667 0.174991 0.627774
0.053951 0.491765 0.772404
0.107308 0.468311 0.772696
0.375965 0.379452 0.775271
0.751343 0.395288 0.782206
0.954064 0.418981 0.727519
0.995399 0.431304 0.649230
0.114714 0.756739 0.793377
0.167807 0.756580 0.793936
0.423120 0.757262 0.796912
0.775420 0.766065 0.803299
0.959763 0.777097 0.805554
0.999117 0.783529 0.808824
0.209761 0.956315 0.764872
0.260744 0.956485 0.760461
0.494504 0.957253 0.763257
0.808446 0.958930 0.830741
0.967717 0.956384 0.840530
1.004669 0.893671 0.836284
0.261633 0.996674 0.668148
0.310546 0.996812 0.668693
0.532153 0.997257 0.709019
0.825879 0.998514 0.845675
0.912987 0.999578 0.852454
1.018582 1.000538 0.859136
0.025348 0.050129 0.954053
0.214659 0.049395 0.954276
0.457826 0.062549 0.955125
0.702488 0.085072 0.956760
0.948501 0.116754 0.959262
0.993794 0.129525 0.816894
0.033586 0.235892 0.954724
0.093793 0.112946 0.954734
0.431196 0.122354 0.955507
0.694104 0.141051 0.957136
0.948852 0.170275 0.959704
0.994243 0.182468 0.814918
0.064696 0.468338 0.957257
0.117652 0.441982 0.957304
0.380596 0.387894 0.957929
0.683213 0.403242 0.959508
0.951373 0.427144 0.962054
0.995843 0.437109 0.824876
0.125525 0.704766 0.962227
0.177541 0.697309 0.962307
0.430096 0.691048 0.962954
0.772841 0.769966 0.964589
0.958417 0.780859 0.966866
0.999443 0.785853 0.898287
0.219740 0.942682 0.969564
0.270489 0.942685 0.969685
0.501916 0.944105 0.970327
0.811784 0.952704 0.971693
0.968533 0.962418 0.973737
1.011422 0.963881 0.973759
0.268935 0.997123 0.842722
0.317456 0.997247 0.843144
0.537199 0.997775 0.859964
0.827847 0.998825 0.921794
0.972835 0.999965 0.977296
1.020173 1.002166 0.978686
0.032685 0.058058 0.992849
0.176459 0.057639 0.992929
0.378133 0.066899 0.993255
0.581590 0.083778 0.994117
0.785752 0.108172 0.995345
0.990264 0.140478 0.997014
0.038553 0.199725 0.993114
0.098359 0.119151 0.993204
0.357606 0.126169 0.993600
0.573230 0.140186 0.994359
0.783051 0.162200 0.995611
0.990514 0.193081 0.997274
0.061960 0.392166 0.994388
0.116364 0.371657 0.994442
0.383449 0.392860 0.995205
0.589084 0.403942 0.995962
0.792539 0.421284 0.997136
0.992266 0.445317 0.998681
0.108223 0.587984 0.996711
0.161507 0.580955 0.996851
0.421797 0.603245 0.997548
0.772937 0.772191 0.999439
0.878065 0.779360 0.999967
0.998713 0.789292 1.003126
0.180438 0.785569 0.999967
0.232380 0.784399 0.999967
0.475145 0.800638 1.000816
0.803151 0.885575 1.005544
0.967823 0.962928 1.015329
1.012370 0.964374 1.018057
0.279216 0.991190 1.014835
0.327344 0.991435 1.015093
0.544325 0.993397 1.016447
0.830485 0.997885 1.019440
0.973228 1.000340 1.024029
1.021107 1.003125 1.026732
