LUT color transfer/LUTs/82.cube
TITLE "Generate by Resolve"
LUT_3D_SIZE 9
0 3.0518e-05 0.0019379
0.000381476 0 0.00643931
0.0805066 0.000106813 0.00239567
0.277974 0 0
0.584909 0 0
0.78967 0 0
0.890089 0 0
0.921248 0 0
0.921279 0 0
0.000885023 0.0222934 0.00268559
0.00141909 0.0216373 0.0028687
0.0923323 0.0106203 0.00282292
0.323308 0 0
0.640558 0 0
0.825696 0 0
0.916793 0 0
0.922164 0 0
0.925399 0 0
0 0.112428 0
0 0.117418 0
0.0800488 0.102495 0.000869764
0.380682 0.0576944 0
0.720348 0.0138399 0
0.892409 0.0215457 0
0.97673 0.052491 0
0.989822 0.0850385 0.00222782
0.99617 0.119768 0.0124208
0 0.306508 0
0 0.330098 0
0.011017 0.325063 0
0.333394 0.29662 0
0.770687 0.275303 0.00234989
0.993667 0.301091 0.0442206
1 0.326284 0.0575875
1 0.366308 0.0606241
1 0.409552 0.0632792
0 0.644709 0
0 0.675883 0
0.000793469 0.667414 0
0.250965 0.667353 7.62951e-05
0.718517 0.605463 0.000885023
0.961501 0.636515 0.0443732
1 0.672724 0.0693828
1 0.703807 0.0677806
1 0.736385 0.0651255
0.0388647 0.948775 0.0374304
0.049958 0.967926 0.0484627
0.0493172 0.960876 0.0447852
0.267384 0.961334 0.0580758
0.742733 0.879072 0.0204471
0.941451 0.861906 0.0353094
1 0.878614 0.049485
1 0.896757 0.0536202
1 0.909285 0.0533455
0.103502 1 0.101732
0.103593 1 0.101823
0.114794 1 0.102983
0.337499 1 0.0990463
0.752987 0.998306 0.0428779
0.948791 0.974975 0.0396582
0.999771 0.973663 0.0467231
1 0.979492 0.0501411
1 0.984024 0.0510262
0.103609 1 0.101839
0.103609 1 0.101839
0.149111 1 0.106477
0.384634 1 0.0946059
0.749279 1 0.0446937
0.940337 1 0.0378424
0.999588 1 0.0439307
1 1 0.0470893
1 1 0.0478828
0.103609 1 0.101839
0.103609 1 0.101839
0.174228 1 0.108659
0.425818 1 0.0889754
0.76846 1 0.0425879
0.939193 1 0.0377661
0.998169 1 0.0435187
1 1 0.0466926
1 1 0.0474403
0 0.000259403 0.0144961
0.000106813 0.000122072 0.0347143
0.0807355 0.000122072 0.0391699
0.280201 0 0.00515755
0.589563 0 0
0.792767 0 0
0.893416 0 0
0.921782 0 0
0.922301 0 0
1.5259e-05 0.0288701 0.0350652
7.62951e-05 0.0318151 0.0215152
0.0893721 0.0124056 0.0424201
0.324102 0 0.00746166
0.645136 0 0
0.829343 0 0
0.919875 0 0
0.924468 0 0
0.928176 0 0
0.00155642 0.114549 0.0101625
0.00132753 0.119768 0.0112612
0.0805676 0.107347 0.0255131
0.371511 0.0657206 0.00180056
0.699321 0.024567 0
0.887327 0.0344396 0.000488289
0.984771 0.0699474 0.012253
0.996582 0.105882 0.0375677
0.998795 0.142138 0.065919
0 0.314031 0
0 0.338338 0
0.0122988 0.334951 0
0.346548 0.311238 0.00943008
0.785092 0.285451 0.00399786
0.993332 0.313909 0.0453956
1 0.344289 0.0604562
1 0.387045 0.064332
1 0.430686 0.0727245
0 0.655787 0
0 0.685832 0
0.0011902 0.678676 0
0.263386 0.679393 0.000106813
0.730648 0.620508 0.011902
0.970581 0.649302 0.0470588
1 0.681788 0.0688945
1 0.712795 0.0671855
1 0.743191 0.0645304
0.0429999 0.957198 0.0415503
0.053193 0.972183 0.0516823
0.0547036 0.967483 0.0482948
0.280186 0.966278 0.0597848
0.749477 0.886 0.0222324
0.943252 0.868315 0.0433814
1 0.883757 0.0519112
1 0.900649 0.0539101
1 0.91194 0.0536812
0.103593 1 0.101823
0.103609 1 0.101869
0.117327 1 0.103151
0.340551 1 0.0988022
0.748028 0.999146 0.0436255
0.946578 0.977752 0.039826
0.999481 0.975387 0.0490425
1 0.980484 0.0527962
1 0.98436 0.0534218
0.103609 1 0.101991
0.103655 1 0.102846
0.148806 1 0.106508
0.379004 1 0.0953384
0.737682 1 0.0460059
0.933318 1 0.0373999
0.998276 1 0.0435187
1 1 0.0469368
1 1 0.0478981
0.104051 1 0.110353
0.103853 1 0.10753
0.171038 1 0.108476
0.41416 1 0.0906081
0.753643 1 0.0441444
0.930648 1 0.037232
0.996063 1 0.0430152
1 1 0.0462806
1 1 0.0470741
0 0.00868238 0.0543374
0 0.00408942 0.0854505
0.0607309 0 0.154864
0.275013 0 0.0906539
0.585916 0 0.0192874
0.792447 0 0.00111391
0.895064 0 0.00166323
0.924636 0 0.00614939
0.925048 0 0.0146639
0 0.0495308 0.0612345
0 0.0560159 0.0467842
0.0628977 0.0154421 0.156634
0.322606 0 0.102968
0.644923 0 0.0362554
0.831571 0 0.0180819
0.923064 0 0.0298161
0.927947 0 0.0472725
0.931823 3.0518e-05 0.071046
0 0.132525 0.0271458
0 0.139345 0.0229953
0.0541543 0.121248 0.0797589
0.336889 0.0786603 0.109285
0.685634 0.0360418 0.0662242
0.891005 0.0468452 0.0773022
0.994385 0.085359 0.117037
0.999084 0.121736 0.156207
0.99942 0.158328 0.195911
0 0.323033 0
0 0.349722 0
0.0181277 0.345937 0.0289769
0.342229 0.331609 0.101793
0.776089 0.300877 0.0761883
0.978866 0.331579 0.118013
1 0.378714 0.155276
1 0.425238 0.179004
1 0.469932 0.199435
0 0.662654 4.57771e-05
0 0.694011 0.00508125
0.00187686 0.686412 0.00860609
0.256916 0.690974 0.0358587
0.730877 0.640497 0.103624
0.977417 0.657465 0.0848554
1 0.685802 0.0914168
1 0.71751 0.0968338
1 0.748089 0.105699
0.0471046 0.960616 0.0730297
0.0581064 0.97464 0.092256
0.0594339 0.971084 0.085359
0.277058 0.96849 0.0857252
0.737835 0.894072 0.0542306
0.935699 0.874815 0.125048
0.999115 0.887984 0.121828
1 0.903197 0.115114
1 0.913741 0.12163
0.106737 1 0.144289
0.107561 1 0.151019
0.119371 1 0.146822
0.328237 1 0.124483
0.725795 0.999268 0.0534981
0.934127 0.98024 0.0797742
0.996521 0.976104 0.119844
1 0.980148 0.131197
1 0.983536 0.136446
0.111406 1 0.175692
0.111406 1 0.175982
0.14519 1 0.17171
0.354116 1 0.132448
0.708446 1 0.0581216
0.916579 1 0.0424659
0.990814 1 0.0785687
1 1 0.104372
1 1 0.110948
0.115419 1 0.194553
0.114412 1 0.190784
0.164401 1 0.190509
0.380957 1 0.140337
0.719829 1 0.0583047
0.910826 1 0.0396277
0.985245 1 0.0582589
1 1 0.0870832
1 1 0.0950942
0 0.0280613 0.126909
0 0.0165255 0.182574
0.00416571 1.5259e-05 0.38909
0.248966 0 0.347158
0.570932 0 0.231235
0.784955 0 0.170794
0.891646 0 0.168093
0.924041 0 0.18909
0.923323 0 0.22034
0 0.0831464 0.0846876
0 0.0843671 0.112367
0.00474556 0.035935 0.342077
0.298054 0 0.382528
0.633478 0 0.28365
0.824628 0 0.254246
0.919097 0 0.271885
0.923583 0 0.304952
0.926818 0 0.345815
0 0.16437 0.0975357
0 0.183139 0.049424
0.000518807 0.176486 0.0610056
0.310689 0.0737926 0.386923
0.681285 0.0316014 0.32459
0.890547 0.0462043 0.334829
0.994736 0.0866255 0.387366
0.999222 0.121813 0.441688
0.999481 0.158709 0.496468
0 0.365652 0.0019379
0 0.39498 0.00129702
0.00553903 0.38706 0.0270695
0.296193 0.352285 0.313298
0.719051 0.319112 0.349813
0.949905 0.344518 0.377798
1 0.396963 0.429572
1 0.442756 0.471641
1 0.486488 0.511803
0.000106813 0.680018 0.000732433
0.00146487 0.71252 0.00225834
0.014023 0.704295 0.014786
0.2448 0.701167 0.258595
0.715343 0.651118 0.319982
0.970626 0.665354 0.28246
1 0.698741 0.314427
1 0.73077 0.349477
1 0.756725 0.375051
0.0792554 0.969589 0.140108
0.0916304 0.981216 0.148714
0.0906081 0.976471 0.150225
0.265003 0.970932 0.28191
0.690303 0.905959 0.221256
0.913085 0.871931 0.337621
0.991394 0.883391 0.31603
1 0.897658 0.298329
1 0.90695 0.311452
0.132677 1 0.217304
0.135225 1 0.216007
0.140337 1 0.227375
0.3019 1 0.32018
0.658488 0.999435 0.223896
0.902403 0.981247 0.212268
0.973785 0.968872 0.315206
0.999237 0.970291 0.350729
1 0.972778 0.362768
0.143954 1 0.207385
0.14406 1 0.206943
0.158328 1 0.245411
0.315785 1 0.341741
0.631678 1 0.231876
0.87657 1 0.16585
0.963516 1 0.207034
0.997223 0.999954 0.275975
1 0.999893 0.302937
0.152514 1 0.19472
0.150423 1 0.19791
0.175418 1 0.267323
0.335164 1 0.36289
0.636881 1 0.239796
0.866224 1 0.160845
0.953597 1 0.164782
0.994095 1 0.216403
1 1 0.247807
0 0.0461891 0.255497
0 0.0320287 0.344228
0 0.000488289 0.570535
0.123842 0 0.717403
0.546746 0 0.56463
0.768933 0 0.498283
0.879805 0 0.495155
0.915862 0 0.517937
0.91519 0 0.551949
0 0.115251 0.162066
0 0.111467 0.239307
0 0.0595254 0.516182
0.159121 0.000762951 0.737163
0.618341 0 0.613855
0.813779 0 0.58584
0.911101 0 0.603082
0.91635 0 0.630014
0.920531 0 0.663508
0 0.227756 0.0731212
0 0.25127 0.0394141
0 0.237659 0.122774
0.137621 0.112154 0.697169
0.6757 0.024979 0.658854
0.887205 0.0402075 0.668666
0.994034 0.0826886 0.717998
0.999069 0.118379 0.763455
0.999466 0.15668 0.806516
0 0.420813 0.100938
0 0.459831 0.0653086
0 0.462898 0.0169833
0.0633707 0.452216 0.30251
0.713985 0.314534 0.692607
0.948379 0.340444 0.714794
1 0.393545 0.763241
1 0.440925 0.800473
1 0.485161 0.830793
0 0.730114 0.00250248
0.000320439 0.762219 0.00642405
0.00117494 0.753826 0.0211643
0.206195 0.738033 0.29633
0.674144 0.657694 0.641596
0.919692 0.665232 0.663203
0.998016 0.701167 0.703304
1 0.735836 0.738933
1 0.758999 0.761151
0.110597 0.982147 0.0851453
0.119081 0.99173 0.0938277
0.118395 0.987427 0.0941329
0.314717 0.969589 0.316838
0.62945 0.900328 0.594125
0.880598 0.862531 0.631754
0.96939 0.870283 0.613443
0.999588 0.882048 0.61474
1 0.890471 0.63209
0.17583 1 0.14757
0.177142 1 0.145449
0.181643 1 0.153841
0.328283 1 0.414054
0.591775 0.998383 0.601053
0.844114 0.972213 0.530098
0.936919 0.955276 0.600519
0.973632 0.953658 0.656367
0.991608 0.955596 0.6701
0.175128 1 0.141054
0.175799 1 0.140551
0.192187 1 0.159579
0.338827 1 0.41915
0.564935 1 0.610178
0.806302 1 0.518441
0.916289 0.999512 0.495949
0.963027 0.997406 0.550347
0.982925 0.996307 0.596796
0.17055 1 0.139223
0.17229 1 0.139208
0.204746 1 0.170718
0.356741 1 0.430396
0.564645 1 0.614343
0.789136 1 0.512001
0.899901 1 0.465873
0.951659 1 0.476493
0.975326 1 0.507149
0 0.0607004 0.41146
0 0.0467079 0.504677
0 0.00704967 0.709133
0.0174868 0 0.870924
0.485222 0 0.804913
0.761669 0 0.741222
0.876127 0 0.745846
0.914611 0 0.762219
0.915297 0 0.780621
0 0.144457 0.287434
0 0.138216 0.394537
0 0.0842451 0.665431
0.0335699 0.0119173 0.876341
0.57792 0 0.818738
0.814969 0 0.787976
0.913832 0 0.80441
0.919448 0 0.818601
0.92488 3.0518e-05 0.837201
0 0.297215 0.0725719
0 0.321553 0.0680552
0 0.294835 0.247883
0.0182956 0.173541 0.782422
0.636545 0.0356909 0.867323
0.896315 0.0449836 0.864546
0.996506 0.088304 0.904265
0.999359 0.12668 0.935485
0.99971 0.165621 0.965255
0 0.497185 0.164874
0 0.544549 0.0954604
0 0.555993 0.0162661
0.000289921 0.536416 0.230915
0.611582 0.352728 0.908003
0.959106 0.346319 0.9234
1 0.399924 0.96051
1 0.450156 0.979431
1 0.494652 0.991821
0 0.777432 0.142229
0 0.810315 0.139879
0 0.804715 0.118502
0.071107 0.804288 0.330861
0.454917 0.741115 0.72491
0.916106 0.666163 0.885557
0.995621 0.700206 0.910887
1 0.735027 0.927962
1 0.757733 0.9355
0.0399023 0.996017 0.132937
0.0456703 0.999939 0.141558
0.0471504 0.997803 0.1402
0.227848 0.993759 0.346365
0.59469 0.917281 0.655833
0.847501 0.861494 0.83949
0.93521 0.864103 0.857404
0.974899 0.876081 0.872053
0.988708 0.885115 0.88246
0.132799 1 0.151186
0.130846 1 0.152422
0.138659 1 0.154421
0.325002 1 0.300664
0.626596 0.997436 0.600015
0.803037 0.960342 0.820096
0.900252 0.947234 0.828794
0.947478 0.945174 0.851698
0.970428 0.946624 0.86099
0.118761 1 0.160067
0.11986 1 0.15938
0.138216 1 0.163363
0.329488 1 0.300008
0.607721 1 0.585336
0.767788 0.999771 0.812314
0.868208 0.995438 0.809598
0.923262 0.991363 0.806088
0.954101 0.988861 0.817105
0.106752 1 0.16791
0.110842 1 0.165164
0.143053 1 0.176349
0.336767 1 0.311803
0.601251 1 0.577081
0.747539 1 0.802762
0.846433 1 0.797009
0.903761 1 0.786236
0.937209 0.99968 0.785809
0 0.0730602 0.521187
0 0.0598306 0.616327
0 0.019852 0.786297
0 0 0.924163
0.383978 0 0.917327
0.76025 0 0.847929
0.883207 0 0.853376
0.920363 0 0.867033
0.921431 0 0.880049
0 0.17055 0.388357
0 0.16408 0.500542
0 0.108598 0.750057
0.00491341 0.0324559 0.927565
0.49955 0 0.913252
0.820447 0 0.880934
0.921386 0 0.895552
0.926436 0 0.906966
0.932433 0.000442512 0.921996
0 0.353307 0.0988785
0 0.376913 0.118303
0 0.342 0.353246
0.00221256 0.224399 0.813794
0.550591 0.0740826 0.967269
0.911223 0.0604562 0.960494
0.998932 0.102495 0.991272
0.999756 0.141695 0.999176
0.999985 0.180758 0.999908
0 0.569787 0.160906
0 0.615045 0.0947738
0 0.624262 0.0370947
0 0.597314 0.224201
0.456809 0.421836 0.9794
0.970367 0.364324 0.999054
1 0.416785 1
1 0.467063 1
1 0.510231 1
0 0.814466 0.298421
0 0.84918 0.26804
0 0.851957 0.179553
0.027863 0.857588 0.250141
0.279316 0.818891 0.726711
0.898863 0.682597 0.979812
0.996246 0.708522 0.992767
1 0.741329 0.998474
1 0.762341 0.998444
0.00180056 0.999359 0.218921
0.00492866 1 0.219867
0.0052491 1 0.21532
0.149813 0.998703 0.481392
0.446174 0.965637 0.738613
0.738201 0.90248 0.853269
0.915892 0.868574 0.950225
0.967559 0.876066 0.96025
0.982635 0.884291 0.966232
0.0728161 1 0.193057
0.071458 1 0.194003
0.079118 1 0.195514
0.225223 1 0.379202
0.512078 0.999969 0.646174
0.772503 0.974502 0.818082
0.880964 0.950744 0.893584
0.929686 0.94609 0.930861
0.957794 0.945785 0.942718
0.0661936 1 0.199695
0.0677806 1 0.198215
0.0800183 1 0.202564
0.230579 1 0.361639
0.526955 1 0.57731
0.776715 0.999954 0.764462
0.868757 0.993805 0.870466
0.909117 0.988861 0.915526
0.937438 0.987594 0.925872
0.0652934 1 0.200519
0.066041 1 0.199832
0.0858778 1 0.214099
0.233295 1 0.376196
0.516518 1 0.567819
0.759899 1 0.740124
0.849149 1 0.854551
0.890211 1 0.903075
0.919676 0.999634 0.914397
0 0.0836347 0.5906
0 0.0716564 0.682078
0 0.0329747 0.828809
0 0.000396735 0.950317
0.303792 0 0.94052
0.754894 0 0.899672
0.89192 0 0.912154
0.924575 0 0.920928
0.924941 0 0.925429
0 0.193744 0.447456
0 0.187137 0.563134
0 0.13048 0.792859
0 0.0512703 0.950484
0.43476 1.5259e-05 0.925399
0.820645 0 0.907866
0.925689 0 0.927733
0.929458 0 0.931182
0.936431 0.0015259 0.938155
0 0.396246 0.126986
0 0.418799 0.162097
0 0.381155 0.418601
7.62951e-05 0.265324 0.837888
0.486686 0.107591 0.984588
0.92018 0.0764782 0.99144
0.999512 0.117006 0.999573
0.999908 0.155505 0.999969
1 0.194415 1
0 0.623072 0.160037
0 0.664439 0.100664
0 0.672328 0.0587472
0 0.641276 0.256428
0.362234 0.477073 0.99176
0.968536 0.386389 1
1 0.435874 1
1 0.484047 1
1 0.523934 1
0 0.849424 0.377722
0 0.88365 0.327565
0 0.89189 0.209308
0.0166934 0.895811 0.222202
0.203021 0.866438 0.735119
0.847456 0.712917 0.999268
0.992828 0.720638 1
0.999969 0.748974 1
1 0.768063 1
0.00117494 1 0.25066
0.000976577 1 0.242863
0.000808728 1 0.249744
0.122057 0.999985 0.5355
0.367697 0.994263 0.721843
0.633509 0.943999 0.846296
0.856413 0.890547 0.982803
0.948409 0.882719 0.998978
0.969665 0.887694 0.999832
0.064332 1 0.201251
0.0627756 1 0.201938
0.0656596 1 0.208438
0.193118 1 0.42945
0.420447 1 0.725689
0.687953 0.994553 0.861433
0.825818 0.971176 0.896544
0.882795 0.963836 0.930175
0.920378 0.957488 0.970214
0.064683 1 0.201099
0.064683 1 0.201099
0.0735637 1 0.209476
0.20325 1 0.39498
0.442832 1 0.640406
0.704372 1 0.801419
0.834821 0.999359 0.874769
0.893797 0.995682 0.913817
0.928023 0.992645 0.938872
0.064683 1 0.201099
0.064683 1 0.201099
0.0813916 1 0.217166
0.207843 1 0.403113
0.431495 1 0.629252
0.687556 1 0.772793
0.825132 1 0.845396
0.887068 1 0.890303
0.921553 1 0.921126
0 0.0942702 0.643046
0 0.0838331 0.728588
0 0.0453651 0.858473
0 0.00177005 0.962219
0.245319 0 0.948119
0.747494 0 0.90135
0.897002 0 0.921309
0.925048 0 0.926818
0.925048 0 0.926818
0 0.217075 0.49221
0 0.210193 0.609735
0 0.153109 0.819913
0 0.0697185 0.961486
0.381476 0.000228885 0.933837
0.818051 0 0.907958
0.927077 0 0.928908
0.931044 0 0.932784
0.940322 0.00271611 0.942031
0 0.435996 0.154025
0 0.454093 0.197589
0 0.414176 0.462028
0 0.298848 0.853101
0.449271 0.136019 0.99353
0.925887 0.090898 0.996445
0.999664 0.129793 0.999741
0.999969 0.16875 1
1 0.206607 1
0 0.668421 0.164614
0 0.702663 0.109712
0 0.707973 0.0785229
0 0.674311 0.294011
0.309377 0.517006 0.992874
0.961944 0.406943 1
1 0.451881 1
1 0.498482 1
1 0.535821 1
0 0.883223 0.412436
0 0.913375 0.349706
0 0.922454 0.226154
0.0128023 0.923919 0.217884
0.166323 0.89807 0.74313
0.795682 0.741085 0.999741
0.985061 0.732555 1
0.999649 0.756466 1
1 0.773663 1
0.00276188 1 0.243549
0.00215152 1 0.237583
0.00181582 1 0.246967
0.116091 1 0.525704
0.319219 0.999908 0.693751
0.552728 0.976745 0.844816
0.783703 0.917861 0.981033
0.915572 0.894575 0.999863
0.943496 0.895842 1
0.064622 1 0.201129
0.0631266 1 0.201785
0.0663767 1 0.20798
0.19443 1 0.426093
0.405081 1 0.714595
0.633402 1 0.851484
0.76936 0.993088 0.879423
0.830732 0.983795 0.918837
0.870329 0.976455 0.953414
0.064683 1 0.201099
0.064683 1 0.201099
0.074815 1 0.210681
0.203403 1 0.39617
0.434287 1 0.643214
0.679988 1 0.807965
0.807736 1 0.877073
0.867002 1 0.910002
0.899916 0.999908 0.930632
0.064683 1 0.201099
0.064683 1 0.201099
0.0816358 1 0.217395
0.207111 1 0.40264
0.42237 1 0.633677
0.660914 1 0.788388
0.798703 1 0.859846
0.866621 1 0.900175
0.905486 1 0.926909
