LUT color transfer/LUTs/82.cube
TITLE "Generate by Resolve"
LUT_3D_SIZE 5
0 3.0518e-05 0.0019379
0.0805066 0.000106813 0.00239567
0.584909 0 0
0.890089 0 0
0.921279 0 0
0 0.112428 0
0.0800488 0.102495 0.000869764
0.720348 0.0138399 0
0.97673 0.052491 0
0.99617 0.119768 0.0124208
0 0.644709 0
0.000793469 0.667414 0
0.718517 0.605463 0.000885023
1 0.672724 0.0693828
1 0.736385 0.0651255
0.103502 1 0.101732
0.114794 1 0.102983
0.752987 0.998306 0.0428779
0.999771 0.973663 0.0467231
1 0.984024 0.0510262
0.103609 1 0.101839
0.174228 1 0.108659
0.76846 1 0.0425879
0.998169 1 0.0435187
1 1 0.0474403
0 0.00868238 0.0543374
0.0607309 0 0.154864
0.585916 0 0.0192874
0.895064 0 0.00166323
0.925048 0 0.0146639
0 0.132525 0.0271458
0.0541543 0.121248 0.0797589
0.685634 0.0360418 0.0662242
0.994385 0.085359 0.117037
0.99942 0.158328 0.195911
0 0.662654 4.57771e-05
0.00187686 0.686412 0.00860609
0.730877 0.640497 0.103624
1 0.685802 0.0914168
1 0.748089 0.105699
0.106737 1 0.144289
0.119371 1 0.146822
0.725795 0.999268 0.0534981
0.996521 0.976104 0.119844
1 0.983536 0.136446
0.115419 1 0.194553
0.164401 1 0.190509
0.719829 1 0.0583047
0.985245 1 0.0582589
1 1 0.0950942
0 0.0461891 0.255497
0 0.000488289 0.570535
0.546746 0 0.56463
0.879805 0 0.495155
0.91519 0 0.551949
0 0.227756 0.0731212
0 0.237659 0.122774
0.6757 0.024979 0.658854
0.994034 0.0826886 0.717998
0.999466 0.15668 0.806516
0 0.730114 0.00250248
0.00117494 0.753826 0.0211643
0.674144 0.657694 0.641596
0.998016 0.701167 0.703304
1 0.758999 0.761151
0.17583 1 0.14757
0.181643 1 0.153841
0.591775 0.998383 0.601053
0.936919 0.955276 0.600519
0.991608 0.955596 0.6701
0.17055 1 0.139223
0.204746 1 0.170718
0.564645 1 0.614343
0.899901 1 0.465873
0.975326 1 0.507149
0 0.0730602 0.521187
0 0.019852 0.786297
0.383978 0 0.917327
0.883207 0 0.853376
0.921431 0 0.880049
0 0.353307 0.0988785
0 0.342 0.353246
0.550591 0.0740826 0.967269
0.998932 0.102495 0.991272
0.999985 0.180758 0.999908
0 0.814466 0.298421
0 0.851957 0.179553
0.279316 0.818891 0.726711
0.996246 0.708522 0.992767
1 0.762341 0.998444
0.0728161 1 0.193057
0.079118 1 0.195514
0.512078 0.999969 0.646174
0.880964 0.950744 0.893584
0.957794 0.945785 0.942718
0.0652934 1 0.200519
0.0858778 1 0.214099
0.516518 1 0.567819
0.849149 1 0.854551
0.919676 0.999634 0.914397
0 0.0942702 0.643046
0 0.0453651 0.858473
0.245319 0 0.948119
0.897002 0 0.921309
0.925048 0 0.926818
0 0.435996 0.154025
0 0.414176 0.462028
0.449271 0.136019 0.99353
0.999664 0.129793 0.999741
1 0.206607 1
0 0.883223 0.412436
0 0.922454 0.226154
0.166323 0.89807 0.74313
0.985061 0.732555 1
1 0.773663 1
0.064622 1 0.201129
0.0663767 1 0.20798
0.405081 1 0.714595
0.76936 0.993088 0.879423
0.870329 0.976455 0.953414
0.064683 1 0.201099
0.0816358 1 0.217395
0.42237 1 0.633677
0.798703 1 0.859846
0.905486 1 0.926909
