LUT color transfer/LUTs/82.cube
TITLE "Generate by Resolve"
LUT_3D_SIZE 33
0 3.0518e-05 0.0019379
0 1.5259e-05 0.00106813
0 0 0.000900282
3.0518e-05 0 0.00210575
0.000381476 0 0.00643931
0.0108949 0 0.00689708
0.0292821 7.62951e-05 0.00570687
0.0530404 0.000137331 0.00399786
0.0805066 0.000106813 0.00239567
0.113375 0 0.000946059
0.156008 0 0.000198367
0.210758 0 3.0518e-05
0.277974 0 0
0.352361 0 0
0.429236 0 0
0.507927 0 0
0.584909 0 0
0.653071 0 0
0.708003 0 0
0.752819 0 0
0.78967 0 0
0.819928 0 0
0.845808 0 0
0.868864 0 0
0.890089 0 0
0.907622 0 0
0.917113 0 0
0.92079 0 0
0.921248 0 0
0.921263 0 0
0.921263 0 0
0.921263 0 0
0.921279 0 0
0 0.000656138 0.00358587
0 0.000534066 0.00251774
0 0.000381476 0.00207523
6.10361e-05 0.000228885 0.00265507
0.000640879 0.000106813 0.00552377
0.0112764 3.0518e-05 0.00636301
0.0301061 7.62951e-05 0.00573739
0.0546426 0.000137331 0.0043946
0.0832074 9.15541e-05 0.00283818
0.117296 0 0.00125124
0.162005 0 0.000289921
0.219806 0 4.57771e-05
0.290028 0 0
0.367605 0 0
0.445991 0 0
0.524208 0 0
0.600549 0 0
0.667369 0 0
0.721126 0 0
0.765042 0 0
0.800351 0 0
0.829984 0 0
0.855833 0 0
0.878996 0 0
0.899809 0 0
0.915053 0 0
0.920119 0 0
0.921248 0 0
0.921263 0 0
0.921263 0 0
0.921263 0 0
0.921294 0 0
0.92137 0 0
4.57771e-05 0.00288396 0.00529488
4.57771e-05 0.00260929 0.00459297
4.57771e-05 0.00224308 0.0041352
0.000122072 0.00178531 0.00408942
0.000869764 0.00125124 0.00489815
0.0117342 0.00077821 0.00581369
0.0312963 0.000549325 0.00570687
0.0563973 0.000350958 0.00476081
0.0859083 0.000106813 0.00335698
0.121355 0 0.00163272
0.169055 0 0.000366217
0.230457 0 4.57771e-05
0.303899 0 0
0.382055 0 0
0.461784 0 0
0.541268 0 0
0.61651 0 0
0.681819 0 0
0.734737 0 0
0.776562 0 0
0.810895 0 0
0.839994 0 0
0.865736 0 0
0.888914 0 0
0.907057 0 0
0.917967 0 0
0.921172 0 0
0.921263 0 0
0.921279 0 0
0.921309 0 0
0.921492 0 0
0.921828 0 0
0.921935 0 0
0.000228885 0.00831617 0.00602731
0.000259403 0.0081178 0.00601205
0.000259403 0.00759899 0.00587472
0.000320439 0.0068513 0.00549325
0.00111391 0.00569161 0.00445563
0.0121004 0.00428778 0.00526436
0.0323339 0.00311284 0.00547799
0.0587015 0.00199893 0.00492866
0.0890516 0.00103761 0.00376898
0.125475 0.000518807 0.00192264
0.17525 0.000137331 0.000366217
0.240253 1.5259e-05 3.0518e-05
0.315373 0 0
0.395331 0 0
0.475837 0 0
0.556222 0 0
0.631785 0 0
0.695552 0 0
0.746029 0 0
0.786343 0 0
0.819699 0 0
0.84863 0 0
0.874632 0 0
0.896712 0 0
0.912245 0 0
0.91957 0 0
0.921279 0 0
0.921279 0 0
0.921279 0 0
0.921294 0 0
0.921386 0 0
0.921614 0 0
0.921767 0 0
0.000885023 0.0222934 0.00268559
0.0009308 0.0229343 0.0027924
0.0009308 0.0232242 0.00289921
0.000946059 0.0230411 0.00291447
0.00141909 0.0216373 0.0028687
0.0112154 0.018677 0.00399786
0.0322118 0.0158999 0.00421149
0.0602274 0.0134127 0.00369268
0.0923323 0.0106203 0.00282292
0.130465 0.00697337 0.00125124
0.180957 0.00177005 0.000198367
0.247181 0.000259403 1.5259e-05
0.323308 0 0
0.403204 0 0
0.484154 0 0
0.565728 0 0
0.640558 0 0
0.704051 0 0
0.75288 0 0
0.792432 0 0
0.825696 0 0
0.854704 0 0
0.880323 0 0
0.902571 0 0
0.916793 0 0
0.920638 0 0
0.921294 0 0
0.921477 0 0
0.922164 0 0
0.922988 0 0
0.923735 0 0
0.924575 0 0
0.925399 0 0
0.000549325 0.0409705 0.00306706
0.000549325 0.0419165 0.00332647
0.000518807 0.0427253 0.00349432
0.000503548 0.0428321 0.00340276
0.000717174 0.0416266 0.00291447
0.00793469 0.0384985 0.00239567
0.0295109 0.0347448 0.00292973
0.0597696 0.0310369 0.00302129
0.0946059 0.0274815 0.00175479
0.136431 0.0220035 0.000427253
0.190494 0.0137026 6.10361e-05
0.258869 0.00578317 0
0.334508 0.00131228 0
0.414038 0 0
0.495033 0 0
0.575143 0 0
0.649104 0 0
0.711406 0 0
0.759503 0 0
0.799039 0 0
0.832151 0 0
0.860914 0 0
0.88687 0 0
0.909407 0 0
0.922881 0 0
0.925032 0 0
0.925963 0 0
0.92697 0 0
0.928603 0 0
0.930449 0 0
0.932311 0 0
0.93431 0 0
0.936141 0.000762951 0
0.000183108 0.0618601 0.00218204
0.000167849 0.063447 0.00227359
0.00015259 0.0643473 0.00224308
0.000137331 0.0646067 0.00201419
0.000198367 0.0635843 0.00144961
0.00386053 0.0606851 0.000854505
0.0244297 0.0567636 0.00131228
0.0561227 0.0526131 0.00209049
0.0931106 0.0480201 0.00210575
0.137835 0.0423133 0.000534066
0.199054 0.0321965 7.62951e-05
0.273869 0.0193942 0
0.353231 0.00854505 0
0.433738 0.00209049 0
0.513176 0 0
0.591623 0 0
0.663523 0 0
0.723186 0 0
0.77055 0 0
0.80972 0 0
0.842817 1.5259e-05 0
0.87216 0.000137331 0
0.89897 0.000518807 0
0.921355 0.00112917 0
0.933928 0.00190738 0
0.936049 0.00268559 0
0.938262 0.00360113 0
0.940734 0.00456245 0
0.943404 0.00552377 0
0.946365 0.0065919 0
0.949447 0.0077821 0
0.952407 0.00866712 0
0.954971 0.0112154 0
1.5259e-05 0.0853895 0.000732433
0 0.0871595 0.000671397
0 0.0885634 0.000549325
0 0.089128 0.000350958
0 0.0882887 6.10361e-05
0.000900282 0.0855116 0
0.0181277 0.0820935 0.000183108
0.0490883 0.0777447 0.00105287
0.0881666 0.0725109 0.00215152
0.133806 0.0668956 0.00129702
0.199969 0.0568704 0.000198367
0.284535 0.0421302 0
0.371603 0.0264897 0
0.457435 0.0139467 0
0.539818 0.00650034 0
0.617685 0.00340276 0
0.687282 0.00222782 0
0.744411 0.002121 0
0.790158 0.00233463 0
0.828611 0.00271611 0
0.862226 0.00383001 0
0.892744 0.00544747 0
0.920913 0.00772107 0
0.941985 0.0101778 0
0.952316 0.0127871 0
0.955245 0.0158083 0
0.958267 0.0197452 0
0.961486 0.0242771 3.0518e-05
0.965057 0.030045 0.000167849
0.96875 0.036408 0.000259403
0.972686 0.0443122 0.000274662
0.976547 0.0523842 0.000274662
0.979828 0.0591287 0.000198367
0 0.112428 0
0 0.114656 0
0 0.116609 0
0 0.117769 0
0 0.117418 0
0 0.114702 0
0.0113527 0.111574 0
0.0386358 0.107637 0.000244144
0.0800488 0.102495 0.000869764
0.126238 0.0962692 0.00175479
0.191424 0.0882582 0.000259403
0.282399 0.0738994 0
0.380682 0.0576944 0
0.477867 0.0419165 0
0.568933 0.0281682 0
0.651118 0.018143 0
0.720348 0.0138399 0
0.775051 0.0132601 0
0.819638 0.0141756 0
0.857954 0.0159915 0
0.892409 0.0215457 0
0.924422 0.0294804 4.57771e-05
0.951843 0.0380713 7.62951e-05
0.969253 0.0454719 0
0.97673 0.052491 0
0.980026 0.0594949 0
0.983581 0.0671244 4.57771e-05
0.987411 0.076112 0.00047303
0.989822 0.0850385 0.00222782
0.991943 0.0943618 0.00450141
0.993729 0.103822 0.00715648
0.995041 0.112123 0.00978103
0.99617 0.119768 0.0124208
0 0.144839 0
0 0.148028 0
0 0.150561 0
0 0.152804 0
0 0.152728 0
0 0.150088 0
0.00352483 0.147005 0
0.0236362 0.143832 0
0.0664073 0.139666 7.62951e-05
0.118975 0.132525 0.000442512
0.180255 0.125216 7.62951e-05
0.269139 0.113771 0
0.374044 0.0995041 0
0.482536 0.0843519 0
0.586694 0.071046 0
0.67895 0.0610208 0
0.753887 0.0560616 0
0.810742 0.0567788 0
0.856718 0.0613718 0
0.896773 0.0686961 0
0.932906 0.0780041 1.5259e-05
0.964752 0.0879835 0.0011902
0.985626 0.0968643 0.00378424
0.994339 0.104097 0.00616464
0.996201 0.111025 0.00825513
0.99675 0.119219 0.0110323
0.997299 0.128298 0.0140688
0.997864 0.137484 0.0170596
0.998337 0.147433 0.0204013
0.998749 0.157275 0.0237888
0.999161 0.167971 0.0274815
0.99942 0.176959 0.0306554
0.999634 0.185168 0.0331884
0 0.187518 0
0 0.192111 0
0 0.196201 0
0 0.198932 0
0 0.199359 0
0 0.196719 0
0.000671397 0.193469 0
0.0123751 0.191318 0
0.0451057 0.189319 1.5259e-05
0.101869 0.183886 6.10361e-05
0.17174 0.173495 1.5259e-05
0.255528 0.164034 0
0.35671 0.153384 0
0.471275 0.142 0
0.585748 0.130449 0
0.689448 0.121355 0
0.775006 0.117403 1.5259e-05
0.839338 0.119493 0.000106813
0.8907 0.12578 0.000610361
0.934371 0.134951 0.00607309
0.969741 0.145068 0.0137636
0.989883 0.155077 0.0204623
0.997574 0.162432 0.0243992
0.999603 0.168811 0.026688
0.999954 0.175891 0.0287938
1 0.184558 0.0314794
1 0.193805 0.0343023
1 0.203769 0.0372625
1 0.214115 0.0402075
1 0.224948 0.0429847
1 0.236774 0.0455024
1 0.246265 0.047425
1 0.254444 0.0488594
0 0.241459 0
0 0.247501 0
0 0.252842 0
0 0.257237 0
0 0.258915 0
0 0.256764 0
4.57771e-05 0.253956 0
0.00500496 0.251652 0
0.0244602 0.252018 0
0.0745251 0.250492 0
0.152438 0.240955 0
0.243336 0.229297 0
0.343893 0.219455 0
0.453117 0.21091 0
0.56968 0.202869 0
0.683513 0.19585 3.0518e-05
0.780026 0.192432 0.00062562
0.853239 0.195789 0.00436408
0.910094 0.201984 0.0115206
0.957412 0.210498 0.0215
0.988602 0.220386 0.0321508
0.998672 0.22916 0.0402533
1 0.234928 0.0438697
1 0.240833 0.0455024
1 0.247333 0.0469062
1 0.255665 0.0486152
1 0.264988 0.050309
1 0.275257 0.0518959
1 0.286549 0.0535439
1 0.298573 0.0550546
1 0.310002 0.0561685
1 0.320012 0.057084
1 0.328984 0.0578622
0 0.306508 0
0 0.314275 0
0 0.321065 0
0 0.327138 0
0 0.330098 0
0 0.328679 0
0 0.32549 0
0.00137331 0.323369 0
0.011017 0.325063 0
0.0487678 0.327718 0
0.127398 0.323232 0
0.227939 0.309682 0
0.333394 0.29662 0
0.438972 0.287648 0
0.54992 0.281971 0
0.665293 0.276936 0.000289921
0.770687 0.275303 0.00234989
0.851026 0.277531 0.00981155
0.912993 0.283452 0.0208743
0.964065 0.291691 0.0328527
0.993667 0.301091 0.0442206
1 0.309636 0.0525368
1 0.315404 0.0559701
1 0.320165 0.0569162
1 0.326284 0.0575875
1 0.334493 0.0584268
1 0.343801 0.0592203
1 0.354559 0.0599069
1 0.366308 0.0606241
1 0.377874 0.0612955
1 0.389822 0.0620127
1 0.400244 0.0626841
1 0.409552 0.0632792
0 0.381979 0
0 0.391379 0
0 0.399878 0
0 0.40734 0
0 0.411017 0
0 0.409873 0
0 0.406607 0
0.000183108 0.404349 0
0.004654 0.405966 0
0.0315862 0.41207 0
0.10367 0.411887 0
0.207507 0.399695 0
0.321691 0.382879 0
0.430869 0.370077 0
0.535851 0.363195 0
0.645014 0.359884 0.000350958
0.749935 0.357931 0.00285344
0.836118 0.360906 0.0121462
0.903639 0.367117 0.0240024
0.958389 0.375708 0.0365606
0.992432 0.386648 0.0486
0.999878 0.395926 0.0578164
1 0.401892 0.062089
1 0.406241 0.0631876
1 0.41239 0.0635233
1 0.420447 0.0639811
1 0.430762 0.0645609
1 0.440635 0.065095
1 0.451301 0.0656138
1 0.462501 0.0661479
1 0.474403 0.0667277
1 0.485328 0.0673686
1 0.495537 0.0679789
0 0.466209 0
0 0.476524 0
0 0.486839 0
0 0.494896 0
0 0.498955 0
0 0.497948 0
0 0.495033 0
0 0.492409 0
0.00250248 0.493385 0
0.0217441 0.499519 0
0.0840467 0.502373 0
0.182574 0.493523 0
0.303212 0.475593 0
0.422827 0.458076 0
0.529976 0.446799 0
0.631693 0.441169 0.000122072
0.729641 0.439536 0.00175479
0.816541 0.44329 0.0110018
0.887755 0.451133 0.0235599
0.946471 0.461845 0.0371099
0.987457 0.472984 0.0497902
0.998947 0.483543 0.0601663
1 0.491051 0.0660258
1 0.496361 0.0679942
1 0.502052 0.068452
1 0.510246 0.0688792
1 0.518837 0.0693217
1 0.528252 0.0697642
1 0.538323 0.0701305
1 0.548943 0.0704662
1 0.560861 0.0708171
1 0.571984 0.071107
1 0.581186 0.0713054
0 0.555856 0
0 0.567178 0
0 0.577096 0
0 0.585 0
0 0.588983 0
0 0.588815 0
0 0.585809 0
0 0.582696 0
0.00138857 0.581521 0
0.0138399 0.58732 0
0.0669108 0.591257 0
0.156374 0.586831 0
0.277058 0.571817 0
0.406851 0.550744 0
0.524376 0.533318 0
0.627024 0.52433 1.5259e-05
0.719493 0.521782 0.00109865
0.800824 0.525597 0.00943008
0.87126 0.534661 0.0220951
0.930816 0.545327 0.035996
0.976623 0.557458 0.0491035
0.996109 0.568963 0.0603037
0.999954 0.578119 0.0677043
1 0.585321 0.0708934
1 0.591302 0.0716106
1 0.597818 0.0716106
1 0.605509 0.0715038
1 0.614282 0.0713664
1 0.623789 0.0712291
1 0.634974 0.0710155
1 0.645716 0.0707866
1 0.655451 0.070573
1 0.663645 0.0702068
0 0.644709 0
0 0.655421 0
0 0.664607 0
0 0.672221 0
0 0.675883 0
0 0.676417 0
0 0.673777 0
0 0.669902 0
0.000793469 0.667414 0
0.00947585 0.672343 0
0.0569009 0.678019 0
0.137636 0.678035 4.57771e-05
0.250965 0.667353 7.62951e-05
0.384482 0.647593 4.57771e-05
0.514534 0.625742 0
0.625467 0.610452 1.5259e-05
0.718517 0.605463 0.000885023
0.793973 0.607904 0.00758373
0.857984 0.614908 0.0189364
0.913802 0.625132 0.0317388
0.961501 0.636515 0.0443732
0.990967 0.648127 0.0554055
0.999451 0.658671 0.0635996
1 0.666621 0.06804
1 0.672724 0.0693828
1 0.679225 0.0692302
1 0.686488 0.0688182
1 0.694881 0.0683299
1 0.703807 0.0677806
1 0.71284 0.0671855
1 0.721828 0.0664225
1 0.729671 0.0657359
1 0.736385 0.0651255
0 0.728099 0
0 0.738155 0
0 0.747448 0
0 0.755077 0
0 0.759716 0
0 0.759472 0
0 0.756863 0
0 0.753353 0
0.000946059 0.750423 0
0.0132143 0.755001 0
0.0606546 0.762005 3.0518e-05
0.134417 0.763745 0.000534066
0.23801 0.756939 0.000839246
0.366949 0.740612 0.000595102
0.503029 0.717968 0.000137331
0.624857 0.697612 0.000122072
0.722393 0.686595 0.000976577
0.79527 0.685344 0.00743114
0.854398 0.689845 0.0172122
0.904158 0.697917 0.0279088
0.94786 0.707271 0.0385748
0.981384 0.717815 0.0481575
0.996689 0.727428 0.0558022
1 0.736004 0.0609293
1 0.743725 0.0633402
1 0.750347 0.0637675
1 0.757458 0.0632486
1 0.764538 0.0626383
1 0.771023 0.062089
1 0.778103 0.0614786
1 0.785229 0.0608835
1 0.791516 0.0603799
1 0.797177 0.0599069
0.000640879 0.807996 0.000549325
0.00148013 0.817319 0.00125124
0.00231937 0.8262 0.00196841
0.00300603 0.833722 0.002533
0.00308232 0.837629 0.00250248
0.00224308 0.83772 0.00157168
0.000961318 0.835355 0.000503548
7.62951e-05 0.83212 0
0.00192264 0.829648 9.15541e-05
0.0245518 0.832792 0.00154116
0.0753033 0.8392 0.00726329
0.144732 0.841627 0.0124514
0.239246 0.836683 0.0140078
0.36051 0.822782 0.0113222
0.497658 0.801816 0.00688182
0.625208 0.778332 0.00407416
0.728985 0.760937 0.00450141
0.802075 0.755245 0.0102693
0.857603 0.756497 0.0181582
0.9028 0.761425 0.0268101
0.941085 0.76849 0.0352636
0.97377 0.776165 0.0427863
0.994018 0.784253 0.049012
0.999939 0.792142 0.0537118
1 0.799146 0.0568399
1 0.80592 0.0583505
1 0.812146 0.0586404
1 0.817838 0.05832
1 0.823392 0.0579232
1 0.829252 0.0575113
1 0.835035 0.0570993
1 0.840589 0.0567025
1 0.844907 0.0563973
0.0134585 0.881621 0.0125124
0.0166934 0.89134 0.0156558
0.0195621 0.899565 0.0184634
0.0217136 0.905638 0.0205386
0.022858 0.909224 0.0216526
0.0225071 0.909133 0.0212558
0.0213321 0.907027 0.0201419
0.0204929 0.904479 0.019089
0.0220645 0.901366 0.0182193
0.0482948 0.90309 0.0221408
0.0976425 0.90808 0.0300755
0.163302 0.910094 0.0360266
0.250889 0.905425 0.0365759
0.365759 0.892454 0.0311589
0.497154 0.871107 0.0222629
0.627253 0.846754 0.0148775
0.736797 0.825513 0.0119173
0.8112 0.815106 0.0150912
0.86453 0.812818 0.0210422
0.906081 0.815198 0.0278935
0.939941 0.819501 0.0345159
0.969024 0.824872 0.0404364
0.989471 0.830747 0.0454108
0.998306 0.836744 0.0493324
1 0.843168 0.0521859
1 0.849042 0.0541085
1 0.854612 0.0552071
1 0.8598 0.0555123
1 0.864668 0.0552377
1 0.86949 0.054963
1 0.874342 0.0547036
1 0.878126 0.05449
1 0.880781 0.0543832
0.0388647 0.948775 0.0374304
0.0428626 0.957122 0.041413
0.0463111 0.963745 0.0448463
0.0487678 0.966857 0.0472725
0.049958 0.967926 0.0484627
0.0496071 0.966674 0.048127
0.0487373 0.965011 0.0472572
0.047837 0.962905 0.0459297
0.0493172 0.960876 0.0447852
0.0748302 0.962081 0.0484627
0.121965 0.964843 0.0551156
0.184756 0.966064 0.059617
0.267384 0.961334 0.0580758
0.375662 0.948119 0.0500191
0.502037 0.927047 0.0381933
0.631403 0.902296 0.0271305
0.742733 0.879072 0.0204471
0.820554 0.865248 0.0208591
0.872312 0.859815 0.0249027
0.910628 0.859693 0.0301213
0.941451 0.861906 0.0353094
0.96762 0.865354 0.0399939
0.987366 0.869383 0.0439612
0.997482 0.874067 0.0470893
1 0.878614 0.049485
1 0.88333 0.0513161
1 0.888151 0.0526436
1 0.892576 0.0534371
1 0.896757 0.0536202
1 0.900969 0.0535744
1 0.904418 0.0534829
1 0.907362 0.0533913
1 0.909285 0.0533455
0.0661936 0.989197 0.064622
0.0691844 0.992828 0.067628
0.0718242 0.995392 0.0702525
0.073579 0.995682 0.0719921
0.0744182 0.995346 0.0728313
0.0740215 0.9944 0.0724193
0.0729992 0.993393 0.0714122
0.0723125 0.99266 0.0702525
0.0740063 0.992126 0.0692302
0.0994125 0.992477 0.0720073
0.145403 0.993362 0.0769665
0.204715 0.993515 0.0792248
0.284947 0.99115 0.0755474
0.389075 0.984268 0.0654917
0.510628 0.970062 0.0515908
0.636255 0.947433 0.0380407
0.747753 0.923735 0.0287022
0.827222 0.907103 0.0263828
0.878737 0.899153 0.0287785
0.91516 0.89688 0.0327001
0.943862 0.897368 0.0367285
0.967895 0.899107 0.0404364
0.987091 0.9019 0.0436408
0.997314 0.904906 0.0461738
1 0.908354 0.0481422
1 0.91191 0.0497139
1 0.915526 0.0509957
1 0.919356 0.0519722
1 0.922835 0.0525673
1 0.926116 0.0527504
1 0.928878 0.0527962
1 0.931243 0.052781
1 0.93283 0.0527504
0.0869459 1 0.0852979
0.0889754 1 0.0872969
0.0906386 1 0.0889601
0.0918441 1 0.0901656
0.092134 1 0.0904402
0.091722 1 0.0900435
0.0909743 1 0.0892958
0.0906691 1 0.0885023
0.092607 1 0.0876631
0.12105 1 0.0902876
0.165866 1 0.0935988
0.224048 1 0.0939803
0.302876 0.999496 0.0883955
0.404746 0.997803 0.0766308
0.521904 0.992676 0.0614786
0.641688 0.980102 0.0466316
0.750149 0.960555 0.0355077
0.831174 0.942611 0.0310063
0.882628 0.932815 0.0320745
0.918425 0.92845 0.0349279
0.946242 0.927321 0.0381323
0.968978 0.927733 0.0411536
0.987518 0.929107 0.0437476
0.997497 0.931014 0.0458534
0.999985 0.933349 0.0475166
1 0.936034 0.0488594
1 0.938979 0.0499886
1 0.941787 0.0509499
1 0.944564 0.0516823
1 0.947219 0.052079
1 0.949432 0.0522927
1 0.951339 0.0523232
1 0.952697 0.0522927
0.0994125 1 0.097673
0.100389 1 0.0986496
0.101167 1 0.0994125
0.101549 1 0.0998093
0.101518 1 0.0997787
0.101244 1 0.0994888
0.100877 1 0.0991226
0.10135 1 0.0988174
0.106035 1 0.0988632
0.137804 1 0.101564
0.182574 1 0.104097
0.241611 1 0.10309
0.320821 1 0.0961166
0.420661 0.999969 0.0834211
0.532097 0.999298 0.0678111
0.645975 0.995895 0.0525063
0.751873 0.98674 0.040238
0.832975 0.972335 0.0342718
0.884367 0.961532 0.0344701
0.920562 0.955596 0.0365606
0.947875 0.952789 0.0391546
0.969787 0.951965 0.0416724
0.988067 0.952316 0.0439002
0.997635 0.953323 0.0457008
0.999893 0.95491 0.0471351
1 0.956893 0.0482948
1 0.958923 0.0492866
1 0.961135 0.0501564
1 0.963287 0.0509041
1 0.965286 0.0514534
1 0.967208 0.0517586
1 0.968627 0.0518044
1 0.969497 0.0517586
0.103502 1 0.101732
0.103609 1 0.101839
0.103593 1 0.101823
0.103593 1 0.101823
0.103593 1 0.101823
0.103609 1 0.101839
0.103624 1 0.101839
0.10518 1 0.102007
0.114794 1 0.102983
0.14995 1 0.106264
0.196139 1 0.108537
0.257069 1 0.106722
0.337499 1 0.0990463
0.43473 1 0.0861982
0.54165 0.999969 0.0707561
0.650492 0.999725 0.0555581
0.752987 0.998306 0.0428779
0.832288 0.991699 0.0364538
0.884489 0.984558 0.035874
0.921294 0.978836 0.0374304
0.948791 0.974975 0.0396582
0.970413 0.972992 0.041886
0.988266 0.972427 0.0438544
0.997589 0.972824 0.0454719
0.999771 0.973663 0.0467231
1 0.974884 0.0477455
1 0.976287 0.0486305
1 0.97792 0.049424
1 0.979492 0.0501411
1 0.981079 0.050721
1 0.982361 0.0510414
1 0.983383 0.0510719
1 0.984024 0.0510262
0.103609 1 0.101839
0.103609 1 0.101839
0.103609 1 0.101839
0.103609 1 0.101839
0.103609 1 0.101839
0.103609 1 0.101839
0.103639 1 0.101839
0.105989 1 0.102098
0.121431 1 0.103746
0.159731 1 0.107408
0.208103 1 0.10927
0.270176 1 0.106935
0.350347 1 0.0989395
0.446235 1 0.0860761
0.54992 1 0.0710765
0.654551 1 0.0563668
0.753491 0.999939 0.0439002
0.830121 0.998947 0.0375372
0.882933 0.997162 0.036286
0.920699 0.993912 0.0374762
0.948699 0.990829 0.0395209
0.970336 0.988922 0.0416114
0.988022 0.988098 0.0434577
0.99733 0.987991 0.0449531
0.999725 0.98822 0.0461128
1 0.98883 0.0470436
1 0.989609 0.0478676
1 0.990555 0.0486152
1 0.991547 0.0492866
1 0.992432 0.0498512
1 0.993179 0.0501259
1 0.993774 0.0501411
1 0.99411 0.0501106
0.103609 1 0.101839
0.103609 1 0.101839
0.103609 1 0.101839
0.103609 1 0.101839
0.103609 1 0.101839
0.103609 1 0.101839
0.103822 1 0.101854
0.107424 1 0.102235
0.129213 1 0.104555
0.169451 1 0.108034
0.218738 1 0.10927
0.281193 1 0.106233
0.361334 1 0.097673
0.456199 1 0.0847028
0.557137 1 0.0701762
0.658915 1 0.0559548
0.752712 1 0.0442512
0.826658 1 0.0379034
0.880156 0.999954 0.0361334
0.918746 0.99913 0.0370184
0.947326 0.998138 0.0389258
0.969207 0.997421 0.0409552
0.986618 0.997009 0.0427405
0.996735 0.996857 0.0441901
0.999847 0.996887 0.0453346
1 0.997024 0.0462348
1 0.997284 0.047013
1 0.997574 0.0477455
1 0.997864 0.0484016
1 0.998123 0.0489815
1 0.998337 0.0492256
1 0.998505 0.0492256
1 0.998611 0.0491951
0.103609 1 0.101839
0.103609 1 0.101839
0.103609 1 0.101839
0.103609 1 0.101839
0.103609 1 0.101839
0.103639 1 0.101839
0.104616 1 0.101946
0.110887 1 0.102602
0.138552 1 0.105486
