LUT color transfer/LUTs/83.cube
TITLE "Generate by Resolve"
LUT_3D_SIZE 33
0 3.0518e-05 0.00155642
0.00624094 1.5259e-05 0.000854505
0.0124971 0 0.000732433
0.0187686 0 0.00167849
0.0252995 0 0.00514229
0.0399634 0 0.00550851
0.0609293 6.10361e-05 0.00456245
0.086183 0.000106813 0.00320439
0.114397 7.62951e-05 0.00190738
0.146944 0 0.000747692
0.187304 0 0.000167849
0.237354 0 1.5259e-05
0.297383 0 0
0.363134 0 0
0.430884 0 0
0.500084 0 0
0.567926 0 0
0.628702 0 0
0.678904 0 0
0.721004 0 0
0.756741 0 0
0.787198 0 0
0.814145 0 0
0.838834 0 0
0.862058 0 0
0.882353 0 0
0.896193 0 0
0.905379 0 0
0.912001 0 0
0.918257 0 0
0.924514 0 0
0.93077 0 0
0.937026 0 0
0 0.00677501 0.0028687
0.00624094 0.00666819 0.00201419
0.0124971 0.00656138 0.00166323
0.0187991 0.00643931 0.002121
0.0255131 0.00633249 0.00440986
0.0402686 0.00627146 0.00508125
0.0615854 0.00630198 0.00459297
0.0874647 0.00634775 0.00350958
0.116564 0.00631724 0.00227359
0.150072 0.00624094 0.0010071
0.192111 0.00624094 0.000228885
0.244602 0.00624094 3.0518e-05
0.307027 0.00624094 0
0.375326 0.00624094 0
0.444297 0.00624094 0
0.513115 0.00624094 0
0.580438 0.00624094 0
0.640146 0.00624094 0
0.689403 0.00624094 0
0.73077 0.00624094 0
0.765286 0.00624094 0
0.795239 0.00624094 0
0.822156 0.00624094 0
0.846952 0.00624094 0
0.869841 0.00624094 0
0.888289 0.00624094 0
0.898589 0.00624094 0
0.905745 0.00624094 0
0.912016 0.00624094 0
0.918257 0.00624094 0
0.924514 0.00624094 0
0.930785 0.00624094 0
0.937102 0.00624094 0
3.0518e-05 0.0148013 0.00424201
0.00628672 0.0145876 0.00367742
0.0125429 0.0142824 0.00329595
0.0188449 0.0139162 0.00326543
0.0256962 0.0135042 0.00392157
0.0406348 0.0131228 0.004654
0.0625315 0.0129397 0.00456245
0.0888685 0.0127718 0.0037995
0.11873 0.0125887 0.00268559
0.153338 0.0124971 0.00131228
0.197742 0.0124971 0.000289921
0.253117 0.0124971 3.0518e-05
0.31812 0.0124971 0
0.386892 0.0124971 0
0.456916 0.0124971 0
0.526757 0.0124971 0
0.59321 0.0124971 0
0.651713 0.0124971 0
0.700298 0.0124971 0
0.740001 0.0124971 0
0.773709 0.0124971 0
0.80325 0.0124971 0
0.830091 0.0124971 0
0.854887 0.0124971 0
0.875654 0.0124971 0
0.890623 0.0124971 0
0.899443 0.0124971 0
0.90576 0.0124971 0
0.912016 0.0124971 0
0.918288 0.0124971 0
0.924697 0.0124971 0
0.931212 0.0124971 0
0.937545 0.0124971 0
0.000183108 0.025391 0.00482185
0.00645457 0.0252384 0.00482185
0.0127108 0.0248264 0.00469978
0.0190127 0.0242313 0.0043946
0.0258946 0.0233005 0.00357061
0.04094 0.0221714 0.00421149
0.0633707 0.0212406 0.00437934
0.0906996 0.0203403 0.00393683
0.121248 0.0195773 0.00302129
0.156634 0.0191653 0.00154116
0.202686 0.0188602 0.000289921
0.26096 0.0187686 3.0518e-05
0.327291 0.0187533 0
0.397513 0.0187533 0
0.468162 0.0187533 0
0.53872 0.0187533 0
0.605432 0.0187533 0
0.662684 0.0187533 0
0.709316 0.0187533 0
0.747814 0.0187533 0
0.780758 0.0187533 0
0.810147 0.0187533 0
0.837201 0.0187533 0
0.861128 0.0187533 0
0.879789 0.0187533 0
0.891905 0.0187533 0
0.899519 0.0187533 0
0.905776 0.0187533 0
0.912016 0.0187533 0
0.918288 0.0187533 0
0.924605 0.0187533 0
0.931044 0.0187533 0
0.937407 0.0187533 0
0.000717174 0.0428321 0.00213626
0.00698863 0.0433509 0.00222782
0.0132448 0.0435798 0.00231937
0.019501 0.0434272 0.00233463
0.0261234 0.0423133 0.00228885
0.0402228 0.0399481 0.00320439
0.0632639 0.0377203 0.00335698
0.0919356 0.0357214 0.00294499
0.123857 0.0334936 0.00225834
0.160616 0.0305791 0.0010071
0.207263 0.0264134 0.000167849
0.266499 0.0252079 0
0.333639 0.0249943 0
0.403815 0.0249943 0
0.474815 0.0249943 0
0.546334 0.0249943 0
0.612451 0.0249943 0
0.66949 0.0249943 0
0.714809 0.0249943 0
0.752697 0.0249943 0
0.78555 0.0249943 0
0.815015 0.0249943 0
0.841764 0.0249943 0
0.865812 0.0249943 0
0.883421 0.0249943 0
0.89276 0.0249943 0
0.899535 0.0249943 0
0.905928 0.0249943 0
0.912734 0.0249943 0
0.919631 0.0249943 0
0.926482 0.0249943 0
0.93341 0.0249943 0
0.940322 0.0249943 0
0.000442512 0.0640269 0.00244144
0.00668345 0.0647898 0.00267033
0.0129091 0.0654307 0.0027924
0.0191501 0.065507 0.00271611
0.0255741 0.0645457 0.00233463
0.0375982 0.0620432 0.00192264
0.0611124 0.0590372 0.00234989
0.0915694 0.0560769 0.00241093
0.125689 0.0532235 0.00140383
0.165393 0.0488441 0.000350958
0.214893 0.0422065 6.10361e-05
0.275853 0.035874 0
0.342611 0.0323033 0
0.412482 0.0312505 0
0.483528 0.0312505 0
0.553857 0.0312505 0
0.619287 0.0312505 0
0.67538 0.0312505 0
0.720104 0.0312505 0
0.757977 0.0312505 0
0.790722 0.0312505 0
0.819974 0.0312505 0
0.846998 0.0312505 0
0.871275 0.0312505 0
0.888304 0.0312505 0
0.896284 0.0312505 0
0.903273 0.0312505 0
0.910323 0.0312505 0
0.917876 0.0312505 0
0.925612 0.0312505 0
0.933349 0.0312505 0
0.941207 0.0312505 0
0.948913 0.0318608 0
0.00015259 0.0869764 0.00173953
0.00637827 0.0882582 0.00183108
0.0126192 0.0889754 0.00180056
0.0188602 0.089189 0.00161746
0.0251621 0.088365 0.00115969
0.0343328 0.0860456 0.000686656
0.0570382 0.0829175 0.00105287
0.0886397 0.0795911 0.00167849
0.124483 0.0759136 0.00167849
0.166506 0.0713512 0.000427253
0.221744 0.0632639 6.10361e-05
0.287846 0.0530098 0
0.35758 0.0443275 0
0.428229 0.0391699 0
0.498039 0.0374914 0
0.567041 0.0374914 0
0.630823 0.0374914 0
0.684794 0.0374914 0
0.728939 0.0374914 0
0.766522 0.0374914 0
0.799252 0.0375067 0
0.828977 0.0375982 0
0.856687 0.0379034 0
0.880827 0.0383917 0
0.897154 0.0390326 0
0.905089 0.0396582 0
0.913115 0.0403754 0
0.92134 0.0411536 0
0.929717 0.0419165 0
0.938338 0.042771 0
0.947051 0.0437171 0
0.955673 0.044419 0
0.963973 0.0464637 0
1.5259e-05 0.112047 0.000579843
0.0062562 0.113481 0.000549325
0.0124971 0.114595 0.000442512
0.0187533 0.115053 0.000289921
0.0249943 0.114382 4.57771e-05
0.0319677 0.112154 0
0.0520027 0.109422 0.000137331
0.0830243 0.105943 0.000839246
0.120531 0.101762 0.00170901
0.163287 0.097261 0.00103761
0.222477 0.0892348 0.00015259
0.296376 0.0774548 0
0.37229 0.0649424 0
0.447196 0.054902 0
0.519356 0.0489509 0
0.5879 0.0464637 0
0.649821 0.0455329 0
0.701778 0.0454414 0
0.744625 0.0456092 0
0.781643 0.0459297 0
0.814786 0.0468147 0
0.845441 0.0481117 0
0.874235 0.0499275 0
0.897337 0.0518959 0
0.911849 0.0539864 0
0.920439 0.0563973 0
0.929122 0.059556 0
0.937942 0.0631723 3.0518e-05
0.947051 0.0677806 0.000137331
0.956252 0.0728771 0.000213626
0.965652 0.0791943 0.000228885
0.97499 0.0856641 0.000213626
0.983856 0.0910506 0.00015259
0 0.13994 0
0.00624094 0.141726 0
0.0124971 0.143282 0
0.0187533 0.144213 0
0.0249943 0.143923 0
0.0312505 0.141756 0
0.0465705 0.139254 0
0.0746624 0.13611 0.000198367
0.114046 0.131991 0.000701915
0.157229 0.127016 0.00140383
0.215641 0.120607 0.000198367
0.294667 0.109117 0
0.379553 0.0961471 0
0.463539 0.0835279 0
0.542641 0.0725414 0
0.614649 0.0645151 0
0.67628 0.0610666 0
0.726284 0.0606088 0
0.768215 0.0613413 0
0.805112 0.0627909 0
0.838926 0.0672313 0
0.870787 0.073579 3.0518e-05
0.89897 0.0804608 6.10361e-05
0.919158 0.0863813 0
0.93138 0.0919966 0
0.940276 0.0975814 0
0.949371 0.1037 3.0518e-05
0.958679 0.110887 0.000381476
0.966857 0.118029 0.00178531
0.974792 0.125475 0.00360113
0.982483 0.133059 0.00572213
0.989792 0.139696 0.00782788
0.996948 0.145815 0.00993362
0 0.172122 0
0.00624094 0.17467 0
0.0124971 0.176699 0
0.0187533 0.178485 0
0.0249943 0.178439 0
0.0312505 0.176318 0
0.0403296 0.173846 0
0.0626535 0.171313 0
0.103136 0.167987 6.10361e-05
0.151431 0.162264 0.000350958
0.206699 0.15642 6.10361e-05
0.284062 0.147265 0
0.374228 0.135851 0
0.467277 0.12372 0
0.556848 0.113085 0
0.636912 0.105058 0
0.703105 0.101091 0
0.754849 0.101671 0
0.797864 0.105348 0
0.836164 0.111208 0
0.871321 0.118654 1.5259e-05
0.903044 0.126635 0.000946059
0.926009 0.13373 0.00303655
0.939223 0.139528 0.00492866
0.94696 0.145068 0.00660716
0.953658 0.151629 0.00881971
0.960342 0.158892 0.0112459
0.967041 0.166232 0.0136416
0.973663 0.174197 0.0163272
0.98024 0.182071 0.019028
0.986816 0.190631 0.021973
0.993286 0.197818 0.0245212
0.99971 0.204379 0.0265507
0 0.212512 0
0.00624094 0.21619 0
0.0124971 0.219455 0
0.0187533 0.221637 0
0.0249943 0.221988 0
0.0312505 0.219867 0
0.0380407 0.217273 0
0.0536507 0.215549 0
0.0860914 0.213962 1.5259e-05
0.137743 0.209613 4.57771e-05
0.199893 0.201297 1.5259e-05
0.273167 0.193729 0
0.360372 0.185199 0
0.458274 0.176104 0
0.5561 0.166857 0
0.645304 0.159579 0
0.719997 0.15642 1.5259e-05
0.777722 0.158099 9.15541e-05
0.825055 0.163119 0.000488289
0.866255 0.170459 0.00486763
0.900801 0.178546 0.0110018
0.923156 0.186572 0.0163577
0.935561 0.192447 0.0195163
0.943435 0.197543 0.0213474
0.949966 0.20322 0.0230259
0.956252 0.210132 0.0251774
0.962493 0.217548 0.027451
0.96875 0.225513 0.0298161
0.975006 0.233783 0.032166
0.981247 0.242451 0.0343938
0.987503 0.251911 0.0363928
0.993744 0.25951 0.0379492
1 0.266041 0.0390936
0 0.261921 0
0.00624094 0.266743 0
0.0124971 0.271015 0
0.0187533 0.27454 0
0.0249943 0.275883 0
0.0312505 0.274159 0
0.0375372 0.271916 0
0.0477607 0.270069 0
0.0695659 0.270375 0
0.115862 0.269139 0
0.184451 0.261509 0
0.263416 0.252186 0
0.350103 0.244312 0
0.443732 0.237476 0
0.543236 0.231052 0
0.640558 0.225437 3.0518e-05
0.724025 0.22269 0.000503548
0.788846 0.225376 0.00349432
0.840574 0.230335 0.00921645
0.884688 0.23714 0.0171969
0.915892 0.24506 0.0257267
0.93019 0.252079 0.0322118
0.937499 0.256703 0.0350958
0.943755 0.261402 0.036408
0.949996 0.266606 0.0375219
0.956252 0.273274 0.0388952
0.962493 0.280735 0.040238
0.96875 0.28896 0.0415045
0.975006 0.297993 0.0428321
0.981247 0.307607 0.0440528
0.987503 0.316747 0.0449378
0.993744 0.324758 0.0456703
1 0.33193 0.0462959
0 0.320211 0
0.00624094 0.326421 0
0.0124971 0.331853 0
0.0187533 0.336721 0
0.0249943 0.339071 0
0.0312505 0.337942 0
0.0374914 0.335393 0
0.0448463 0.3337 0
0.0588083 0.335042 0
0.0952621 0.337163 0
0.164416 0.333593 0
0.251102 0.322744 0
0.341711 0.312306 0
0.432425 0.305119 0
0.527443 0.300572 0
0.625986 0.296544 0.000228885
0.716548 0.295247 0.00187686
0.787076 0.297032 0.00784314
0.842893 0.301762 0.0166934
0.889998 0.308354 0.0262913
0.919936 0.315862 0.0353704
0.931243 0.322713 0.0420386
0.937499 0.327321 0.04477
0.943755 0.331136 0.0455329
0.949996 0.336019 0.046067
0.956252 0.342596 0.0467384
0.962493 0.350042 0.0473793
0.96875 0.358648 0.0479286
0.975006 0.368048 0.0484932
0.981247 0.377295 0.0490425
0.987503 0.386862 0.0496071
0.993744 0.395193 0.0501411
1 0.40264 0.0506294
0 0.386831 0
0.00624094 0.394354 0
0.0124971 0.40116 0
0.0187533 0.407111 0
0.0249943 0.410056 0
0.0312505 0.40914 0
0.0374914 0.406531 0
0.0439002 0.40473 0
0.053727 0.406027 0
0.0815137 0.41091 0
0.145434 0.410758 0
0.234745 0.400992 0
0.332341 0.387549 0
0.42594 0.37731 0
0.516182 0.371801 0
0.609766 0.369146 0.000274662
0.699947 0.36759 0.00227359
0.775143 0.36997 0.00972
0.835401 0.374945 0.0191958
0.885451 0.381811 0.0292515
0.918944 0.39057 0.03888
0.931151 0.397986 0.0462501
0.937499 0.402762 0.0496681
0.943755 0.406241 0.0505379
0.949996 0.411154 0.0508278
0.956252 0.417609 0.0511788
0.962493 0.425849 0.0516518
0.96875 0.433753 0.052079
0.975006 0.442298 0.052491
0.981247 0.45124 0.0529183
0.987503 0.460777 0.0533913
0.993744 0.46952 0.0538949
1 0.477668 0.0543832
0 0.460472 0
0.00624094 0.468711 0
0.0124971 0.476967 0
0.0187533 0.483406 0
0.0249943 0.486656 0
0.0312505 0.485863 0
0.0374914 0.483528 0
0.0437476 0.481422 0
0.0520027 0.4822 0
0.07364 0.487114 0
0.129732 0.489403 0
0.214817 0.482322 0
0.317571 0.467979 0
0.419516 0.453956 0
0.511482 0.444938 0
0.5991 0.440436 9.15541e-05
0.683711 0.439124 0.00140383
0.759487 0.44213 0.00880446
0.822705 0.448402 0.0188449
0.875914 0.456977 0.0296941
0.914961 0.465888 0.0398413
0.930404 0.474327 0.0481422
0.937499 0.480339 0.0528115
0.943755 0.484596 0.0543984
0.949996 0.489143 0.0547646
0.956252 0.495689 0.0551003
0.962493 0.502571 0.0554513
0.96875 0.510109 0.0558175
0.975006 0.518151 0.0561074
0.981247 0.52665 0.0563668
0.987503 0.536187 0.0566567
0.993744 0.545083 0.0568856
1 0.552453 0.0570535
0 0.53843 0
0.00624094 0.547494 0
0.0124971 0.555428 0
0.0187533 0.561746 0
0.0249943 0.564935 0
0.0312505 0.564813 0
0.0374914 0.562402 0
0.0437476 0.559915 0
0.0511025 0.558968 0
0.0673228 0.563592 0
0.11603 0.566766 0
0.193835 0.56321 0
0.296635 0.551202 0
0.406729 0.53434 0
0.506996 0.520409 0
0.595361 0.513207 1.5259e-05
0.675593 0.511177 0.000885023
0.746914 0.514229 0.00753796
0.809506 0.521477 0.0176699
0.863401 0.530007 0.0287938
0.906294 0.539712 0.039292
0.92813 0.548913 0.048249
0.937469 0.556252 0.0541543
0.943755 0.562005 0.0567178
0.949996 0.566781 0.0572976
0.956252 0.572 0.0572976
0.962493 0.578164 0.0571908
0.96875 0.585184 0.0570993
0.975006 0.592782 0.0569772
0.981247 0.601724 0.0568093
0.987503 0.610315 0.0566262
0.993744 0.618112 0.0564584
1 0.624659 0.0561685
0 0.615763 0
0.00624094 0.624338 0
0.0124971 0.631678 0
0.0187533 0.637766 0
0.0249943 0.640711 0
0.0312505 0.641138 0
0.0374914 0.639017 0
0.0437476 0.63592 0
0.0506294 0.633936 0
0.0638285 0.637873 0
0.108019 0.64242 0
0.178851 0.64242 3.0518e-05
0.275776 0.633875 6.10361e-05
0.38883 0.618082 3.0518e-05
0.499123 0.600595 0
0.594125 0.588357 0
0.6748 0.584375 0.000701915
0.741421 0.586328 0.00607309
0.798886 0.591928 0.0151522
0.84979 0.600107 0.025391
0.894209 0.609216 0.0355077
0.924025 0.618494 0.0443275
0.937057 0.626932 0.0508736
0.943755 0.633295 0.0544289
0.949996 0.638178 0.0554971
0.956252 0.643381 0.0553902
0.962493 0.64918 0.0550546
0.96875 0.655894 0.0546578
0.975006 0.66305 0.0542306
0.981247 0.670268 0.0537575
0.987503 0.677455 0.0531319
0.993744 0.683726 0.0525826
1 0.689113 0.0521096
0 0.688731 0
0.00624094 0.696773 0
0.0124971 0.704204 0
0.0187533 0.710307 0
0.0249943 0.714031 0
0.0312505 0.713832 0
0.0374914 0.711742 0
0.0437476 0.708934 0
0.0507668 0.706584 0
0.0668193 0.710246 0
0.111025 0.715846 3.0518e-05
0.176272 0.717235 0.000427253
0.2654 0.711803 0.000671397
0.374807 0.698726 0.000488289
0.489921 0.680629 0.000122072
0.593637 0.664332 9.15541e-05
0.677913 0.655528 0.00077821
0.742473 0.654521 0.00595102
0.796017 0.658122 0.0137636
0.842084 0.664576 0.0223239
0.883284 0.672068 0.0308537
0.916365 0.680491 0.038529
0.934844 0.688182 0.0446479
0.943755 0.695048 0.0487526
0.949996 0.701228 0.0506752
0.956252 0.706523 0.0510109
0.962493 0.712215 0.0505989
0.96875 0.717876 0.0501106
0.975006 0.723064 0.0496681
0.981247 0.728725 0.0491798
0.987503 0.734432 0.0487068
0.993744 0.739467 0.0482948
1 0.743984 0.0479286
0.000518807 0.758892 0.000427253
0.00743114 0.766354 0.0010071
0.0143587 0.773449 0.00157168
0.021149 0.779477 0.00202945
0.0274662 0.782589 0.00199893
0.033051 0.782681 0.0012665
0.0382696 0.780774 0.000411994
0.0438087 0.778195 0
0.0515297 0.776226 7.62951e-05
0.0758984 0.778744 0.00123598
0.122744 0.783856 0.00581369
0.184543 0.785809 0.00996414
0.266392 0.781842 0.0112001
0.36965 0.770733 0.00906386
0.485634 0.753948 0.00549325
0.593927 0.735164 0.00326543
0.683177 0.721248 0.00360113
0.747906 0.716701 0.00820935
0.798581 0.717693 0.0145266
0.840986 0.721645 0.0214542
0.877867 0.727291 0.0282139
0.910262 0.733425 0.0342412
0.932708 0.73991 0.0392004
0.943709 0.746212 0.0429694
0.949996 0.751812 0.0454719
0.956252 0.757229 0.0466773
0.962493 0.762219 0.0469062
0.96875 0.766781 0.0466621
0.975006 0.771206 0.0463417
0.981247 0.775891 0.0460059
0.987503 0.780529 0.0456703
0.993744 0.78497 0.0453651
1 0.788418 0.0451209
0.0107576 0.824048 0.0100099
0.0195926 0.831815 0.0125277
0.0281529 0.838407 0.0147707
0.0361181 0.843259 0.016434
0.0432898 0.846128 0.017319
0.0492561 0.846052 0.0169985
0.0545663 0.844373 0.0161135
0.0601511 0.842329 0.0152743
0.0676585 0.839841 0.0145724
0.0948806 0.841215 0.0177157
0.140612 0.845212 0.0240635
0.19939 0.84683 0.028809
0.275715 0.843076 0.0292668
0.373861 0.8327 0.0249332
0.485222 0.815641 0.0178073
0.59556 0.796155 0.011902
0.689433 0.779156 0.00953689
0.755215 0.77084 0.0120699
0.80412 0.768994 0.0168307
0.843626 0.770901 0.0223087
0.876951 0.77435 0.0276188
0.906462 0.778637 0.0323491
0.929076 0.783352 0.0363317
0.942397 0.788144 0.0394598
0.949996 0.793286 0.0417487
0.956252 0.797971 0.0432898
0.962493 0.802441 0.0441596
0.96875 0.806592 0.044419
0.975006 0.810483 0.0441901
0.981247 0.814343 0.0439765
0.987503 0.818219 0.0437629
0.993744 0.821241 0.043595
1 0.823377 0.0435035
0.0310979 0.884016 0.0299382
0.0405432 0.890684 0.0331273
0.049546 0.895994 0.035874
0.0577554 0.898482 0.0378271
0.0649577 0.899336 0.0387732
0.0709392 0.898329 0.0384985
0.0764935 0.897017 0.0378119
0.0820172 0.895323 0.0367437
0.0894484 0.893706 0.0358282
0.116121 0.894667 0.0387579
0.160067 0.896864 0.0440986
0.216556 0.897856 0.0476997
0.288899 0.894057 0.0464637
0.381781 0.883497 0.0400092
0.489128 0.866636 0.0305638
0.598871 0.84683 0.0216983
0.694179 0.82826 0.0163577
0.762692 0.817197 0.0166934
0.810346 0.812848 0.019913
0.847242 0.812757 0.024094
0.878157 0.814527 0.0282444
0.905348 0.817288 0.0319982
0.927398 0.820508 0.035172
0.941726 0.824247 0.0376745
0.949996 0.827893 0.0395972
0.956252 0.831662 0.0410468
0.962493 0.835508 0.0421149
0.96875 0.839063 0.0427558
0.975006 0.842405 0.0428931
0.981247 0.845762 0.0428626
0.987503 0.848524 0.0427863
0.993744 0.850889 0.04271
1 0.85243 0.0426642
0.0529488 0.922606 0.0516976
0.0616007 0.925505 0.0540932
0.0699626 0.927565 0.056199
0.0776074 0.927794 0.0575875
0.084535 0.92752 0.0582589
0.0904555 0.926772 0.0579385
0.0958877 0.925963 0.0571298
0.101595 0.925368 0.056199
0.109209 0.924956 0.0553902
0.135775 0.925231 0.0576028
0.17882 0.925948 0.0615702
0.232517 0.92607 0.063386
0.302953 0.924178 0.060441
0.392508 0.918654 0.0523842
0.495995 0.907301 0.0412757
0.602747 0.889189 0.0304265
0.698207 0.870237 0.0229648
0.768032 0.856931 0.0211032
0.815488 0.850568 0.0230259
0.850874 0.848753 0.026154
0.880095 0.849149 0.0293889
0.905562 0.850523 0.0323491
0.927169 0.852766 0.0349126
0.941604 0.855177 0.0369421
0.949996 0.857939 0.0385138
0.956252 0.860777 0.0397803
0.962493 0.863676 0.0407874
0.96875 0.866728 0.0415808
0.975006 0.86952 0.0420539
0.981247 0.872145 0.0422065
0.987503 0.874357 0.042237
0.993744 0.876234 0.0422217
1 0.877501 0.0421912
0.0695659 0.937499 0.0682383
0.0774243 0.937499 0.0698405
0.085008 0.937499 0.0711681
0.0922255 0.937499 0.0721294
0.0987106 0.937499 0.0723583
0.104631 0.937499 0.0720226
0.110277 0.937499 0.0714275
0.116289 0.937499 0.0708019
0.124086 0.937499 0.0701305
0.153094 0.937499 0.072221
0.195193 0.937499 0.074876
0.24799 0.937499 0.0751812
0.317296 0.937102 0.0707256
0.405051 0.935744 0.0612955
0.505028 0.93164 0.0491798
0.607095 0.921584 0.0373083
0.700114 0.905943 0.028397
0.771191 0.8916 0.0247959
0.818601 0.883741 0.0256657
0.853483 0.880262 0.0279393
0.882002 0.879347 0.0305028
0.906432 0.879683 0.0329137
0.92752 0.880781 0.0350042
0.941756 0.882307 0.0366827
0.949996 0.884184 0.0380255
0.956252 0.88632 0.0390936
0.962493 0.888685 0.0399939
0.96875 0.890929 0.0407568
0.975006 0.893156 0.0413519
0.981247 0.895262 0.0416724
0.987503 0.897047 0.0418402
0.993744 0.898573 0.0418555
1 0.899657 0.041825
0.07953 0.943755 0.0781415
0.0865492 0.943755 0.0789197
0.093431 0.943755 0.07953
0.0999924 0.943755 0.0798352
0.106218 0.943755 0.0798199
0.112245 0.943755 0.0795911
0.118196 0.943755 0.0793011
0.124834 0.943755 0.079057
0.134829 0.943755 0.0790875
0.166491 0.943755 0.0812543
0.20856 0.943755 0.0832837
0.262043 0.943755 0.082475
0.331655 0.943755 0.0768902
0.417777 0.943725 0.066743
0.513176 0.943191 0.0542458
0.610529 0.940475 0.0420081
0.701503 0.933135 0.0321965
0.772625 0.921614 0.0274205
0.819989 0.912978 0.0275731
0.855207 0.908217 0.0292515
0.883299 0.905974 0.0313268
0.907073 0.905318 0.033341
0.927947 0.905608 0.0351263
0.941848 0.906401 0.0365606
0.94992 0.907668 0.037705
0.956252 0.90927 0.0386358
0.962493 0.910887 0.0394293
0.96875 0.912657 0.0401312
0.975006 0.914382 0.0407111
0.981247 0.915984 0.0411688
0.987503 0.91751 0.041413
0.993744 0.918654 0.0414435
1 0.919341 0.041413
0.0828107 0.949996 0.0813916
0.089128 0.949996 0.0814679
0.0953689 0.949996 0.0814679
0.101625 0.949996 0.0814527
0.107881 0.949996 0.0814679
0.114137 0.949996 0.0814679
0.120394 0.949996 0.0814679
0.127886 0.949996 0.0816052
0.141833 0.949996 0.0823987
0.176211 0.949996 0.085008
0.219409 0.949996 0.0868238
0.274403 0.949996 0.0853742
0.344991 0.949996 0.0792401
0.429023 0.949996 0.0689555
0.520821 0.949981 0.0565957
0.614145 0.949783 0.0444495
0.702388 0.948638 0.0343023
0.772076 0.943358 0.02916
0.820096 0.937636 0.0287022
0.855787 0.933059 0.0299382
0.884031 0.929976 0.0317235
0.907576 0.928389 0.0335088
0.928115 0.927947 0.0350805
0.941817 0.928252 0.0363775
0.949813 0.928939 0.0373846
0.956252 0.9299 0.0381933
0.962493 0.931029 0.0389105
0.96875 0.932326 0.0395361
0.975006 0.933593 0.0401007
0.981247 0.934859 0.0405737
0.987503 0.935882 0.0408331
0.993744 0.936706 0.0408484
1 0.937224 0.0408179
0.082887 0.956252 0.0814679
0.089128 0.956252 0.0814679
0.0953841 0.956252 0.0814679
0.10164 0.956252 0.0814679
0.107881 0.956252 0.0814679
0.114137 0.956252 0.0814679
0.120409 0.956252 0.0814679
0.128542 0.956252 0.0816663
0.147143 0.956252 0.0829938
0.184039 0.956252 0.0859236
0.228977 0.956252 0.0874189
0.284901 0.956252 0.0855421
0.355276 0.956252 0.0791485
0.438239 0.956252 0.068864
0.527428 0.956252 0.0568551
0.617395 0.956252 0.0450904
0.7028 0.956191 0.0351263
0.770336 0.955413 0.0300298
0.818845 0.953979 0.0290379
0.855314 0.951385 0.029984
0.883955 0.948913 0.0316167
0.907515 0.947387 0.0332799
0.927916 0.946731 0.0347601
0.941604 0.946639 0.0359655
0.949783 0.946838 0.0368963
0.956252 0.947311 0.037644
0.962493 0.947936 0.0383001
0.96875 0.948684 0.03888
0.975006 0.949477 0.0394293
0.981247 0.950195 0.0398871
0.987503 0.95079 0.0401007
0.993744 0.951263 0.040116
1 0.951537 0.0400854
0.082887 0.962493 0.0814679
0.089128 0.962493 0.0814679
0.0953841 0.962493 0.0814679
0.10164 0.962493 0.0814679
0.107881 0.962493 0.0814679
0.114137 0.962493 0.0814679
0.120546 0.962493 0.0814832
0.129686 0.962493 0.0817884
0.153368 0.962493 0.08365
0.191806 0.962493 0.0864271
0.237491 0.962493 0.0874189
0.293706 0.962493 0.0849775
0.364065 0.962493 0.0781415
0.446204 0.962493 0.0677653
0.533211 0.962493 0.0561379
0.62089 0.962493 0.0447547
0.702174 0.962493 0.0354009
0.767575 0.962493 0.0303197
0.816632 0.962463 0.0289006
0.853742 0.961807 0.0296178
0.882856 0.961013 0.0311437
0.906615 0.960433 0.0327611
0.926802 0.960113 0.0341955
0.941146 0.959991 0.0353552
0.949874 0.960006 0.0362707
0.956252 0.960113 0.0369879
0.962493 0.960327 0.0376135
0.96875 0.960571 0.0381933
0.975006 0.960784 0.0387274
0.981247 0.960998 0.0391852
0.987503 0.961166 0.0393835
0.993744 0.961303 0.0393835
1 0.961395 0.039353
0.082887 0.96875 0.0814679
0.089128 0.96875 0.0814679
0.0953841 0.96875 0.0814679
0.10164 0.96875 0.0814679
0.107881 0.96875 0.0814679
0.114153 0.96875 0.0814679
0.121187 0.96875 0.0815595
0.132464 0.96875 0.0820783
0.160845 0.96875 0.0843824
