LUT color transfer/LUTs/83.cube
TITLE "Generate by Resolve"
LUT_3D_SIZE 5
0 3.0518e-05 0.00155642
0.114397 7.62951e-05 0.00190738
0.567926 0 0
0.862058 0 0
0.937026 0 0
0 0.13994 0
0.114046 0.131991 0.000701915
0.67628 0.0610666 0
0.93138 0.0919966 0
0.996948 0.145815 0.00993362
0 0.615763 0
0.0506294 0.633936 0
0.6748 0.584375 0.000701915
0.949996 0.638178 0.0554971
1 0.689113 0.0521096
0.0828107 0.949996 0.0813916
0.141833 0.949996 0.0823987
0.702388 0.948638 0.0343023
0.949813 0.928939 0.0373846
1 0.937224 0.0408179
0.082887 1 0.0814679
0.18938 1 0.0869306
0.714763 1 0.0340734
0.948531 1 0.0348211
1 1 0.0379492
0 0.00694286 0.0934768
0.0985885 0 0.173892
0.568719 0 0.0654307
0.866041 0 0.0513313
0.940032 0 0.061738
0 0.156008 0.0717174
0.0933242 0.147005 0.113802
0.648508 0.0788281 0.102983
0.945495 0.118288 0.143633
0.999542 0.176669 0.206729
0 0.630121 0.0500343
0.0514992 0.649134 0.0568856
0.684703 0.612406 0.132891
0.949996 0.64863 0.123125
1 0.698466 0.134554
0.0853895 0.949996 0.165423
0.145495 0.949996 0.167452
0.680629 0.949416 0.0928054
0.947204 0.930892 0.145876
1 0.936828 0.159152
0.0923476 1 0.205631
0.181521 1 0.202411
0.675853 1 0.0966354
0.938186 1 0.0966049
1 1 0.12607
0 0.0369573 0.304402
0.0500038 0.000396735 0.55642
0.537392 0 0.551705
0.853834 0 0.496132
0.932158 0 0.541558
0 0.232212 0.158495
0.0500038 0.240131 0.198215
0.640558 0.0699779 0.627085
0.945235 0.116136 0.674388
0.999573 0.175341 0.74522
0 0.684092 0.101991
0.0509346 0.703059 0.11693
0.639307 0.626154 0.613275
0.948409 0.660929 0.662638
1 0.707195 0.708919
0.140673 0.949996 0.218051
0.195315 0.949996 0.223072
0.573419 0.948699 0.580835
0.899535 0.914229 0.580423
0.993286 0.914473 0.636088
0.136446 1 0.211383
0.213794 1 0.236561
0.55172 1 0.59147
0.869917 1 0.472694
0.980255 1 0.505714
0 0.0584421 0.566949
0.0500038 0.0158846 0.779034
0.407172 0 0.883864
0.856565 0 0.8327
0.937133 0 0.854032
0 0.332631 0.229099
0.0500038 0.323598 0.432593
0.540475 0.10927 0.923812
0.949142 0.132006 0.943023
0.999985 0.194614 0.94992
0 0.751568 0.388739
0.0500038 0.781567 0.293645
0.323445 0.755108 0.73138
0.947005 0.666804 0.944213
1 0.70988 0.94876
0.0582437 0.949996 0.304448
0.113298 0.949996 0.306416
0.509667 0.949981 0.666941
0.854765 0.910597 0.864866
0.966232 0.90663 0.904173
0.0522316 1 0.310414
0.1187 1 0.321279
0.513222 1 0.604257
0.829313 1 0.833631
0.935744 0.99971 0.881514
0 0.0754253 0.714443
0.0500038 0.036286 0.886778
0.296254 0 0.958495
0.867597 0 0.937041
0.940032 0 0.941451
0 0.398795 0.323217
0.0500038 0.381338 0.569619
0.459403 0.158816 0.994827
0.949737 0.153826 0.999786
1 0.21529 1
0 0.806577 0.529946
0.0500038 0.837964 0.380911
0.233051 0.818448 0.794507
0.938048 0.686046 1
1 0.718929 1
0.0516976 0.949996 0.360906
0.103105 0.949996 0.366384
0.424063 0.949996 0.771679
0.765484 0.944472 0.903532
0.896254 0.931167 0.962737
0.0517433 1 0.360876
0.115297 1 0.373922
0.437888 1 0.706935
0.788968 1 0.887877
0.924392 1 0.941527
