LUT color transfer/LUTs/83.cube
TITLE "Generate by Resolve"
LUT_3D_SIZE 9
0 3.0518e-05 0.00155642
0.0252995 0 0.00514229
0.114397 7.62951e-05 0.00190738
0.297383 0 0
0.567926 0 0
0.756741 0 0
0.862058 0 0
0.912001 0 0
0.937026 0 0
0.000717174 0.0428321 0.00213626
0.0261234 0.0423133 0.00228885
0.123857 0.0334936 0.00225834
0.333639 0.0249943 0
0.612451 0.0249943 0
0.78555 0.0249943 0
0.883421 0.0249943 0
0.912734 0.0249943 0
0.940322 0.0249943 0
0 0.13994 0
0.0249943 0.143923 0
0.114046 0.131991 0.000701915
0.379553 0.0961471 0
0.67628 0.0610666 0
0.838926 0.0672313 0
0.93138 0.0919966 0
0.966857 0.118029 0.00178531
0.996948 0.145815 0.00993362
0 0.320211 0
0.0249943 0.339071 0
0.0588083 0.335042 0
0.341711 0.312306 0
0.716548 0.295247 0.00187686
0.919936 0.315862 0.0353704
0.949996 0.336019 0.046067
0.975006 0.368048 0.0484932
1 0.40264 0.0506294
0 0.615763 0
0.0249943 0.640711 0
0.0506294 0.633936 0
0.275776 0.633875 6.10361e-05
0.6748 0.584375 0.000701915
0.894209 0.609216 0.0355077
0.949996 0.638178 0.0554971
0.975006 0.66305 0.0542306
1 0.689113 0.0521096
0.0310979 0.884016 0.0299382
0.0649577 0.899336 0.0387732
0.0894484 0.893706 0.0358282
0.288899 0.894057 0.0464637
0.694179 0.82826 0.0163577
0.878157 0.814527 0.0282444
0.949996 0.827893 0.0395972
0.975006 0.842405 0.0428931
1 0.85243 0.0426642
0.0828107 0.949996 0.0813916
0.107881 0.949996 0.0814679
0.141833 0.949996 0.0823987
0.344991 0.949996 0.0792401
0.702388 0.948638 0.0343023
0.884031 0.929976 0.0317235
0.949813 0.928939 0.0373846
0.975006 0.933593 0.0401007
1 0.937224 0.0408179
0.082887 0.975006 0.0814679
0.107881 0.975006 0.0814679
0.169284 0.975006 0.0851911
0.382696 0.975006 0.0756847
0.699428 0.975006 0.0357519
0.877256 0.975006 0.0302739
0.949676 0.975006 0.0351415
0.975006 0.975006 0.0376745
1 0.975006 0.0383001
0.082887 1 0.0814679
0.107881 1 0.0814679
0.18938 1 0.0869306
0.415656 1 0.0711833
0.714763 1 0.0340734
0.876356 1 0.0302129
0.948531 1 0.0348211
0.975006 1 0.0373541
1 1 0.0379492
0 0.000213626 0.0365911
0.0250858 9.15541e-05 0.0527657
0.11458 0.000106813 0.0563363
0.299153 0 0.0291295
0.571649 0 0.0249943
0.759213 0 0.0249943
0.864729 0 0.0249943
0.912413 0 0.0249943
0.937835 0 0.0249943
0 0.0480964 0.0530556
0.0250553 0.0504463 0.0422065
0.121492 0.0349279 0.0589303
0.334279 0.0249943 0.0309606
0.616114 0.0249943 0.0249943
0.788464 0.0249943 0.0249943
0.885908 0.0249943 0.0249943
0.91458 0.0249943 0.0249943
0.94255 0.0249943 0.0249943
0.00125124 0.141634 0.0331273
0.0260624 0.1458 0.0340124
0.114458 0.135882 0.0454108
0.372213 0.102571 0.0264439
0.659464 0.0696422 0.0249943
0.834867 0.0775464 0.025391
0.937819 0.105959 0.0347906
0.972274 0.134707 0.0550546
0.999023 0.163714 0.0777295
0 0.326223 0.0249943
0.0249943 0.345663 0.0249943
0.0598459 0.342947 0.0249943
0.352239 0.323995 0.0325475
0.728084 0.303349 0.0281834
0.919661 0.326116 0.0613107
0.949996 0.350423 0.0733654
0.975006 0.384634 0.076463
1 0.419547 0.0831769
0 0.624628 0.0249943
0.0249943 0.648661 0.0249943
0.0509499 0.642939 0.0249943
0.28571 0.643519 0.0250858
0.68452 0.596414 0.0345159
0.901457 0.61944 0.0626383
0.949996 0.645426 0.0801099
0.975006 0.670237 0.0787518
1 0.69456 0.0766155
0.0343938 0.890761 0.0582284
0.0675517 0.902754 0.0663462
0.0937514 0.898985 0.0636301
0.299153 0.898009 0.0728313
0.69958 0.833799 0.0427863
0.879606 0.819654 0.0597086
0.949996 0.831998 0.0665293
0.975006 0.845518 0.0681315
1 0.854551 0.0679484
0.0828717 0.949996 0.106447
0.107881 0.949996 0.106493
0.143862 0.949996 0.107515
0.347433 0.949996 0.104036
0.698421 0.949325 0.0598917
0.882261 0.932204 0.0568551
0.949584 0.930312 0.0642405
0.975006 0.934386 0.0672313
1 0.937499 0.0677348
0.082887 0.975006 0.106584
0.107927 0.975006 0.107271
0.169039 0.975006 0.110201
0.378195 0.975006 0.101274
0.690135 0.975006 0.0618143
0.871641 0.975006 0.0549172
0.948608 0.975006 0.0598154
0.975006 0.975006 0.0625467
1 0.975006 0.0633097
0.083238 1 0.113268
0.10808 1 0.111025
0.186816 1 0.111772
0.406317 1 0.0974746
0.702922 1 0.0603189
0.86952 1 0.0547799
0.946838 1 0.0594034
0.975006 1 0.0620279
1 1 0.0626688
0 0.00694286 0.0934768
0.0249943 0.00326543 0.118364
0.0985885 0 0.173892
0.295003 0 0.122515
0.568719 0 0.0654307
0.758953 0 0.0508888
0.866041 0 0.0513313
0.914717 0 0.0549172
0.940032 0 0.061738
0 0.064622 0.0989853
0.0249943 0.06981 0.0874342
0.100313 0.0373541 0.175296
0.333074 0.0249943 0.132372
0.615946 0.0249943 0.078996
0.790249 0.0249943 0.0644541
0.888457 0.0249943 0.0738537
0.917357 0.0249943 0.0878157
0.945464 0.0250248 0.106828
0 0.156008 0.0717174
0.0249943 0.161471 0.0683909
0.0933242 0.147005 0.113802
0.344503 0.112932 0.137438
0.648508 0.0788281 0.102983
0.837797 0.08748 0.111833
0.945495 0.118288 0.143633
0.974273 0.147387 0.17496
0.999542 0.176669 0.206729
0 0.333425 0.0500038
0.0249943 0.354772 0.0500038
0.0644999 0.351751 0.0731823
0.348791 0.340291 0.131441
0.720867 0.315709 0.110948
0.908095 0.340261 0.144411
0.949996 0.377966 0.174228
0.975006 0.415183 0.193194
1 0.45095 0.209552
0 0.630121 0.0500343
0.0249943 0.655207 0.0540627
0.0514992 0.649134 0.0568856
0.280522 0.652781 0.0786908
0.684703 0.612406 0.132891
0.90692 0.625971 0.117876
0.949996 0.64863 0.123125
0.975006 0.674006 0.127459
1 0.698466 0.134554
0.0376898 0.893492 0.108431
0.0714885 0.904707 0.123812
0.0975357 0.901869 0.118288
0.296651 0.899794 0.118578
0.690257 0.840253 0.0933852
0.873549 0.824857 0.150027
0.949294 0.835386 0.147463
0.975006 0.847562 0.142092
1 0.855985 0.147295
0.0853895 0.949996 0.165423
0.11104 0.949996 0.170809
0.145495 0.949996 0.167452
0.337591 0.949996 0.149584
0.680629 0.949416 0.0928054
0.872297 0.934188 0.113817
0.947204 0.930892 0.145876
0.975006 0.934112 0.154955
1 0.936828 0.159152
0.0891127 0.975006 0.190555
0.114122 0.975006 0.190784
0.166155 0.975006 0.187366
0.358282 0.975006 0.155962
0.666743 0.975006 0.0964981
0.858259 0.975006 0.0839704
0.942657 0.975006 0.112856
0.975006 0.975006 0.133501
1 0.975006 0.138766
0.0923476 1 0.205631
0.116533 1 0.202625
0.181521 1 0.202411
0.379767 1 0.162264
0.675853 1 0.0966354
0.853666 1 0.0817121
0.938186 1 0.0966049
0.975006 1 0.119661
1 1 0.12607
0 0.022446 0.176516
0.0249943 0.0132143 0.221057
0.0533303 0 0.386267
0.274174 0 0.352728
0.556741 0 0.259983
0.752956 0 0.211643
0.86331 0 0.209476
0.914229 0 0.226276
0.938659 0 0.25127
0 0.0915084 0.142748
0.0249943 0.0924849 0.164889
0.0537881 0.0537423 0.348669
0.313451 0.0249943 0.381018
0.606775 0.0249943 0.301915
0.784695 0.0249943 0.278401
0.885283 0.0249943 0.2925
0.913863 0.0249943 0.318959
0.941451 0.0249943 0.351644
0 0.181491 0.153017
0.0249943 0.196506 0.114534
0.0504158 0.19118 0.123796
0.323552 0.109041 0.384543
0.645029 0.0752728 0.334676
0.83743 0.0869612 0.34287
0.945785 0.11931 0.384894
0.97438 0.147448 0.428351
0.999588 0.176959 0.472175
0 0.367514 0.0765545
0.0249943 0.390982 0.0760357
0.0544289 0.384649 0.0966506
0.311955 0.356832 0.325628
0.675242 0.330282 0.354849
0.884932 0.350607 0.377234
0.949996 0.392569 0.418647
0.975006 0.429206 0.452308
1 0.464195 0.484443
7.62951e-05 0.644022 0.0755932
0.0261692 0.670008 0.0767987
0.0612039 0.663432 0.0868238
0.270848 0.660929 0.281865
0.672267 0.62089 0.330983
0.901503 0.632273 0.300969
0.949996 0.658991 0.326543
0.975006 0.684611 0.354574
1 0.705379 0.375036
0.0634012 0.900679 0.187091
0.0982986 0.909972 0.193973
0.122484 0.906172 0.195178
0.286992 0.901747 0.300526
0.652232 0.84976 0.252003
0.855467 0.822538 0.345083
0.943114 0.831708 0.32781
0.975006 0.843122 0.313664
1 0.850553 0.324163
0.106142 0.949996 0.248844
0.133181 0.949996 0.247791
0.162264 0.949996 0.256886
0.316518 0.949996 0.331136
0.62678 0.949554 0.254108
0.846922 0.934997 0.244816
0.92903 0.925093 0.327169
0.974395 0.926238 0.355581
1 0.928222 0.365209
0.11516 0.975006 0.240909
0.140246 0.975006 0.240558
0.176669 0.975006 0.271336
0.327626 0.975006 0.348394
0.605341 0.975006 0.260502
0.826261 0.975006 0.207691
0.920821 0.975006 0.240635
0.972778 0.97496 0.295766
1 0.974914 0.317342
0.122011 1 0.230777
0.145327 1 0.233326
0.190326 1 0.288853
0.34313 1 0.365316
0.609506 1 0.266835
0.817975 1 0.203677
0.912871 1 0.206821
0.970275 1 0.248127
1 1 0.273243
0 0.0369573 0.304402
0.0249943 0.0256352 0.375387
0.0500038 0.000396735 0.55642
0.17406 0 0.673915
0.537392 0 0.551705
0.740139 0 0.498619
0.853834 0 0.496132
0.907683 0 0.514351
0.932158 0 0.541558
0 0.117205 0.229648
0.0249943 0.114168 0.291447
0.0500038 0.0726177 0.512947
0.202289 0.0256199 0.689723
0.594675 0.0249943 0.591089
0.776013 0.0249943 0.568673
0.878874 0.0249943 0.582467
0.90808 0.0249943 0.603998
0.936431 0.0249943 0.630808
0 0.232212 0.158495
0.0249943 0.251011 0.131533
0.0500038 0.240131 0.198215
0.185092 0.139727 0.657725
0.640558 0.0699779 0.627085
0.834775 0.0821546 0.634928
0.945235 0.116136 0.674388
0.974258 0.144701 0.710765
0.999573 0.175341 0.74522
0 0.411658 0.180743
0.0249943 0.442863 0.152255
0.0500038 0.445319 0.113588
0.125704 0.436774 0.342016
0.671183 0.326635 0.654093
0.883711 0.347356 0.671839
0.949996 0.389822 0.710582
0.975006 0.427741 0.740368
1 0.463127 0.76463
0 0.684092 0.101991
0.0252537 0.709773 0.105135
0.0509346 0.703059 0.11693
0.239948 0.690425 0.337057
0.639307 0.626154 0.613275
0.860761 0.632197 0.630564
0.948409 0.660929 0.662638
0.975006 0.68867 0.691142
1 0.707195 0.708919
0.0884871 0.910719 0.168109
0.120256 0.918395 0.175051
0.144717 0.914946 0.175296
0.326772 0.900664 0.35346
0.603571 0.845273 0.575296
0.82948 0.81503 0.605402
0.925521 0.821225 0.590753
0.97467 0.830625 0.591791
1 0.837385 0.605676
0.140673 0.949996 0.218051
0.166705 0.949996 0.216358
0.195315 0.949996 0.223072
0.337621 0.949996 0.43125
0.573419 0.948699 0.580835
0.80029 0.927779 0.524071
0.899535 0.914229 0.580423
0.953902 0.912917 0.625086
0.993286 0.914473 0.636088
0.140093 0.975006 0.212833
0.165637 0.975006 0.212436
0.203754 0.975006 0.227665
0.346059 0.975006 0.435325
0.551934 0.975006 0.588144
0.770047 0.975006 0.514748
0.883024 0.974609 0.496757
0.945418 0.97293 0.540276
0.986343 0.972045 0.577432
0.136446 1 0.211383
0.162829 1 0.211368
0.213794 1 0.236561
0.360388 1 0.444312
0.55172 1 0.59147
0.756313 1 0.509606
0.869917 1 0.472694
0.936324 1 0.481193
0.980255 1 0.505714
0 0.0485695 0.454154
0.0249943 0.0373693 0.52874
0.0500038 0.00564584 0.692302
0.0889906 0 0.821729
0.488167 0 0.768933
0.73434 0 0.717983
0.850904 0 0.721675
0.906691 0 0.734768
0.932235 0 0.749508
0 0.140566 0.35494
0.0249943 0.135576 0.44062
0.0500038 0.0923934 0.657343
0.101854 0.0345312 0.826078
0.562325 0.0249943 0.779995
0.776974 0.0249943 0.755383
0.881071 0.0249943 0.768536
0.910567 0.0249943 0.779889
0.93991 0.0250248 0.794766
0 0.28777 0.183062
0.0249943 0.30724 0.179446
0.0500038 0.285863 0.323308
0.0896315 0.18883 0.750927
0.609232 0.0785534 0.818845
0.842054 0.0859846 0.816632
0.947204 0.120638 0.848402
0.974487 0.151339 0.873381
0.999771 0.182498 0.8972
0 0.47274 0.256901
0.0249943 0.510628 0.201373
0.0500038 0.519799 0.138018
0.075227 0.504128 0.309728
0.589258 0.357183 0.851392
0.892271 0.352056 0.863722
0.949996 0.394934 0.8934
0.975006 0.435126 0.908537
1 0.470726 0.918456
0 0.72195 0.238773
0.0249943 0.748257 0.236912
0.0500038 0.74377 0.219806
0.131884 0.74342 0.389685
0.463935 0.692897 0.704921
0.857877 0.632929 0.833448
0.946502 0.660166 0.853712
0.975006 0.688029 0.867369
1 0.706172 0.873396
0.0319219 0.921813 0.231342
0.0615244 0.924941 0.238239
0.0877089 0.923247 0.237156
0.257267 0.920012 0.40209
0.575753 0.858824 0.649668
0.803006 0.814191 0.796582
0.898161 0.816281 0.810925
0.954925 0.825864 0.822644
0.990967 0.833097 0.830961
0.106233 0.949996 0.245945
0.129671 0.949996 0.246937
0.160922 0.949996 0.248524
0.334997 0.949996 0.36553
0.601282 0.947951 0.60502
0.767422 0.918273 0.781079
0.870207 0.90779 0.788037
0.932982 0.906142 0.806363
0.976349 0.907301 0.813794
0.0950179 0.975006 0.253056
0.120882 0.975006 0.252506
0.160571 0.975006 0.255695
0.338582 0.975006 0.365011
0.586175 0.975006 0.593271
0.739223 0.974823 0.774853
0.844572 0.971359 0.772671
0.913603 0.968093 0.769863
0.963287 0.966094 0.778683
0.0854047 1 0.259327
0.11368 1 0.25713
0.164431 1 0.266072
0.344411 1 0.374441
0.581003 1 0.586664
0.723033 1 0.767208
0.827146 1 0.762615
0.898009 1 0.753979
0.949767 0.999741 0.753658
0 0.0584421 0.566949
0.0249943 0.0478676 0.643061
0.0500038 0.0158846 0.779034
0.0749981 0 0.889326
0.407172 0 0.883864
0.733196 0 0.828336
0.856565 0 0.8327
0.911284 0 0.843626
0.937133 0 0.854032
0 0.161425 0.460685
0.0249943 0.156252 0.550439
0.0500038 0.111879 0.750042
0.0789349 0.0509651 0.892058
0.499641 0.0249943 0.880598
0.781353 0.0249943 0.854749
0.887114 0.0249943 0.866438
0.916152 0.0249943 0.875578
0.945953 0.0253452 0.887587
0 0.332631 0.229099
0.0249943 0.351522 0.244633
0.0500038 0.323598 0.432593
0.0767681 0.229526 0.801038
0.540475 0.10927 0.923812
0.853971 0.0983597 0.918395
0.949142 0.132006 0.943023
0.974807 0.163363 0.94934
0.999985 0.194614 0.94992
0 0.530831 0.278721
0.0249943 0.567025 0.225818
0.0500038 0.574395 0.179675
0.0749981 0.55285 0.329351
0.465446 0.412467 0.933516
0.901289 0.366461 0.949248
0.949996 0.408438 0.949996
0.975006 0.448646 0.949996
1 0.483177 0.949996
0 0.751568 0.388739
0.0249943 0.779355 0.364431
0.0500038 0.781567 0.293645
0.0972915 0.786068 0.350118
0.323445 0.755108 0.73138
0.844083 0.646082 0.933852
0.947005 0.666804 0.944213
0.975006 0.693065 0.948775
1 0.70988 0.94876
0.00144961 0.924483 0.325139
0.0289464 0.925002 0.325887
0.0541848 0.925002 0.322255
0.194842 0.923949 0.535103
0.456947 0.897505 0.740887
0.715557 0.846983 0.832624
0.882719 0.819852 0.910185
0.94905 0.825864 0.918196
0.986114 0.832425 0.922988
0.0582437 0.949996 0.304448
0.0821698 0.949996 0.305196
0.113298 0.949996 0.306416
0.255177 0.949996 0.453361
0.509667 0.949981 0.666941
0.743008 0.929595 0.804471
0.854765 0.910597 0.864866
0.918746 0.906874 0.894682
0.966232 0.90663 0.904173
0.0529641 0.975006 0.309743
0.0792096 0.975006 0.308568
0.114 0.975006 0.312047
0.259464 0.975006 0.439307
0.521569 0.975006 0.611841
0.74638 0.97496 0.761578
0.845014 0.970031 0.846372
0.902296 0.966079 0.882414
0.94995 0.965072 0.8907
0.0522316 1 0.310414
0.0778363 1 0.309865
0.1187 1 0.321279
0.261646 1 0.45095
0.513222 1 0.604257
0.732921 1 0.742092
0.829313 1 0.833631
0.88716 1 0.87245
0.935744 0.99971 0.881514
0 0.0669108 0.647486
0.0249943 0.0573281 0.720653
0.0500038 0.0263828 0.838041
0.0749981 0.000320439 0.935256
0.343023 0 0.927413
0.728908 0 0.894743
0.863539 0 0.904723
0.914656 0 0.911742
0.939956 0 0.915343
0 0.17998 0.532967
0.0249943 0.174716 0.625513
0.0500038 0.129381 0.809293
0.0749981 0.0660105 0.935393
0.447807 0.0250095 0.915312
0.781521 0.0249943 0.901289
0.890547 0.0249943 0.917174
0.918563 0.0249943 0.919951
0.949142 0.026215 0.925521
0 0.366995 0.276585
0.0249943 0.385046 0.304677
0.0500038 0.354925 0.50988
0.0750591 0.262257 0.845304
0.489342 0.13608 0.962661
0.861143 0.111177 0.968154
0.949615 0.143603 0.974655
0.974929 0.174395 0.974975
1 0.205524 0.975006
0 0.573449 0.303029
0.0249943 0.606546 0.255528
0.0500038 0.612863 0.221988
0.0749981 0.588022 0.380133
0.389792 0.456657 0.968399
0.899825 0.384115 0.975006
0.949996 0.423697 0.975006
0.975006 0.462242 0.975006
1 0.494148 0.975006
0 0.779538 0.47718
0.0249943 0.806928 0.437049
0.0500038 0.813504 0.342443
0.0883497 0.816648 0.352773
0.262409 0.793149 0.763088
0.80296 0.670329 0.974411
0.944259 0.676509 0.975006
0.974975 0.699184 0.975006
1 0.714443 0.975006
0.0009308 0.925002 0.375525
0.0257725 0.925002 0.369284
0.0506447 0.925002 0.374792
0.172641 0.924987 0.603403
0.394156 0.920409 0.752483
0.6318 0.880201 0.852033
0.835126 0.83743 0.961242
0.933715 0.831174 0.974182
0.975723 0.835157 0.974868
0.0514687 0.949996 0.336004
0.075227 0.949996 0.336553
0.102525 0.949996 0.341756
0.229496 0.949996 0.518547
0.436362 0.949996 0.75555
0.675364 0.945632 0.864149
0.810651 0.92694 0.892226
0.881239 0.921065 0.919142
0.936294 0.915984 0.951171
0.0517433 0.975006 0.335882
0.0767376 0.975006 0.335882
0.108858 0.975006 0.34258
0.237598 0.975006 0.490974
0.454261 0.975006 0.687327
0.688487 0.975006 0.816129
0.817853 0.974487 0.874815
0.890043 0.971557 0.90605
0.942428 0.969116 0.926101
0.0517433 1 0.335882
0.0767376 1 0.335882
0.115114 1 0.34873
0.241276 1 0.49749
0.445197 1 0.678401
0.675044 1 0.79324
0.810101 1 0.851316
0.884657 1 0.887236
0.93724 1 0.91191
0 0.0754253 0.714443
0.0249943 0.0670634 0.782879
0.0500038 0.036286 0.886778
0.0749981 0.00141909 0.969772
0.296254 0 0.958495
0.723003 0 0.92108
0.867597 0 0.937041
0.915038 0 0.941451
0.940032 0 0.941451
0 0.198657 0.593774
0.0249943 0.193149 0.687785
0.0500038 0.147494 0.85594
0.0749981 0.080766 0.969192
0.405173 0.0251774 0.947066
0.779446 0.0249943 0.926375
0.891661 0.0249943 0.94313
0.919829 0.0249943 0.946227
0.952255 0.0271763 0.953628
0 0.398795 0.323217
0.0249943 0.413275 0.358068
0.0500038 0.381338 0.569619
0.0749981 0.289067 0.882475
0.459403 0.158816 0.994827
0.865721 0.122713 0.997162
0.949737 0.153826 0.999786
0.974975 0.185 1
1 0.21529 1
0 0.609735 0.331685
0.0249943 0.637125 0.28777
0.0500038 0.641367 0.262821
0.0749981 0.61445 0.435203
0.347494 0.488609 0.994293
0.89456 0.400549 1
0.949996 0.4365 1
0.975006 0.473777 1
1 0.503655 1
0 0.806577 0.529946
0.0249943 0.830701 0.479759
0.0500038 0.837964 0.380911
0.0852369 0.839124 0.374304
0.233051 0.818448 0.794507
0.761532 0.692866 0.999802
0.938048 0.686046 1
0.974716 0.705165 1
1 0.718929 1
0.00221256 0.925002 0.394842
0.0267185 0.925002 0.390066
0.0514534 0.925002 0.397574
0.167865 0.925002 0.620569
0.355367 0.924926 0.755001
0.567178 0.906401 0.875853
0.776959 0.859281 0.984833
0.907454 0.840665 0.999893
0.954787 0.841672 1
0.0516976 0.949996 0.360906
0.0755016 0.949996 0.361425
0.103105 0.949996 0.366384
0.230549 0.949996 0.540871
0.424063 0.949996 0.771679
0.631708 0.949996 0.881193
0.765484 0.944472 0.903532
0.839582 0.937041 0.935073
0.896254 0.931167 0.962737
0.0517433 0.975006 0.360876
0.0767376 0.975006 0.360876
0.10985 0.975006 0.368551
0.23772 0.975006 0.51693
0.447425 0.975006 0.71458
0.668986 0.975006 0.846372
0.796185 0.975006 0.901656
0.868605 0.975006 0.928008
0.919921 0.974929 0.944503
0.0517433 1 0.360876
0.0767376 1 0.360876
0.115297 1 0.373922
0.240681 1 0.522103
0.437888 1 0.706935
0.653727 1 0.830716
0.788968 1 0.887877
0.868299 1 0.920134
0.924392 1 0.941527
