LUT color transfer/LUTs/84.cube
TITLE "Generate by Resolve"
LUT_3D_SIZE 5
0.00704967 0.00906386 0.0197452
0.223224 0.00482185 0.00776684
0.887617 0 0
0.95082 0 0
0.992554 0 0
0 0.188937 0.0309453
0.190707 0.175372 0.00856031
0.886366 0.0616617 0
0.958083 0.0413214 0
1 0.0492409 0.00318914
0.0100557 0.602823 0.121111
0.0409552 0.660792 0.105028
0.671199 0.596704 0.0970779
0.959106 0.540322 0
1 0.584726 0.00415045
0 0.957473 0.0798505
0.0446326 0.961349 0.0818036
0.359716 0.960891 0.00148013
0.960327 0.953567 0.000900282
1 0.955322 0.00268559
0.00968948 1 0.0895399
0.0533455 1 0.0905165
0.369207 1 0.00700389
0.962982 0.993255 0.00355535
1 0.993255 0.00321965
0.00840772 0.00175479 0.23006
0.215717 0.00404364 0.203021
0.875334 0 0.0614786
0.950927 0 0.0341955
0.993057 0 0.0357366
0.00540169 0.179568 0.184543
0.181155 0.177478 0.156222
0.873503 0.0698711 0.0606851
0.959426 0.0426947 0.0426947
1 0.0528267 0.0504463
0.00492866 0.621256 0.154742
0.0423133 0.679667 0.140948
0.688365 0.609583 0.128542
0.960494 0.554208 0.0437781
1 0.596521 0.048127
0 0.958831 0.121935
0.0458228 0.96257 0.125673
0.37023 0.961807 0.0450599
0.960891 0.954131 0.0441596
1 0.955566 0.0456092
0.010132 1 0.132647
0.0534676 1 0.133303
0.355459 1 0.0495613
0.962737 0.993255 0.0459907
1 0.993255 0.0456092
0.00375372 0 0.901183
0.203937 0 0.898863
0.807935 0 0.761746
0.949874 0 0.645335
0.992447 0 0.654429
0 0.13286 0.891478
0.160494 0.138689 0.81561
0.819821 0.0621958 0.764569
0.959548 0.0428168 0.742
1 0.047364 0.791882
0.0654459 0.588724 0.648341
0.0819562 0.637491 0.699001
0.632654 0.611856 0.607004
0.884978 0.58262 0.584558
0.933211 0.615778 0.612512
0 0.958892 0.632334
0.0456855 0.962402 0.666819
0.520943 0.951232 0.616053
0.960052 0.945983 0.467796
1 0.946395 0.442634
0.00917067 1 0.69958
0.0522164 1 0.68983
0.482368 0.994186 0.585321
0.961181 0.990448 0.297795
1 0.99266 0.212528
0.00456245 0 0.956298
0.163058 0 0.95555
0.781643 0 0.951492
0.949264 0 0.949264
0.992279 0 0.951705
0 0.0988174 0.956527
0.13608 0.103258 0.958984
0.845792 0.0420996 0.958785
0.959976 0.0432288 0.959976
1 0.0476844 0.964401
0 0.598825 0.95552
0.0427253 0.642069 0.959472
0.625101 0.605676 0.908934
0.88777 0.579599 0.915892
0.93257 0.608911 0.926146
0 0.959152 0.959152
0.0457008 0.962448 0.962448
0.560861 0.941375 0.960372
0.951568 0.957168 0.909224
0.994446 0.950362 0.893385
0.00839246 1 0.967819
0.0511788 1 0.967895
0.511391 0.981933 0.961212
0.955657 0.997711 0.841779
0.999954 0.996139 0.819898
0.00456245 0 0.99675
0.156359 0 0.996094
0.773953 0 0.992309
0.94995 0 0.990524
0.993408 0 0.993408
0 0.0996872 0.997925
0.141421 0.108721 1
0.86331 0.0435798 1
0.961517 0.04477 1
1 0.0491951 1
0 0.609277 0.997604
0.0442664 0.654139 1
0.634897 0.615061 0.952087
0.890211 0.587411 0.955993
0.9337 0.614527 0.962463
0.00109865 0.960525 1
0.0467842 0.9635 1
0.558831 0.942672 1
0.942885 0.956283 1
0.984207 0.945998 1
0.00866712 1 1
0.051194 1 1
0.475166 0.989075 1
0.93785 1 1
0.98262 1 1
