LUT color transfer/LUTs/84.cube
TITLE "Generate by Resolve"
LUT_3D_SIZE 33
0.00704967 0.00906386 0.0197452
0.027863 0.00735485 0.0178073
0.0530861 0.00521859 0.0155795
0.0802777 0.00292973 0.0132753
0.107836 0.000900282 0.0110475
0.135821 6.10361e-05 0.00901808
0.164294 0.000122072 0.00743114
0.19324 0.00183108 0.00675975
0.223224 0.00482185 0.00776684
0.256855 0.00856031 0.0111391
0.297551 0.0123751 0.015259
0.347326 0.0153506 0.0186923
0.412924 0.0155489 0.0195163
0.515572 0.00793469 0.0122835
0.66154 0 0.00166323
0.806912 0 0
0.887617 0 0
0.90483 0 0
0.911971 0 0
0.91899 0 0
0.925856 0 0
0.932494 0 0
0.938872 0 0
0.944976 0 0
0.95082 0 0
0.956451 0 0
0.961837 0 0
0.967071 0 0
0.972198 0 0
0.977279 0 0
0.982315 0 0
0.987427 0 0
0.992554 0 0
0.0043946 0.0221866 0.018265
0.0235904 0.0204013 0.0158236
0.0479744 0.018143 0.013611
0.0749523 0.0155642 0.0115969
0.103059 0.0128939 0.00973526
0.131655 0.0108492 0.00805676
0.160922 0.00952163 0.00677501
0.190845 0.00944533 0.00637827
0.221286 0.0106813 0.00764477
0.254948 0.0129244 0.0110781
0.295583 0.0155489 0.0151522
0.345449 0.0178225 0.0186007
0.411231 0.0174868 0.0195468
0.514397 0.009308 0.0123445
0.661463 0.000762951 0.00167849
0.808438 0.000198367 0
0.888258 0 0
0.904997 0 0
0.912169 0 0
0.919203 0 0
0.926116 0 0
0.932815 0 0
0.939239 0 0
0.945418 0 0
0.951308 0 0
0.956985 0 0
0.962448 0 0
0.967742 0 0
0.972946 0 0
0.978073 0 0
0.9832 0 0
0.988388 0 0
0.993545 0 0
0.00205997 0.0404517 0.0166629
0.0169528 0.0388647 0.0139162
0.0403449 0.0361944 0.0111086
0.068101 0.0330358 0.00883497
0.0973678 0.0297551 0.00741588
0.126696 0.0266728 0.00631724
0.157046 0.0240482 0.00561532
0.188037 0.0220035 0.00584421
0.219272 0.0209659 0.00770581
0.252934 0.0209201 0.0113375
0.293019 0.021561 0.0152895
0.342123 0.0227359 0.0185092
0.407462 0.0225071 0.0195773
0.509071 0.0145724 0.0126345
0.654047 0.00575265 0.00189212
0.805325 0.00523384 0
0.888533 0.00469978 0
0.905303 0.00419623 0
0.912505 0.00370794 0
0.919631 0.00326543 0
0.926589 0.00289921 0
0.933318 0.00260929 0
0.939818 0.00241093 0
0.946044 0.00228885 0
0.952026 0.00228885 0
0.957763 0.00236515 0
0.963272 0.002533 0
0.968658 0.00276188 0
0.973938 0.0030518 0
0.979126 0.00335698 0
0.984298 0.0037232 0
0.989548 0.00408942 0
0.994797 0.00448615 0
0.000518807 0.0616159 0.0150301
0.0104677 0.0603189 0.0124514
0.0312657 0.0576791 0.00892653
0.0589151 0.0542 0.00601205
0.0901961 0.0502174 0.00457771
0.121111 0.046479 0.00416571
0.152605 0.0426947 0.00425727
0.185031 0.0391546 0.00534066
0.217868 0.0358282 0.00802625
0.251881 0.0329747 0.0121157
0.29102 0.0301976 0.0160525
0.339315 0.027924 0.018555
0.404257 0.0276188 0.0195621
0.504829 0.0198062 0.0127565
0.649027 0.0109255 0.00205997
0.802823 0.0104372 0
0.888945 0.0099794 0
0.90576 0.00952163 0
0.913024 0.00909438 0
0.920195 0.0087129 0
0.927214 0.00842298 0
0.934035 0.00817884 0
0.940597 0.00805676 0
0.946868 0.00799573 0
0.952926 0.00807202 0
0.95874 0.00822461 0
0.964324 0.00843824 0
0.969772 0.00872816 0
0.975097 0.00909438 0
0.980377 0.00949111 0
0.985641 0.0099031 0
0.990936 0.0103456 0
0.996262 0.0108034 0
0 0.0840925 0.0137026
0.00611887 0.0831159 0.0118105
0.0216526 0.0812695 0.00802625
0.0468299 0.0781262 0.00418097
0.0804456 0.0738537 0.0018616
0.11458 0.0691844 0.00204471
0.147631 0.0649882 0.00302129
0.181735 0.0605936 0.005066
0.21651 0.0559548 0.00859083
0.251835 0.0514839 0.0134127
0.291005 0.0471046 0.0180362
0.338628 0.0428016 0.0210422
0.401938 0.0387121 0.0215152
0.501122 0.0280919 0.0140536
0.645457 0.0172732 0.00271611
0.802213 0.0158999 0
0.891234 0.0154726 0
0.906325 0.0150912 0
0.91368 0.014725 0
0.920928 0.014435 0
0.928008 0.0141909 0
0.93489 0.0140078 0
0.941512 0.013962 0
0.947875 0.0139925 0
0.953979 0.0141146 0
0.959854 0.0143282 0
0.96553 0.0146181 0
0.971054 0.0149844 0
0.97644 0.0154269 0
0.981781 0.0158999 0
0.987106 0.0163882 0
0.992477 0.0168917 0
0.997879 0.0174105 0
0 0.107698 0.0142061
0.00469978 0.106844 0.0130159
0.0144503 0.105821 0.00970474
0.0335241 0.103883 0.00518807
0.0649119 0.100374 0.0010071
0.104601 0.0946822 0.000518807
0.1411 0.0896925 0.00218204
0.177462 0.0850385 0.0053254
0.214466 0.0802014 0.00955215
0.252018 0.0753643 0.0151217
0.292256 0.0704814 0.021088
0.339727 0.064683 0.0249332
0.400793 0.0574502 0.0254063
0.496101 0.0433356 0.0175784
0.640223 0.0270695 0.00415045
0.801221 0.0218967 0
0.895277 0.0212863 0
0.906981 0.0209506 0
0.914382 0.0206607 0
0.921706 0.0204166 0
0.928847 0.0202335 0
0.935805 0.0201724 0
0.942504 0.0201724 0
0.948928 0.020264 0
0.955123 0.0204623 0
0.961059 0.0207523 0
0.966796 0.0211185 0
0.972366 0.021561 0
0.977829 0.0220493 0
0.983246 0.0225528 0
0.988632 0.0230869 0
0.994034 0.0236515 0
0.999466 0.0242161 0
0 0.132753 0.0174868
0.00427253 0.132219 0.0168765
0.0108034 0.13164 0.0146487
0.0228428 0.130938 0.0105287
0.0458228 0.129183 0.00466926
0.0863508 0.124376 0.000823987
0.129564 0.118196 0.00112917
0.170672 0.112535 0.00491341
0.210803 0.107286 0.0104677
0.251255 0.102266 0.0170291
0.293416 0.0972 0.0244907
0.341146 0.0913863 0.0297856
0.400336 0.0834516 0.0310979
0.488441 0.0686198 0.0240177
0.626795 0.0453193 0.00686656
0.793286 0.0298924 0.000137331
0.899977 0.0273899 0
0.907622 0.0271153 0
0.915084 0.0269017 0
0.922484 0.0267338 0
0.929702 0.026627 0
0.936721 0.0266117 0
0.943481 0.026688 0
0.949996 0.0268559 0
0.956252 0.0271153 0
0.962249 0.0274662 0
0.968048 0.0279088 0
0.973663 0.028397 0
0.979171 0.0289006 0
0.984619 0.0294957 0
0.990036 0.0300755 0
0.995499 0.0306706 0.000366217
1 0.0312505 0.000946059
0 0.159625 0.0230716
0.0037995 0.159503 0.0228885
0.0090486 0.159426 0.0218204
0.0162814 0.159472 0.0191348
0.0293126 0.159365 0.0137636
0.062501 0.157702 0.00515755
0.109422 0.151751 0.00140383
0.158099 0.144762 0.00331121
0.203967 0.138506 0.0101015
0.248676 0.132753 0.0187228
0.293797 0.127489 0.0280461
0.342428 0.122164 0.0353552
0.40032 0.115145 0.0383307
0.47953 0.102739 0.0333104
0.604898 0.0785077 0.0139315
0.772213 0.0495308 0.000854505
0.89749 0.0346075 0
0.908186 0.0336614 0
0.915724 0.0335241 0
0.923186 0.0334173 0
0.93048 0.0333715 0
0.937575 0.0334173 0
0.944396 0.0335699 0
0.950942 0.0337835 0
0.957244 0.0341039 0
0.963302 0.0344854 0
0.969146 0.0349584 0
0.974807 0.0354925 0
0.980346 0.0360571 0
0.985824 0.0366369 0.000396735
0.991257 0.0372473 0.0010071
0.99675 0.0378576 0.0016022
1 0.0384985 0.00221256
0 0.188937 0.0309453
0.00318914 0.189303 0.0310063
0.00823987 0.189563 0.0306859
0.0137636 0.190143 0.0295567
0.0215763 0.190936 0.0260166
0.0450141 0.19176 0.0180362
0.083299 0.189578 0.00868238
0.135683 0.183169 0.00364691
0.190707 0.175372 0.00856031
0.242023 0.168383 0.0190433
0.292363 0.162325 0.0312505
0.343297 0.157198 0.0415656
0.400168 0.151293 0.0467689
0.471885 0.14226 0.0448463
0.579843 0.123903 0.027924
0.739773 0.0920577 0.00334173
0.886366 0.0616617 0
0.908675 0.0520333 0
0.916289 0.0464942 0
0.923781 0.0425879 0
0.931151 0.0405432 0
0.938277 0.0405432 0
0.945144 0.0407111 0
0.951736 0.0409857 0
0.958083 0.0413214 0
0.964157 0.0417639 0
0.970016 0.0422522 0
0.975708 0.0428168 0.000122072
0.981277 0.0434119 0.000701915
0.98677 0.0443427 0.00131228
0.992233 0.0457923 0.00195315
0.997696 0.0475319 0.00256352
1 0.0492409 0.00318914
0.000411994 0.221286 0.0413825
0.00291447 0.222263 0.0416724
0.0080415 0.223056 0.0418402
0.0132448 0.224033 0.0418708
0.0200656 0.225299 0.0402533
0.0359655 0.227237 0.0353399
0.0635538 0.228534 0.0265202
0.10663 0.226596 0.0157168
0.165591 0.219638 0.0110933
0.227985 0.210849 0.018616
0.286336 0.203449 0.0328985
0.342702 0.197436 0.0475319
0.400519 0.192416 0.056199
0.467094 0.186114 0.0578622
0.558419 0.173785 0.046128
0.700572 0.148852 0.0149538
0.859571 0.116732 0.000396735
0.90901 0.0974136 0
0.916671 0.0851911 0
0.924224 0.0749371 0
0.931609 0.0672618 0
0.938796 0.062501 0
0.945678 0.0587472 0
0.9523 0.0556802 0
0.958663 0.0542916 0
0.964767 0.055024 0
0.970626 0.05626 0.000198367
0.976349 0.0595102 0.000762951
0.981903 0.0646067 0.00134279
0.987411 0.0702678 0.00196841
0.992874 0.0763561 0.00257877
0.998337 0.0826429 0.00318914
1 0.0881208 0.0037995
0.0037232 0.257191 0.0545815
0.0056611 0.258701 0.0551461
0.0110323 0.260182 0.0556802
0.0164492 0.261784 0.0562448
0.0227512 0.263569 0.0563668
0.0343481 0.265858 0.0543832
0.0548257 0.268757 0.0490272
0.0864881 0.270985 0.0395209
0.134493 0.26949 0.0276951
0.201495 0.261936 0.0233158
0.272587 0.252399 0.034226
0.337682 0.244923 0.0516518
0.4 0.239521 0.0655985
0.464714 0.234958 0.0717784
0.542748 0.227695 0.0664225
0.659541 0.211292 0.0395209
0.822507 0.181582 0.00541695
0.90721 0.15816 0
0.916899 0.145403 0
0.924483 0.134157 0
0.931884 0.124422 0
0.939086 0.11664 0
0.945998 0.11075 0
0.952636 0.106676 0
0.959014 0.106661 0
0.965103 0.110582 3.0518e-05
0.970993 0.116091 0.000534066
0.976684 0.122087 0.00109865
0.982254 0.128405 0.00167849
0.987716 0.134676 0.00228885
0.993164 0.1411 0.00289921
0.998627 0.147295 0.00347906
1 0.152667 0.00407416
0.0125429 0.297337 0.0700694
0.0140841 0.299519 0.0709087
0.019913 0.301762 0.0717479
0.0258183 0.304173 0.0726787
0.0319829 0.306798 0.0736553
0.0401007 0.309346 0.0738689
0.0542153 0.31223 0.0719768
0.0789502 0.316335 0.0665141
0.115602 0.319661 0.0566262
0.170092 0.318288 0.0442969
0.246738 0.309926 0.0412451
0.325124 0.300328 0.0555734
0.395697 0.293751 0.0728466
0.463813 0.289311 0.0844434
0.534783 0.2851 0.0861677
0.63006 0.275547 0.0679179
0.780819 0.252674 0.0233158
0.896666 0.227619 0.00117494
0.916991 0.212665 0
0.924605 0.201755 0
0.932021 0.192386 0
0.939208 0.18471 0
0.946151 0.178988 0
0.952789 0.175143 0
0.959121 0.174731 0
0.965225 0.178286 0.000167849
0.971099 0.183856 0.000656138
0.976791 0.189685 0.0011902
0.982315 0.195804 0.00175479
0.987778 0.202136 0.00233463
0.99321 0.20853 0.00292973
0.998657 0.214847 0.00350958
1 0.2206 0.00411994
0.023743 0.342748 0.0870832
0.0247501 0.345663 0.0881514
0.0308232 0.348867 0.0893263
0.0369573 0.352132 0.090547
0.0432441 0.355886 0.0919051
0.0498817 0.359335 0.093019
0.0596323 0.362631 0.0932326
0.0786145 0.366659 0.0911421
0.109712 0.371603 0.085771
0.15285 0.374701 0.0758068
0.215839 0.372732 0.0640574
0.30161 0.363851 0.0643626
0.385016 0.354849 0.0794232
0.459831 0.349355 0.0938582
0.530861 0.345418 0.101518
0.613458 0.339864 0.0926986
0.739803 0.324926 0.0512551
0.873304 0.301396 0.00892653
0.916304 0.284138 7.62951e-05
0.924636 0.273152 0
0.932052 0.263752 0
0.939239 0.256306 0
0.946151 0.250477 0
0.952758 0.246265 0
0.959106 0.245136 0
0.965179 0.247837 9.15541e-05
0.971023 0.253223 0.000579843
0.976684 0.25893 0.00111391
0.982254 0.265415 0.00167849
0.987716 0.272007 0.00228885
0.993164 0.278874 0.00289921
0.998627 0.285817 0.00350958
1 0.291844 0.00411994
0.0344396 0.394278 0.105211
0.0351873 0.397971 0.106493
0.041062 0.402197 0.107805
0.0471046 0.406851 0.109255
0.0532998 0.411658 0.110719
0.059617 0.416236 0.112139
0.0670176 0.420264 0.113176
0.0804456 0.423758 0.112947
0.10692 0.42829 0.110613
0.145632 0.433005 0.105074
0.196918 0.435569 0.094789
0.272053 0.431525 0.0838941
0.366201 0.421256 0.0883955
0.452232 0.413245 0.1019
0.527138 0.408392 0.112047
0.6047 0.404028 0.110719
0.711177 0.394202 0.0768902
0.843885 0.376028 0.0242008
0.912566 0.35758 0.00131228
0.924605 0.345632 0
0.932006 0.336324 0
0.939193 0.328466 0
0.946075 0.322484 0
0.952667 0.318273 0
0.959014 0.316579 0
0.965087 0.318822 3.0518e-05
0.970947 0.324193 0.000518807
0.976638 0.330266 0.00106813
0.982193 0.337026 0.00166323
0.987701 0.343999 0.00227359
0.993164 0.351217 0.00288396
0.998627 0.358251 0.00350958
1 0.364324 0.00411994
0.0418402 0.452247 0.122408
0.0417639 0.457053 0.123339
0.0467842 0.462745 0.124453
0.0521096 0.468391 0.125536
0.057496 0.474144 0.126619
0.0630198 0.479927 0.127687
0.0689097 0.484886 0.128557
0.077821 0.488319 0.128985
0.0990158 0.491463 0.128832
0.138109 0.495094 0.127108
0.186328 0.498619 0.121736
0.249638 0.498497 0.11014
0.339452 0.491081 0.102602
0.437552 0.479973 0.109331
0.521675 0.472602 0.119631
0.599542 0.468025 0.121263
0.694484 0.4607 0.0951705
0.818906 0.44741 0.0413214
0.906691 0.429984 0.00442512
0.92459 0.417121 0
0.931975 0.40798 0
0.939162 0.400412 0
0.946044 0.394858 0
0.952682 0.391058 0
0.95903 0.389319 0
0.965133 0.391104 4.57771e-05
0.970993 0.396399 0.000564584
0.976715 0.40296 0.00111391
0.982269 0.409781 0.00170901
0.987778 0.416892 0.00233463
0.993225 0.424125 0.00294499
0.998703 0.431189 0.00358587
1 0.437537 0.00419623
0.0351568 0.519936 0.131411
0.033402 0.525734 0.131334
0.036347 0.532815 0.131243
0.0395514 0.540032 0.131106
0.0428016 0.547173 0.130922
0.0462348 0.55404 0.130678
0.0501259 0.560052 0.130404
0.0553445 0.56434 0.130282
0.0704967 0.566018 0.131441
0.113176 0.56585 0.135119
0.169574 0.566308 0.137057
0.230976 0.566217 0.132082
0.310491 0.562264 0.12105
0.411444 0.551202 0.117357
0.509453 0.540093 0.123766
0.593393 0.533455 0.124895
0.682368 0.527108 0.103609
0.797192 0.517205 0.052842
0.899763 0.502678 0.00756847
0.92459 0.489647 0
0.931975 0.480888 0
0.939193 0.473838 0
0.94609 0.468681 0
0.952728 0.465263 0
0.959106 0.463966 0
0.965209 0.46537 0.000122072
0.971069 0.470207 0.000640879
0.976791 0.476844 0.0011902
0.982345 0.483757 0.00178531
0.987839 0.49099 0.00239567
0.993286 0.498283 0.00302129
0.998749 0.505364 0.00363165
1 0.511299 0.00421149
0.0100557 0.602823 0.121111
0.00787366 0.61001 0.119387
0.0106203 0.618585 0.11722
0.0138857 0.627451 0.114885
0.0173495 0.636484 0.112428
0.0218967 0.644984 0.109834
0.027924 0.652918 0.107057
0.0342718 0.658885 0.104982
0.0409552 0.660792 0.105028
0.0627909 0.658 0.110399
0.116411 0.651011 0.121263
0.18996 0.644495 0.129503
0.272251 0.638102 0.127443
0.369436 0.628367 0.120867
0.478477 0.61474 0.119646
0.578103 0.603677 0.118379
0.671199 0.596704 0.0970779
0.777142 0.588602 0.0514229
0.891829 0.577218 0.00787366
0.924498 0.564599 0
0.931975 0.556008 0
0.939193 0.549371 0
0.94609 0.544717 0
0.952728 0.541558 0
0.959106 0.540322 0
0.965209 0.541146 0.00015259
0.971099 0.545281 0.000640879
0.976791 0.551858 0.0011902
0.982345 0.558709 0.00178531
0.987823 0.56553 0.00236515
0.993255 0.572442 0.00297551
0.998703 0.579019 0.00355535
1 0.584726 0.00415045
0 0.699931 0.0911421
0 0.708171 0.088304
0.00509651 0.717556 0.085069
0.0105592 0.727306 0.0819715
0.016144 0.736446 0.079118
0.0218967 0.744579 0.076585
0.0279088 0.752285 0.0741894
0.034226 0.758053 0.0724193
0.0408942 0.76025 0.071931
0.0479286 0.75758 0.0742809
0.0647898 0.748775 0.0827192
0.115969 0.736996 0.0951247
0.206638 0.72546 0.103304
0.308873 0.71397 0.102541
0.424582 0.698619 0.0987564
0.544518 0.68217 0.0937972
0.652354 0.670451 0.0730907
0.758877 0.661341 0.0348211
0.876341 0.65124 0.00456245
0.923568 0.639307 0
0.931975 0.63064 0
0.939193 0.624506 0
0.94609 0.619898 0
0.952728 0.616922 0
0.959106 0.615473 0
0.965179 0.615885 0.000122072
0.971054 0.619226 0.000610361
0.97673 0.625071 0.00114443
0.982269 0.631342 0.00170901
0.987716 0.637461 0.00228885
0.993133 0.643259 0.00288396
0.998581 0.649195 0.00343328
1 0.654124 0.00399786
0 0.798215 0.0609293
0 0.804761 0.0604868
0.00512703 0.812619 0.0597086
0.0105898 0.82034 0.0590066
0.016144 0.827924 0.0584726
0.0218509 0.834577 0.0581064
0.0278477 0.840543 0.0578622
0.0341802 0.845212 0.0577859
0.0408331 0.847562 0.0578012
0.0478981 0.846906 0.0575265
0.0552834 0.843748 0.0537881
0.0693065 0.834363 0.0542916
0.124178 0.820584 0.0608377
0.22771 0.806775 0.0614176
0.346227 0.79086 0.0557717
0.481621 0.769757 0.047364
0.61387 0.750088 0.0310216
0.7337 0.73547 0.0105745
0.851438 0.723461 0.000717174
0.921538 0.711772 0
0.932021 0.702174 0
0.939208 0.695964 0
0.94612 0.691508 0
0.952728 0.68864 0
0.959075 0.686992 0
0.965164 0.687175 9.15541e-05
0.970993 0.689128 0.000564584
0.976669 0.69337 0.00106813
0.982177 0.698634 0.0016022
0.987594 0.704097 0.00216678
0.992981 0.709163 0.00270085
0.998383 0.714199 0.00323491
1 0.718669 0.00375372
0 0.876387 0.0589609
0 0.881209 0.0598459
0.00517281 0.886717 0.0608225
0.0106355 0.89221 0.0618753
0.0161898 0.897368 0.0629587
0.0219272 0.902174 0.0639963
0.027924 0.906233 0.0649119
0.0342718 0.909834 0.0657206
0.0409552 0.911894 0.0661479
0.0480507 0.91249 0.0658579
0.0554208 0.912016 0.0609293
0.0630961 0.911269 0.0455482
0.0769665 0.907698 0.0290379
0.14197 0.898299 0.0192111
0.257206 0.884504 0.00747692
0.395483 0.862882 0.00416571
0.550622 0.835828 0.00204471
0.693294 0.81297 0.000228885
0.822736 0.795071 0
0.915206 0.780713 0
0.932128 0.769894 0
0.939315 0.763104 0
0.946197 0.758602 0
0.952789 0.755474 0
0.959106 0.753613 0
0.965164 0.752926 7.62951e-05
0.970977 0.753887 0.000534066
0.976593 0.75697 0.0010071
0.982071 0.76141 0.00151064
0.987472 0.766171 0.00202945
0.992813 0.770397 0.002533
0.998169 0.774762 0.00302129
1 0.778576 0.00350958
0 0.922316 0.0700542
0 0.923873 0.0708782
0.00541695 0.925612 0.0719158
0.0108797 0.927306 0.0729534
0.0164492 0.928862 0.073991
0.0222171 0.930236 0.0749218
0.0282139 0.931289 0.0757153
0.0345617 0.931685 0.0761425
0.0412757 0.931945 0.0763561
0.0483406 0.932143 0.0762036
0.0557259 0.93225 0.0737774
0.0633555 0.932296 0.0592355
0.0710918 0.932296 0.0367895
0.0998856 0.932296 0.0120851
0.186252 0.932311 0.000686656
0.311788 0.930571 0
0.470253 0.914427 0
0.634012 0.890684 0
0.784482 0.866438 0
0.901488 0.846906 0
0.93225 0.833951 0
0.939483 0.826352 0
0.946334 0.821485 0
0.952911 0.817899 0
0.959182 0.815534 0
0.965209 0.814298 0.000122072
0.970977 0.814389 0.000534066
0.976562 0.81622 0.000976577
0.98201 0.82002 0.00143435
0.98735 0.823713 0.00190738
0.992645 0.827359 0.00236515
0.99794 0.830716 0.00280766
1 0.83389 0.00323491
0 0.935393 0.077821
0.000457771 0.936004 0.0782788
0.00590524 0.936614 0.0787976
0.0113985 0.937255 0.0793317
0.016968 0.937835 0.0795758
0.0227207 0.938384 0.0796521
0.0287633 0.938872 0.0796979
0.0350958 0.939239 0.0797284
0.0417945 0.939529 0.0797436
0.0488746 0.939727 0.0797131
0.0562448 0.939818 0.0788891
0.063859 0.939849 0.0668193
0.0715801 0.939849 0.0453498
0.0860151 0.939818 0.0202335
0.155795 0.939818 0.00149538
0.263447 0.939803 0
0.406012 0.939773 0
0.574304 0.937011 0
0.741299 0.924178 0
0.876402 0.90898 0
0.930388 0.894194 0
0.939742 0.885298 0
0.946578 0.880064 0
0.953094 0.876127 0
0.95935 0.873198 0
0.965331 0.871351 0.000244144
0.971054 0.870619 0.000610361
0.976593 0.871397 0.0010071
0.981949 0.874189 0.00141909
0.987259 0.87715 0.00183108
0.992508 0.880049 0.00221256
0.997757 0.882475 0.00260929
1 0.885252 0.00300603
0 0.942855 0.0797894
0.00122072 0.943481 0.0798352
0.00668345 0.944091 0.0798505
0.0121767 0.944701 0.0798505
0.0177462 0.945312 0.0798505
0.0235142 0.945846 0.0798505
0.0295109 0.946319 0.0798505
0.0358587 0.946685 0.0798505
0.0425574 0.946975 0.0798505
0.0496071 0.947143 0.0798962
0.0569772 0.947219 0.0790417
0.0645762 0.947234 0.0694133
0.0722667 0.947219 0.0488136
0.0817578 0.947173 0.0242618
0.143389 0.947143 0.00225834
0.24622 0.947097 0
0.378805 0.947051 0
0.539971 0.946975 0
0.710384 0.946899 0
0.850614 0.944671 0
0.924453 0.936538 0
0.940169 0.930175 0
0.946929 0.92697 0
0.953414 0.925185 0
0.959609 0.9243 0.000198367
0.96553 0.923232 0.000457771
0.971191 0.922286 0.000762951
0.976684 0.922225 0.00109865
0.98201 0.92369 0.00146487
0.987259 0.925902 0.00180056
0.992447 0.928069 0.00216678
0.997635 0.929793 0.00248722
1 0.931792 0.00282292
0 0.95021 0.0798505
0.00224308 0.95082 0.0798505
0.00770581 0.951431 0.0798505
0.0131838 0.952056 0.0798505
0.0187533 0.952636 0.0798505
0.024506 0.95317 0.0798505
0.0304875 0.953643 0.0800488
0.0368353 0.954009 0.080415
0.0435035 0.954253 0.0806744
0.0505379 0.954391 0.0808118
0.0578775 0.954467 0.0800488
0.0654459 0.954437 0.071519
0.0731212 0.954391 0.0513161
0.0811322 0.954314 0.0273136
0.138094 0.954269 0.00502022
0.238773 0.954192 0.000762951
0.367361 0.954101 0.000656138
0.525078 0.953979 0.000534066
0.694835 0.953857 0.000442512
0.836362 0.953597 0.000335698
0.919188 0.951431 0.000274662
0.940658 0.947936 0.000244144
0.947356 0.946975 0.000274662
0.95378 0.947036 0.000366217
0.95993 0.947112 0.000518807
0.965789 0.946685 0.000732433
0.97142 0.946105 0.000976577
0.976837 0.945953 0.0012665
0.982132 0.946334 0.00155642
0.987305 0.946853 0.00187686
0.992447 0.947387 0.00216678
0.997574 0.947951 0.0024567
1 0.948562 0.00273136
0 0.957473 0.0798505
0.00347906 0.958083 0.0798505
0.00895705 0.958694 0.0798505
0.014435 0.959274 0.0798505
0.0199741 0.959838 0.080293
0.0256809 0.960342 0.0807965
0.0316625 0.960784 0.0812085
0.0379797 0.961135 0.0815595
0.0446326 0.961349 0.0818036
0.0516365 0.961471 0.0819257
0.0589303 0.961517 0.0813916
0.0664683 0.961471 0.0731518
0.0741131 0.961364 0.0530556
0.0838941 0.961273 0.0293126
0.135821 0.961151 0.007187
0.234913 0.961059 0.00163272
0.359716 0.960891 0.00148013
0.515496 0.960739 0.00131228
0.683803 0.960571 0.00114443
0.827802 0.960327 0.0010071
0.915602 0.958373 0.000885023
0.941207 0.954772 0.00077821
0.947875 0.95349 0.00077821
0.954253 0.953475 0.000808728
0.960327 0.953567 0.000900282
0.96614 0.953719 0.00106813
0.97171 0.953933 0.0012665
0.977081 0.954147 0.00148013
0.9823 0.95436 0.00175479
0.987457 0.95462 0.00199893
0.992523 0.954864 0.00224308
0.997604 0.955077 0.00248722
1 0.955322 0.00268559
0 0.964569 0.0798505
0.00492866 0.965164 0.079942
0.0103761 0.965774 0.0805371
0.0158236 0.966323 0.081117
0.0213321 0.966873 0.081651
0.0270542 0.967361 0.0821393
0.0329747 0.967773 0.082536
0.0392462 0.968063 0.0828565
0.0458686 0.968261 0.0830396
0.0528267 0.968353 0.0831159
0.0601053 0.968338 0.0826429
0.0675975 0.968261 0.0749218
0.0751965 0.968109 0.0543832
0.0869459 0.967971 0.0301823
0.136751 0.967819 0.00851453
0.232639 0.967651 0.00256352
0.354711 0.967437 0.00236515
0.508766 0.967208 0.00215152
0.676829 0.966995 0.00192264
0.82179 0.966781 0.00170901
0.913863 0.964935 0.00154116
0.941543 0.961242 0.00138857
0.948409 0.959777 0.00134279
0.954742 0.959655 0.00131228
0.960784 0.959686 0.00135805
0.966522 0.959777 0.00146487
0.972045 0.959945 0.0016022
0.977371 0.960128 0.00178531
0.982544 0.960311 0.00199893
0.987625 0.96051 0.0021973
0.992676 0.960739 0.00239567
0.997696 0.960906 0.00256352
1 0.961074 0.00273136
0.00109865 0.971542 0.0809491
0.0065156 0.972122 0.0815137
0.0119173 0.972686 0.082063
0.0173342 0.97322 0.0826276
0.0228275 0.973739 0.0831464
0.0284886 0.974182 0.0835737
0.0343938 0.974548 0.0839399
0.0406195 0.974807 0.0842145
0.0471962 0.97496 0.0843671
0.0541238 0.975006 0.0844129
0.0613565 0.974929 0.0839551
0.0687724 0.974807 0.077409
0.0763104 0.974609 0.0552682
0.0886244 0.974395 0.0310216
0.138659 0.974197 0.00979629
0.231571 0.973983 0.00366217
0.351263 0.973709 0.00326543
0.50547 0.973449 0.00300603
0.67129 0.973175 0.00270085
0.816342 0.9729 0.0024567
0.912032 0.971252 0.00221256
0.941405 0.967437 0.00204471
0.94902 0.965774 0.00192264
0.955276 0.965545 0.00184634
0.961273 0.965545 0.00184634
0.966964 0.965591 0.00190738
0.972442 0.965682 0.00199893
0.977707 0.965805 0.002121
0.982834 0.965957 0.00227359
0.987869 0.966125 0.00244144
0.992844 0.966278 0.00257877
0.997848 0.9664 0.00270085
1 0.966522 0.00282292
0.00276188 0.978347 0.0826123
0.00814832 0.978882 0.0831464
0.0135195 0.9794 0.0836805
0.0189059 0.979904 0.0841688
0.0243381 0.980377 0.0846265
0.0299535 0.980789 0.0850385
0.0358129 0.981094 0.085359
0.0420081 0.981323 0.0855726
0.0485084 0.981414 0.0856794
