LUT color transfer/LUTs/84.cube
TITLE "Generate by Resolve"
LUT_3D_SIZE 9
0.00704967 0.00906386 0.0197452
0.107836 0.000900282 0.0110475
0.223224 0.00482185 0.00776684
0.412924 0.0155489 0.0195163
0.887617 0 0
0.925856 0 0
0.95082 0 0
0.972198 0 0
0.992554 0 0
0 0.0840925 0.0137026
0.0804456 0.0738537 0.0018616
0.21651 0.0559548 0.00859083
0.401938 0.0387121 0.0215152
0.891234 0.0154726 0
0.928008 0.0141909 0
0.953979 0.0141146 0
0.97644 0.0154269 0
0.997879 0.0174105 0
0 0.188937 0.0309453
0.0215763 0.190936 0.0260166
0.190707 0.175372 0.00856031
0.400168 0.151293 0.0467689
0.886366 0.0616617 0
0.931151 0.0405432 0
0.958083 0.0413214 0
0.981277 0.0434119 0.000701915
1 0.0492409 0.00318914
0.023743 0.342748 0.0870832
0.0432441 0.355886 0.0919051
0.109712 0.371603 0.085771
0.385016 0.354849 0.0794232
0.739803 0.324926 0.0512551
0.932052 0.263752 0
0.959106 0.245136 0
0.982254 0.265415 0.00167849
1 0.291844 0.00411994
0.0100557 0.602823 0.121111
0.0173495 0.636484 0.112428
0.0409552 0.660792 0.105028
0.272251 0.638102 0.127443
0.671199 0.596704 0.0970779
0.931975 0.556008 0
0.959106 0.540322 0
0.982345 0.558709 0.00178531
1 0.584726 0.00415045
0 0.922316 0.0700542
0.0164492 0.928862 0.073991
0.0412757 0.931945 0.0763561
0.0710918 0.932296 0.0367895
0.470253 0.914427 0
0.93225 0.833951 0
0.959182 0.815534 0
0.98201 0.82002 0.00143435
1 0.83389 0.00323491
0 0.957473 0.0798505
0.0199741 0.959838 0.080293
0.0446326 0.961349 0.0818036
0.0741131 0.961364 0.0530556
0.359716 0.960891 0.00148013
0.915602 0.958373 0.000885023
0.960327 0.953567 0.000900282
0.9823 0.95436 0.00175479
1 0.955322 0.00268559
0.00440986 0.984985 0.0842603
0.025803 0.986816 0.0861219
0.0497902 0.987655 0.0869154
0.0784619 0.986862 0.0539406
0.355001 0.98555 0.00497444
0.909789 0.983307 0.00354009
0.962158 0.976547 0.00276188
0.983368 0.976623 0.00280766
1 0.976867 0.0030518
0.00968948 1 0.0895399
0.0302281 1 0.0905165
0.0533455 1 0.0905165
0.0812238 1 0.0513313
0.369207 1 0.00700389
0.90602 0.999634 0.00488289
0.962982 0.993255 0.00355535
0.983795 0.993255 0.00321965
1 0.993255 0.00321965
0.00704967 0.00622568 0.0966659
0.104158 0.000106813 0.0826123
0.225162 0.00376898 0.0556191
0.410422 0.0156405 0.0400549
0.887282 0 0.0142061
0.925933 0 0.0121004
0.951003 0 0.0111086
0.972457 0 0.0114443
0.99292 0 0.0124514
4.57771e-05 0.0796368 0.0710613
0.0760815 0.0721447 0.0543832
0.216938 0.0544289 0.0432593
0.402136 0.0385901 0.039765
0.893339 0.0157931 0.0157931
0.92842 0.0146029 0.0146029
0.954513 0.0146181 0.0146181
0.977081 0.0160678 0.0160678
0.998581 0.018143 0.018143
0 0.188693 0.0533761
0.0223697 0.19147 0.048249
0.192599 0.176638 0.0291905
0.404211 0.153613 0.0662852
0.887572 0.0650492 0.0182193
0.931884 0.0412757 0.0180667
0.958892 0.0421302 0.0189975
0.982101 0.0448157 0.021088
1 0.0518349 0.0235599
0.0246281 0.346563 0.103655
0.0449989 0.361135 0.110887
0.11397 0.377829 0.106279
0.392691 0.361776 0.101213
0.755306 0.330694 0.0664988
0.93286 0.27126 0.0190433
0.959884 0.252796 0.0200198
0.983063 0.273976 0.0220493
1 0.300603 0.0244755
0.00704967 0.613291 0.133074
0.0169985 0.648554 0.125597
0.0417639 0.672511 0.119692
0.276387 0.646967 0.143923
0.681315 0.604349 0.109392
0.932815 0.564034 0.0189975
0.95993 0.548699 0.0200656
0.983154 0.567468 0.0221408
1 0.592493 0.0244755
0 0.924468 0.0861219
0.0172885 0.930892 0.0925612
0.0421149 0.932784 0.0959335
0.0719158 0.93312 0.0546273
0.479515 0.916167 0.0192874
0.933013 0.839704 0.0192721
0.959884 0.820737 0.0200198
0.98262 0.824598 0.0216068
1 0.837461 0.0233158
0 0.958282 0.0982528
0.0207523 0.960647 0.100587
0.0453651 0.962097 0.102052
0.0747997 0.962051 0.0716716
0.367926 0.961486 0.0216373
0.918166 0.958709 0.0209201
0.960769 0.954009 0.0208743
0.982635 0.954681 0.0216373
1 0.955612 0.0225071
0.005066 0.985641 0.104448
0.0263676 0.987411 0.106218
0.050248 0.988144 0.106966
0.0788586 0.987259 0.073228
0.357351 0.98587 0.0248417
0.911009 0.983673 0.0233158
0.962325 0.976715 0.0224308
0.983444 0.976699 0.0224308
1 0.976913 0.0226596
0.0100557 1 0.109438
0.0304875 1 0.110338
0.0535439 1 0.110277
0.0813764 1 0.0711986
0.366201 1 0.0266117
0.902556 0.999649 0.0244602
0.962982 0.993255 0.0231174
0.983795 0.993255 0.0227512
1 0.993255 0.0227512
0.00840772 0.00175479 0.23006
0.0859846 0.00114443 0.229038
0.215717 0.00404364 0.203021
0.398337 0.018967 0.143542
0.875334 0 0.0614786
0.92578 0 0.0350958
0.950927 0 0.0341955
0.972519 0 0.0346075
0.993057 0 0.0357366
0.00825513 0.0683757 0.221408
0.0712902 0.0638437 0.218647
0.211551 0.048127 0.194598
0.39469 0.0402228 0.137911
0.890394 0.0158694 0.0633402
0.928603 0.0147707 0.0381323
0.954803 0.0149386 0.0380713
0.977493 0.0164492 0.0395972
0.999069 0.0186313 0.0417639
0.00540169 0.179568 0.184543
0.035111 0.182727 0.185183
0.181155 0.177478 0.156222
0.406485 0.154849 0.142596
0.873503 0.0698711 0.0606851
0.932387 0.0417639 0.0417182
0.959426 0.0426947 0.0426947
0.982696 0.0459754 0.0454719
1 0.0528267 0.0504463
0.0276799 0.347692 0.146212
0.0500038 0.363378 0.160327
0.118761 0.381704 0.157259
0.39678 0.366918 0.137499
0.761746 0.335241 0.09308
0.933425 0.275898 0.0427405
0.960418 0.257649 0.0437018
0.983612 0.279225 0.0457465
1 0.305653 0.0482185
0.00492866 0.621256 0.154742
0.0175631 0.656672 0.146502
0.0423133 0.679667 0.140948
0.27921 0.652674 0.16611
0.688365 0.609583 0.128542
0.933394 0.569543 0.0426947
0.960494 0.554208 0.0437781
0.983688 0.572808 0.0458228
1 0.596521 0.048127
0 0.92604 0.11075
0.0178531 0.931685 0.116899
0.0426795 0.933364 0.120043
0.0724804 0.933684 0.0773632
0.485298 0.917632 0.0429389
0.933455 0.842618 0.0428931
0.960296 0.823209 0.0435798
0.982956 0.825849 0.0450904
1 0.837385 0.0467231
0 0.958831 0.121935
0.0212711 0.961151 0.124254
0.0458228 0.96257 0.125673
0.0751965 0.962448 0.0944839
0.37023 0.961807 0.0450599
0.918761 0.958968 0.0442817
0.960891 0.954131 0.0441596
0.982696 0.954681 0.0448157
1 0.955566 0.0456092
0.00543221 0.986007 0.127962
0.0266575 0.987671 0.129641
0.0504463 0.988327 0.130282
0.0789807 0.987381 0.0970321
0.35227 0.985885 0.0480201
0.90837 0.983825 0.0463874
0.962173 0.976577 0.0454566
0.983276 0.976532 0.0454108
1 0.976699 0.0455634
0.010132 1 0.132647
0.0304875 1 0.133486
0.0534676 1 0.133303
0.0812085 1 0.0959182
0.355459 1 0.0495613
0.894347 0.999786 0.047364
0.962737 0.993255 0.0459907
0.98349 0.993255 0.0456245
1 0.993255 0.0456092
0.00943008 0 0.50135
0.0702831 0.00247196 0.465278
0.179294 0.0120851 0.423545
0.378958 0.0201572 0.375051
0.787137 9.15541e-05 0.363485
0.9252 0 0.274113
0.950439 0 0.206119
0.972122 0 0.200748
0.992798 0 0.215106
0.0175479 0.0513771 0.452827
0.0629282 0.0499886 0.438346
0.172686 0.0458991 0.413428
0.377737 0.03888 0.372076
0.81117 0.0156558 0.376303
0.928359 0.0145571 0.302464
0.954681 0.0148165 0.25388
0.977462 0.0164492 0.273167
0.999115 0.018677 0.312322
0.0383307 0.158877 0.410285
0.0632944 0.16257 0.416007
0.172885 0.16585 0.418585
0.395911 0.147646 0.388846
0.774609 0.0897841 0.37499
0.932464 0.0417945 0.337804
0.959548 0.0428016 0.317632
0.982788 0.0451057 0.35198
1 0.0479438 0.389975
0.058793 0.335607 0.365972
0.082063 0.352102 0.385702
0.146929 0.369772 0.398581
0.375891 0.372122 0.364553
0.668727 0.356847 0.35201
0.921614 0.2981 0.28809
0.959777 0.273381 0.261707
0.979919 0.301488 0.293309
0.970947 0.334722 0.330144
0.0687572 0.591897 0.357412
0.0808728 0.619577 0.381781
0.102037 0.638117 0.396536
0.31426 0.636301 0.371557
0.659831 0.610208 0.326009
0.931105 0.579034 0.210971
0.960586 0.56144 0.181292
0.982757 0.579705 0.206607
0.994873 0.604196 0.242344
0 0.92372 0.22414
0.0179751 0.931807 0.257832
0.0428016 0.933486 0.28246
0.0824903 0.932296 0.228931
0.493858 0.907622 0.135286
0.933227 0.838834 0.0733806
0.96025 0.817792 0.0729992
0.982834 0.818463 0.0744182
1 0.828824 0.0766918
0 0.958907 0.20235
0.0213169 0.961181 0.229099
0.0458228 0.962539 0.24361
0.0750896 0.962341 0.183673
0.355978 0.961639 0.074815
0.913436 0.959274 0.0735027
0.96054 0.953796 0.0732891
0.982269 0.953887 0.0738689
1 0.954787 0.0745861
0.00531014 0.985885 0.249226
0.0264286 0.987457 0.270741
0.0501564 0.988037 0.268482
0.078584 0.986984 0.186999
0.329946 0.985428 0.0790265
0.894789 0.983703 0.0753185
0.961593 0.975982 0.074342
0.98262 0.97586 0.0742199
1 0.975982 0.074342
0.00970474 1 0.310002
0.0299992 1 0.315114
0.052903 1 0.295308
0.0805982 1 0.192081
0.326619 1 0.0788891
0.871229 1 0.0761425
0.962005 0.993255 0.0747539
0.982757 0.993255 0.0743572
1 0.993255 0.0743572
0.00375372 0 0.901183
0.057496 0 0.901137
0.203937 0 0.898863
0.438117 4.57771e-05 0.787182
0.807935 0 0.761746
0.924544 0 0.701137
0.949874 0 0.645335
0.971679 0 0.64004
0.992447 0 0.654429
0.00125124 0.0177462 0.901213
0.0415656 0.0180209 0.901488
0.191272 0.0177462 0.893675
0.439857 0.016434 0.785748
0.834852 0.0151064 0.782696
0.928069 0.0142519 0.727733
0.954513 0.0146487 0.690745
0.977371 0.0163577 0.707408
0.9991 0.0186618 0.736355
0 0.13286 0.891478
0.0205234 0.137377 0.888655
0.160494 0.138689 0.81561
0.399344 0.129152 0.686183
0.819821 0.0621958 0.764569
0.932464 0.0417639 0.759701
0.959548 0.0428168 0.742
0.982818 0.0449378 0.765789
1 0.047364 0.791882
0.0426642 0.328359 0.685618
0.0559396 0.348104 0.714534
0.139483 0.3617 0.692546
0.373541 0.365164 0.640009
0.659022 0.352834 0.627344
0.85069 0.314549 0.626627
0.887343 0.29247 0.615228
0.896849 0.318898 0.625269
0.906905 0.347036 0.641321
0.0654459 0.588724 0.648341
0.0664683 0.618524 0.679805
0.0819562 0.637491 0.699001
0.347631 0.620203 0.64567
0.632654 0.611856 0.607004
0.861982 0.596399 0.598505
0.884978 0.58262 0.584558
0.911345 0.596613 0.596582
0.933211 0.615778 0.612512
0 0.904646 0.648478
0.0179904 0.923079 0.675166
0.0428016 0.927718 0.693324
0.182879 0.901411 0.668833
0.561547 0.863905 0.626322
0.898634 0.828763 0.580209
0.945724 0.812207 0.565774
0.967666 0.811261 0.565362
0.98616 0.819486 0.57705
0 0.958892 0.632334
0.0212406 0.961105 0.655161
0.0456855 0.962402 0.666819
0.0813611 0.962127 0.635126
0.520943 0.951232 0.616053
0.874022 0.945342 0.522896
0.960052 0.945983 0.467796
0.981704 0.945495 0.440482
1 0.946395 0.442634
0.005066 0.985626 0.663752
0.0260929 0.987137 0.676646
0.0497292 0.987594 0.674601
0.087892 0.986496 0.62649
0.493019 0.977615 0.593759
0.841978 0.970474 0.476509
0.960861 0.970397 0.372854
0.981857 0.971649 0.321874
1 0.972122 0.306218
0.00917067 1 0.69958
0.0293889 1 0.701961
0.0522164 1 0.68983
0.0802319 1 0.631128
0.482368 0.994186 0.585321
0.817563 0.98999 0.444648
0.961181 0.990448 0.297795
0.981933 0.992081 0.235294
1 0.99266 0.212528
0.00456245 0 0.930724
0.0381933 0 0.930709
0.18056 0 0.929931
0.448081 0 0.927932
0.801678 0 0.92578
0.923949 0 0.923949
0.949416 0 0.922927
0.971313 0 0.922698
0.992187 0 0.925566
0.00373846 0.0170443 0.930846
0.0309911 0.01738 0.931197
0.173388 0.0171817 0.931029
0.454963 0.0159609 0.929808
0.824979 0.0148013 0.928603
0.927855 0.0140383 0.927855
0.954391 0.0145266 0.928359
0.97734 0.0163272 0.930144
0.999115 0.018677 0.932494
0 0.110536 0.93051
0.0184482 0.116487 0.931853
0.144244 0.1122 0.932754
0.449027 0.0768902 0.932616
0.850111 0.0432746 0.932418
0.932494 0.0418097 0.932494
0.959609 0.0428626 0.933562
0.982864 0.0449683 0.935668
1 0.047364 0.938033
0 0.318547 0.929168
0.0176242 0.339971 0.931456
0.0640116 0.354131 0.933104
0.368597 0.349996 0.915251
0.683558 0.335088 0.874937
0.92369 0.272618 0.920653
0.955871 0.249729 0.919341
0.979431 0.275029 0.926863
0.984024 0.308415 0.925658
0 0.604837 0.929091
0.0176852 0.631037 0.931487
0.0423743 0.647639 0.933074
0.316793 0.620691 0.893935
0.625467 0.607279 0.842603
0.866133 0.592538 0.820676
0.889982 0.57879 0.805493
0.915969 0.591562 0.814939
0.937774 0.609461 0.829953
0 0.890181 0.924437
0.0180514 0.910674 0.931823
0.0428473 0.919463 0.933471
0.141711 0.903975 0.924941
0.588632 0.847669 0.841794
0.886641 0.825132 0.781155
0.949371 0.806058 0.768246
0.97084 0.803342 0.764996
0.989883 0.810697 0.770611
0 0.958892 0.921447
0.0211948 0.961059 0.928695
0.0455634 0.96228 0.93257
0.074815 0.961929 0.918868
0.561517 0.939223 0.838727
0.819272 0.958602 0.752865
0.959594 0.950698 0.744945
0.981155 0.947143 0.737621
1 0.947768 0.737408
0.00482185 0.985382 0.937621
0.0257725 0.986801 0.937896
0.0493172 0.987182 0.934798
0.0797589 0.985992 0.909072
0.538766 0.961547 0.823072
0.78323 0.981003 0.738552
0.960159 0.971176 0.725841
0.981094 0.970108 0.716106
1 0.969894 0.712627
0.00866712 1 0.94049
0.0287785 1 0.940963
0.051545 1 0.938308
0.0794385 1 0.910552
0.526802 0.977554 0.816861
0.755367 0.998444 0.729244
0.96022 0.988449 0.709468
0.981155 0.987564 0.696925
1 0.987182 0.691218
0.00456245 0 0.956298
0.0284123 0 0.956283
0.163058 0 0.95555
0.426123 0 0.953567
0.781643 0 0.951492
0.923735 0 0.949752
0.949264 0 0.949264
0.971298 0 0.950149
0.992279 0 0.951705
0.00416571 0.0166476 0.956542
0.0259709 0.0170596 0.956939
0.159548 0.0169985 0.956863
0.437903 0.0158999 0.955764
0.810803 0.0148165 0.954681
0.928008 0.0141604 0.954055
0.954635 0.0147707 0.954635
0.977646 0.0166323 0.956497
0.999466 0.019028 0.958892
0 0.0988174 0.956527
0.0181888 0.10602 0.957961
0.13608 0.103258 0.958984
0.442374 0.0693828 0.958938
0.845792 0.0420996 0.958785
0.93286 0.0421607 0.958907
0.959976 0.0432288 0.959976
0.9832 0.045304 0.962051
1 0.0476844 0.964401
0 0.310307 0.95552
0.0179751 0.33315 0.957839
0.0597391 0.347906 0.959487
0.363317 0.343557 0.947204
0.684321 0.327001 0.915358
0.933776 0.257862 0.959854
0.960906 0.234226 0.960906
0.983063 0.262776 0.962936
0.993973 0.298604 0.964569
0 0.598825 0.95552
0.0179904 0.624689 0.957855
0.0427253 0.642069 0.959472
0.288441 0.620844 0.957244
0.625101 0.605676 0.908934
0.862074 0.593072 0.918303
0.88777 0.579599 0.915892
0.912657 0.591836 0.919753
0.93257 0.608911 0.926146
0 0.882185 0.95584
0.0184176 0.903838 0.958282
0.043183 0.915206 0.959915
0.117235 0.904234 0.960128
0.601389 0.84155 0.959319
0.87274 0.821149 0.95906
0.944945 0.800946 0.955734
0.966857 0.796918 0.953857
0.985367 0.803693 0.958221
0 0.959152 0.959152
0.0214084 0.961273 0.961273
0.0457008 0.962448 0.962448
0.0753033 0.962005 0.962005
0.560861 0.941375 0.960372
0.809781 0.958831 0.94699
0.951568 0.957168 0.909224
0.97499 0.952056 0.895811
0.994446 0.950362 0.893385
0.00485237 0.985428 0.964279
0.0257267 0.98674 0.965591
0.0491951 0.98706 0.965911
0.0805524 0.985763 0.964645
0.53077 0.964752 0.962295
0.775113 0.980026 0.927306
0.955718 0.979629 0.870619
0.978714 0.978729 0.854368
0.998627 0.978469 0.84802
0.00839246 1 0.967819
0.0284581 1 0.968338
0.0511788 1 0.967895
0.0813153 1 0.965957
0.511391 0.981933 0.961212
0.750164 0.99675 0.909438
0.955657 0.997711 0.841779
0.980423 0.996612 0.826764
0.999954 0.996139 0.819898
0.00456245 0 0.977325
0.0271763 0 0.977295
0.158007 0 0.976593
0.418616 0 0.974685
0.773831 0 0.972686
0.923873 0 0.971069
0.949538 0 0.970687
0.971664 0 0.971664
0.992767 0 0.973327
0.00424201 0.0166476 0.977661
0.0253452 0.0171664 0.97818
0.157183 0.0171817 0.978195
0.435431 0.0161898 0.977203
0.809613 0.0152132 0.976257
0.928512 0.0146944 0.975708
0.955245 0.0153811 0.976394
0.978317 0.017319 0.978317
1 0.0197299 0.980728
0 0.0973526 0.977981
0.018555 0.106096 0.979538
0.137331 0.104402 0.980667
0.446967 0.0704967 0.980713
0.852415 0.0427405 0.980636
0.933562 0.0428931 0.980758
0.960693 0.043946 0.981826
0.983886 0.0460212 0.983886
1 0.0483711 0.986236
0 0.311864 0.977325
0.018677 0.336522 0.97969
0.0595407 0.352041 0.981369
0.367285 0.347173 0.967407
0.686152 0.329793 0.935851
0.934524 0.261051 0.981704
0.961608 0.2383 0.982757
0.983352 0.269108 0.98471
0.993835 0.305409 0.986267
0 0.60087 0.97734
0.018677 0.627375 0.97969
0.0434272 0.645014 0.981292
0.292042 0.623209 0.979553
0.627482 0.607797 0.93135
0.862974 0.595056 0.940414
0.888548 0.581476 0.937819
0.913588 0.593317 0.941894
0.932692 0.609903 0.947967
0 0.884565 0.977691
0.0191196 0.904982 0.980133
0.0438697 0.916426 0.981735
0.118242 0.905364 0.981903
0.602274 0.841627 0.981003
0.872206 0.820569 0.981247
0.943084 0.800397 0.981567
0.964309 0.795743 0.982635
0.982712 0.801511 0.983841
0.000366217 0.959792 0.980926
0.021973 0.961837 0.982986
0.0461891 0.962905 0.984054
0.0762646 0.962402 0.983551
0.556985 0.942519 0.982467
0.816724 0.957687 0.981247
0.942596 0.956985 0.980682
0.964706 0.950607 0.980941
0.984054 0.948272 0.981369
0.00521859 0.985794 0.985794
0.0260014 0.987045 0.987045
0.0493935 0.987259 0.987259
0.0799115 0.985885 0.985885
0.512795 0.96878 0.984009
0.787579 0.976745 0.982025
0.941985 0.980835 0.980484
0.964584 0.98056 0.979065
0.984512 0.98056 0.978439
0.00848402 1 0.989059
0.0284581 1 0.989502
0.0511177 1 0.988983
0.0803388 1 0.987015
0.482506 0.988251 0.984665
0.765484 0.992142 0.982345
0.939162 1 0.97937
0.96759 1 0.971527
0.988388 0.999985 0.960388
0.00456245 0 0.99675
0.0267643 0 0.99675
0.156359 0 0.996094
0.417456 0 0.994232
0.773953 0 0.992309
0.924178 0 0.990814
0.94995 0 0.990524
0.972198 0 0.991623
0.993408 0 0.993408
0.00428778 0.0168002 0.997269
0.0252689 0.01738 0.997848
0.15816 0.0175326 0.998001
0.439475 0.0166476 0.997086
0.815503 0.0157931 0.996231
0.929198 0.0153811 0.995819
0.956008 0.016144 0.996582
0.979126 0.0181125 0.998581
1 0.0205539 1
0 0.0996872 0.997925
0.0192264 0.109514 0.999603
0.141421 0.108721 1
0.455924 0.0742351 1
0.86331 0.0435798 1
0.934417 0.0437171 1
0.961517 0.04477 1
0.984665 0.0467994 1
1 0.0491951 1
0 0.319402 0.997559
0.0195163 0.345159 0.999954
0.0632792 0.360388 1
0.375525 0.35555 0.980468
0.690166 0.338643 0.950484
0.935347 0.271153 1
0.962264 0.248737 1
0.983001 0.281331 0.999664
0.992203 0.316487 0.998611
0 0.609277 0.997604
0.0194858 0.636103 0.999924
0.0442664 0.654139 1
0.303944 0.630777 0.998337
0.634897 0.615061 0.952087
0.865354 0.601267 0.959869
0.890211 0.587411 0.955993
0.915496 0.598733 0.958602
0.9337 0.614527 0.962463
0 0.891493 0.997971
0.0199435 0.910246 1
0.0446479 0.921157 1
0.122026 0.910262 1
0.606699 0.844892 0.999405
0.874815 0.822416 1
0.94374 0.80148 1
0.964813 0.796307 1
0.982681 0.801389 1
0.00109865 0.960525 1
0.0226291 0.962493 1
0.0467842 0.9635 1
0.0800183 0.96289 1
0.558831 0.942672 1
0.816007 0.957931 1
0.942885 0.956283 1
0.965042 0.948745 1
0.984207 0.945998 1
0.00567636 0.986252 1
0.0263828 0.987411 1
0.0496681 0.987549 1
0.0797742 0.986114 1
0.508598 0.969406 1
0.785214 0.976532 1
0.941238 0.98085 1
0.96318 0.98056 1
0.98262 0.98056 1
0.00866712 1 1
0.0285801 1 1
0.051194 1 1
0.0799573 1 1
0.475166 0.989075 1
0.76347 0.991455 1
0.93785 1 1
0.96318 1 1
0.98262 1 1
