LUT color transfer/LUTs/87.cube
LUT_3D_SIZE 6
0.000000 0.000000 0.000000
0.110136 0.000000 0.000000
0.397266 0.000000 0.000000
0.764569 0.000000 0.000000
0.977496 0.000000 0.000000
0.999777 0.000000 0.000000
0.000000 0.110734 0.000000
0.111024 0.110734 0.000000
0.397266 0.193038 0.000000
0.764569 0.268526 0.000000
0.977496 0.275531 0.000000
0.999777 0.247380 0.000000
0.000000 0.381008 0.000000
0.202871 0.381008 0.000000
0.405208 0.381008 0.000000
0.764569 0.497769 0.000000
0.977496 0.509360 0.000000
0.999777 0.462962 0.000000
0.000000 0.702847 0.000000
0.283296 0.702847 0.000000
0.541569 0.702847 0.000000
0.771322 0.702847 0.000000
0.977496 0.712636 0.000000
0.999777 0.649960 0.000000
0.000000 0.891526 0.000000
0.285131 0.891526 0.000000
0.544707 0.891526 0.000000
0.775549 0.891526 0.000000
0.973018 0.891526 0.000000
0.999777 0.821352 0.000000
0.000000 0.971879 0.000000
0.253533 0.971879 0.000000
0.490951 0.971879 0.000000
0.701787 0.971879 0.000000
0.897804 0.971879 0.000000
0.999139 0.971879 0.000000
0.000000 0.000000 0.270594
0.111997 0.000000 0.270594
0.397266 0.000000 0.359658
0.764569 0.000000 0.434713
0.977496 0.000000 0.441538
0.999777 0.000000 0.414028
0.000000 0.111655 0.270594
0.110136 0.110806 0.270594
0.397266 0.110734 0.276806
0.764569 0.110734 0.284789
0.977496 0.110734 0.285074
0.999777 0.110734 0.282347
0.000000 0.381008 0.364056
0.110136 0.381008 0.283174
0.403883 0.381008 0.270594
0.764569 0.477355 0.270594
0.977496 0.482295 0.270594
0.999777 0.436976 0.270594
0.000000 0.702847 0.437262
0.110136 0.702847 0.296795
0.515821 0.702847 0.270594
0.770425 0.702847 0.270594
0.977496 0.704730 0.270594
0.999777 0.640023 0.270594
0.000000 0.891526 0.438882
0.110136 0.891527 0.295755
0.512421 0.891526 0.270594
0.765371 0.891526 0.270594
0.972772 0.891526 0.270594
0.999777 0.817983 0.270594
0.000000 0.971879 0.410654
0.110136 0.971880 0.290978
0.460490 0.971879 0.270594
0.689557 0.971879 0.270594
0.893107 0.971879 0.270594
0.999109 0.971879 0.270594
0.000000 0.000000 0.547866
0.207625 0.000000 0.547866
0.413237 0.000000 0.547866
0.764569 0.000000 0.645949
0.977496 0.000000 0.656106
0.999777 0.000000 0.615303
0.000000 0.201791 0.547866
0.110136 0.116838 0.547866
0.410831 0.110734 0.547866
0.764569 0.110734 0.629865
0.977496 0.110734 0.634417
0.999777 0.110734 0.594235
0.000000 0.388217 0.547866
0.110136 0.387267 0.547866
0.397266 0.381502 0.547866
0.764569 0.381008 0.552268
0.977496 0.381008 0.550750
0.999777 0.381008 0.547366
0.000000 0.702847 0.649734
0.110136 0.702847 0.633691
0.397266 0.702847 0.556914
0.766242 0.702847 0.547866
0.977496 0.680673 0.547866
0.999777 0.621581 0.547866
0.000000 0.891526 0.652120
0.110136 0.891527 0.631244
0.397266 0.891526 0.552732
0.734204 0.891526 0.547866
0.971762 0.891526 0.547866
0.999777 0.812021 0.547866
0.000000 0.971879 0.610275
0.110136 0.971880 0.590292
0.397266 0.971880 0.546403
0.668019 0.971880 0.547866
0.885136 0.971880 0.547866
0.999080 0.971880 0.547866
0.000000 0.000000 0.822703
0.285625 0.000000 0.822703
0.545580 0.000000 0.822703
0.776754 0.000000 0.822703
0.977496 0.000000 0.826818
0.999777 0.000000 0.775420
0.000000 0.273240 0.822703
0.110136 0.123186 0.822702
0.520242 0.110734 0.822702
0.775315 0.110734 0.822702
0.977496 0.110734 0.821163
0.999777 0.110734 0.768026
0.000000 0.505615 0.822703
0.110136 0.485540 0.822702
0.397266 0.387094 0.822702
0.767594 0.381008 0.822702
0.977496 0.381008 0.804120
0.999777 0.381008 0.753857
0.000000 0.707616 0.822703
0.110136 0.707049 0.822702
0.397266 0.703993 0.822702
0.764569 0.702564 0.822702
0.977496 0.702847 0.819058
0.999777 0.702847 0.815470
0.000000 0.891526 0.821864
0.110136 0.891527 0.816198
0.397266 0.891526 0.799030
0.764569 0.891526 0.814462
0.973796 0.891526 0.822702
0.999777 0.844247 0.822702
0.000000 0.971879 0.769180
0.110136 0.971880 0.761965
0.397266 0.971880 0.748280
0.764569 0.971879 0.807699
0.934703 0.971879 0.822702
0.999379 0.971879 0.822702
0.000000 0.000000 0.961342
0.281588 0.000000 0.961342
0.538686 0.000000 0.961342
0.767311 0.000000 0.961342
0.967241 0.000000 0.961342
0.999777 0.000000 0.913777
0.000000 0.269573 0.961342
0.110136 0.121900 0.961342
0.508018 0.110734 0.961342
0.757345 0.110734 0.961342
0.966723 0.110734 0.961342
0.999777 0.110734 0.911431
0.000000 0.499528 0.961342
0.110136 0.474739 0.961342
0.397266 0.383628 0.961342
0.726929 0.381008 0.961342
0.964770 0.381008 0.961342
0.999777 0.381008 0.907516
0.000000 0.699417 0.961342
0.110136 0.691666 0.961342
0.397266 0.668188 0.961342
0.764569 0.696212 0.961342
0.968844 0.702847 0.961342
0.999777 0.702847 0.926489
0.000000 0.882634 0.961342
0.110136 0.882350 0.961342
0.397266 0.880981 0.961342
0.764569 0.883120 0.961342
0.977496 0.890596 0.961342
0.999777 0.891526 0.959834
0.000000 0.971879 0.906358
0.110136 0.971880 0.903982
0.397266 0.971880 0.899852
0.764569 0.971879 0.919502
0.977496 0.971879 0.957355
0.999693 0.971879 0.961342
0.000000 0.000000 1.043428
0.253533 0.000000 1.043428
0.490951 0.000000 1.043428
0.701787 0.000000 1.043428
0.897804 0.000000 1.043428
0.999139 0.000000 1.043428
0.000000 0.243981 1.043428
0.110136 0.120027 1.043428
0.461831 0.110734 1.043428
0.690088 0.110734 1.043428
0.893337 0.110734 1.043428
0.999112 0.110734 1.043428
0.000000 0.457358 1.043428
0.110136 0.433878 1.043428
0.397266 0.380658 1.043428
0.667502 0.381008 1.043428
0.884858 0.381008 1.043428
0.999077 0.381008 1.043428
0.000000 0.642378 1.043428
0.110136 0.633222 1.043428
0.397266 0.615001 1.043428
0.764569 0.692930 1.043428
0.928859 0.702847 1.043428
0.999306 0.702847 1.043428
0.000000 0.811999 1.043428
0.110136 0.808689 1.043428
0.397266 0.802412 1.043428
0.764569 0.831292 1.043428
0.977496 0.887866 1.043428
0.999647 0.891526 1.043428
0.000000 0.971879 1.043428
0.110136 0.971880 1.043428
0.397266 0.971880 1.043428
0.764569 0.971879 1.043428
0.977496 0.971879 1.043428
0.999777 0.971879 1.043428
