LUT color transfer/LUTs/87.cube
LUT_3D_SIZE 16
0.000000 0.000000 0.000000
0.020234 0.000000 0.000000
0.057131 0.000000 0.000000
0.110136 0.000000 0.000000
0.185538 0.000000 0.000000
0.282896 0.000000 0.000000
0.397266 0.000000 0.000000
0.522120 0.000000 0.000000
0.648912 0.000000 0.000000
0.764569 0.000000 0.000000
0.863257 0.000000 0.000000
0.939527 0.000000 0.000000
0.977496 0.000000 0.000000
0.992850 0.000000 0.000000
0.998387 0.000000 0.000000
0.999777 0.000000 0.000000
0.000000 0.021530 0.000000
0.020243 0.021530 0.000000
0.057131 0.027018 0.000000
0.110136 0.032356 0.000000
0.185538 0.038821 0.000000
0.282896 0.047189 0.000000
0.397266 0.057080 0.000000
0.522120 0.067146 0.000000
0.648912 0.076164 0.000000
0.764569 0.082507 0.000000
0.863257 0.085937 0.000000
0.939527 0.086583 0.000000
0.977496 0.085043 0.000000
0.992850 0.082283 0.000000
0.998387 0.078919 0.000000
0.999777 0.075041 0.000000
0.000000 0.058596 0.000000
0.025709 0.058596 0.000000
0.057306 0.058596 0.000000
0.110136 0.069973 0.000000
0.185538 0.083954 0.000000
0.282896 0.102055 0.000000
0.397266 0.123442 0.000000
0.522120 0.145227 0.000000
0.648912 0.164720 0.000000
0.764569 0.178278 0.000000
0.863257 0.185441 0.000000
0.939527 0.186779 0.000000
0.977496 0.183584 0.000000
0.992850 0.177803 0.000000
0.998387 0.170664 0.000000
0.999777 0.162284 0.000000
0.000000 0.110734 0.000000
0.031162 0.110734 0.000000
0.069467 0.110734 0.000000
0.111024 0.110734 0.000000
0.185538 0.131838 0.000000
0.282896 0.160257 0.000000
0.397266 0.193038 0.000000
0.522120 0.224217 0.000000
0.648912 0.250598 0.000000
0.764569 0.268526 0.000000
0.863257 0.277996 0.000000
0.939527 0.279759 0.000000
0.977496 0.275531 0.000000
0.992850 0.267884 0.000000
0.998387 0.258458 0.000000
0.999777 0.247380 0.000000
0.000000 0.183928 0.000000
0.037933 0.183928 0.000000
0.084552 0.183928 0.000000
0.135149 0.183928 0.000000
0.188334 0.183928 0.000000
0.282896 0.217689 0.000000
0.397266 0.257596 0.000000
0.522120 0.295679 0.000000
0.648912 0.328013 0.000000
0.764569 0.349997 0.000000
0.863257 0.361615 0.000000
0.939527 0.363786 0.000000
0.977496 0.358600 0.000000
0.992850 0.349214 0.000000
0.998387 0.337641 0.000000
0.999777 0.324067 0.000000
0.000000 0.275809 0.000000
0.046800 0.275809 0.000000
0.104333 0.275809 0.000000
0.166771 0.275809 0.000000
0.229575 0.275809 0.000000
0.288455 0.275809 0.000000
0.397266 0.317437 0.000000
0.522120 0.362098 0.000000
0.648912 0.400074 0.000000
0.764569 0.425905 0.000000
0.863257 0.439551 0.000000
0.939527 0.442154 0.000000
0.977496 0.435989 0.000000
0.992850 0.424959 0.000000
0.998387 0.411351 0.000000
0.999777 0.395413 0.000000
0.000000 0.381008 0.000000
0.057154 0.381008 0.000000
0.127406 0.381008 0.000000
0.202871 0.381008 0.000000
0.274254 0.381008 0.000000
0.341306 0.381008 0.000000
0.405208 0.381008 0.000000
0.522120 0.424873 0.000000
0.648912 0.468251 0.000000
0.764569 0.497769 0.000000
0.863257 0.513397 0.000000
0.939527 0.516366 0.000000
0.977496 0.509360 0.000000
0.992850 0.496721 0.000000
0.998387 0.481185 0.000000
0.999777 0.462962 0.000000
0.000000 0.493042 0.000000
0.067534 0.493042 0.000000
0.150556 0.493042 0.000000
0.236791 0.493042 0.000000
0.316304 0.493042 0.000000
0.391116 0.493042 0.000000
0.462534 0.493042 0.000000
0.531323 0.493042 0.000000
0.648912 0.533526 0.000000
0.764569 0.566595 0.000000
0.863257 0.584122 0.000000
0.939527 0.587393 0.000000
0.977496 0.579549 0.000000
0.992850 0.565434 0.000000
0.998387 0.548022 0.000000
0.999777 0.527566 0.000000
0.000000 0.604127 0.000000
0.076627 0.604127 0.000000
0.170827 0.604127 0.000000
0.264989 0.604127 0.000000
0.351329 0.604127 0.000000
0.432688 0.604127 0.000000
0.510427 0.604127 0.000000
0.585319 0.604127 0.000000
0.657841 0.604127 0.000000
0.764569 0.632832 0.000000
0.863257 0.652141 0.000000
0.939527 0.655828 0.000000
0.977496 0.647187 0.000000
0.992850 0.631543 0.000000
0.998387 0.612269 0.000000
0.999777 0.589783 0.000000
0.000000 0.702847 0.000000
0.082750 0.702847 0.000000
0.184383 0.702847 0.000000
0.283296 0.702847 0.000000
0.374116 0.702847 0.000000
0.459740 0.702847 0.000000
0.541569 0.702847 0.000000
0.620477 0.702847 0.000000
0.696897 0.702847 0.000000
0.771322 0.702847 0.000000
0.863257 0.718086 0.000000
0.939527 0.722072 0.000000
0.977496 0.712636 0.000000
0.992850 0.695590 0.000000
0.998387 0.674617 0.000000
0.999777 0.649960 0.000000
0.000000 0.784318 0.000000
0.085640 0.784318 0.000000
0.190667 0.784318 0.000000
0.291782 0.784318 0.000000
0.384682 0.784318 0.000000
0.472290 0.784318 0.000000
0.556032 0.784318 0.000000
0.636775 0.784318 0.000000
0.714957 0.784318 0.000000
0.791180 0.784318 0.000000
0.865607 0.784318 0.000000
0.939527 0.786567 0.000000
0.977496 0.776364 0.000000
0.992850 0.757859 0.000000
0.998387 0.735148 0.000000
0.999777 0.708440 0.000000
0.000000 0.846182 0.000000
0.085525 0.846182 0.000000
0.190433 0.846182 0.000000
0.291450 0.846182 0.000000
0.384285 0.846182 0.000000
0.471817 0.846182 0.000000
0.555473 0.846182 0.000000
0.636116 0.846182 0.000000
0.714288 0.846182 0.000000
0.790383 0.846182 0.000000
0.864754 0.846182 0.000000
0.936364 0.846182 0.000000
0.977496 0.838406 0.000000
0.992850 0.818584 0.000000
0.998387 0.794212 0.000000
0.999777 0.765624 0.000000
0.000000 0.891526 0.000000
0.083370 0.891526 0.000000
0.185733 0.891526 0.000000
0.285131 0.891526 0.000000
0.376407 0.891526 0.000000
0.462479 0.891526 0.000000
0.544707 0.891526 0.000000
0.624010 0.891526 0.000000
0.700833 0.891526 0.000000
0.775549 0.891526 0.000000
0.848704 0.891526 0.000000
0.920287 0.891526 0.000000
0.973018 0.891526 0.000000
0.992850 0.877965 0.000000
0.998387 0.851898 0.000000
0.999777 0.821352 0.000000
0.000000 0.925591 0.000000
0.080238 0.925591 0.000000
0.178852 0.925591 0.000000
0.275823 0.925591 0.000000
0.364803 0.925591 0.000000
0.448761 0.925591 0.000000
0.528832 0.925591 0.000000
0.606115 0.925591 0.000000
0.680966 0.925591 0.000000
0.753810 0.925591 0.000000
0.825058 0.925591 0.000000
0.894729 0.925591 0.000000
0.956338 0.925591 0.000000
0.989541 0.925591 0.000000
0.998387 0.908434 0.000000
0.999777 0.875971 0.000000
0.000000 0.952022 0.000000
0.076693 0.952022 0.000000
0.170976 0.952022 0.000000
0.265178 0.952022 0.000000
0.351587 0.952022 0.000000
0.432982 0.952022 0.000000
0.510731 0.952022 0.000000
0.585707 0.952022 0.000000
0.658296 0.952022 0.000000
0.728929 0.952022 0.000000
0.797983 0.952022 0.000000
0.865583 0.952022 0.000000
0.931268 0.952022 0.000000
0.976411 0.952022 0.000000
0.996596 0.952022 0.000000
0.999777 0.929632 0.000000
0.000000 0.971879 0.000000
0.072886 0.971879 0.000000
0.162497 0.971879 0.000000
0.253533 0.971879 0.000000
0.337127 0.971879 0.000000
0.415772 0.971879 0.000000
0.490951 0.971879 0.000000
0.563369 0.971879 0.000000
0.633489 0.971879 0.000000
0.701787 0.971879 0.000000
0.768470 0.971879 0.000000
0.833699 0.971879 0.000000
0.897804 0.971879 0.000000
0.954610 0.971879 0.000000
0.987066 0.971879 0.000000
0.999139 0.971879 0.000000
0.000000 0.000000 0.115584
0.020257 0.000000 0.115584
0.057131 0.000000 0.129945
0.110136 0.000000 0.142632
0.185538 0.000000 0.156723
0.282896 0.000000 0.173355
0.397266 0.000000 0.191285
0.522120 0.000000 0.208046
0.648912 0.000000 0.222031
0.764569 0.000000 0.231412
0.863257 0.000000 0.236337
0.939527 0.000000 0.237261
0.977496 0.000000 0.235061
0.992850 0.000000 0.231089
0.998387 0.000000 0.226149
0.999777 0.000000 0.220343
0.000000 0.021543 0.115584
0.020234 0.021533 0.115584
0.057131 0.021530 0.115739
0.110136 0.021530 0.116121
0.185538 0.021530 0.116819
0.282896 0.021530 0.117980
0.397266 0.021530 0.119534
0.522120 0.021530 0.121232
0.648912 0.021530 0.122756
0.764569 0.021530 0.123855
0.863257 0.021530 0.124421
0.939528 0.021530 0.124476
0.977496 0.021530 0.124143
0.992850 0.021530 0.123645
0.998387 0.021530 0.123146
0.999777 0.021530 0.122804
0.000000 0.058596 0.130142
0.020234 0.058596 0.115916
0.057279 0.058596 0.115584
0.110136 0.067496 0.115584
0.185538 0.079273 0.115584
0.282896 0.095003 0.115584
0.397266 0.113860 0.115584
0.522120 0.133227 0.115584
0.648912 0.150610 0.115584
0.764569 0.162867 0.115584
0.863258 0.169471 0.115584
0.939528 0.170675 0.115584
0.977496 0.167623 0.115584
0.992850 0.162207 0.115584
0.998387 0.155636 0.115584
0.999777 0.148068 0.115584
0.000000 0.110734 0.143204
0.020234 0.110734 0.116704
0.066779 0.110734 0.115584
0.110982 0.110734 0.115584
0.185538 0.130199 0.115584
0.282896 0.157048 0.115584
0.397266 0.188503 0.115584
0.522120 0.218622 0.115584
0.648912 0.244173 0.115584
0.764569 0.261502 0.115584
0.863258 0.270624 0.115584
0.939528 0.272280 0.115584
0.977496 0.268074 0.115584
0.992850 0.260576 0.115584
0.998387 0.251347 0.115584
0.999777 0.240509 0.115584
0.000000 0.183928 0.157912
0.020234 0.183928 0.118142
0.079437 0.183928 0.115584
0.133266 0.183928 0.115584
0.188278 0.183928 0.115584
0.282896 0.216547 0.115584
0.397266 0.255515 0.115584
0.522120 0.292814 0.115584
0.648912 0.324519 0.115584
0.764569 0.346079 0.115584
0.863258 0.357390 0.115584
0.939528 0.359440 0.115584
0.977496 0.354213 0.115584
0.992850 0.344890 0.115584
0.998387 0.333445 0.115584
0.999777 0.319981 0.115584
0.000000 0.275809 0.175342
0.020234 0.275809 0.120435
0.096531 0.275809 0.115584
0.163104 0.275809 0.115584
0.228206 0.275809 0.115584
0.288409 0.275809 0.115584
0.397266 0.316658 0.115584
0.522120 0.360622 0.115584
0.648912 0.398078 0.115584
0.764569 0.423543 0.115584
0.863258 0.436924 0.115584
0.939528 0.439397 0.115584
0.977496 0.433204 0.115584
0.992850 0.422166 0.115584
0.998387 0.408615 0.115584
0.999777 0.392731 0.115584
0.000000 0.381008 0.193625
0.020234 0.381008 0.123365
0.116754 0.381008 0.115584
0.197684 0.381008 0.115584
0.271814 0.381008 0.115584
0.340304 0.381008 0.115584
0.405128 0.381008 0.115584
0.522120 0.424302 0.115584
0.648912 0.467190 0.115584
0.764569 0.496366 0.115584
0.863258 0.511736 0.115584
0.939528 0.514535 0.115584
0.977496 0.507446 0.115584
0.992850 0.494793 0.115584
0.998387 0.479259 0.115584
0.999777 0.461053 0.115584
0.000000 0.493042 0.210400
0.020234 0.493042 0.126346
0.137216 0.493042 0.115584
0.230381 0.493042 0.115584
0.312979 0.493042 0.115584
0.389379 0.493042 0.115584
0.461789 0.493042 0.115584
0.531281 0.493042 0.115584
0.648912 0.533087 0.115584
0.764569 0.565795 0.115584
0.863258 0.583070 0.115584
0.939528 0.586200 0.115584
0.977496 0.578215 0.115584
0.992850 0.564046 0.115584
0.998387 0.546590 0.115584
0.999777 0.526193 0.115584
0.000000 0.604127 0.224048
0.020234 0.604127 0.128864
0.155210 0.604127 0.115584
0.257636 0.604127 0.115584
0.347299 0.604127 0.115584
0.430344 0.604127 0.115584
0.509092 0.604127 0.115584
0.584745 0.604127 0.115584
0.657814 0.604127 0.115584
0.764569 0.632521 0.115584
0.863258 0.651525 0.115584
0.939528 0.655069 0.115584
0.977496 0.646229 0.115584
0.992850 0.630528 0.115584
0.998387 0.611286 0.115584
0.999777 0.588716 0.115584
0.000000 0.702847 0.232768
0.020234 0.702847 0.130498
0.167325 0.702847 0.115584
0.275315 0.702847 0.115584
0.369559 0.702847 0.115584
0.456989 0.702847 0.115584
0.539879 0.702847 0.115584
0.619489 0.702847 0.115584
0.696440 0.702847 0.115584
0.771297 0.702847 0.115584
0.863258 0.717794 0.115584
0.939528 0.721715 0.115584
0.977496 0.712095 0.115584
0.992850 0.694945 0.115584
0.998387 0.673847 0.115584
0.999777 0.649231 0.115584
0.000000 0.784318 0.236780
0.020234 0.784318 0.131185
0.173021 0.784318 0.115584
0.283455 0.784318 0.115584
0.379835 0.784318 0.115584
0.469221 0.784318 0.115584
0.554025 0.784318 0.115584
0.635542 0.784318 0.115584
0.714210 0.784318 0.115584
0.790871 0.784318 0.115584
0.865608 0.784318 0.115584
0.939528 0.786355 0.115584
0.977496 0.775973 0.115584
0.992850 0.757424 0.115584
0.998387 0.734596 0.115584
0.999777 0.707928 0.115584
0.000000 0.846182 0.236621
0.020234 0.846182 0.130960
0.172724 0.846182 0.115584
0.283039 0.846182 0.115584
0.379322 0.846182 0.115584
0.468621 0.846182 0.115584
0.553343 0.846182 0.115584
0.634662 0.846182 0.115584
0.713325 0.846182 0.115584
0.789827 0.846182 0.115584
0.864499 0.846182 0.115584
0.936342 0.846182 0.115584
0.977496 0.838244 0.115584
0.992850 0.818322 0.115584
0.998387 0.793893 0.115584
0.999777 0.765240 0.115584
0.000000 0.891526 0.233634
0.020234 0.891527 0.130198
0.168390 0.891526 0.115584
0.276836 0.891526 0.115584
0.371476 0.891526 0.115584
0.459231 0.891526 0.115584
0.542468 0.891526 0.115584
0.622459 0.891526 0.115584
0.699735 0.891526 0.115584
0.774840 0.891526 0.115584
0.848292 0.891526 0.115584
0.920025 0.891526 0.115584
0.973047 0.891526 0.115584
0.992850 0.877848 0.115584
0.998387 0.851710 0.115584
0.999777 0.821101 0.115584
0.000000 0.925591 0.229230
0.020234 0.925591 0.129285
0.162100 0.925591 0.115584
0.267730 0.925591 0.115584
0.359986 0.925591 0.115584
0.445521 0.925591 0.115584
0.526617 0.925591 0.115584
0.604544 0.925591 0.115584
0.679813 0.925591 0.115584
0.753038 0.925591 0.115584
0.824543 0.925591 0.115584
0.894393 0.925591 0.115584
0.956244 0.925591 0.115584
0.989531 0.925591 0.115584
0.998387 0.908333 0.115584
0.999777 0.875795 0.115584
0.000000 0.952022 0.224138
0.020234 0.952022 0.128437
0.155000 0.952022 0.115584
0.257309 0.952022 0.115584
0.346878 0.952022 0.115584
0.429837 0.952022 0.115584
0.508550 0.952022 0.115584
0.584089 0.952022 0.115584
0.657063 0.952022 0.115584
0.728070 0.952022 0.115584
0.797338 0.952022 0.115584
0.865147 0.952022 0.115584
0.931026 0.952022 0.115584
0.976326 0.952022 0.115584
0.996594 0.952022 0.115584
0.999777 0.929542 0.115584
0.000000 0.971879 0.218537
0.020234 0.971880 0.127911
0.147374 0.971880 0.115584
0.245930 0.971880 0.115584
0.332542 0.971880 0.115584
0.412744 0.971880 0.115584
0.488794 0.971880 0.115584
0.561759 0.971880 0.115584
0.632278 0.971880 0.115584
0.700915 0.971880 0.115584
0.767798 0.971880 0.115584
0.833226 0.971880 0.115584
0.897472 0.971880 0.115584
0.954448 0.971880 0.115584
0.987008 0.971880 0.115584
0.999137 0.971880 0.115584
0.000000 0.000000 0.194218
0.025794 0.000000 0.194218
0.057497 0.000000 0.194218
0.110136 0.000000 0.212523
0.185538 0.000000 0.233495
0.282896 0.000000 0.258294
0.397266 0.000000 0.284996
0.522120 0.000000 0.309915
0.648912 0.000000 0.330708
0.764569 0.000000 0.344642
0.863257 0.000000 0.351938
0.939527 0.000000 0.353305
0.977496 0.000000 0.350065
0.992850 0.000000 0.344156
0.998387 0.000000 0.336824
0.999777 0.000000 0.328210
0.000000 0.027182 0.194218
0.020234 0.021601 0.194218
0.057443 0.021530 0.194218
0.110136 0.021530 0.208744
0.185538 0.021530 0.226970
0.282896 0.021530 0.249347
0.397266 0.021530 0.273892
0.522120 0.021530 0.297064
0.648912 0.021530 0.316475
0.764569 0.021530 0.329510
0.863257 0.021530 0.336303
0.939528 0.021530 0.337537
0.977496 0.021530 0.334404
0.992850 0.021530 0.328792
0.998387 0.021530 0.321881
0.999777 0.021530 0.313734
0.000000 0.058787 0.194218
0.020234 0.058764 0.194218
0.057131 0.058615 0.194218
0.110136 0.058596 0.194753
0.185538 0.058596 0.195841
0.282896 0.058596 0.197646
0.397266 0.058596 0.200090
0.522120 0.058596 0.202726
0.648912 0.058596 0.205108
0.764569 0.058596 0.206828
0.863257 0.058596 0.207704
0.939528 0.058596 0.207775
0.977496 0.058596 0.207209
0.992850 0.058596 0.206403
0.998387 0.058596 0.205624
0.999777 0.058596 0.205059
0.000000 0.110734 0.213364
0.020234 0.110734 0.209561
0.057131 0.110734 0.195374
0.110701 0.110734 0.194218
0.185538 0.123838 0.194218
0.282896 0.143259 0.194218
0.397266 0.167336 0.194218
0.522120 0.191756 0.194218
0.648912 0.212854 0.194218
0.764569 0.227158 0.194218
0.863257 0.234613 0.194218
0.939528 0.235696 0.194218
0.977496 0.231867 0.194218
0.992850 0.225239 0.194218
0.998387 0.217181 0.194218
0.999777 0.207766 0.194218
0.000000 0.183928 0.235280
0.020234 0.183928 0.228717
0.057131 0.183928 0.197618
0.125497 0.183928 0.194218
0.187917 0.183928 0.194218
0.282896 0.211983 0.194218
0.397266 0.246533 0.194218
0.522120 0.280124 0.194218
0.648912 0.308898 0.194218
0.764569 0.328399 0.194218
0.863257 0.338485 0.194218
0.939528 0.339979 0.194218
0.977496 0.334771 0.194218
0.992850 0.325744 0.194218
0.998387 0.314835 0.194218
0.999777 0.302059 0.194218
0.000000 0.275809 0.261223
0.020234 0.275809 0.252235
0.057131 0.275809 0.201245
0.146710 0.275809 0.194218
0.222222 0.275809 0.194218
0.288036 0.275809 0.194218
0.397266 0.313448 0.194218
0.522120 0.354401 0.194218
0.648912 0.389501 0.194218
0.764569 0.413244 0.194218
0.863257 0.425512 0.194218
0.939528 0.427329 0.194218
0.977496 0.420960 0.194218
0.992850 0.409992 0.194218
0.998387 0.396736 0.194218
0.999777 0.381164 0.194218
0.000000 0.381008 0.288497
0.020234 0.381008 0.277415
0.057131 0.381008 0.205874
0.172671 0.381008 0.194218
0.260713 0.381008 0.194218
0.335866 0.381008 0.194218
0.404808 0.381008 0.194218
0.522120 0.421930 0.194218
0.648912 0.462698 0.194218
0.764569 0.490257 0.194218
0.863257 0.504545 0.194218
0.939528 0.506690 0.194218
0.977496 0.499288 0.194218
0.992850 0.486539 0.194218
0.998387 0.471071 0.194218
0.999777 0.453058 0.194218
0.000000 0.493042 0.313446
0.020234 0.493042 0.300610
0.057131 0.493042 0.210569
0.198832 0.493042 0.194218
0.297637 0.493042 0.194218
0.381539 0.493042 0.194218
0.458388 0.493042 0.194218
0.530971 0.493042 0.194218
0.648912 0.531291 0.194218
0.764569 0.562486 0.194218
0.863257 0.578633 0.194218
0.939528 0.581039 0.194218
0.977496 0.572673 0.194218
0.992850 0.558265 0.194218
0.998387 0.540779 0.194218
0.999777 0.520412 0.194218
0.000000 0.604127 0.333715
0.020234 0.604127 0.319578
0.057131 0.604127 0.214538
0.221051 0.604127 0.194218
0.328649 0.604127 0.194218
0.419814 0.604127 0.194218
0.503296 0.604127 0.194218
0.582155 0.604127 0.194218
0.657552 0.604127 0.194218
0.764569 0.631155 0.194218
0.863257 0.649074 0.194218
0.939528 0.651734 0.194218
0.977496 0.642464 0.194218
0.992850 0.626510 0.194218
0.998387 0.607069 0.194218
0.999777 0.584473 0.194218
0.000000 0.702847 0.346648
0.020234 0.702847 0.331679
0.057131 0.702847 0.217137
0.235477 0.702847 0.194218
0.348683 0.702847 0.194218
0.444525 0.702847 0.194218
0.532285 0.702847 0.194218
0.615142 0.702847 0.194218
0.694420 0.702847 0.194218
0.771077 0.702847 0.194218
0.863257 0.716885 0.194218
0.939528 0.719761 0.194218
0.977496 0.709614 0.194218
0.992850 0.692123 0.194218
0.998387 0.670834 0.194218
0.999777 0.646062 0.194218
0.000000 0.784318 0.352592
0.020234 0.784318 0.337222
0.057131 0.784318 0.218185
0.241987 0.784318 0.194218
0.357680 0.784318 0.194218
0.455603 0.784318 0.194218
0.545301 0.784318 0.194218
0.629971 0.784318 0.194218
0.710906 0.784318 0.194218
0.789281 0.784318 0.194218
0.865371 0.784318 0.194218
0.939528 0.785583 0.194218
0.977496 0.774509 0.194218
0.992850 0.755590 0.194218
0.998387 0.732493 0.194218
0.999777 0.705693 0.194218
0.000000 0.846182 0.352370
0.020234 0.846182 0.336955
0.057131 0.846182 0.217805
0.241330 0.846182 0.194218
0.356749 0.846182 0.194218
0.454446 0.846182 0.194218
0.543938 0.846182 0.194218
0.628405 0.846182 0.194218
0.709163 0.846182 0.194218
0.787325 0.846182 0.194218
0.863273 0.846182 0.194218
0.936186 0.846182 0.194218
0.977496 0.837667 0.194218
0.992850 0.817244 0.194218
0.998387 0.792428 0.194218
0.999777 0.763539 0.194218
0.000000 0.891526 0.347947
0.020234 0.891527 0.332708
0.057131 0.891526 0.216544
0.235849 0.891526 0.194218
0.349095 0.891526 0.194218
0.445013 0.891526 0.194218
0.532834 0.891526 0.194218
0.615736 0.891526 0.194218
0.695122 0.891526 0.194218
0.771784 0.891526 0.194218
0.846348 0.891526 0.194218
0.919084 0.891526 0.194218
0.972946 0.891526 0.194218
0.992850 0.877390 0.194218
0.998387 0.850861 0.194218
0.999777 0.820010 0.194218
0.000000 0.925591 0.341413
0.020234 0.925591 0.326469
0.057131 0.925591 0.215046
0.227965 0.925591 0.194218
0.338127 0.925591 0.194218
0.431458 0.925591 0.194218
0.516969 0.925591 0.194218
0.597650 0.925591 0.194218
0.674894 0.925591 0.194218
0.749538 0.925591 0.194218
0.822158 0.925591 0.194218
0.892901 0.925591 0.194218
0.955730 0.925591 0.194218
0.989473 0.925591 0.194218
0.998387 0.907960 0.194218
0.999777 0.875191 0.194218
0.000000 0.952022 0.333835
0.020234 0.952022 0.319333
0.057131 0.952022 0.213700
0.218994 0.952022 0.194218
0.325652 0.952022 0.194218
0.416121 0.952022 0.194218
0.498973 0.952022 0.194218
0.577188 0.952022 0.194218
0.652013 0.952022 0.194218
0.724385 0.952022 0.194218
0.794777 0.952022 0.194218
0.863262 0.952022 0.194218
0.929965 0.952022 0.194218
0.976064 0.952022 0.194218
0.996569 0.952022 0.194218
0.999777 0.929338 0.194218
0.000000 0.971879 0.325527
0.020234 0.971880 0.311497
0.057131 0.971879 0.212846
0.209132 0.971879 0.194218
0.312140 0.971879 0.194218
0.399446 0.971879 0.194218
0.479444 0.971879 0.194218
0.554934 0.971879 0.194218
0.627215 0.971879 0.194218
0.697058 0.971879 0.194218
0.764980 0.971879 0.194218
0.831166 0.971879 0.194218
0.895976 0.971879 0.194218
0.953771 0.971879 0.194218
0.986879 0.971879 0.194218
0.999129 0.971879 0.194218
0.000000 0.000000 0.270594
0.031432 0.000000 0.270594
0.070070 0.000000 0.270594
0.111997 0.000000 0.270594
0.185538 0.000000 0.294826
0.282896 0.000000 0.326059
0.397266 0.000000 0.359658
0.522120 0.000000 0.391060
0.648912 0.000000 0.417168
0.764569 0.000000 0.434713
0.863257 0.000000 0.443923
0.939527 0.000000 0.445655
0.977496 0.000000 0.441538
0.992850 0.000000 0.434102
0.998387 0.000000 0.424899
0.999777 0.000000 0.414028
0.000000 0.032879 0.270594
0.020234 0.021764 0.270594
0.067354 0.021530 0.270594
0.111912 0.021530 0.270594
0.185538 0.021530 0.293041
0.282896 0.021530 0.322846
0.397266 0.021530 0.355282
0.522120 0.021530 0.385689
0.648912 0.021530 0.411131
0.764569 0.021530 0.428169
0.863257 0.021530 0.437085
0.939528 0.021530 0.438700
0.977496 0.021530 0.434606
0.992850 0.021530 0.427262
0.998387 0.021530 0.418221
0.999777 0.021530 0.407542
0.000000 0.071108 0.270594
0.020234 0.068565 0.270594
0.057131 0.059022 0.270594
0.111378 0.058596 0.270594
0.185538 0.058596 0.286341
0.282896 0.058596 0.309319
0.397266 0.058596 0.335610
0.522120 0.058596 0.360984
0.648912 0.058596 0.382505
0.764569 0.058596 0.396974
0.863257 0.058596 0.404416
0.939528 0.058596 0.405541
0.977496 0.058596 0.401701
0.992850 0.058596 0.395035
0.998387 0.058596 0.386976
0.999777 0.058596 0.377610
0.000000 0.111655 0.270594
0.020234 0.111616 0.270594
0.057131 0.111393 0.270594
0.110136 0.110806 0.270594
0.185538 0.110734 0.271709
0.282896 0.110734 0.273868
0.397266 0.110734 0.276806
0.522120 0.110734 0.279951
0.648912 0.110734 0.282783
0.764569 0.110734 0.284789
0.863257 0.110734 0.285801
0.939528 0.110734 0.285815
0.977496 0.110734 0.285074
0.992850 0.110734 0.284043
0.998387 0.110734 0.283038
0.999777 0.110734 0.282347
0.000000 0.183928 0.297089
0.020234 0.183928 0.295265
0.057131 0.183928 0.288341
0.110136 0.183928 0.273114
0.186933 0.183928 0.270594
0.282896 0.201946 0.270594
0.397266 0.225567 0.270594
0.522120 0.249605 0.270594
0.648912 0.270830 0.270594
0.764569 0.285222 0.270594
0.863258 0.292406 0.270594
0.939528 0.292923 0.270594
0.977496 0.288191 0.270594
0.992850 0.280579 0.270594
0.998387 0.271552 0.270594
0.999777 0.261105 0.270594
0.000000 0.275809 0.329756
0.020234 0.275809 0.326488
0.057131 0.275809 0.312880
0.110136 0.275809 0.277535
0.208238 0.275809 0.270594
0.287060 0.275809 0.270594
0.397266 0.306563 0.270594
0.522120 0.340812 0.270594
0.648912 0.370508 0.270594
0.764569 0.390408 0.270594
0.863258 0.400322 0.270594
0.939528 0.401009 0.270594
0.977496 0.394517 0.270594
0.992850 0.383991 0.270594
0.998387 0.371503 0.270594
0.999777 0.357139 0.270594
0.000000 0.381008 0.364056
0.020234 0.381008 0.359666
0.057131 0.381008 0.340112
0.110136 0.381008 0.283174
0.233852 0.381008 0.270594
0.325841 0.381008 0.270594
0.403883 0.381008 0.270594
0.522120 0.417004 0.270594
0.648912 0.453129 0.270594
0.764569 0.477355 0.270594
0.863258 0.489360 0.270594
0.939528 0.490191 0.270594
0.977496 0.482295 0.270594
0.992850 0.469572 0.270594
0.998387 0.454405 0.270594
0.999777 0.436976 0.270594
0.000000 0.493042 0.395455
0.020234 0.493042 0.390116
0.057131 0.493042 0.365788
0.110136 0.493042 0.288877
0.259678 0.493042 0.270594
0.363745 0.493042 0.270594
0.450927 0.493042 0.270594
0.530184 0.493042 0.270594
