LUT color transfer/LUTs/88.cube
LUT_3D_SIZE 16
0.000000 0.000000 0.000000
0.020256 0.000000 0.000000
0.057182 0.000000 0.000000
0.110240 0.000000 0.000000
0.185699 0.000000 0.000000
0.283085 0.000000 0.000000
0.397515 0.000000 0.000000
0.522461 0.000000 0.000000
0.649325 0.000000 0.000000
0.765075 0.000000 0.000000
0.863774 0.000000 0.000000
0.940052 0.000000 0.000000
0.977772 0.000000 0.000000
0.993035 0.000000 0.000000
0.998483 0.000000 0.000000
0.999751 0.000000 0.000000
0.000000 0.022713 0.000000
0.020265 0.022713 0.000000
0.057182 0.028533 0.000000
0.110240 0.034218 0.000000
0.185699 0.041135 0.000000
0.283085 0.050138 0.000000
0.397515 0.060880 0.000000
0.522461 0.071940 0.000000
0.649325 0.081974 0.000000
0.765075 0.089094 0.000000
0.863774 0.092997 0.000000
0.940052 0.093720 0.000000
0.977772 0.091978 0.000000
0.993035 0.088836 0.000000
0.998483 0.085062 0.000000
0.999751 0.080713 0.000000
0.000000 0.062534 0.000000
0.025734 0.062534 0.000000
0.057359 0.062534 0.000000
0.110240 0.075068 0.000000
0.185699 0.090738 0.000000
0.283085 0.111532 0.000000
0.397515 0.136966 0.000000
0.522461 0.163970 0.000000
0.649325 0.188618 0.000000
0.765075 0.205835 0.000000
0.863774 0.215077 0.000000
0.940052 0.216840 0.000000
0.977772 0.212702 0.000000
0.993035 0.205204 0.000000
0.998483 0.196105 0.000000
0.999751 0.185554 0.000000
0.000000 0.121731 0.000000
0.031195 0.121731 0.000000
0.069531 0.121731 0.000000
0.111113 0.121731 0.000000
0.185699 0.147210 0.000000
0.283085 0.183001 0.000000
0.397515 0.225078 0.000000
0.522461 0.267935 0.000000
0.649325 0.306450 0.000000
0.765075 0.333461 0.000000
0.863774 0.347930 0.000000
0.940052 0.350679 0.000000
0.977772 0.344162 0.000000
0.993035 0.332469 0.000000
0.998483 0.318207 0.000000
0.999751 0.301671 0.000000
0.000000 0.213123 0.000000
0.037971 0.213123 0.000000
0.084630 0.213123 0.000000
0.135269 0.213123 0.000000
0.188494 0.213123 0.000000
0.283085 0.258725 0.000000
0.397515 0.316918 0.000000
0.522461 0.375172 0.000000
0.649325 0.425129 0.000000
0.765075 0.458624 0.000000
0.863774 0.476012 0.000000
0.940052 0.479251 0.000000
0.977772 0.471550 0.000000
0.993035 0.457464 0.000000
0.998483 0.439890 0.000000
0.999751 0.419056 0.000000
0.000000 0.344594 0.000000
0.046840 0.344594 0.000000
0.104415 0.344594 0.000000
0.166917 0.344594 0.000000
0.229747 0.344594 0.000000
0.288659 0.344594 0.000000
0.397515 0.408831 0.000000
0.522461 0.476738 0.000000
0.649325 0.530841 0.000000
0.765075 0.564433 0.000000
0.863774 0.580732 0.000000
0.940052 0.583743 0.000000
0.977772 0.576605 0.000000
0.993035 0.563260 0.000000
0.998483 0.545914 0.000000
0.999751 0.524529 0.000000
0.000000 0.504286 0.000000
0.057204 0.504286 0.000000
0.127513 0.504286 0.000000
0.203045 0.504286 0.000000
0.274449 0.504286 0.000000
0.341541 0.504286 0.000000
0.405496 0.504286 0.000000
0.522461 0.563136 0.000000
0.649325 0.611155 0.000000
0.765075 0.637146 0.000000
0.863774 0.648937 0.000000
0.940052 0.651014 0.000000
0.977772 0.646020 0.000000
0.993035 0.636322 0.000000
0.998483 0.623202 0.000000
0.999751 0.605951 0.000000
0.000000 0.633357 0.000000
0.067592 0.633357 0.000000
0.150685 0.633357 0.000000
0.236979 0.633357 0.000000
0.316537 0.633357 0.000000
0.391397 0.633357 0.000000
0.462835 0.633357 0.000000
0.531678 0.633357 0.000000
0.649325 0.662279 0.000000
0.765075 0.680341 0.000000
0.863774 0.688270 0.000000
0.940052 0.689621 0.000000
0.977772 0.686319 0.000000
0.993035 0.679755 0.000000
0.998483 0.670740 0.000000
0.999751 0.658569 0.000000
0.000000 0.696096 0.000000
0.076694 0.696096 0.000000
0.170978 0.696096 0.000000
0.265181 0.696096 0.000000
0.351583 0.696096 0.000000
0.432970 0.696096 0.000000
0.510755 0.696096 0.000000
0.585717 0.696096 0.000000
0.658295 0.696096 0.000000
0.765075 0.705643 0.000000
0.863774 0.711376 0.000000
0.940052 0.712403 0.000000
0.977772 0.709877 0.000000
0.993035 0.705304 0.000000
0.998483 0.699001 0.000000
0.999751 0.690620 0.000000
0.000000 0.725629 0.000000
0.082824 0.725629 0.000000
0.184540 0.725629 0.000000
0.283498 0.725629 0.000000
0.374360 0.725629 0.000000
0.460061 0.725629 0.000000
0.541932 0.725629 0.000000
0.620887 0.725629 0.000000
0.697345 0.725629 0.000000
0.771772 0.725629 0.000000
0.863774 0.730123 0.000000
0.940052 0.731430 0.000000
0.977772 0.728405 0.000000
0.993035 0.723482 0.000000
0.998483 0.717589 0.000000
0.999751 0.710677 0.000000
0.000000 0.756756 0.000000
0.085717 0.756756 0.000000
0.190825 0.756756 0.000000
0.291996 0.756756 0.000000
0.384970 0.756756 0.000000
0.472603 0.756756 0.000000
0.556409 0.756756 0.000000
0.637188 0.756756 0.000000
0.715434 0.756756 0.000000
0.791647 0.756756 0.000000
0.866164 0.756756 0.000000
0.940052 0.757899 0.000000
0.977772 0.752656 0.000000
0.993035 0.744405 0.000000
0.998483 0.735756 0.000000
0.999751 0.727220 0.000000
0.000000 0.799827 0.000000
0.085610 0.799827 0.000000
0.190595 0.799827 0.000000
0.291672 0.799827 0.000000
0.384545 0.799827 0.000000
0.472124 0.799827 0.000000
0.555842 0.799827 0.000000
0.636549 0.799827 0.000000
0.714735 0.799827 0.000000
0.790888 0.799827 0.000000
0.865306 0.799827 0.000000
0.936823 0.799827 0.000000
0.977772 0.793038 0.000000
0.993035 0.777659 0.000000
0.998483 0.762127 0.000000
0.999751 0.747761 0.000000
0.000000 0.849092 0.000000
0.083441 0.849092 0.000000
0.185900 0.849092 0.000000
0.285332 0.849092 0.000000
0.376670 0.849092 0.000000
0.462797 0.849092 0.000000
0.545046 0.849092 0.000000
0.624410 0.849092 0.000000
0.701244 0.849092 0.000000
0.776065 0.849092 0.000000
0.849297 0.849092 0.000000
0.920769 0.849092 0.000000
0.973336 0.849092 0.000000
0.993035 0.832487 0.000000
0.998483 0.805120 0.000000
0.999751 0.779625 0.000000
0.000000 0.898422 0.000000
0.080305 0.898422 0.000000
0.179012 0.898422 0.000000
0.276025 0.898422 0.000000
0.365071 0.898422 0.000000
0.449065 0.898422 0.000000
0.529192 0.898422 0.000000
0.606495 0.898422 0.000000
0.681399 0.898422 0.000000
0.754289 0.898422 0.000000
0.825591 0.898422 0.000000
0.895276 0.898422 0.000000
0.956750 0.898422 0.000000
0.989723 0.898422 0.000000
0.998483 0.872249 0.000000
0.999751 0.830178 0.000000
0.000000 0.942053 0.000000
0.076759 0.942053 0.000000
0.171120 0.942053 0.000000
0.265368 0.942053 0.000000
0.351822 0.942053 0.000000
0.433285 0.942053 0.000000
0.511046 0.942053 0.000000
0.586073 0.942053 0.000000
0.658702 0.942053 0.000000
0.729395 0.942053 0.000000
0.798483 0.942053 0.000000
0.866122 0.942053 0.000000
0.931783 0.942053 0.000000
0.976700 0.942053 0.000000
0.996688 0.942053 0.000000
0.999751 0.904946 0.000000
0.000000 0.971863 0.000000
0.072954 0.971863 0.000000
0.162642 0.971863 0.000000
0.253714 0.971863 0.000000
0.337348 0.971863 0.000000
0.416085 0.971863 0.000000
0.491260 0.971863 0.000000
0.563712 0.971863 0.000000
0.633934 0.971863 0.000000
0.702264 0.971863 0.000000
0.768944 0.971863 0.000000
0.834194 0.971863 0.000000
0.898349 0.971863 0.000000
0.955044 0.971863 0.000000
0.987262 0.971863 0.000000
0.999210 0.971863 0.000000
0.000000 0.000000 0.115653
0.020278 0.000000 0.115653
0.057182 0.000000 0.130008
0.110240 0.000000 0.142699
0.185699 0.000000 0.156793
0.283085 0.000000 0.173444
0.397515 0.000000 0.191362
0.522461 0.000000 0.208138
0.649325 0.000000 0.222129
0.765075 0.000000 0.231524
0.863774 0.000000 0.236444
0.940052 0.000000 0.237359
0.977772 0.000000 0.235158
0.993035 0.000000 0.231183
0.998483 0.000000 0.226264
0.999751 0.000000 0.220434
0.000000 0.022725 0.115653
0.020256 0.022717 0.115653
0.057182 0.022713 0.115815
0.110240 0.022713 0.116189
0.185699 0.022713 0.116869
0.283085 0.022713 0.118045
0.397515 0.022713 0.119585
0.522461 0.022713 0.121303
0.649325 0.022713 0.122815
0.765075 0.022713 0.123919
0.863774 0.022713 0.124486
0.940052 0.022713 0.124539
0.977772 0.022713 0.124204
0.993035 0.022713 0.123710
0.998483 0.022713 0.123211
0.999751 0.022713 0.122860
0.000000 0.062534 0.130201
0.020256 0.062534 0.115988
0.057331 0.062534 0.115653
0.110240 0.072327 0.115653
0.185699 0.085465 0.115653
0.283085 0.103359 0.115653
0.397515 0.125445 0.115653
0.522461 0.148937 0.115653
0.649325 0.170801 0.115653
0.765075 0.186302 0.115653
0.863774 0.194585 0.115653
0.940052 0.196122 0.115653
0.977772 0.192260 0.115653
0.993035 0.185470 0.115653
0.998483 0.177171 0.115653
0.999751 0.167559 0.115653
0.000000 0.121731 0.143272
0.020256 0.121731 0.116756
0.066842 0.121731 0.115653
0.111071 0.121731 0.115653
0.185699 0.145204 0.115653
0.283085 0.178946 0.115653
0.397515 0.219074 0.115653
0.522461 0.260016 0.115653
0.649325 0.296921 0.115653
0.765075 0.322811 0.115653
0.863774 0.336648 0.115653
0.940052 0.339196 0.115653
0.977772 0.332797 0.115653
0.993035 0.321407 0.115653
0.998483 0.307578 0.115653
0.999751 0.291529 0.115653
0.000000 0.213123 0.157986
0.020256 0.213123 0.118211
0.079507 0.213123 0.115653
0.133382 0.213123 0.115653
0.188426 0.213123 0.115653
0.283085 0.257106 0.115653
0.397515 0.313793 0.115653
0.522461 0.370725 0.115653
0.649325 0.419764 0.115653
0.765075 0.452729 0.115653
0.863774 0.469749 0.115653
0.940052 0.472799 0.115653
0.977772 0.465019 0.115653
0.993035 0.450942 0.115653
0.998483 0.433498 0.115653
0.999751 0.412768 0.115653
0.000000 0.344594 0.175409
0.020256 0.344594 0.120502
0.096617 0.344594 0.115653
0.163258 0.344594 0.115653
0.228391 0.344594 0.115653
0.288599 0.344594 0.115653
0.397515 0.407635 0.115653
0.522461 0.474545 0.115653
0.649325 0.528195 0.115653
0.765075 0.561487 0.115653
0.863774 0.577671 0.115653
0.940052 0.580537 0.115653
0.977772 0.573291 0.115653
0.993035 0.559784 0.115653
0.998483 0.542298 0.115653
0.999751 0.520804 0.115653
0.000000 0.504286 0.193713
0.020256 0.504286 0.123430
0.116847 0.504286 0.115653
0.197846 0.504286 0.115653
0.272007 0.504286 0.115653
0.340536 0.504286 0.115653
0.405428 0.504286 0.115653
0.522461 0.562445 0.115653
0.649325 0.610139 0.115653
0.765075 0.636033 0.115653
0.863774 0.647770 0.115653
0.940052 0.649735 0.115653
0.977772 0.644598 0.115653
0.993035 0.634756 0.115653
0.998483 0.621473 0.115653
0.999751 0.604061 0.115653
0.000000 0.633357 0.210496
0.020256 0.633357 0.126413
0.137328 0.633357 0.115653
0.230545 0.633357 0.115653
0.313214 0.633357 0.115653
0.389636 0.633357 0.115653
0.462124 0.633357 0.115653
0.531634 0.633357 0.115653
0.649325 0.662006 0.115653
0.765075 0.679971 0.115653
0.863774 0.687769 0.115653
0.940052 0.689066 0.115653
0.977772 0.685714 0.115653
0.993035 0.679085 0.115653
0.998483 0.669974 0.115653
0.999751 0.657671 0.115653
0.000000 0.696096 0.224140
0.020256 0.696096 0.128933
0.155353 0.696096 0.115653
0.257827 0.696096 0.115653
0.347543 0.696096 0.115653
0.430642 0.696096 0.115653
0.509423 0.696096 0.115653
0.585109 0.696096 0.115653
0.658271 0.696096 0.115653
0.765075 0.705579 0.115653
0.863774 0.711193 0.115653
0.940052 0.712186 0.115653
0.977772 0.709623 0.115653
0.993035 0.704946 0.115653
0.998483 0.698628 0.115653
0.999751 0.690152 0.115653
0.000000 0.725629 0.232869
0.020256 0.725629 0.130563
0.167470 0.725629 0.115653
0.275524 0.725629 0.115653
0.369831 0.725629 0.115653
0.457286 0.725629 0.115653
0.540227 0.725629 0.115653
0.619891 0.725629 0.115653
0.696897 0.725629 0.115653
0.771776 0.725629 0.115653
0.863774 0.730069 0.115653
0.940052 0.731327 0.115653
0.977772 0.728272 0.115653
0.993035 0.723285 0.115653
0.998483 0.717407 0.115653
0.999751 0.710567 0.115653
0.000000 0.756756 0.236877
0.020256 0.756756 0.131255
0.173165 0.756756 0.115653
0.283675 0.756756 0.115653
0.380118 0.756756 0.115653
0.469548 0.756756 0.115653
0.554392 0.756756 0.115653
0.635945 0.756756 0.115653
0.714709 0.756756 0.115653
0.791340 0.756756 0.115653
0.866165 0.756756 0.115653
0.940052 0.757779 0.115653
0.977772 0.752508 0.115653
0.993035 0.744159 0.115653
0.998483 0.735561 0.115653
0.999751 0.727055 0.115653
0.000000 0.799827 0.236722
0.020256 0.799827 0.131036
0.172895 0.799827 0.115653
0.283234 0.799827 0.115653
0.379611 0.799827 0.115653
0.468928 0.799827 0.115653
0.553694 0.799827 0.115653
0.635103 0.799827 0.115653
0.713831 0.799827 0.115653
0.790309 0.799827 0.115653
0.865024 0.799827 0.115653
0.936796 0.799827 0.115653
0.977772 0.792875 0.115653
0.993035 0.777484 0.115653
0.998483 0.761921 0.115653
0.999751 0.747591 0.115653
0.000000 0.849092 0.233744
0.020256 0.849092 0.130257
0.168536 0.849092 0.115653
0.277048 0.849092 0.115653
0.371740 0.849092 0.115653
0.459536 0.849092 0.115653
0.542831 0.849092 0.115653
0.622889 0.849092 0.115653
0.700233 0.849092 0.115653
0.775377 0.849092 0.115653
0.848810 0.849092 0.115653
0.920560 0.849092 0.115653
0.973359 0.849092 0.115653
0.993035 0.832336 0.115653
0.998483 0.804877 0.115653
0.999751 0.779499 0.115653
0.000000 0.898422 0.229336
0.020256 0.898422 0.129353
0.162226 0.898422 0.115653
0.267934 0.898422 0.115653
0.360243 0.898422 0.115653
0.445842 0.898422 0.115653
0.526951 0.898422 0.115653
0.604923 0.898422 0.115653
0.680279 0.898422 0.115653
0.753472 0.898422 0.115653
0.825078 0.898422 0.115653
0.894928 0.898422 0.115653
0.956650 0.898422 0.115653
0.989710 0.898422 0.115653
0.998483 0.872110 0.115653
0.999751 0.829983 0.115653
0.000000 0.942053 0.224240
0.020256 0.942053 0.128501
0.155143 0.942053 0.115653
0.257510 0.942053 0.115653
0.347142 0.942053 0.115653
0.430129 0.942053 0.115653
0.508908 0.942053 0.115653
0.584470 0.942053 0.115653
0.657507 0.942053 0.115653
0.728497 0.942053 0.115653
0.797841 0.942053 0.115653
0.865623 0.942053 0.115653
0.931514 0.942053 0.115653
0.976656 0.942053 0.115653
0.996686 0.942053 0.115653
0.999751 0.904815 0.115653
0.000000 0.971863 0.218642
0.020256 0.971863 0.127971
0.147504 0.971863 0.115653
0.246113 0.971863 0.115653
0.332783 0.971863 0.115653
0.412996 0.971863 0.115653
0.489120 0.971863 0.115653
0.562138 0.971863 0.115653
0.632691 0.971863 0.115653
0.701367 0.971863 0.115653
0.768254 0.971863 0.115653
0.833685 0.971863 0.115653
0.898039 0.971863 0.115653
0.954849 0.971863 0.115653
0.987224 0.971863 0.115653
0.999207 0.971863 0.115653
0.000000 0.000000 0.194304
0.025817 0.000000 0.194304
0.057547 0.000000 0.194304
0.110240 0.000000 0.212611
0.185699 0.000000 0.233594
0.283085 0.000000 0.258414
0.397515 0.000000 0.285123
0.522461 0.000000 0.310072
0.649325 0.000000 0.330869
0.765075 0.000000 0.344789
0.863774 0.000000 0.352098
0.940052 0.000000 0.353480
0.977772 0.000000 0.350228
0.993035 0.000000 0.344305
0.998483 0.000000 0.336981
0.999751 0.000000 0.328337
0.000000 0.028710 0.194304
0.020256 0.022788 0.194304
0.057493 0.022713 0.194304
0.110240 0.022713 0.208831
0.185699 0.022713 0.227069
0.283085 0.022713 0.249462
0.397515 0.022713 0.274000
0.522461 0.022713 0.297194
0.649325 0.022713 0.316596
0.765075 0.022713 0.329631
0.863774 0.022713 0.336459
0.940052 0.022713 0.337684
0.977772 0.022713 0.334557
0.993035 0.022713 0.328934
0.998483 0.022713 0.322019
0.999751 0.022713 0.313868
0.000000 0.062747 0.194304
0.020256 0.062721 0.194304
0.057182 0.062554 0.194304
0.110240 0.062534 0.194838
0.185699 0.062534 0.195918
0.283085 0.062534 0.197732
0.397515 0.062534 0.200168
0.522461 0.062534 0.202808
0.649325 0.062534 0.205201
0.765075 0.062534 0.206913
0.863774 0.062534 0.207798
0.940052 0.062534 0.207857
0.977772 0.062534 0.207296
0.993035 0.062534 0.206498
0.998483 0.062534 0.205710
0.999751 0.062534 0.205155
0.000000 0.121731 0.213465
0.020256 0.121731 0.209651
0.057182 0.121731 0.195469
0.110790 0.121731 0.194304
0.185699 0.137436 0.194304
0.283085 0.161467 0.194304
0.397515 0.191906 0.194304
0.522461 0.223379 0.194304
0.649325 0.251946 0.194304
0.765075 0.272148 0.194304
0.863774 0.282903 0.194304
0.940052 0.284504 0.194304
0.977772 0.278938 0.194304
0.993035 0.269407 0.194304
0.998483 0.257995 0.194304
0.999751 0.244931 0.194304
0.000000 0.213123 0.235386
0.020256 0.213123 0.228811
0.057182 0.213123 0.197711
0.125598 0.213123 0.194304
0.188079 0.213123 0.194304
0.283085 0.250760 0.194304
0.397515 0.300403 0.194304
0.522461 0.351184 0.194304
0.649325 0.395626 0.194304
0.765075 0.425725 0.194304
0.863774 0.441190 0.194304
0.940052 0.443429 0.194304
0.977772 0.435514 0.194304
0.993035 0.421680 0.194304
0.998483 0.404800 0.194304
0.999751 0.385055 0.194304
0.000000 0.344594 0.261343
0.020256 0.344594 0.252343
0.057182 0.344594 0.201341
0.146836 0.344594 0.194304
0.222404 0.344594 0.194304
0.288231 0.344594 0.194304
0.397515 0.402673 0.194304
0.522461 0.465281 0.194304
0.649325 0.516305 0.194304
0.765075 0.548363 0.194304
0.863774 0.563924 0.194304
0.940052 0.566167 0.194304
0.977772 0.558275 0.194304
0.993035 0.544160 0.194304
0.998483 0.526295 0.194304
0.999751 0.504541 0.194304
0.000000 0.504286 0.288617
0.020256 0.504286 0.277532
0.057182 0.504286 0.205958
0.172808 0.504286 0.194304
0.260894 0.504286 0.194304
0.336114 0.504286 0.194304
0.405089 0.504286 0.194304
0.522461 0.559463 0.194304
0.649325 0.605688 0.194304
0.765075 0.631016 0.194304
0.863774 0.642388 0.194304
0.940052 0.644044 0.194304
0.977772 0.638353 0.194304
0.993035 0.627909 0.194304
0.998483 0.613905 0.194304
0.999751 0.595705 0.194304
0.000000 0.633357 0.313568
0.020256 0.633357 0.300740
0.057182 0.633357 0.210664
0.199007 0.633357 0.194304
0.297846 0.633357 0.194304
0.381800 0.633357 0.194304
0.458698 0.633357 0.194304
0.531327 0.633357 0.194304
0.649325 0.660929 0.194304
0.765075 0.678297 0.194304
0.863774 0.685886 0.194304
0.940052 0.686910 0.194304
0.977772 0.683207 0.194304
0.993035 0.676227 0.194304
0.998483 0.666646 0.194304
0.999751 0.653808 0.194304
0.000000 0.696096 0.333835
0.020256 0.696096 0.319715
0.057182 0.696096 0.214630
0.221236 0.696096 0.194304
0.328870 0.696096 0.194304
0.420101 0.696096 0.194304
0.503617 0.696096 0.194304
0.582526 0.696096 0.194304
0.658006 0.696096 0.194304
0.765075 0.705131 0.194304
0.863774 0.710478 0.194304
0.940052 0.711263 0.194304
0.977772 0.708457 0.194304
0.993035 0.703626 0.194304
0.998483 0.697108 0.194304
0.999751 0.688384 0.194304
0.000000 0.725629 0.346819
0.020256 0.725629 0.331834
0.057182 0.725629 0.217227
0.235651 0.725629 0.194304
0.348939 0.725629 0.194304
0.444836 0.725629 0.194304
0.532635 0.725629 0.194304
0.615524 0.725629 0.194304
0.694897 0.725629 0.194304
0.771612 0.725629 0.194304
0.863774 0.729637 0.194304
0.940052 0.730686 0.194304
0.977772 0.727556 0.194304
0.993035 0.722495 0.194304
0.998483 0.716653 0.194304
0.999751 0.709582 0.194304
0.000000 0.756756 0.352766
0.020256 0.756756 0.337369
0.057182 0.756756 0.218271
0.242171 0.756756 0.194304
0.357933 0.756756 0.194304
0.455894 0.756756 0.194304
0.545638 0.756756 0.194304
0.630320 0.756756 0.194304
0.711375 0.756756 0.194304
0.789774 0.756756 0.194304
0.865876 0.756756 0.194304
0.940052 0.757360 0.194304
0.977772 0.751870 0.194304
0.993035 0.743459 0.194304
0.998483 0.734862 0.194304
0.999751 0.726420 0.194304
0.000000 0.799827 0.352517
0.020256 0.799827 0.337080
0.057182 0.799827 0.217908
0.241520 0.799827 0.194304
0.357007 0.799827 0.194304
0.454729 0.799827 0.194304
0.544283 0.799827 0.194304
0.628828 0.799827 0.194304
0.709597 0.799827 0.194304
0.787822 0.799827 0.194304
0.863835 0.799827 0.194304
0.936687 0.799827 0.194304
0.977772 0.792407 0.194304
0.993035 0.776702 0.194304
0.998483 0.761106 0.194304
0.999751 0.746811 0.194304
0.000000 0.849092 0.348093
0.020256 0.849092 0.332849
0.057182 0.849092 0.216649
0.236031 0.849092 0.194304
0.349335 0.849092 0.194304
0.445312 0.849092 0.194304
0.533210 0.849092 0.194304
0.616126 0.849092 0.194304
0.695527 0.849092 0.194304
0.772295 0.849092 0.194304
0.846890 0.849092 0.194304
0.919618 0.849092 0.194304
0.973240 0.849092 0.194304
0.993035 0.831863 0.194304
0.998483 0.804149 0.194304
0.999751 0.778665 0.194304
0.000000 0.898422 0.341539
0.020256 0.898422 0.326612
0.057182 0.898422 0.215150
0.228158 0.898422 0.194304
0.338355 0.898422 0.194304
0.431780 0.898422 0.194304
0.517317 0.898422 0.194304
0.598025 0.898422 0.194304
0.675288 0.898422 0.194304
0.750033 0.898422 0.194304
0.822660 0.898422 0.194304
0.893413 0.898422 0.194304
0.956146 0.898422 0.194304
0.989657 0.898422 0.194304
0.998483 0.871600 0.194304
0.999751 0.829280 0.194304
0.000000 0.942053 0.333976
0.020256 0.942053 0.319469
0.057182 0.942053 0.213791
0.219176 0.942053 0.194304
0.325889 0.942053 0.194304
0.416417 0.942053 0.194304
0.499314 0.942053 0.194304
0.577555 0.942053 0.194304
0.652435 0.942053 0.194304
0.724837 0.942053 0.194304
0.795243 0.942053 0.194304
0.863815 0.942053 0.194304
0.930459 0.942053 0.194304
0.976355 0.942053 0.194304
0.996661 0.942053 0.194304
0.999751 0.904461 0.194304
0.000000 0.971863 0.325651
0.020256 0.971863 0.311633
0.057182 0.971863 0.212944
0.209297 0.971863 0.194304
0.312343 0.971863 0.194304
0.399727 0.971863 0.194304
0.479755 0.971863 0.194304
0.555291 0.971863 0.194304
0.627603 0.971863 0.194304
0.697556 0.971863 0.194304
0.765455 0.971863 0.194304
0.831691 0.971863 0.194304
0.896534 0.971863 0.194304
0.954201 0.971863 0.194304
0.987029 0.971863 0.194304
0.999197 0.971863 0.194304
0.000000 0.000000 0.270708
0.031459 0.000000 0.270708
0.070135 0.000000 0.270708
0.112092 0.000000 0.270708
0.185699 0.000000 0.294962
0.283085 0.000000 0.326199
0.397515 0.000000 0.359836
0.522461 0.000000 0.391225
0.649325 0.000000 0.417352
0.765075 0.000000 0.434886
0.863774 0.000000 0.444106
0.940052 0.000000 0.445842
0.977772 0.000000 0.441722
0.993035 0.000000 0.434284
0.998483 0.000000 0.425062
0.999751 0.000000 0.414193
0.000000 0.034774 0.270708
0.020256 0.022954 0.270708
0.067416 0.022713 0.270708
0.112005 0.022713 0.270708
0.185699 0.022713 0.293172
0.283085 0.022713 0.322984
0.397515 0.022713 0.355414
0.522461 0.022713 0.385850
0.649325 0.022713 0.411297
0.765075 0.022713 0.428365
0.863774 0.022713 0.437265
0.940052 0.022713 0.438884
0.977772 0.022713 0.434784
0.993035 0.022713 0.427441
0.998483 0.022713 0.418395
0.999751 0.022713 0.407699
0.000000 0.076336 0.270708
0.020256 0.073513 0.270708
0.057182 0.063005 0.270708
0.111478 0.062534 0.270708
0.185699 0.062534 0.286463
0.283085 0.062534 0.309468
0.397515 0.062534 0.335751
0.522461 0.062534 0.361151
0.649325 0.062534 0.382688
0.765075 0.062534 0.397140
0.863774 0.062534 0.404590
0.940052 0.062534 0.405712
0.977772 0.062534 0.401887
0.993035 0.062534 0.395185
0.998483 0.062534 0.387152
0.999751 0.062534 0.377764
0.000000 0.122828 0.270708
0.020256 0.122779 0.270708
0.057182 0.122508 0.270708
0.110240 0.121825 0.270708
0.185699 0.121731 0.271824
0.283085 0.121731 0.273986
0.397515 0.121731 0.276926
0.522461 0.121731 0.280069
0.649325 0.121731 0.282909
0.765075 0.121731 0.284922
0.863774 0.121731 0.285915
0.940052 0.121731 0.285917
0.977772 0.121731 0.285200
0.993035 0.121731 0.284160
0.998483 0.121731 0.283159
0.999751 0.121731 0.282449
0.000000 0.213123 0.297205
0.020256 0.213123 0.295374
0.057182 0.213123 0.288463
0.110240 0.213123 0.273217
0.187106 0.213123 0.270708
0.283085 0.237009 0.270708
0.397515 0.269859 0.270708
0.522461 0.304972 0.270708
0.649325 0.336976 0.270708
0.765075 0.359021 0.270708
0.863774 0.370103 0.270708
0.940052 0.370910 0.270708
0.977772 0.363610 0.270708
0.993035 0.351891 0.270708
0.998483 0.338072 0.270708
0.999751 0.322214 0.270708
0.000000 0.344594 0.329879
0.020256 0.344594 0.326629
0.057182 0.344594 0.313026
0.110240 0.344594 0.277659
0.208407 0.344594 0.270708
0.287277 0.344594 0.270708
0.397515 0.392057 0.270708
0.522461 0.444739 0.270708
0.649325 0.489085 0.270708
0.765075 0.517572 0.270708
0.863774 0.531227 0.270708
0.940052 0.532157 0.270708
0.977772 0.523243 0.270708
0.993035 0.508532 0.270708
0.998483 0.490593 0.270708
0.999751 0.469392 0.270708
0.000000 0.504286 0.364229
0.020256 0.504286 0.359839
0.057182 0.504286 0.340278
0.110240 0.504286 0.283291
0.234010 0.504286 0.270708
0.326059 0.504286 0.270708
0.404179 0.504286 0.270708
0.522461 0.553261 0.270708
0.649325 0.595804 0.270708
0.765075 0.619720 0.270708
0.863774 0.630243 0.270708
0.940052 0.630938 0.270708
0.977772 0.624152 0.270708
0.993035 0.612436 0.270708
0.998483 0.597161 0.270708
0.999751 0.577729 0.270708
0.000000 0.633357 0.395601
0.020256 0.633357 0.390264
0.057182 0.633357 0.365941
0.110240 0.633357 0.288983
0.259876 0.633357 0.270708
0.363981 0.633357 0.270708
0.451228 0.633357 0.270708
0.530557 0.633357 0.270708
