LUT color transfer/LUTs/88.cube
LUT_3D_SIZE 6
0.000000 0.000000 0.000000
0.110240 0.000000 0.000000
0.397515 0.000000 0.000000
0.765075 0.000000 0.000000
0.977772 0.000000 0.000000
0.999751 0.000000 0.000000
0.000000 0.121731 0.000000
0.111113 0.121731 0.000000
0.397515 0.225078 0.000000
0.765075 0.333461 0.000000
0.977772 0.344162 0.000000
0.999751 0.301671 0.000000
0.000000 0.504286 0.000000
0.203045 0.504286 0.000000
0.405496 0.504286 0.000000
0.765075 0.637146 0.000000
0.977772 0.646020 0.000000
0.999751 0.605951 0.000000
0.000000 0.725629 0.000000
0.283498 0.725629 0.000000
0.541932 0.725629 0.000000
0.771772 0.725629 0.000000
0.977772 0.728405 0.000000
0.999751 0.710677 0.000000
0.000000 0.849092 0.000000
0.285332 0.849092 0.000000
0.545046 0.849092 0.000000
0.776065 0.849092 0.000000
0.973336 0.849092 0.000000
0.999751 0.779625 0.000000
0.000000 0.971863 0.000000
0.253714 0.971863 0.000000
0.491260 0.971863 0.000000
0.702264 0.971863 0.000000
0.898349 0.971863 0.000000
0.999210 0.971863 0.000000
0.000000 0.000000 0.270708
0.112092 0.000000 0.270708
0.397515 0.000000 0.359836
0.765075 0.000000 0.434886
0.977772 0.000000 0.441722
0.999751 0.000000 0.414193
0.000000 0.122828 0.270708
0.110240 0.121825 0.270708
0.397515 0.121731 0.276926
0.765075 0.121731 0.284922
0.977772 0.121731 0.285200
0.999751 0.121731 0.282449
0.000000 0.504286 0.364229
0.110240 0.504286 0.283291
0.404179 0.504286 0.270708
0.765075 0.619720 0.270708
0.977772 0.624152 0.270708
0.999751 0.577729 0.270708
0.000000 0.725629 0.437452
0.110240 0.725629 0.296948
0.516131 0.725629 0.270708
0.770948 0.725629 0.270708
0.977772 0.726123 0.270708
0.999751 0.707859 0.270708
0.000000 0.849092 0.439073
0.110240 0.849092 0.295879
0.512733 0.849092 0.270708
0.765900 0.849092 0.270708
0.973069 0.849092 0.270708
0.999751 0.777243 0.270708
0.000000 0.971863 0.410789
0.110240 0.971863 0.291102
0.460808 0.971863 0.270708
0.689965 0.971863 0.270708
0.893644 0.971863 0.270708
0.999178 0.971863 0.270708
0.000000 0.000000 0.548079
0.207803 0.000000 0.548079
0.413496 0.000000 0.548079
0.765075 0.000000 0.646238
0.977772 0.000000 0.656386
0.999751 0.000000 0.615527
0.000000 0.236793 0.548079
0.110240 0.129000 0.548079
0.411107 0.121731 0.548079
0.765075 0.121731 0.630124
0.977772 0.121731 0.634647
0.999751 0.121731 0.594468
0.000000 0.514489 0.548079
0.110240 0.513183 0.548079
0.397515 0.504991 0.548079
0.765075 0.504286 0.552551
0.977772 0.504286 0.550990
0.999751 0.504286 0.547578
0.000000 0.725629 0.650035
0.110240 0.725629 0.633943
0.397515 0.725629 0.557149
0.766708 0.725629 0.548079
0.977772 0.719283 0.548079
0.999751 0.702190 0.548079
0.000000 0.849092 0.652395
0.110240 0.849092 0.631540
0.397515 0.849092 0.552944
0.734591 0.849092 0.548079
0.972114 0.849092 0.548079
0.999751 0.773196 0.548079
0.000000 0.971863 0.610534
0.110240 0.971863 0.590540
0.397515 0.971863 0.546625
0.668472 0.971863 0.548079
0.885689 0.971863 0.548079
0.999102 0.971863 0.548079
0.000000 0.000000 0.823041
0.285842 0.000000 0.823041
0.545941 0.000000 0.823041
0.777263 0.000000 0.823041
0.977772 0.000000 0.827175
0.999751 0.000000 0.775774
0.000000 0.340663 0.823041
0.110240 0.136642 0.823041
0.520604 0.121731 0.823041
0.775760 0.121731 0.823041
0.977772 0.121731 0.821513
0.999751 0.121731 0.768338
0.000000 0.643236 0.823041
0.110240 0.626993 0.823041
0.397515 0.512883 0.823041
0.768052 0.504286 0.823041
0.977772 0.504286 0.804491
0.999751 0.504286 0.754201
0.000000 0.726922 0.823041
0.110240 0.726833 0.823041
0.397515 0.725941 0.823041
0.765075 0.725584 0.823041
0.977772 0.725629 0.819433
0.999751 0.725629 0.815807
0.000000 0.849092 0.822156
0.110240 0.849092 0.816572
0.397515 0.849092 0.799355
0.765075 0.849092 0.814787
0.974160 0.849092 0.823041
0.999751 0.798042 0.823041
0.000000 0.971863 0.769488
0.110240 0.971863 0.762271
0.397515 0.971863 0.748586
0.765075 0.971863 0.808050
0.935157 0.971863 0.823041
0.999381 0.971863 0.823041
0.000000 0.000000 0.961715
0.281798 0.000000 0.961715
0.539031 0.000000 0.961715
0.767851 0.000000 0.961715
0.967603 0.000000 0.961715
0.999751 0.000000 0.914113
0.000000 0.335083 0.961715
0.110240 0.135080 0.961716
0.508365 0.121731 0.961716
0.757861 0.121731 0.961716
0.967091 0.121731 0.961716
0.999751 0.121731 0.911827
0.000000 0.638563 0.961715
0.110240 0.617344 0.961716
0.397515 0.508008 0.961715
0.727459 0.504286 0.961715
0.965138 0.504286 0.961715
0.999751 0.504286 0.907856
0.000000 0.724571 0.961715
0.110240 0.722347 0.961716
0.397515 0.715831 0.961715
0.765075 0.723647 0.961715
0.969196 0.725629 0.961715
0.999751 0.725629 0.926828
0.000000 0.837990 0.961715
0.110240 0.837609 0.961716
0.397515 0.836043 0.961715
0.765075 0.838619 0.961715
0.977772 0.847898 0.961715
0.999751 0.849092 0.960225
0.000000 0.971863 0.906697
0.110240 0.971863 0.904372
0.397515 0.971863 0.900220
0.765075 0.971863 0.919884
0.977772 0.971863 0.957773
0.999730 0.971863 0.961715
0.000000 0.000000 1.043424
0.253714 0.000000 1.043424
0.491260 0.000000 1.043424
0.702264 0.000000 1.043424
0.898349 0.000000 1.043424
0.999210 0.000000 1.043424
0.000000 0.296638 1.043424
0.110240 0.132832 1.043424
0.462150 0.121731 1.043424
0.690541 0.121731 1.043424
0.893874 0.121731 1.043424
0.999182 0.121731 1.043424
0.000000 0.600273 1.043424
0.110240 0.574068 1.043424
0.397515 0.503819 1.043424
0.667915 0.504286 1.043424
0.885449 0.504286 1.043424
0.999094 0.504286 1.043424
0.000000 0.708448 1.043424
0.110240 0.705761 1.043424
0.397515 0.699933 1.043424
0.765075 0.722765 1.043424
0.929413 0.725629 1.043424
0.999367 0.725629 1.043424
0.000000 0.773164 1.043424
0.110240 0.771003 1.043424
0.397515 0.766969 1.043424
0.765075 0.787252 1.043424
0.977772 0.844497 1.043424
0.999685 0.849092 1.043424
0.000000 0.971863 1.043424
0.110240 0.971863 1.043424
0.397515 0.971863 1.043424
0.765075 0.971863 1.043424
0.977772 0.971863 1.043424
0.999751 0.971863 1.043424
