LUT color transfer/LUTs/89.cube
LUT_3D_SIZE 6
0.218634 0.000000 0.000000
0.277676 -0.000542 -0.000542
0.452788 -0.001461 -0.001461
0.856270 -0.002575 -0.002575
0.991160 -0.003407 -0.003407
0.999152 -0.003795 -0.003795
0.218634 0.100197 -0.000934
0.277997 0.100197 -0.001032
0.452787 0.217645 -0.001822
0.856269 0.359024 -0.002839
0.991160 0.352530 -0.003588
0.999152 0.294380 -0.003915
0.218627 0.490847 -0.002515
0.333471 0.490847 -0.002569
0.458436 0.490846 -0.002780
0.856268 0.657120 -0.003703
0.991160 0.652438 -0.004248
0.999152 0.597658 -0.004378
0.218619 0.737011 -0.004433
0.394424 0.737011 -0.004468
0.605523 0.737011 -0.004617
0.861991 0.737010 -0.004900
0.991159 0.732327 -0.005269
0.999152 0.707589 -0.005150
0.218607 0.868051 -0.005866
0.387854 0.868051 -0.005889
0.589133 0.868051 -0.005990
0.835302 0.868050 -0.006186
0.988857 0.868049 -0.006483
0.999152 0.770380 -0.006126
0.218591 0.945854 -0.006533
0.362048 0.945854 -0.006549
0.525816 0.945853 -0.006615
0.723478 0.945853 -0.006746
0.930182 0.945852 -0.006948
0.998071 0.945851 -0.007222
0.218634 -0.000373 0.246097
0.278335 -0.000625 0.246097
0.452788 -0.001507 0.354084
0.856270 -0.002606 0.451118
0.991160 -0.003428 0.447037
0.999152 -0.003809 0.409337
0.218634 0.100895 0.246097
0.276395 0.100708 0.249729
0.491278 0.060462 0.218515
0.883953 0.043792 0.214671
0.993047 0.040475 0.208889
0.999459 0.039857 0.204654
0.218627 0.490847 0.358432
0.247768 0.499136 0.216568
0.458809 0.493477 0.161940
0.866363 0.643893 0.155562
0.992278 0.630872 0.154100
0.999397 0.565237 0.153902
0.218624 0.737011 0.453067
0.245160 0.737789 0.236287
0.579279 0.737696 0.153741
0.861991 0.737205 0.153800
0.991566 0.729834 0.154078
0.999273 0.704468 0.153956
0.218606 0.868051 0.443942
0.245896 0.869018 0.232850
0.556854 0.869022 0.155394
0.823142 0.868696 0.155876
0.988804 0.868314 0.156708
0.999188 0.768338 0.155727
0.218591 0.945854 0.405660
0.246563 0.946660 0.228563
0.497239 0.946767 0.157067
0.708466 0.946609 0.157479
0.925781 0.946347 0.158129
0.998103 0.946102 0.159050
0.218634 -0.001005 0.539394
0.336004 -0.001178 0.539394
0.464232 -0.001685 0.539393
0.856270 -0.002733 0.670254
0.991160 -0.003515 0.664224
0.999152 -0.003866 0.608330
0.218632 0.228984 0.539393
0.263759 0.093340 0.611539
0.493134 0.055228 0.572647
0.880254 0.042981 0.662597
0.992926 0.040297 0.642757
0.999493 0.039794 0.585811
0.218626 0.501048 0.539392
0.247354 0.507004 0.544201
0.445066 0.494557 0.549979
0.944903 0.383122 0.504163
0.998896 0.289730 0.450481
0.999950 0.376572 0.483073
0.218623 0.737011 0.673170
0.245165 0.737673 0.654691
0.334849 0.743508 0.466490
0.858638 0.739096 0.368081
0.995279 0.719336 0.357179
0.999938 0.688714 0.386058
0.218606 0.868051 0.659680
0.245937 0.868968 0.635395
0.312518 0.878173 0.433764
0.747910 0.876379 0.328916
0.988282 0.871171 0.322731
0.999664 0.761735 0.330017
0.218603 0.945853 0.602892
0.246593 0.946673 0.579282
0.307273 0.954736 0.419831
0.626652 0.954658 0.318463
0.899833 0.951937 0.315450
0.997867 0.948609 0.311808
0.218631 -0.001770 0.850929
0.395394 -0.001894 0.850929
0.608001 -0.002328 0.850929
0.865870 -0.002969 0.850928
0.991160 -0.003682 0.837164
0.999152 -0.003978 0.766684
0.218630 0.364321 0.850929
0.251870 0.083226 0.886524
0.602180 0.046167 0.874079
0.882074 0.041806 0.862406
0.992691 0.040016 0.834720
0.999453 0.039692 0.760764
0.218621 0.660754 0.850927
0.245906 0.649912 0.859608
0.420947 0.468625 0.918420
0.928500 0.344590 0.904844
0.998492 0.273619 0.826456
0.999949 0.363025 0.741667
0.218621 0.738119 0.850955
0.245179 0.738669 0.852287
0.331391 0.741932 0.863638
0.838213 0.737207 0.862483
0.997502 0.727662 0.832939
0.999921 0.729243 0.830282
0.218604 0.868051 0.831346
0.246013 0.868860 0.825001
0.311676 0.876812 0.795555
0.653931 0.888210 0.760447
0.986135 0.875433 0.742729
0.999836 0.784436 0.789831
0.218601 0.945853 0.759876
0.246652 0.946581 0.751604
0.306925 0.954085 0.716686
0.684488 0.961125 0.758924
0.911268 0.959550 0.747438
0.997133 0.953676 0.683774
0.218628 -0.002343 0.971364
0.385428 -0.002427 0.971364
0.583056 -0.002747 0.971364
0.825087 -0.003273 0.971364
0.986065 -0.003928 0.971364
0.999152 -0.004149 0.903442
0.218626 0.342189 0.971364
0.248120 0.073671 0.984013
0.559722 0.043045 0.981501
0.821467 0.040872 0.977699
0.987357 0.039728 0.975019
0.999400 0.039579 0.903686
0.218623 0.644441 0.971364
0.245579 0.624107 0.976519
0.426601 0.456280 0.993429
0.787585 0.404570 0.993118
0.992130 0.305047 0.992503
0.999947 0.339565 0.908095
0.218623 0.727618 0.971363
0.245214 0.725652 0.973114
0.330712 0.717470 0.989633
0.834509 0.730758 0.991022
0.991640 0.727712 0.989773
0.999916 0.727705 0.936057
0.218601 0.854306 0.971362
0.246144 0.854805 0.971788
0.310482 0.857965 0.975712
0.639521 0.859534 0.982427
0.988489 0.866831 0.978293
0.999699 0.861117 0.973484
0.218599 0.945853 0.895426
0.246756 0.946518 0.892892
0.306375 0.953033 0.884752
0.657679 0.960607 0.898283
0.980206 0.956561 0.959618
0.998472 0.950952 0.959277
0.218626 -0.002609 1.007254
0.360068 -0.002665 1.007254
0.521097 -0.002885 1.007254
0.714931 -0.003272 1.007254
0.921464 -0.003783 1.007254
0.996862 -0.004376 1.007254
0.218625 0.284453 1.007254
0.277672 0.110025 1.007254
0.497274 0.100191 1.007254
0.702184 0.100192 1.007254
0.917106 0.100196 1.007254
0.996791 0.100191 1.007254
0.218623 0.585481 1.007254
0.277669 0.556003 1.007254
0.452781 0.491018 1.007254
0.679804 0.490840 1.007254
0.908650 0.490837 1.007254
0.996503 0.490833 1.007253
0.218623 0.702949 1.007254
0.277681 0.699730 1.007253
0.452775 0.693679 1.007253
0.856261 0.733644 1.007253
0.964121 0.737009 1.007253
0.997796 0.737008 1.007253
0.218612 0.759328 1.007253
0.277672 0.757397 1.007253
0.452782 0.754249 1.007253
0.856257 0.788659 1.007252
0.991158 0.864029 1.007252
0.998965 0.868048 1.007252
0.218596 0.928895 1.007252
0.277655 0.928699 1.007252
0.452768 0.927578 1.007252
0.856251 0.932872 1.007252
0.991158 0.942182 1.007251
0.999156 0.944963 1.007251
