LUT color transfer/LUTs/89.cube
LUT_3D_SIZE 16
0.218634 0.000000 0.000000
0.232574 -0.000135 -0.000135
0.251988 -0.000319 -0.000319
0.277676 -0.000542 -0.000542
0.314038 -0.000809 -0.000809
0.368979 -0.001118 -0.001118
0.452788 -0.001461 -0.001461
0.568839 -0.001829 -0.001829
0.711916 -0.002208 -0.002208
0.856270 -0.002575 -0.002575
0.949076 -0.002905 -0.002905
0.979892 -0.003185 -0.003185
0.991160 -0.003407 -0.003407
0.995865 -0.003572 -0.003572
0.997994 -0.003692 -0.003692
0.999152 -0.003795 -0.003795
0.218634 0.019147 -0.000233
0.232585 0.019147 -0.000257
0.251988 0.023540 -0.000398
0.277676 0.028518 -0.000598
0.314038 0.035471 -0.000852
0.368979 0.045541 -0.001153
0.452788 0.058966 -0.001491
0.568839 0.073616 -0.001855
0.711916 0.086857 -0.002230
0.856270 0.096005 -0.002595
0.949076 0.099506 -0.002923
0.979892 0.098245 -0.003200
0.991160 0.094222 -0.003421
0.995865 0.089052 -0.003584
0.997994 0.083690 -0.003702
0.999152 0.078768 -0.003804
0.218634 0.051378 -0.000549
0.235464 0.051378 -0.000561
0.252050 0.051378 -0.000607
0.277676 0.062322 -0.000780
0.314038 0.077896 -0.001009
0.368979 0.100866 -0.001290
0.452788 0.132384 -0.001611
0.568839 0.168141 -0.001961
0.711916 0.200450 -0.002325
0.856270 0.222259 -0.002679
0.949076 0.230564 -0.002997
0.979892 0.227588 -0.003265
0.991160 0.218051 -0.003477
0.995865 0.205781 -0.003633
0.997994 0.192850 -0.003745
0.999152 0.180901 -0.003841
0.218634 0.100197 -0.000934
0.238630 0.100197 -0.000941
0.258395 0.100197 -0.000972
0.277997 0.100197 -0.001032
0.314038 0.125456 -0.001251
0.368979 0.164657 -0.001517
0.452787 0.217645 -0.001822
0.568839 0.274418 -0.002154
0.711916 0.325060 -0.002501
0.856269 0.359024 -0.002839
0.949076 0.371788 -0.003139
0.979892 0.367230 -0.003391
0.991160 0.352530 -0.003588
0.995865 0.333404 -0.003730
0.997993 0.313165 -0.003829
0.999152 0.294380 -0.003915
0.218633 0.181145 -0.001393
0.243034 0.181145 -0.001399
0.267085 0.181145 -0.001423
0.291041 0.181145 -0.001469
0.315098 0.181145 -0.001540
0.368978 0.233734 -0.001805
0.452787 0.306646 -0.002101
0.568839 0.383718 -0.002421
0.711915 0.448323 -0.002752
0.856269 0.489079 -0.003071
0.949075 0.503812 -0.003350
0.979892 0.498576 -0.003581
0.991160 0.481528 -0.003756
0.995865 0.458552 -0.003877
0.997993 0.433575 -0.003959
0.999152 0.409688 -0.004029
0.218631 0.311552 -0.001925
0.249248 0.311552 -0.001929
0.279413 0.311552 -0.001949
0.309622 0.311552 -0.001987
0.340298 0.311552 -0.002047
0.371869 0.311552 -0.002128
0.452786 0.396442 -0.002427
0.568838 0.486342 -0.002741
0.711914 0.554391 -0.003061
0.856268 0.592462 -0.003364
0.949075 0.604985 -0.003621
0.979892 0.600641 -0.003828
0.991160 0.585729 -0.003979
0.995865 0.564350 -0.004075
0.997993 0.539571 -0.004133
0.999152 0.514646 -0.004184
0.218627 0.490847 -0.002515
0.257103 0.490847 -0.002519
0.295057 0.490847 -0.002536
0.333471 0.490847 -0.002569
0.373133 0.490846 -0.002620
0.414719 0.490846 -0.002691
0.458436 0.490846 -0.002780
0.568838 0.572201 -0.003098
0.711889 0.629680 -0.003413
0.856268 0.657120 -0.003703
0.949074 0.665648 -0.003942
0.979892 0.662670 -0.004124
0.991160 0.652438 -0.004248
0.995865 0.637108 -0.004317
0.997993 0.618138 -0.004350
0.999152 0.597658 -0.004378
0.218622 0.640008 -0.003148
0.265147 0.640008 -0.003151
0.311227 0.640008 -0.003165
0.358467 0.640008 -0.003194
0.408248 0.640008 -0.003239
0.461110 0.640007 -0.003302
0.517288 0.640007 -0.003382
0.577059 0.640007 -0.003479
0.711887 0.675240 -0.003796
0.856266 0.693609 -0.004078
0.949074 0.699173 -0.004301
0.979892 0.697289 -0.004461
0.991159 0.690617 -0.004558
0.995865 0.680304 -0.004599
0.997993 0.667278 -0.004603
0.999152 0.652452 -0.004606
0.218620 0.704481 -0.003800
0.271973 0.704481 -0.003803
0.325063 0.704481 -0.003815
0.380272 0.704481 -0.003840
0.439267 0.704481 -0.003880
0.502467 0.704481 -0.003936
0.570326 0.704481 -0.004007
0.643140 0.704481 -0.004096
0.721175 0.704481 -0.004200
0.856265 0.715478 -0.004479
0.949073 0.720186 -0.004689
0.979892 0.718574 -0.004828
0.991159 0.713114 -0.004900
0.995865 0.705611 -0.004913
0.997993 0.696568 -0.004888
0.999152 0.686409 -0.004865
0.218619 0.737011 -0.004433
0.276295 0.737011 -0.004435
0.333910 0.737011 -0.004446
0.394424 0.737011 -0.004468
0.459490 0.737011 -0.004503
0.529689 0.737011 -0.004553
0.605523 0.737011 -0.004617
0.687342 0.737011 -0.004696
0.774864 0.737010 -0.004790
0.861991 0.737010 -0.004900
0.949072 0.742318 -0.005099
0.979891 0.739807 -0.005221
0.991159 0.732327 -0.005269
0.995865 0.723866 -0.005253
0.997993 0.715525 -0.005200
0.999152 0.707589 -0.005150
0.218623 0.778134 -0.005001
0.277550 0.778134 -0.005003
0.336555 0.778134 -0.005012
0.398650 0.778134 -0.005032
0.465586 0.778134 -0.005063
0.537942 0.778134 -0.005106
0.616217 0.778134 -0.005163
0.700845 0.778134 -0.005233
0.790993 0.778182 -0.005317
0.878565 0.778182 -0.005415
0.948677 0.778181 -0.005527
0.979891 0.773566 -0.005633
0.991159 0.759510 -0.005658
0.995864 0.745026 -0.005616
0.997993 0.733007 -0.005534
0.999152 0.723824 -0.005458
0.218614 0.825375 -0.005483
0.276497 0.825375 -0.005485
0.334387 0.825375 -0.005493
0.395176 0.825375 -0.005510
0.460619 0.825375 -0.005537
0.531236 0.825375 -0.005575
0.607459 0.825375 -0.005625
0.689755 0.825375 -0.005686
0.777838 0.825375 -0.005761
0.865065 0.825375 -0.005848
0.939058 0.825374 -0.005948
0.977686 0.825374 -0.006059
0.991159 0.805797 -0.006064
0.995864 0.778778 -0.005996
0.997993 0.757361 -0.005887
0.999152 0.742422 -0.005785
0.218607 0.868051 -0.005866
0.274263 0.868051 -0.005867
0.329812 0.868051 -0.005875
0.387854 0.868051 -0.005889
0.450113 0.868051 -0.005913
0.517046 0.868051 -0.005946
0.589133 0.868051 -0.005990
0.666803 0.868050 -0.006044
0.750049 0.868050 -0.006109
0.835302 0.868050 -0.006186
0.913328 0.868050 -0.006274
0.964832 0.868050 -0.006373
0.988857 0.868049 -0.006483
0.995864 0.834347 -0.006391
0.997993 0.796597 -0.006254
0.999152 0.770380 -0.006126
0.218600 0.901087 -0.006149
0.271566 0.901087 -0.006150
0.324286 0.901087 -0.006157
0.379125 0.901087 -0.006170
0.437549 0.901087 -0.006190
0.500194 0.901087 -0.006219
0.567396 0.901087 -0.006256
0.639504 0.901087 -0.006304
0.716680 0.901086 -0.006361
0.798012 0.901086 -0.006428
0.876585 0.901086 -0.006505
0.942037 0.901086 -0.006592
0.976851 0.901086 -0.006689
0.993981 0.901085 -0.006796
0.997993 0.858343 -0.006634
0.999152 0.814562 -0.006481
0.218595 0.925215 -0.006355
0.268780 0.925215 -0.006357
0.318632 0.925215 -0.006362
0.370141 0.925215 -0.006373
0.424794 0.925215 -0.006391
0.483144 0.925215 -0.006416
0.545506 0.925214 -0.006448
0.612145 0.925214 -0.006490
0.683297 0.925214 -0.006539
0.759085 0.925214 -0.006598
0.835863 0.925214 -0.006666
0.906589 0.925214 -0.006742
0.957744 0.925213 -0.006828
0.983556 0.925213 -0.006922
0.996504 0.925213 -0.007025
0.999156 0.881098 -0.006847
0.218591 0.945854 -0.006533
0.266203 0.945854 -0.006535
0.313467 0.945854 -0.006539
0.362048 0.945854 -0.006549
0.413285 0.945853 -0.006564
0.467775 0.945853 -0.006586
0.525816 0.945853 -0.006615
0.587641 0.945853 -0.006651
0.653441 0.945853 -0.006694
0.723478 0.945853 -0.006746
0.796689 0.945853 -0.006805
0.867714 0.945853 -0.006873
0.930182 0.945852 -0.006948
0.968222 0.945852 -0.007031
0.988215 0.945851 -0.007123
0.998071 0.945851 -0.007222
0.218634 -0.000093 0.105874
0.232594 -0.000156 0.105874
0.251988 -0.000329 0.117743
0.277676 -0.000549 0.129978
0.314038 -0.000814 0.145352
0.368979 -0.001122 0.165152
0.452788 -0.001465 0.188305
0.568839 -0.001832 0.210539
0.711916 -0.002210 0.228611
0.856270 -0.002577 0.240188
0.949076 -0.002907 0.244444
0.979892 -0.003186 0.242919
0.991160 -0.003409 0.237979
0.995865 -0.003573 0.231464
0.997994 -0.003693 0.224445
0.999152 -0.003796 0.217776
0.218634 0.019156 0.105874
0.232324 0.019209 0.107233
0.255682 0.013414 0.091924
0.280661 0.009765 0.081299
0.316343 0.008522 0.078786
0.371011 0.008252 0.080617
0.454710 0.008450 0.084719
0.570514 0.008944 0.089400
0.713353 0.009642 0.093639
0.857333 0.010468 0.096772
0.949429 0.011287 0.098714
0.980030 0.012047 0.099826
0.991236 0.012670 0.100493
0.995901 0.013152 0.100957
0.998031 0.013499 0.101299
0.999166 0.013824 0.101626
0.218634 0.051378 0.117879
0.226230 0.052274 0.084616
0.252050 0.051662 0.074274
0.278752 0.059887 0.070667
0.315402 0.072974 0.068874
0.370509 0.093045 0.068644
0.454358 0.120783 0.069684
0.570337 0.152077 0.071711
0.713317 0.181147 0.074357
0.857316 0.200742 0.077403
0.949413 0.208099 0.080283
0.980045 0.205281 0.082771
0.991248 0.196534 0.084844
0.995910 0.185289 0.086347
0.998026 0.173461 0.087485
0.999170 0.162520 0.088411
0.218634 0.100197 0.130369
0.225233 0.100808 0.081884
0.256291 0.100722 0.068967
0.278018 0.100387 0.068735
0.314530 0.123961 0.068606
0.369763 0.161240 0.069323
0.453828 0.212135 0.070800
0.569916 0.266473 0.073129
0.712935 0.315093 0.075882
0.857011 0.347701 0.078791
0.949372 0.359831 0.081605
0.980021 0.355146 0.084031
0.991235 0.340723 0.085900
0.995897 0.321983 0.087322
0.998031 0.302300 0.088290
0.999166 0.284086 0.089109
0.218633 0.181145 0.146286
0.225325 0.181640 0.084446
0.263745 0.181656 0.069020
0.289955 0.181518 0.069180
0.315110 0.181290 0.069463
0.369255 0.232567 0.070745
0.453326 0.303994 0.072785
0.569490 0.379567 0.075221
0.712615 0.443077 0.078054
0.856855 0.483212 0.080990
0.949316 0.497503 0.083638
0.979968 0.492067 0.085820
0.991220 0.474880 0.087586
0.995893 0.451955 0.088736
0.998021 0.426974 0.089547
0.999166 0.403339 0.090265
0.218631 0.311552 0.166913
0.225909 0.311986 0.089949
0.274810 0.312033 0.071733
0.307671 0.311964 0.072005
0.339554 0.311812 0.072431
0.371902 0.311697 0.073041
0.452989 0.395460 0.075331
0.569184 0.484386 0.078004
0.712370 0.551989 0.080931
0.856640 0.589876 0.083786
0.949266 0.602275 0.086240
0.979991 0.597694 0.088273
0.991221 0.582487 0.089740
0.995893 0.560831 0.090715
0.998010 0.535821 0.091294
0.999165 0.510825 0.091788
0.218627 0.490847 0.190605
0.226821 0.491149 0.097275
0.288997 0.491210 0.076277
0.330554 0.491164 0.076556
0.371626 0.491083 0.077009
0.414100 0.491008 0.077625
0.458480 0.490990 0.078382
0.568948 0.571555 0.081312
0.712107 0.628816 0.084297
0.856532 0.656207 0.087086
0.949160 0.664600 0.089378
0.979964 0.661548 0.091196
0.991200 0.651112 0.092375
0.995877 0.635567 0.093080
0.998008 0.616393 0.093417
0.999162 0.595597 0.093702
0.218622 0.640008 0.212870
0.228007 0.640092 0.104576
0.303681 0.640110 0.081934
0.354595 0.640108 0.082183
0.405954 0.640094 0.082623
0.459751 0.640056 0.083257
0.516720 0.640036 0.084045
0.577069 0.640011 0.084963
0.712045 0.675019 0.088024
0.856389 0.693278 0.090770
0.949062 0.698831 0.092920
0.979958 0.696870 0.094509
0.991172 0.689993 0.095437
0.995866 0.679615 0.095825
0.998012 0.666455 0.095865
0.999156 0.651506 0.095899
0.218624 0.704481 0.230501
0.229382 0.704494 0.110866
0.316239 0.704501 0.088206
0.375497 0.704499 0.088450
0.436212 0.704496 0.088827
0.500491 0.704493 0.089367
0.569124 0.704498 0.090103
0.642607 0.704493 0.090978
0.721245 0.704488 0.091997
0.856280 0.715385 0.094727
0.949078 0.720063 0.096764
0.979923 0.718328 0.098109
0.991168 0.712862 0.098798
0.995862 0.705347 0.098906
0.998008 0.696209 0.098696
0.999156 0.685941 0.098473
0.218619 0.737011 0.241185
0.230774 0.737026 0.115690
0.324268 0.737052 0.094402
0.389065 0.737048 0.094621
0.455959 0.737041 0.094962
0.527300 0.737033 0.095426
0.603829 0.737023 0.096041
0.686295 0.737044 0.096861
0.774423 0.737033 0.097776
0.861930 0.737023 0.098825
0.949054 0.742227 0.100782
0.979901 0.739598 0.101926
0.991166 0.732127 0.102379
0.995871 0.723678 0.102220
0.998001 0.715304 0.101725
0.999156 0.707361 0.101253
0.218623 0.778134 0.244273
0.232065 0.778144 0.118986
0.326690 0.778165 0.099923
0.393080 0.778163 0.100121
0.461818 0.778160 0.100429
0.535257 0.778156 0.100843
0.614230 0.778151 0.101391
0.699428 0.778147 0.102058
0.790121 0.778142 0.102877
0.878182 0.778137 0.103843
0.948635 0.778134 0.104903
0.979891 0.773469 0.105567
0.991159 0.759363 0.105564
0.995864 0.744827 0.105572
0.997994 0.732811 0.104954
0.999153 0.723633 0.104237
0.218614 0.825375 0.241692
0.232497 0.825375 0.119500
0.324767 0.825380 0.104562
0.389718 0.825379 0.104724
0.456873 0.825378 0.104984
0.528451 0.825376 0.105340
0.605392 0.825375 0.105568
0.688251 0.825375 0.105562
0.776725 0.825375 0.105550
0.864369 0.825374 0.105542
0.938849 0.825374 0.105529
0.977674 0.825374 0.105506
0.991159 0.805696 0.105506
0.995864 0.778621 0.105513
0.997993 0.757171 0.105537
0.999152 0.742222 0.105543
0.218607 0.868051 0.236241
0.232485 0.868051 0.118788
0.320608 0.868051 0.105540
0.382656 0.868051 0.105537
0.446530 0.868051 0.105533
0.514422 0.868051 0.105530
0.587096 0.868051 0.105520
0.665195 0.868051 0.105510
0.748814 0.868050 0.105501
0.834489 0.868050 0.105493
0.912929 0.868050 0.105476
0.964750 0.868050 0.105459
0.988872 0.868049 0.105446
0.995864 0.834227 0.105458
0.997993 0.796405 0.105481
0.999152 0.770234 0.105495
0.218600 0.901087 0.229479
0.232477 0.901087 0.118189
0.315574 0.901087 0.105494
0.374132 0.901087 0.105495
0.434139 0.901087 0.105488
0.497662 0.901087 0.105484
0.565441 0.901087 0.105480
0.637903 0.901087 0.105472
0.715456 0.901086 0.105459
0.797114 0.901086 0.105450
0.876057 0.901086 0.105444
0.941788 0.901086 0.105425
0.976857 0.901086 0.105406
0.993976 0.901085 0.105392
0.997993 0.858211 0.105420
0.999152 0.814431 0.105447
0.218595 0.925215 0.222376
0.232463 0.925215 0.117729
0.310448 0.925214 0.105459
0.365515 0.925214 0.105460
0.421629 0.925214 0.105458
0.480800 0.925214 0.105452
0.543673 0.925214 0.105453
0.610655 0.925214 0.105447
0.682053 0.925214 0.105436
0.758077 0.925214 0.105423
0.835026 0.925214 0.105416
0.906209 0.925213 0.105401
0.957598 0.925213 0.105387
0.983550 0.925213 0.105365
0.996500 0.925213 0.105343
0.999156 0.880997 0.105383
0.218591 0.945854 0.215685
0.232448 0.945853 0.117334
0.305730 0.945853 0.105436
0.357665 0.945853 0.105435
0.410264 0.945853 0.105433
0.465515 0.945853 0.105426
0.524051 0.945853 0.105422
0.586229 0.945853 0.105418
0.652289 0.945853 0.105405
0.722506 0.945853 0.105402
0.795930 0.945853 0.105392
0.867111 0.945852 0.105375
0.929919 0.945852 0.105362
0.968104 0.945852 0.105348
0.988225 0.945852 0.105323
0.998068 0.945851 0.105310
0.218634 -0.000219 0.175818
0.235496 -0.000257 0.175818
0.252133 -0.000368 0.175818
0.277676 -0.000576 0.193628
0.314038 -0.000835 0.216564
0.368979 -0.001139 0.246069
0.452788 -0.001479 0.280570
0.568839 -0.001844 0.313657
0.711916 -0.002221 0.340481
0.856270 -0.002587 0.357671
0.949076 -0.002915 0.364011
0.979892 -0.003194 0.361730
0.991160 -0.003415 0.354376
0.995865 -0.003579 0.344757
0.997994 -0.003698 0.334346
0.999152 -0.003801 0.324443
0.218634 0.023648 0.175818
0.230225 0.016523 0.192866
0.254889 0.012335 0.184929
0.280278 0.009535 0.193238
0.316174 0.008479 0.211217
0.370937 0.008254 0.237484
0.454657 0.008465 0.269284
0.570485 0.008964 0.300082
0.713293 0.009665 0.325218
0.857301 0.010490 0.341289
0.949415 0.011311 0.347134
0.980027 0.012067 0.344862
0.991235 0.012688 0.337872
0.995900 0.013167 0.328683
0.998031 0.013512 0.318775
0.999165 0.013837 0.309438
0.218634 0.051502 0.175818
0.226105 0.052112 0.177256
0.251324 0.051560 0.178175
0.285570 0.043963 0.167309
0.326464 0.033696 0.151829
0.382901 0.027428 0.144328
0.466923 0.024098 0.144144
0.582157 0.022461 0.147392
0.723794 0.021734 0.151095
0.864781 0.021533 0.153557
0.952402 0.021602 0.154313
0.981097 0.021785 0.153799
0.991742 0.022003 0.152840
0.996170 0.022209 0.151993
0.998182 0.022374 0.151356
0.999261 0.022520 0.150813
0.218634 0.100197 0.194237
0.225219 0.100731 0.189558
0.240361 0.103724 0.151673
0.277867 0.101380 0.137357
0.318462 0.117538 0.128504
0.376464 0.145623 0.121456
0.462315 0.185432 0.116745
0.579117 0.228050 0.114030
0.721978 0.265839 0.112789
0.863958 0.291094 0.112500
0.952264 0.299658 0.112736
0.981076 0.294397 0.113216
0.991732 0.281354 0.113727
0.996179 0.265100 0.114170
0.998194 0.248290 0.114534
0.999271 0.232975 0.114865
0.218633 0.181145 0.217954
0.225339 0.181603 0.210329
0.236010 0.184790 0.143676
0.283911 0.184124 0.121438
0.315158 0.182286 0.119878
0.371675 0.228379 0.116480
0.457720 0.293272 0.114166
0.575198 0.361861 0.112926
0.718834 0.419654 0.112504
0.862039 0.456052 0.112658
0.951552 0.468177 0.113133
0.980892 0.461365 0.113712
0.991609 0.443569 0.114255
0.996122 0.420616 0.114705
0.998160 0.396166 0.115013
0.999252 0.373248 0.115307
0.218631 0.311552 0.248686
0.225913 0.311984 0.238734
0.234488 0.314932 0.146692
0.296942 0.314873 0.114721
0.335875 0.313848 0.114278
0.372002 0.312604 0.113806
0.454701 0.392120 0.112837
0.572279 0.477034 0.112503
0.716314 0.541821 0.112665
0.860336 0.578499 0.113180
0.950973 0.590005 0.113834
0.980656 0.584097 0.114508
0.991534 0.567414 0.115063
0.996108 0.544552 0.115453
0.998179 0.518718 0.115701
0.999232 0.493266 0.115913
0.218627 0.490847 0.284008
0.226845 0.491149 0.271913
0.234113 0.493360 0.154789
0.315107 0.493519 0.112599
0.364348 0.493001 0.112544
0.411185 0.492361 0.112508
0.458539 0.491576 0.112502
0.570243 0.569529 0.112736
0.714368 0.625536 0.113335
0.858983 0.652371 0.114116
0.950418 0.660356 0.114947
0.980474 0.656503 0.115651
0.991455 0.645095 0.116155
0.996027 0.628554 0.116459
0.998140 0.608272 0.116613
0.999215 0.586504 0.116736
0.218622 0.640008 0.317131
0.228016 0.640090 0.303161
0.234334 0.640917 0.163523
0.334397 0.641020 0.112909
0.394956 0.640880 0.112994
0.453706 0.640748 0.113124
0.514088 0.640503 0.113306
0.577177 0.640283 0.113572
0.712953 0.674297 0.114496
0.857732 0.692206 0.115523
0.949941 0.697371 0.116405
0.980284 0.695030 0.117099
0.991390 0.687698 0.117552
0.996032 0.676776 0.117752
0.998103 0.662903 0.117786
0.999198 0.647410 0.117807
0.218624 0.704481 0.343354
0.229393 0.704494 0.327937
0.234882 0.704733 0.170502
0.351127 0.704797 0.114661
0.421961 0.704751 0.114806
0.491549 0.704718 0.115017
0.563795 0.704683 0.115305
0.640142 0.704600 0.115653
0.721224 0.704553 0.116089
0.856956 0.715176 0.117263
0.949561 0.719401 0.118236
0.980172 0.717430 0.118905
0.991356 0.711835 0.119248
0.995974 0.704100 0.119315
0.998071 0.694658 0.119201
0.999177 0.683970 0.119091
0.218619 0.737011 0.359208
0.230779 0.737025 0.342956
0.235654 0.737199 0.174630
0.361816 0.737210 0.117205
0.439320 0.737188 0.117377
0.516065 0.737222 0.117611
0.596290 0.737152 0.117934
0.681561 0.737176 0.118330
0.772223 0.737150 0.118802
0.861920 0.737068 0.119352
0.949272 0.741852 0.120365
0.980080 0.738937 0.120989
0.991254 0.731359 0.121249
0.995920 0.722919 0.121153
0.998096 0.714557 0.120864
0.999163 0.706394 0.120594
0.218623 0.778134 0.363800
0.232069 0.778143 0.347308
0.236456 0.778355 0.175947
0.364787 0.778385 0.119990
0.444109 0.778352 0.120156
0.522862 0.778376 0.120395
0.605354 0.778369 0.120707
0.693209 0.778351 0.121104
0.786256 0.778300 0.121577
0.876610 0.778293 0.122113
0.948621 0.778234 0.122763
0.979988 0.772957 0.123348
0.991251 0.758599 0.123472
0.995936 0.744011 0.123217
0.998064 0.732192 0.122743
0.999199 0.723036 0.122302
0.218614 0.825375 0.360021
0.232497 0.825375 0.343708
0.237236 0.825637 0.175523
0.361788 0.825712 0.122620
0.439164 0.825677 0.122776
0.515838 0.825654 0.123009
0.595995 0.825624 0.123308
0.681227 0.825603 0.123667
0.771877 0.825581 0.124119
0.861724 0.825580 0.124630
0.938049 0.825512 0.125220
0.977673 0.825444 0.125934
0.991226 0.805147 0.125939
0.995909 0.777845 0.125492
0.998045 0.756474 0.124820
0.999186 0.741500 0.124222
0.218607 0.868051 0.351939
0.232485 0.868051 0.336025
0.237871 0.868203 0.174635
0.355833 0.868307 0.124844
0.429366 0.868310 0.124982
0.502030 0.868263 0.125190
0.577684 0.868226 0.125458
0.657981 0.868193 0.125808
0.743351 0.868237 0.126208
0.830914 0.868185 0.126688
0.911001 0.868189 0.127233
0.964320 0.868105 0.127849
0.988839 0.868098 0.128561
0.995881 0.833700 0.127951
0.998030 0.795768 0.127096
0.999174 0.769504 0.126302
0.218600 0.901087 0.341931
0.232477 0.901087 0.326529
0.238385 0.901332 0.173884
0.348743 0.901424 0.126568
0.417825 0.901394 0.126702
0.485816 0.901349 0.126883
0.556301 0.901327 0.127112
0.630747 0.901351 0.127397
0.709800 0.901307 0.127754
0.793019 0.901348 0.128180
0.873402 0.901250 0.128692
0.940723 0.901177 0.129257
0.976597 0.901168 0.129866
0.993955 0.901201 0.130562
0.998007 0.857761 0.129513
0.999166 0.813834 0.128519
0.218595 0.925215 0.331417
0.232462 0.925215 0.316577
0.238774 0.925457 0.173358
0.341478 0.925485 0.127823
0.406224 0.925458 0.127944
0.469501 0.925505 0.128103
0.534858 0.925457 0.128319
0.603695 0.925466 0.128587
0.676571 0.925451 0.128900
0.753671 0.925418 0.129285
0.832002 0.925376 0.129712
0.904213 0.925361 0.130201
0.956938 0.925348 0.130760
0.983334 0.925363 0.131385
0.996484 0.925249 0.132069
0.999159 0.880616 0.130884
0.218591 0.945854 0.321512
0.232448 0.945853 0.307262
0.239112 0.946101 0.172939
0.334887 0.946066 0.128958
0.395698 0.946043 0.129065
0.454857 0.946004 0.129198
0.515717 0.946103 0.129375
0.579518 0.946052 0.129603
0.646802 0.946100 0.129882
0.718072 0.946030 0.130223
0.792511 0.946003 0.130608
0.864772 0.945973 0.131047
0.928610 0.945936 0.131549
0.967704 0.945896 0.132108
0.988126 0.945933 0.132696
0.998060 0.945893 0.133360
0.218634 -0.000373 0.246097
0.238767 -0.000399 0.246097
0.258621 -0.000490 0.246097
0.278335 -0.000625 0.246097
0.314038 -0.000874 0.273465
0.368979 -0.001172 0.310685
0.452788 -0.001507 0.354084
0.568839 -0.001869 0.395711
0.711916 -0.002243 0.429506
0.856270 -0.002606 0.451118
0.949076 -0.002932 0.459093
0.979892 -0.003209 0.456255
0.991160 -0.003428 0.447037
0.995865 -0.003590 0.434866
0.997994 -0.003708 0.421763
0.999152 -0.003809 0.409337
0.218634 0.028881 0.246097
0.227549 0.013167 0.261734
0.259263 0.010394 0.256505
0.280400 0.009202 0.251323
0.315868 0.008410 0.274321
0.370778 0.008259 0.309006
0.454520 0.008497 0.350566
0.570399 0.009003 0.390676
0.713298 0.009716 0.423381
0.857236 0.010534 0.444249
0.949400 0.011356 0.451846
0.980020 0.012107 0.448907
0.991230 0.012728 0.439772
0.995899 0.013198 0.427767
0.998030 0.013542 0.414867
0.999165 0.013861 0.402658
0.218634 0.063127 0.246097
0.225656 0.061488 0.250075
0.249425 0.049325 0.269893
0.285267 0.041109 0.264929
0.324893 0.032471 0.277267
0.381690 0.026948 0.301386
0.466083 0.023910 0.333439
0.581564 0.022392 0.365819
0.723453 0.021708 0.392697
0.864596 0.021530 0.409728
0.952344 0.021610 0.415327
0.981093 0.021801 0.411764
0.991730 0.022015 0.402974
0.996162 0.022220 0.391811
0.998178 0.022387 0.379917
0.999263 0.022532 0.368775
0.218634 0.100895 0.246097
0.225205 0.101299 0.246753
0.239879 0.103401 0.250334
0.276395 0.100708 0.249729
0.326574 0.090518 0.241097
0.398329 0.073548 0.227407
0.491278 0.060462 0.218515
0.609696 0.052027 0.215293
0.750613 0.046854 0.214890
0.883953 0.043792 0.214671
0.959684 0.042047 0.213409
0.983793 0.041044 0.211158
0.993047 0.040475 0.208889
0.996964 0.040165 0.207100
0.998624 0.039987 0.205768
0.999459 0.039857 0.204654
0.218633 0.181145 0.275212
0.225363 0.181548 0.273325
0.235890 0.184296 0.263994
0.260197 0.189783 0.221834
0.314592 0.184181 0.202165
0.380049 0.217143 0.189614
0.473377 0.264909 0.178689
0.595335 0.314355 0.170249
0.740450 0.356035 0.164236
0.878813 0.381288 0.160244
0.958324 0.386994 0.157796
0.983435 0.377321 0.156314
0.992939 0.359300 0.155468
0.996907 0.337945 0.154974
0.998607 0.316012 0.154679
0.999456 0.296014 0.154469
0.218631 0.311552 0.313985
0.225927 0.311944 0.310518
0.234484 0.314680 0.293068
0.251666 0.322063 0.212385
0.324421 0.319917 0.177474
0.372023 0.314926 0.174557
0.460443 0.385547 0.168363
0.582669 0.460895 0.163494
0.729446 0.518221 0.159931
0.871861 0.550353 0.157533
0.956100 0.558450 0.156065
0.982735 0.549073 0.155188
0.992645 0.529388 0.154673
0.996736 0.504314 0.154411
0.998548 0.477262 0.154273
0.999456 0.451351 0.154170
0.218627 0.490847 0.358432
0.226856 0.491126 0.353710
0.234112 0.493214 0.329777
0.247768 0.499136 0.216568
0.343355 0.498781 0.164424
0.403602 0.496321 0.163232
0.458809 0.493477 0.161940
0.574320 0.565719 0.159007
0.721530 0.618681 0.156921
0.866363 0.643893 0.155562
0.954054 0.650274 0.154746
0.982035 0.644485 0.154314
