LUT color transfer/LUTs/9.cube
LUT_3D_SIZE 6
-0.089649 -0.086914 -0.090147
0.018926 -0.078390 -0.082104
0.386286 0.044393 0.000248
0.779773 0.072179 0.005980
0.949410 0.102727 0.016788
0.991615 0.118604 0.023566
-0.057717 0.097712 -0.058625
0.022647 0.111493 -0.041455
0.392940 0.202078 0.001090
0.782086 0.244796 0.004763
0.950057 0.237232 0.013166
0.991895 0.210257 0.019192
0.019369 0.337763 0.004051
0.111109 0.339325 0.004470
0.420668 0.405890 0.006436
0.791713 0.482599 0.012936
0.952597 0.457339 0.025133
0.993573 0.389817 0.029550
0.142263 0.726741 0.024910
0.274577 0.727518 0.025930
0.543867 0.731653 0.030554
0.809851 0.744045 0.041252
0.957650 0.693925 0.062814
0.996570 0.583606 0.058481
0.241971 0.952780 0.095360
0.327559 0.952988 0.097593
0.541263 0.953856 0.107246
0.765858 0.955640 0.126890
0.965175 0.940008 0.157955
1.000933 0.786578 0.128121
0.276230 0.995912 0.154571
0.326034 0.996005 0.156290
0.473418 0.996411 0.163487
0.648930 0.997245 0.178037
0.823813 0.998687 0.201031
1.016984 0.999966 0.233106
-0.086979 -0.084117 0.008878
0.019310 -0.075128 0.012389
0.387008 0.042175 0.078395
0.780096 0.073051 0.137267
0.949476 0.103427 0.133388
0.991628 0.119099 0.102633
-0.052534 0.100196 0.010437
0.023072 0.099801 0.011516
0.392426 0.107873 0.022224
0.781794 0.125033 0.037460
0.949973 0.150378 0.051983
0.991980 0.165050 0.060634
0.008113 0.338384 0.047831
0.074829 0.339519 0.021451
0.421211 0.395681 0.025456
0.791606 0.456730 0.036675
0.952506 0.432687 0.056537
0.993564 0.372874 0.064565
0.059818 0.726958 0.074464
0.213797 0.727653 0.058433
0.530304 0.731766 0.065818
0.809966 0.741165 0.082462
0.957636 0.686809 0.112609
0.996556 0.578278 0.107685
0.217025 0.952915 0.167531
0.294964 0.952952 0.152565
0.527965 0.953864 0.162091
0.761751 0.955686 0.181448
0.965296 0.939905 0.211952
1.001027 0.785964 0.182971
0.274050 0.995942 0.208134
0.324879 0.996014 0.210347
0.473169 0.996396 0.217329
0.649280 0.997272 0.231280
0.824277 0.998712 0.253531
1.017073 0.999966 0.284330
-0.070165 -0.066229 0.242697
0.084687 -0.049382 0.244716
0.390085 0.049003 0.311984
0.781007 0.076656 0.423390
0.949757 0.106338 0.396728
0.991831 0.121195 0.314761
0.000298 0.174613 0.248889
0.053039 0.102611 0.249465
0.395625 0.110611 0.309002
0.782854 0.127794 0.400315
0.950273 0.153039 0.372161
0.992218 0.167009 0.298744
0.009486 0.356324 0.275069
0.052515 0.352197 0.276571
0.424198 0.348738 0.291984
0.792010 0.363657 0.314956
0.952650 0.386380 0.327129
0.994237 0.399586 0.334781
0.063793 0.728305 0.418837
0.145811 0.728994 0.390241
0.489657 0.732768 0.342244
0.810843 0.732204 0.359525
0.957786 0.683226 0.384360
0.997249 0.607259 0.385178
0.210362 0.953144 0.424295
0.282473 0.953233 0.413879
0.525392 0.954127 0.424538
0.762849 0.955951 0.439966
0.965508 0.941401 0.464148
1.001931 0.804784 0.443660
0.285699 0.996046 0.382717
0.350057 0.996120 0.397145
0.544141 0.996754 0.469759
0.689154 0.997668 0.480229
0.842806 0.999027 0.496911
1.017537 0.999966 0.519977
0.002900 0.039745 0.703630
0.193474 0.045541 0.704685
0.507312 0.061537 0.709309
0.783301 0.083565 0.726051
0.950378 0.112125 0.679103
0.992158 0.125443 0.546777
0.001959 0.227528 0.707025
0.111247 0.108733 0.707200
0.493481 0.117036 0.711733
0.784978 0.133360 0.726166
0.950829 0.158432 0.671404
0.992521 0.171042 0.540188
0.014593 0.463386 0.721501
0.062691 0.424514 0.721859
0.451339 0.353832 0.725302
0.794170 0.368821 0.729296
0.953199 0.391318 0.661077
0.994556 0.403100 0.560000
0.072330 0.735680 0.749147
0.156088 0.733956 0.749890
0.487964 0.732477 0.753724
0.812863 0.743681 0.758593
0.958461 0.755561 0.752114
0.998959 0.762660 0.752431
0.219593 0.953740 0.715523
0.290735 0.953951 0.712305
0.563571 0.954760 0.731965
0.825692 0.956612 0.800104
0.966033 0.951522 0.810876
1.004657 0.891942 0.805469
0.291987 0.996300 0.594547
0.355480 0.996448 0.601902
0.601281 0.997016 0.680714
0.836000 0.998376 0.819941
0.913109 0.999580 0.826262
1.018569 1.000525 0.834909
0.017534 0.060158 0.954757
0.185924 0.063196 0.955043
0.473771 0.074616 0.956069
0.718119 0.094036 0.958104
0.937939 0.121183 0.961241
0.992659 0.132114 0.790238
0.005354 0.205902 0.955552
0.112352 0.117927 0.955568
0.453476 0.125982 0.956586
0.711498 0.141990 0.958625
0.937793 0.167002 0.961776
0.992985 0.177470 0.788300
0.021475 0.432288 0.958759
0.076398 0.395494 0.958734
0.414822 0.361851 0.959554
0.700134 0.376342 0.961547
0.938275 0.399111 0.964667
0.994986 0.408673 0.798792
0.087945 0.671403 0.964991
0.171321 0.664077 0.965063
0.495595 0.683175 0.965806
0.775464 0.747837 0.967860
0.947613 0.759697 0.970645
0.999394 0.765081 0.882072
0.233947 0.919318 0.973974
0.303774 0.919774 0.974146
0.571124 0.926361 0.974902
0.840363 0.945882 0.976668
0.965925 0.960284 0.979299
1.011409 0.961888 0.978453
0.301750 0.996854 0.827676
0.364200 0.996940 0.830393
0.606143 0.997528 0.860549
0.852329 0.998810 0.926946
0.970988 0.999966 0.983036
1.020160 1.002153 0.985298
0.022968 0.068353 0.998414
0.141023 0.070357 0.998409
0.381564 0.078375 0.998667
0.595298 0.092913 0.999108
0.783208 0.113840 0.999661
0.980203 0.141487 0.999963
0.007162 0.165069 0.998560
0.106092 0.123243 0.998652
0.368954 0.129248 0.998853
0.589398 0.141242 0.999178
0.781003 0.160101 0.999777
0.980869 0.186602 0.999963
0.019586 0.360813 0.999197
0.074578 0.330151 0.999237
0.397011 0.366488 0.999575
0.601724 0.377009 0.999959
0.788252 0.393509 0.999963
0.985452 0.416561 0.999963
0.063824 0.560203 0.999963
0.146107 0.554161 0.999963
0.486467 0.617538 0.999963
0.766016 0.750313 0.999963
0.869693 0.758096 0.999963
0.998652 0.768857 1.003126
0.175712 0.773575 0.999963
0.251844 0.774783 0.999963
0.543645 0.808793 1.000816
0.833816 0.896713 1.005544
0.965226 0.960851 1.015329
1.012356 0.962404 1.018057
0.315285 0.990620 1.014835
0.376388 0.991032 1.015092
0.613031 0.993739 1.016447
0.854366 0.998142 1.019440
0.971416 1.000327 1.024029
1.021093 1.003111 1.026732
