LUT color transfer/LUTs/9.cube
LUT_3D_SIZE 16
-0.089649 -0.086914 -0.090147
-0.068997 -0.086347 -0.089615
0.002783 -0.083854 -0.087255
0.018926 -0.078390 -0.082104
0.084866 -0.066592 -0.071191
0.229311 -0.038263 -0.047224
0.386286 0.044393 0.000248
0.537857 0.052020 0.001316
0.671542 0.062198 0.003292
0.779773 0.072179 0.005980
0.859197 0.082411 0.009266
0.913182 0.092814 0.012967
0.949410 0.102727 0.016788
0.972562 0.110934 0.020180
0.985293 0.116047 0.022399
0.991615 0.118604 0.023566
-0.087907 -0.064356 -0.088415
-0.066439 -0.063493 -0.087861
0.002897 -0.059414 -0.085427
0.019177 -0.049667 -0.080095
0.085483 0.022714 -0.068521
0.229902 0.065308 -0.041883
0.386667 0.082283 0.000301
0.538231 0.089519 0.000989
0.671797 0.093918 0.001998
0.779900 0.096464 0.003432
0.859230 0.098669 0.005408
0.913292 0.101763 0.008004
0.949497 0.107388 0.011432
0.972625 0.115226 0.015610
0.985370 0.119873 0.018557
0.991613 0.121976 0.020300
-0.079748 0.059897 -0.080329
-0.053221 0.060061 -0.079692
0.003403 0.063434 -0.076895
0.020294 0.074395 -0.070575
0.088140 0.095056 -0.054953
0.232442 0.121196 0.000057
0.388815 0.140626 0.000545
0.539698 0.155108 0.001283
0.672770 0.164555 0.002353
0.780637 0.169541 0.003853
0.859613 0.170906 0.005912
0.913538 0.170135 0.008596
0.949615 0.168315 0.011743
0.972792 0.165605 0.014776
0.985463 0.161536 0.016836
0.991751 0.156566 0.017875
-0.057717 0.097712 -0.058625
0.000242 0.097825 -0.057624
0.005030 0.098290 -0.053045
0.022647 0.111493 -0.041455
0.093716 0.140369 0.000110
0.237702 0.173669 0.000506
0.392940 0.202078 0.001090
0.542897 0.223522 0.001932
0.674993 0.237596 0.003121
0.782086 0.244796 0.004763
0.860498 0.246002 0.006989
0.914072 0.242958 0.009857
0.950057 0.237232 0.013166
0.973058 0.229535 0.016282
0.985714 0.220137 0.018280
0.991895 0.210257 0.019192
0.000960 0.152315 0.000359
0.002798 0.152430 0.000374
0.011269 0.152880 0.000443
0.030899 0.156152 0.000585
0.102898 0.185928 0.000824
0.245991 0.229344 0.001359
0.399559 0.266351 0.002087
0.547791 0.294388 0.003096
0.678538 0.312732 0.004481
0.784316 0.321918 0.006359
0.861876 0.322898 0.008865
0.915009 0.317820 0.012028
0.950648 0.308716 0.015598
0.973487 0.296704 0.018843
0.986078 0.282605 0.020727
0.992334 0.268059 0.021391
0.006090 0.231669 0.001693
0.009624 0.231759 0.001715
0.025413 0.232219 0.001810
0.058887 0.233231 0.002006
0.130352 0.247845 0.002331
0.257447 0.289099 0.002813
0.408741 0.334011 0.003760
0.554607 0.368010 0.005021
0.683360 0.390256 0.006706
0.787618 0.401062 0.008937
0.863872 0.401565 0.011858
0.916235 0.394472 0.015465
0.951485 0.382043 0.019422
0.974148 0.365824 0.022798
0.986701 0.347091 0.024479
0.992795 0.328158 0.024730
0.019369 0.337763 0.004051
0.025675 0.337919 0.004080
0.053401 0.338402 0.004208
0.111109 0.339325 0.004470
0.183718 0.340902 0.004902
0.285814 0.365115 0.005544
0.420668 0.405890 0.006436
0.563545 0.445113 0.008072
0.689651 0.470602 0.010191
0.791713 0.482599 0.012936
0.866521 0.482420 0.016442
0.917852 0.473070 0.020671
0.952597 0.457339 0.025133
0.975059 0.436926 0.028664
0.987335 0.413458 0.029964
0.993573 0.389817 0.029550
0.046370 0.463799 0.008031
0.056248 0.463897 0.008073
0.099362 0.464328 0.008248
0.172109 0.465178 0.008598
0.253541 0.466606 0.009174
0.336609 0.468616 0.010025
0.447471 0.493694 0.011201
0.574583 0.526417 0.012776
0.697527 0.554395 0.015519
0.796820 0.566991 0.018981
0.869574 0.565649 0.023317
0.919878 0.553846 0.028396
0.953962 0.534588 0.033500
0.976159 0.509802 0.037128
0.988394 0.481539 0.037774
0.994440 0.453133 0.036326
0.090061 0.597948 0.014542
0.103592 0.598009 0.014600
0.153312 0.598376 0.014822
0.228331 0.599093 0.015301
0.314741 0.600358 0.016079
0.404002 0.601977 0.017213
0.492500 0.604194 0.018769
0.597597 0.621797 0.020845
0.706603 0.641556 0.023520
0.802958 0.654204 0.027984
0.873329 0.651087 0.033446
0.922283 0.636497 0.039655
0.955704 0.613456 0.045569
0.977334 0.584205 0.049185
0.989439 0.551003 0.048719
0.995292 0.517739 0.045685
0.142263 0.726741 0.024910
0.154724 0.726868 0.024977
0.201201 0.727009 0.025296
0.274577 0.727518 0.025930
0.361363 0.728453 0.026967
0.452596 0.729788 0.028479
0.543867 0.731653 0.030554
0.633101 0.733750 0.033281
0.724711 0.740461 0.036801
0.809851 0.744045 0.041252
0.877717 0.738750 0.048248
0.925080 0.720850 0.055953
0.957650 0.693925 0.062814
0.978933 0.660027 0.066177
0.990920 0.621757 0.063937
0.996570 0.583606 0.058481
0.186193 0.834830 0.041001
0.197030 0.834914 0.041108
0.238515 0.835095 0.041515
0.306338 0.835510 0.042367
0.389035 0.836202 0.043753
0.477561 0.836993 0.045770
0.567164 0.838091 0.048517
0.655260 0.839516 0.052103
0.740633 0.841262 0.056698
0.822270 0.842245 0.062469
0.882478 0.828244 0.069620
0.928232 0.806809 0.079292
0.959860 0.775530 0.087274
0.980845 0.736911 0.089974
0.992454 0.693622 0.084896
0.998092 0.650488 0.075875
0.218459 0.908734 0.064569
0.227454 0.908766 0.064700
0.262461 0.908857 0.065264
0.321630 0.909055 0.066372
0.396157 0.909390 0.068164
0.477883 0.909852 0.070769
0.561720 0.910535 0.074345
0.644854 0.911335 0.078983
0.725823 0.912351 0.084871
0.804670 0.913538 0.092249
0.882273 0.914870 0.101319
0.931758 0.893591 0.111931
0.962407 0.857855 0.120248
0.982845 0.814511 0.121498
0.994335 0.766181 0.113002
0.999786 0.717937 0.099253
0.241971 0.952780 0.095360
0.249162 0.952820 0.095492
0.277744 0.952825 0.096180
0.327559 0.952988 0.097593
0.392271 0.953160 0.099812
0.465192 0.953505 0.103008
0.541263 0.953856 0.107246
0.617541 0.954360 0.112598
0.692553 0.954930 0.119115
0.765858 0.955640 0.126890
0.838427 0.956484 0.135859
0.911513 0.957472 0.146210
0.965175 0.940008 0.157955
0.985121 0.892032 0.157288
0.996340 0.838758 0.145594
1.000933 0.786578 0.128121
0.259634 0.977542 0.125700
0.265383 0.977564 0.125850
0.288501 0.977570 0.126475
0.329939 0.977677 0.127786
0.385494 0.977780 0.129937
0.449540 0.978002 0.132916
0.517754 0.978206 0.136915
0.587129 0.978490 0.141942
0.656023 0.978957 0.148025
0.723875 0.979486 0.155316
0.791067 0.979966 0.163812
0.858741 0.980666 0.173494
0.929088 0.981362 0.184460
0.987635 0.968164 0.196640
0.998853 0.910518 0.181646
1.005767 0.857368 0.160173
0.270662 0.989853 0.144855
0.275286 0.989891 0.145010
0.294409 0.989917 0.145625
0.329274 0.990004 0.146788
0.377125 0.990186 0.148681
0.433613 0.990336 0.151401
0.494884 0.990535 0.155023
0.558191 0.990766 0.159499
0.621669 0.991154 0.165089
0.684634 0.991531 0.171613
0.746945 0.992014 0.179165
0.809421 0.992585 0.187890
0.873476 0.993096 0.197706
0.941172 0.993776 0.208707
1.000728 0.981530 0.220811
1.011119 0.928373 0.195209
0.276230 0.995912 0.154571
0.280174 0.995943 0.154717
0.296238 0.995929 0.155249
0.326034 0.996005 0.156290
0.367741 0.996064 0.158011
0.418042 0.996248 0.160419
0.473418 0.996411 0.163487
0.531447 0.996635 0.167483
0.590263 0.996950 0.172329
0.648930 0.997245 0.178037
0.707171 0.997779 0.184757
0.765133 0.998191 0.192350
0.823813 0.998687 0.201031
0.884572 0.999259 0.210695
0.949397 0.999956 0.221344
1.016984 0.999966 0.233106
-0.089472 -0.086720 -0.069843
-0.068727 -0.086153 -0.069073
0.002794 -0.083651 -0.065481
0.018956 -0.078164 -0.057215
0.084931 -0.066284 -0.029352
0.229338 -0.037544 0.001918
0.386325 0.040316 0.005086
0.537881 0.052116 0.008116
0.671595 0.062267 0.011487
0.779797 0.072239 0.014987
0.859174 0.082461 0.018463
0.913203 0.092858 0.021817
0.949386 0.102775 0.024972
0.972542 0.110979 0.027478
0.985306 0.116069 0.028764
0.991629 0.118640 0.029051
-0.087720 -0.064060 -0.067330
-0.066155 -0.063191 -0.066520
0.002909 -0.059234 -0.062858
0.019207 -0.049692 -0.054232
0.085489 -0.011948 -0.028627
0.229896 0.039918 0.000289
0.386647 0.049605 0.001179
0.538144 0.058469 0.002707
0.671749 0.067382 0.004922
0.779913 0.076658 0.007786
0.859210 0.086452 0.011191
0.913259 0.096568 0.014974
0.949473 0.106315 0.018871
0.972602 0.114406 0.022316
0.985367 0.119462 0.024584
0.991625 0.122006 0.025768
-0.079528 0.059951 -0.054432
-0.053010 0.060123 -0.053502
0.003417 0.063503 -0.048387
0.020316 0.074419 -0.034237
0.088155 0.093027 0.000130
0.232423 0.113641 0.000496
0.388763 0.131021 0.001051
0.539671 0.143997 0.001864
0.672756 0.152504 0.003020
0.780598 0.157123 0.004625
0.859624 0.158713 0.006813
0.913573 0.158703 0.009642
0.949620 0.158039 0.012946
0.972772 0.156643 0.016130
0.985461 0.153764 0.018290
0.991710 0.149838 0.019400
-0.057367 0.097756 0.000146
0.000199 0.097879 0.000101
0.005015 0.098336 0.000157
0.022678 0.110928 0.000277
0.093746 0.138147 0.000564
0.237694 0.170011 0.001013
0.392910 0.197221 0.001654
0.542806 0.217775 0.002569
0.674986 0.231313 0.003845
0.782025 0.238242 0.005595
0.860495 0.239526 0.007950
0.914096 0.236772 0.010965
0.950054 0.231500 0.014440
0.973078 0.224410 0.017701
0.985712 0.215593 0.019805
0.991905 0.206221 0.020765
0.000584 0.152356 0.000997
0.002224 0.152448 0.000870
0.010841 0.152903 0.000947
0.030777 0.156014 0.001107
0.102958 0.185032 0.001372
0.246017 0.227447 0.001956
0.399551 0.263587 0.002744
0.547788 0.290973 0.003824
0.678452 0.308879 0.005303
0.784346 0.317870 0.007289
0.861862 0.318844 0.009927
0.914980 0.313921 0.013244
0.950626 0.305078 0.016983
0.973495 0.293370 0.020366
0.986076 0.279586 0.022354
0.992292 0.265417 0.023053
0.004967 0.231693 0.002433
0.008170 0.231768 0.002346
0.024116 0.232253 0.002449
0.058091 0.233248 0.002660
0.130024 0.247523 0.003014
0.257544 0.288273 0.003536
0.408774 0.332505 0.004544
0.554619 0.365963 0.005884
0.683382 0.387741 0.007666
0.787575 0.398403 0.010011
0.863829 0.398875 0.013071
0.916225 0.391806 0.016843
0.951523 0.379602 0.020962
0.974134 0.363580 0.024483
0.986700 0.345089 0.026248
0.992808 0.326301 0.026527
0.017043 0.337813 0.005039
0.022660 0.337935 0.004888
0.050544 0.338435 0.005023
0.108964 0.339346 0.005306
0.182902 0.340901 0.005766
0.285479 0.364763 0.006447
0.420686 0.405178 0.007394
0.563546 0.443919 0.009116
0.689638 0.469065 0.011341
0.791684 0.480859 0.014211
0.866508 0.480573 0.017865
0.917862 0.471229 0.022275
0.952612 0.455581 0.026903
0.975035 0.435303 0.030566
0.987334 0.411978 0.031934
0.993585 0.388517 0.031530
0.042397 0.463825 0.009356
0.051108 0.463912 0.009118
0.094367 0.464331 0.009298
0.169091 0.465199 0.009671
0.251927 0.466633 0.010282
0.336005 0.468621 0.011174
0.447236 0.493429 0.012415
0.574616 0.525915 0.014068
0.697538 0.553526 0.016928
0.796806 0.565911 0.020525
0.869588 0.564434 0.025023
0.919861 0.552573 0.030289
0.953948 0.533325 0.035573
0.976147 0.508639 0.039342
0.988394 0.480466 0.040007
0.994452 0.452180 0.038548
0.084380 0.597987 0.016318
0.096188 0.598010 0.015960
0.147840 0.598382 0.016203
0.224729 0.599100 0.016698
0.312516 0.600365 0.017508
0.402755 0.601986 0.018694
0.492010 0.604206 0.020318
0.597464 0.621617 0.022481
0.706592 0.641204 0.025279
0.802933 0.653563 0.029896
0.873324 0.650267 0.035540
0.922273 0.635637 0.041952
0.955694 0.612556 0.048039
0.977368 0.583434 0.051777
0.989440 0.550256 0.051318
0.995305 0.517064 0.048203
0.136707 0.726768 0.027297
0.147837 0.726873 0.026774
0.195767 0.727015 0.027095
0.270752 0.727527 0.027761
0.358767 0.728441 0.028839
0.450990 0.729808 0.030408
0.542943 0.731635 0.032556
0.632707 0.733716 0.035392
0.724642 0.740384 0.039027
0.809841 0.743876 0.043635
0.877723 0.738304 0.050834
0.925077 0.720345 0.058743
0.957644 0.693388 0.065789
0.978928 0.659439 0.069257
0.990925 0.621257 0.066968
0.996584 0.583101 0.061395
0.181589 0.834828 0.044186
0.191041 0.834916 0.043454
0.233633 0.835098 0.043885
0.302688 0.835515 0.044758
0.386406 0.836175 0.046183
0.475831 0.837004 0.048255
0.565973 0.838089 0.051095
0.654494 0.839463 0.054825
0.740229 0.841292 0.059526
0.822251 0.842214 0.065473
0.882544 0.828185 0.072892
0.928236 0.806545 0.082753
0.959859 0.775203 0.090927
0.980844 0.736590 0.093719
0.992458 0.693398 0.088486
0.998106 0.650224 0.079262
0.215087 0.908719 0.068737
0.222764 0.908766 0.067763
0.258439 0.908857 0.068309
0.318539 0.909056 0.069483
0.393808 0.909391 0.071324
0.476249 0.909856 0.074008
0.560547 0.910539 0.077669
0.644057 0.911341 0.082404
0.725348 0.912359 0.088491
0.804375 0.913532 0.096034
0.882173 0.914884 0.105273
0.931771 0.893588 0.115905
0.962413 0.857752 0.124200
0.982847 0.814317 0.125453
0.994341 0.765974 0.116977
0.999753 0.717762 0.103255
0.239876 0.952786 0.100527
0.245901 0.952821 0.099328
0.274853 0.952826 0.100055
0.325156 0.952990 0.101465
0.390458 0.953162 0.103714
0.463866 0.953508 0.106931
0.540311 0.953859 0.111164
0.616860 0.954364 0.116524
0.692142 0.954936 0.123046
0.765480 0.955647 0.130778
0.838251 0.956493 0.139805
0.911447 0.957483 0.150094
0.965187 0.939993 0.161822
0.985128 0.891991 0.161137
0.996348 0.838713 0.149398
1.000939 0.786484 0.132033
0.258499 0.977556 0.130573
0.263262 0.977567 0.129719
0.286635 0.977574 0.130358
0.328442 0.977681 0.131652
0.384215 0.977784 0.133830
0.448586 0.978005 0.136806
0.516968 0.978210 0.140809
0.586559 0.978496 0.145852
0.655635 0.978963 0.151958
0.723542 0.979494 0.159181
0.790875 0.979975 0.167663
0.858670 0.980674 0.177350
0.929085 0.981372 0.188333
0.987647 0.968173 0.200480
0.998864 0.910472 0.185423
1.005773 0.857360 0.163997
0.270010 0.989866 0.149285
0.274175 0.989898 0.148897
0.293346 0.989924 0.149429
0.328433 0.990011 0.150686
0.376406 0.990185 0.152578
0.433082 0.990343 0.155285
0.494474 0.990543 0.158925
0.557854 0.990774 0.163377
0.621476 0.991162 0.168892
0.684440 0.991539 0.175375
0.746872 0.992024 0.183010
0.809319 0.992517 0.191676
0.873402 0.993106 0.201456
0.941137 0.993787 0.212517
1.000734 0.981558 0.224602
1.011126 0.928394 0.199083
0.275934 0.995923 0.158495
0.279856 0.995917 0.158654
0.295922 0.995941 0.159175
0.325763 0.996015 0.160205
0.367527 0.996077 0.161902
0.417826 0.996208 0.164265
0.473251 0.996423 0.167386
0.531364 0.996591 0.171384
0.590180 0.996962 0.176103
0.648900 0.997257 0.181870
0.707121 0.997791 0.188557
0.765115 0.998202 0.196176
0.823825 0.998699 0.204786
0.884592 0.999271 0.214394
0.949418 0.999966 0.225007
1.016991 0.999966 0.236761
-0.088666 -0.085879 0.001567
-0.067427 -0.085298 0.001587
0.002847 -0.082761 0.001883
0.019074 -0.077180 0.003379
0.085225 -0.064941 0.007719
0.229632 -0.034211 0.016939
0.386518 0.040950 0.028277
0.538059 0.052503 0.039144
0.671702 0.062574 0.048502
0.779879 0.072505 0.055342
0.859192 0.082708 0.059313
0.913250 0.093096 0.060932
0.949431 0.102998 0.060901
0.972607 0.111168 0.059455
0.985371 0.116253 0.056471
0.991616 0.118793 0.052871
-0.086883 -0.062623 0.001627
-0.064916 -0.061867 0.001645
0.002961 -0.057780 0.001955
0.019327 -0.047804 0.003485
0.085790 0.015732 0.007783
0.230138 0.040546 0.015195
0.386918 0.050015 0.024300
0.538355 0.058800 0.033588
0.671870 0.067657 0.041728
0.780072 0.076912 0.047921
0.859269 0.086687 0.051848
0.913287 0.096790 0.053950
0.949515 0.106531 0.054694
0.972623 0.114596 0.054192
0.985330 0.119618 0.052256
0.991635 0.122158 0.049556
-0.078577 0.060588 0.001890
-0.051301 0.060759 0.001909
0.003473 0.061098 0.002034
0.020436 0.062547 0.002420
0.088218 0.065118 0.003247
0.232279 0.068847 0.004729
0.388570 0.073614 0.006841
0.539552 0.079400 0.009535
0.672725 0.086197 0.012713
0.780560 0.093951 0.016311
0.859514 0.102645 0.020186
0.913547 0.111995 0.024313
0.949615 0.121213 0.028508
0.972760 0.128984 0.032227
0.985506 0.133882 0.034681
0.991699 0.136376 0.035960
-0.055837 0.097917 0.003177
0.000181 0.098022 0.003097
0.004823 0.098498 0.002568
0.022807 0.106993 0.002754
0.093862 0.127355 0.003172
0.237611 0.151821 0.003796
0.392793 0.173075 0.004670
0.542677 0.189341 0.005887
0.674825 0.200228 0.007542
0.781834 0.206142 0.009764
0.860499 0.207894 0.012687
0.914072 0.206921 0.016369
0.950007 0.204346 0.020570
0.973017 0.200409 0.024496
0.985703 0.194665 0.027070
0.991899 0.188002 0.028314
0.000622 0.152514 0.006276
0.001489 0.152612 0.005285
0.008823 0.153011 0.003734
0.030170 0.155438 0.003964
0.103218 0.180989 0.004343
0.246084 0.218647 0.005123
0.399464 0.250818 0.006152
0.547670 0.275259 0.007549
0.678363 0.291335 0.009417
0.784196 0.299424 0.011893
0.861857 0.300406 0.015126
0.914922 0.296248 0.019140
0.950633 0.288760 0.023606
0.973472 0.278705 0.027644
0.986068 0.266591 0.030072
0.992339 0.253964 0.031008
0.003064 0.231856 0.009764
0.004320 0.231954 0.007373
0.018210 0.232332 0.005793
0.054328 0.233335 0.006083
0.128321 0.246042 0.006554
0.257772 0.284588 0.007252
0.408790 0.325596 0.008524
0.554619 0.356633 0.010199
0.683270 0.376861 0.012398
0.787412 0.386575 0.015265
0.863792 0.386881 0.018952
0.916204 0.380191 0.023441
0.951481 0.368603 0.028313
0.974153 0.353728 0.032483
0.986694 0.336263 0.034634
0.992864 0.318493 0.035071
0.007922 0.337977 0.011032
0.012744 0.338078 0.009991
0.037887 0.338485 0.009142
0.098921 0.339403 0.009506
0.179207 0.340985 0.010097
0.284089 0.363288 0.010968
0.420879 0.402200 0.012170
0.563584 0.438682 0.014260
0.689670 0.462270 0.016941
0.791611 0.473133 0.020368
0.866446 0.472517 0.024695
0.917801 0.463284 0.029866
0.952568 0.448044 0.035265
0.975057 0.428395 0.039563
0.987332 0.405830 0.041229
0.993599 0.383012 0.040883
0.025509 0.463969 0.016061
0.034167 0.464067 0.015763
0.072482 0.464389 0.014482
0.155196 0.465223 0.014944
0.244716 0.466651 0.015699
0.333273 0.468702 0.016809
0.446145 0.492153 0.018322
0.574743 0.523643 0.020332
0.697561 0.549699 0.023698
0.796804 0.561096 0.027912
0.869518 0.559070 0.033144
0.919896 0.547130 0.039213
0.953947 0.528076 0.045308
0.976157 0.503829 0.049654
0.988395 0.476098 0.050526
0.994451 0.448276 0.048957
0.060259 0.598103 0.025117
0.072026 0.598222 0.024679
0.121985 0.598406 0.022828
0.208377 0.599131 0.023423
0.302763 0.600393 0.024392
0.397431 0.602048 0.025812
0.489878 0.604243 0.027751
0.596711 0.620804 0.030309
0.706679 0.639704 0.033601
0.802975 0.650934 0.038901
0.873302 0.647011 0.045356
0.922264 0.632066 0.052645
0.955649 0.609056 0.059535
0.977344 0.580038 0.063818
0.989445 0.547207 0.063373
0.995366 0.514379 0.060013
0.111300 0.726937 0.038877
0.123959 0.726922 0.038261
0.170726 0.727043 0.035644
0.253562 0.727563 0.036415
0.347515 0.728452 0.037676
0.443956 0.729841 0.039513
0.538877 0.731622 0.042002
0.630914 0.733717 0.045284
0.724075 0.740035 0.049494
0.809916 0.742902 0.054793
0.877687 0.736605 0.062872
0.925065 0.718248 0.071738
0.957618 0.691083 0.079643
0.978996 0.657363 0.083516
0.990876 0.619214 0.081012
0.996568 0.581275 0.074932
0.161329 0.834934 0.059394
0.171667 0.834971 0.058531
0.211381 0.835109 0.054969
0.286436 0.835485 0.055960
0.375020 0.836206 0.057574
0.468032 0.836979 0.059973
0.560879 0.838030 0.063188
0.651524 0.839486 0.067414
0.738843 0.841236 0.072791
0.821868 0.842198 0.079474
0.882514 0.827713 0.087797
0.928259 0.805565 0.098690
0.959857 0.773996 0.107539
0.980840 0.735304 0.110426
0.992409 0.692104 0.105001
0.998173 0.649064 0.094925
0.200933 0.908795 0.088336
0.208954 0.908810 0.087200
0.240788 0.908860 0.082557
0.304875 0.909060 0.083828
0.383762 0.909399 0.085920
0.469019 0.909869 0.088913
0.555507 0.910527 0.093021
0.640649 0.911368 0.098334
0.723197 0.912356 0.105014
0.803255 0.913528 0.112953
0.881872 0.914890 0.122221
0.931768 0.893384 0.132819
0.962436 0.857173 0.140982
0.982859 0.813681 0.142147
0.994366 0.765280 0.133796
0.999780 0.717148 0.120245
0.231473 0.952847 0.122819
0.237566 0.952883 0.121708
0.262359 0.952831 0.116952
0.315124 0.952979 0.118338
0.382783 0.953170 0.120587
0.458068 0.953462 0.123768
0.536075 0.953875 0.128003
0.613908 0.954384 0.133314
0.689972 0.954961 0.139817
0.764217 0.955678 0.147520
0.837529 0.956511 0.156581
0.911221 0.957469 0.166849
0.965238 0.939903 0.178423
0.985107 0.891722 0.177645
0.996385 0.838371 0.166156
1.000967 0.786234 0.148889
0.254109 0.977529 0.151510
0.259001 0.977569 0.150688
0.278921 0.977585 0.147071
0.321913 0.977623 0.148364
0.379114 0.977770 0.150532
0.444589 0.977974 0.153487
0.514026 0.978209 0.157510
0.584420 0.978505 0.162435
0.654094 0.978988 0.168523
0.722522 0.979472 0.175791
0.790238 0.979977 0.184200
0.858288 0.980707 0.193746
0.928926 0.981417 0.204552
0.987656 0.968154 0.216631
0.998831 0.910446 0.201782
1.005801 0.857355 0.180574
0.267913 0.989865 0.168173
0.272028 0.989897 0.167756
0.289479 0.989918 0.166157
0.325022 0.990043 0.167328
0.373653 0.990215 0.169212
0.430920 0.990330 0.171933
0.492828 0.990519 0.175412
0.556693 0.990808 0.179954
0.620667 0.991140 0.185404
0.683787 0.991524 0.191826
0.746417 0.992041 0.199317
0.809116 0.992558 0.208036
0.873340 0.993111 0.217732
0.941125 0.993832 0.228538
1.000762 0.981640 0.240526
1.011153 0.928457 0.215224
0.274705 0.995931 0.175079
0.278605 0.995966 0.175114
0.294862 0.995957 0.175808
0.324835 0.996027 0.176801
0.366795 0.996130 0.178408
0.417292 0.996235 0.180872
0.472895 0.996435 0.183944
0.531050 0.996645 0.187842
0.589995 0.996960 0.192577
0.648843 0.997308 0.198318
0.707092 0.997801 0.204893
0.765177 0.998216 0.212456
0.823885 0.998755 0.220882
0.884670 0.999284 0.230521
0.949405 0.999966 0.241046
1.017018 0.999966 0.252551
-0.086979 -0.084117 0.008878
-0.064749 -0.083514 0.008912
0.003682 -0.080879 0.009059
0.019310 -0.075128 0.012389
0.085804 -0.062088 0.025316
0.230205 -0.025466 0.049607
0.387008 0.042175 0.078395
0.538375 0.053280 0.105810
0.671927 0.063194 0.125783
0.780096 0.073051 0.137267
0.859269 0.083206 0.141071
0.913271 0.093547 0.139164
0.949476 0.103427 0.133388
0.972609 0.111548 0.124788
0.985392 0.116595 0.113987
0.991628 0.119099 0.102633
-0.085128 -0.059629 0.008985
-0.062265 -0.059020 0.009016
0.003800 -0.054602 0.009160
0.019573 -0.043609 0.012553
0.086357 0.028038 0.025429
0.230698 0.041748 0.047919
0.387327 0.050834 0.074725
0.538654 0.059451 0.100562
0.672094 0.068229 0.119976
0.780194 0.077415 0.131186
0.859380 0.087160 0.135038
0.913358 0.097230 0.133416
0.949511 0.106935 0.128120
0.972622 0.114995 0.120143
0.985350 0.119977 0.110043
0.991679 0.122475 0.099354
-0.076496 0.066839 0.009451
-0.047422 0.066994 0.009487
0.003996 0.061608 0.009633
0.020685 0.063038 0.012358
0.088816 0.065631 0.022157
0.232893 0.069358 0.038825
0.389078 0.074110 0.058389
0.539856 0.079881 0.077203
0.672891 0.086656 0.092422
0.780687 0.094400 0.102452
0.859631 0.103079 0.106726
0.913546 0.112412 0.106732
0.949633 0.121623 0.103988
0.972839 0.129368 0.099140
0.985471 0.134224 0.092595
0.991762 0.136667 0.085640
-0.052534 0.100196 0.010437
0.000243 0.100181 0.010473
0.004737 0.099281 0.010625
0.023072 0.099801 0.011516
0.093919 0.101560 0.013804
0.237309 0.104256 0.017577
0.392426 0.107873 0.022224
0.542361 0.112519 0.027309
0.674532 0.118235 0.032418
0.781794 0.125033 0.037460
0.860386 0.132910 0.042305
0.913983 0.141612 0.047126
0.949973 0.150378 0.051983
0.973040 0.157862 0.056311
0.985690 0.162620 0.059173
0.991980 0.165050 0.060634
0.000702 0.152829 0.017765
0.001587 0.152919 0.017237
0.007173 0.153329 0.014862
0.027825 0.154264 0.012924
0.103829 0.171609 0.013572
0.246125 0.196609 0.014705
0.399250 0.218782 0.016239
0.547437 0.236157 0.018308
0.678126 0.247942 0.021055
0.784091 0.254392 0.024626
0.861794 0.256196 0.029195
0.914867 0.254848 0.034765
0.950633 0.251487 0.040916
0.973499 0.246318 0.046486
0.986058 0.238959 0.049968
0.992363 0.230596 0.051521
0.003193 0.232185 0.030997
0.004464 0.232291 0.029124
0.011688 0.232706 0.020757
0.044436 0.233474 0.016263
0.123669 0.242943 0.017029
0.258199 0.276354 0.018141
0.408834 0.309858 0.019940
0.554491 0.335562 0.022342
0.682993 0.352305 0.025460
0.787429 0.360458 0.029488
0.863746 0.360564 0.034579
0.916116 0.355067 0.040707
0.951420 0.345678 0.047279
0.974089 0.333423 0.052958
0.986690 0.318747 0.056054
0.992876 0.303564 0.056941
0.008113 0.338384 0.047831
0.009906 0.338439 0.043693
0.019447 0.338754 0.025572
0.074829 0.339519 0.021451
0.169856 0.341145 0.022352
0.280645 0.360032 0.023664
0.421211 0.395681 0.025456
0.563594 0.427311 0.028327
0.689560 0.447632 0.032004
0.791606 0.456730 0.036675
0.866295 0.455511 0.042498
0.917780 0.446705 0.049388
0.952506 0.432687 0.056537
0.975013 0.414747 0.062260
0.987332 0.393928 0.064697
0.993564 0.372874 0.064565
0.017208 0.464281 0.062685
0.019706 0.464372 0.055804
0.038701 0.464646 0.033152
0.120488 0.465299 0.029325
