LUT color transfer/LUTs/91.cube
LUT_3D_SIZE 6
0.000000 0.000000 0.063887
0.039935 0.034725 0.063887
0.216444 0.110260 0.168088
0.708115 0.229062 0.348063
0.949082 0.330947 0.457773
0.982933 0.381444 0.503692
0.026462 0.113056 0.063887
0.049498 0.118110 0.063887
0.234813 0.220933 0.233494
0.722474 0.349982 0.384411
0.952274 0.417181 0.479608
0.983657 0.435484 0.517156
0.109643 0.410506 0.339609
0.154816 0.414141 0.347153
0.316151 0.429069 0.376476
0.777119 0.559015 0.493076
0.963453 0.582480 0.553147
0.986644 0.563150 0.566556
0.380424 0.678983 0.572163
0.443195 0.680038 0.575806
0.641566 0.684747 0.590619
0.862108 0.694268 0.618013
0.978394 0.696890 0.652846
0.991264 0.661164 0.641801
0.662086 0.833156 0.708303
0.691885 0.834001 0.710562
0.792910 0.837829 0.719988
0.920346 0.845331 0.738613
0.989459 0.857044 0.767254
0.995924 0.770920 0.732908
0.775251 0.908785 0.772192
0.789048 0.909391 0.773729
0.840393 0.911812 0.780238
0.917402 0.916654 0.793220
0.976097 0.924202 0.813491
0.998681 0.934660 0.840381
0.008856 0.022789 0.142835
0.041278 0.040790 0.156079
0.218468 0.114539 0.320044
0.709678 0.232656 0.466126
0.949466 0.333601 0.526408
0.983024 0.383212 0.543170
0.027932 0.115370 0.185646
0.049001 0.120117 0.200464
0.270391 0.137955 0.232578
0.741633 0.242496 0.369609
0.956611 0.340341 0.469188
0.985323 0.389279 0.512201
0.111397 0.412014 0.411354
0.114970 0.418080 0.356641
0.319434 0.432530 0.382300
0.780848 0.545052 0.486154
0.965072 0.566542 0.545909
0.987626 0.548089 0.561902
0.383210 0.679428 0.607278
0.385243 0.680536 0.576850
0.617791 0.685365 0.590558
0.862665 0.694872 0.619379
0.978535 0.692651 0.650373
0.991569 0.656790 0.639327
0.663834 0.833529 0.725015
0.664845 0.834256 0.710675
0.776493 0.838128 0.719439
0.915038 0.845683 0.738553
0.989478 0.857474 0.768039
0.996016 0.768492 0.732015
0.776234 0.909033 0.781782
0.777073 0.909688 0.774034
0.830911 0.912257 0.779932
0.912403 0.916906 0.793113
0.975159 0.924467 0.813637
0.998624 0.934898 0.840900
0.028991 0.070384 0.482585
0.085043 0.084948 0.486385
0.236607 0.131703 0.501909
0.716578 0.247521 0.628536
0.950986 0.344799 0.660584
0.983342 0.390655 0.642470
0.050013 0.206387 0.496268
0.047256 0.120210 0.549133
0.278120 0.153553 0.533660
0.744480 0.257644 0.625546
0.957469 0.351609 0.648395
0.985554 0.396677 0.631397
0.118909 0.420981 0.546072
0.123336 0.426401 0.551290
0.263064 0.421270 0.567989
0.848705 0.398991 0.545355
0.982939 0.427880 0.561770
0.991751 0.466320 0.587028
0.395035 0.681404 0.708174
0.397717 0.682379 0.697794
0.447918 0.693985 0.629281
0.869599 0.702063 0.642384
0.983723 0.677312 0.655508
0.995020 0.640609 0.646946
0.671505 0.835064 0.790327
0.672562 0.835847 0.779924
0.692871 0.844581 0.734743
0.886012 0.851598 0.745817
0.989569 0.861180 0.776744
0.997063 0.763234 0.738587
0.780357 0.910024 0.821328
0.781184 0.910690 0.814814
0.794116 0.918040 0.792415
0.888174 0.922734 0.798523
0.970816 0.928730 0.819079
0.998667 0.937377 0.846264
0.061975 0.140308 0.756042
0.163909 0.153146 0.758162
0.438687 0.200898 0.767038
0.741110 0.275784 0.784715
0.953891 0.366564 0.809484
0.984027 0.405274 0.760129
0.085610 0.310808 0.763693
0.073056 0.170397 0.802032
0.439287 0.209964 0.795186
0.761821 0.286261 0.799744
0.959314 0.373514 0.809823
0.986050 0.411203 0.756947
0.190600 0.543813 0.795679
0.182134 0.530852 0.802474
0.207198 0.371987 0.868834
0.840429 0.396295 0.869976
0.982306 0.444867 0.818454
0.992135 0.475754 0.747975
0.418805 0.685420 0.854390
0.422544 0.686410 0.856252
0.471743 0.695053 0.874074
0.827129 0.692513 0.887575
0.988681 0.678938 0.852175
0.995965 0.678748 0.845415
0.686479 0.838122 0.899308
0.687872 0.838930 0.895213
0.708214 0.847010 0.879686
0.831174 0.864378 0.857609
0.989243 0.871303 0.866725
0.998242 0.785167 0.876217
0.788438 0.912049 0.890144
0.789390 0.912635 0.886301
0.801997 0.919516 0.874097
0.889386 0.929436 0.886781
0.967194 0.935466 0.887836
0.998417 0.942885 0.891629
0.096646 0.202586 0.936778
0.196763 0.212093 0.937716
0.469090 0.249191 0.941245
0.755867 0.313797 0.947859
0.952868 0.398797 0.957170
0.985170 0.427316 0.899905
0.119476 0.341027 0.939887
0.106213 0.222594 0.955489
0.444465 0.254607 0.955001
0.756740 0.319976 0.956043
0.956741 0.405665 0.961634
0.986860 0.433131 0.901688
0.227933 0.551990 0.951721
0.215657 0.533964 0.956488
0.211191 0.364629 0.970751
0.726797 0.393652 0.974631
0.971268 0.466840 0.980480
0.992813 0.490639 0.912992
0.448417 0.677940 0.969706
0.442910 0.674308 0.970708
0.451631 0.662327 0.982291
0.724081 0.643243 0.983035
0.974332 0.653953 0.986711
0.995965 0.669711 0.948522
0.709075 0.834799 0.987030
0.710864 0.835389 0.987273
0.729503 0.840607 0.989600
0.831342 0.846611 0.993421
0.988395 0.858498 0.994419
0.998938 0.861115 0.993764
0.800996 0.915073 0.964284
0.802024 0.915801 0.963261
0.814098 0.922116 0.961237
0.891611 0.932238 0.967407
0.987843 0.941392 0.991948
0.998914 0.945636 0.993859
0.117350 0.233062 0.978122
0.188903 0.239509 0.978422
0.404075 0.265643 0.979506
0.658337 0.313587 0.981679
0.867009 0.379825 0.984700
0.981078 0.456003 0.988422
0.135099 0.329964 0.979109
0.125158 0.247430 0.978339
0.369067 0.269585 0.979469
0.643590 0.317887 0.981611
0.862949 0.384540 0.984752
0.981040 0.460855 0.988467
0.218184 0.512574 0.982918
0.208529 0.490505 0.982272
0.231079 0.374332 0.980626
0.586435 0.395089 0.982606
0.849847 0.451927 0.985723
0.981127 0.515512 0.989437
0.389206 0.636830 0.989001
0.383118 0.631550 0.988668
0.412513 0.612949 0.987816
0.735410 0.642670 0.990317
0.905824 0.655270 0.992106
0.987222 0.672683 0.994547
0.615046 0.741338 0.995415
0.613947 0.738713 0.995300
0.644769 0.731210 0.995132
0.849861 0.752113 0.996243
0.988035 0.844234 0.999117
0.997579 0.857857 0.999583
0.817660 0.908849 0.999588
0.819563 0.908770 0.999595
0.843153 0.908445 0.999632
0.943481 0.913683 0.999820
0.993831 0.930995 0.999975
0.999371 0.941803 0.999975
