LUT color transfer/LUTs/91.cube
LUT_3D_SIZE 16
0.000000 0.000000 0.063887
0.007450 0.007393 0.063887
0.020507 0.019142 0.063887
0.039935 0.034725 0.063887
0.070210 0.054774 0.063887
0.121557 0.079833 0.085586
0.216444 0.110260 0.168088
0.364254 0.146305 0.234661
0.542222 0.187430 0.294528
0.708115 0.229062 0.348063
0.828530 0.268022 0.393336
0.906266 0.302588 0.429909
0.949082 0.330947 0.457773
0.967606 0.352245 0.477653
0.976836 0.367927 0.491772
0.982933 0.381444 0.503692
0.005138 0.022728 0.063887
0.008956 0.023642 0.063887
0.021390 0.032846 0.063887
0.040652 0.046454 0.063887
0.070955 0.065589 0.063887
0.122492 0.090652 0.096121
0.217739 0.121871 0.174020
0.365645 0.159173 0.238975
0.543643 0.200464 0.297975
0.709111 0.241270 0.350904
0.829305 0.278861 0.395637
0.906817 0.311814 0.431882
0.949335 0.338658 0.459431
0.967738 0.358621 0.479038
0.976901 0.373235 0.492969
0.982960 0.385909 0.504697
0.013939 0.060102 0.063887
0.016581 0.060589 0.063887
0.024879 0.062605 0.063887
0.043648 0.077869 0.063887
0.074102 0.098759 0.063887
0.126524 0.126658 0.131141
0.223381 0.162408 0.196665
0.372005 0.203713 0.256259
0.549395 0.245528 0.312006
0.713665 0.284867 0.362582
0.832234 0.318783 0.405490
0.908788 0.346816 0.440097
0.950343 0.368416 0.466300
0.968253 0.383697 0.484831
0.977245 0.394390 0.497854
0.983212 0.403842 0.508879
0.026462 0.113056 0.063887
0.028639 0.113438 0.063887
0.036642 0.114991 0.063887
0.049498 0.118110 0.063887
0.080417 0.144469 0.121982
0.134778 0.179256 0.179082
0.234813 0.220933 0.233494
0.384720 0.266358 0.286507
0.561099 0.310951 0.337614
0.722474 0.349982 0.384411
0.838155 0.380222 0.424058
0.912629 0.402329 0.455814
0.952274 0.417181 0.479608
0.969417 0.425964 0.496136
0.978016 0.430913 0.507502
0.983657 0.435484 0.517156
0.044272 0.189498 0.154070
0.046444 0.189815 0.155249
0.054977 0.191190 0.160185
0.069986 0.194004 0.169669
0.090816 0.198408 0.183385
0.148321 0.238352 0.230630
0.253133 0.286217 0.278366
0.404815 0.337049 0.326108
0.579250 0.384584 0.372635
0.736020 0.423146 0.415243
0.847464 0.449986 0.450720
0.918673 0.466587 0.478710
0.955155 0.475171 0.499228
0.971055 0.477764 0.512956
0.979024 0.477053 0.522003
0.984418 0.476521 0.529745
0.070252 0.288852 0.250447
0.072805 0.289163 0.251188
0.083194 0.290409 0.254330
0.102568 0.292980 0.260489
0.131141 0.296979 0.269873
0.169789 0.302644 0.282383
0.279006 0.355588 0.326857
0.432432 0.410543 0.371163
0.604103 0.458986 0.413977
0.754399 0.495421 0.452352
0.859740 0.517922 0.483493
0.926709 0.529371 0.507394
0.958992 0.532838 0.524206
0.973186 0.530679 0.534723
0.980522 0.525620 0.540952
0.985413 0.521002 0.546397
0.109643 0.410506 0.339609
0.113054 0.410756 0.340148
0.127219 0.411897 0.342502
0.154816 0.414141 0.347153
0.196944 0.417701 0.354333
0.251423 0.422654 0.364200
0.316151 0.429069 0.376476
0.468025 0.482587 0.418743
0.635264 0.528139 0.458484
0.777119 0.559015 0.493076
0.875037 0.575710 0.520152
0.935846 0.582641 0.540032
0.963453 0.582480 0.553147
0.975916 0.577577 0.560327
0.982281 0.570245 0.563672
0.986644 0.563150 0.566556
0.172536 0.531551 0.425171
0.177207 0.531712 0.425605
0.196586 0.532503 0.427418
0.233370 0.534057 0.431088
0.286649 0.536507 0.436808
0.353542 0.539910 0.444664
0.430686 0.544325 0.454583
0.514619 0.549671 0.466557
0.671798 0.585357 0.503770
0.803334 0.609249 0.535068
0.892724 0.621524 0.558591
0.945453 0.625382 0.575042
0.968386 0.623031 0.584790
0.978795 0.616540 0.588827
0.984286 0.607891 0.589247
0.988036 0.599629 0.589541
0.266975 0.617909 0.504197
0.272085 0.617999 0.504539
0.293344 0.618420 0.505918
0.333713 0.619291 0.508822
0.391737 0.620672 0.513284
0.463750 0.622563 0.519468
0.544922 0.625079 0.527357
0.630314 0.628198 0.536964
0.714670 0.631845 0.548065
0.831960 0.651351 0.576873
0.912000 0.661741 0.597697
0.955140 0.663628 0.611189
0.973418 0.659184 0.618144
0.981980 0.650800 0.619296
0.986439 0.640783 0.617003
0.989578 0.631365 0.614748
0.380424 0.678983 0.572163
0.385238 0.679066 0.572431
0.405129 0.679389 0.573552
0.443195 0.680038 0.575806
0.498035 0.681193 0.579249
0.565971 0.682716 0.584321
0.641566 0.684747 0.590619
0.719354 0.687388 0.598407
0.793768 0.690518 0.607550
0.862108 0.694268 0.618013
0.931429 0.704502 0.636990
0.964149 0.704395 0.648392
0.978394 0.696890 0.652846
0.985135 0.685286 0.651377
0.988670 0.672555 0.646446
0.991264 0.661164 0.641801
0.492566 0.736181 0.627693
0.496414 0.736256 0.627907
0.512962 0.736499 0.628816
0.544658 0.737160 0.630606
0.590704 0.738275 0.633519
0.648098 0.739910 0.637641
0.712019 0.741898 0.642950
0.777371 0.744572 0.649547
0.840219 0.747668 0.657385
0.898389 0.751456 0.666516
0.946618 0.755779 0.676858
0.972199 0.754369 0.686672
0.983043 0.741569 0.689041
0.988226 0.724674 0.685087
0.990934 0.707322 0.677560
0.992873 0.692367 0.670470
0.588755 0.789617 0.672739
0.591774 0.789760 0.672939
0.604387 0.789983 0.673647
0.628698 0.790656 0.675251
0.664519 0.791676 0.677813
0.709527 0.793028 0.681274
0.760231 0.794923 0.685948
0.813207 0.797243 0.691692
0.865305 0.800155 0.698587
0.914414 0.803516 0.706691
0.953309 0.807419 0.716058
0.977388 0.811910 0.726610
0.987209 0.797340 0.726963
0.991095 0.772750 0.720592
0.993019 0.748507 0.710326
0.994515 0.728081 0.700832
0.662086 0.833156 0.708303
0.664320 0.833210 0.708440
0.673609 0.833497 0.709182
0.691885 0.834001 0.710562
0.718787 0.834939 0.712745
0.753162 0.836125 0.715885
0.792910 0.837829 0.719988
0.835488 0.839843 0.725130
0.878723 0.842414 0.731331
0.920346 0.845331 0.738613
0.953400 0.848755 0.747013
0.975359 0.852643 0.756561
0.989459 0.857044 0.767254
0.993621 0.831346 0.758259
0.994928 0.798361 0.745141
0.995924 0.770920 0.732908
0.712710 0.865400 0.735037
0.714387 0.865488 0.735198
0.721516 0.865696 0.735790
0.735187 0.866173 0.737006
0.755809 0.866922 0.738974
0.782475 0.868023 0.741627
0.814052 0.869435 0.745293
0.848890 0.871149 0.749833
0.884933 0.873377 0.755399
0.920683 0.875934 0.761870
0.950351 0.878936 0.769475
0.971247 0.882327 0.777993
0.985574 0.886188 0.787686
0.994779 0.890412 0.798319
0.996567 0.857687 0.782135
0.997250 0.822009 0.767059
0.747351 0.888909 0.754854
0.748546 0.888956 0.754969
0.753999 0.889139 0.755553
0.764657 0.889506 0.756570
0.780874 0.890145 0.758314
0.802302 0.891060 0.760713
0.827871 0.892308 0.763887
0.856674 0.893859 0.767939
0.887252 0.895749 0.772767
0.918382 0.897937 0.778590
0.945590 0.900451 0.785286
0.965953 0.903348 0.792869
0.980651 0.906674 0.801466
0.990956 0.910300 0.810887
0.997225 0.914383 0.821179
0.998292 0.881309 0.803459
0.775251 0.908785 0.772192
0.776296 0.908866 0.772266
0.780557 0.909032 0.772757
0.789048 0.909391 0.773729
0.802011 0.909969 0.775192
0.819251 0.910721 0.777388
0.840393 0.911812 0.780238
0.864411 0.913108 0.783771
0.890396 0.914635 0.788150
0.917402 0.916654 0.793220
0.942047 0.918839 0.799140
0.961381 0.921300 0.805860
0.976097 0.924202 0.813491
0.986883 0.927259 0.821741
0.994430 0.930807 0.830845
0.998681 0.934660 0.840381
0.001824 0.004863 0.063887
0.007641 0.008632 0.063887
0.020610 0.019804 0.063887
0.040016 0.035194 0.063887
0.070292 0.055159 0.063887
0.121650 0.080175 0.115241
0.216623 0.110555 0.188776
0.364400 0.146596 0.252614
0.542373 0.187722 0.310374
0.708163 0.229330 0.361449
0.828640 0.268257 0.404051
0.906371 0.302796 0.438238
0.949121 0.331127 0.464189
0.967645 0.352412 0.482691
0.976862 0.368090 0.495806
0.982943 0.381567 0.506961
0.005380 0.023110 0.063887
0.008985 0.024045 0.063887
0.023485 0.026217 0.063887
0.042423 0.037894 0.063887
0.072334 0.056583 0.063887
0.123694 0.081034 0.090775
0.218882 0.111153 0.170486
0.366516 0.147037 0.236174
0.543991 0.188058 0.295642
0.709271 0.229583 0.348908
0.829315 0.268484 0.393941
0.906844 0.302967 0.430435
0.949284 0.331313 0.458237
0.967732 0.352586 0.478056
0.976898 0.368254 0.492125
0.982966 0.381739 0.504006
0.014077 0.060298 0.063887
0.014644 0.061265 0.063887
0.024946 0.062971 0.063887
0.044185 0.075622 0.063887
0.074802 0.094674 0.063887
0.127336 0.121047 0.127396
0.224268 0.155298 0.193546
0.372693 0.195627 0.253608
0.549786 0.236916 0.309679
0.713757 0.276221 0.360577
0.832267 0.310721 0.403731
0.908794 0.339589 0.438609
0.950330 0.362181 0.465037
0.968257 0.378439 0.483802
0.977265 0.389904 0.497002
0.983235 0.400011 0.508182
0.026566 0.113222 0.063887
0.026789 0.113759 0.063887
0.035646 0.115341 0.063887
0.049559 0.118352 0.063887
0.080615 0.143041 0.121050
0.135091 0.176459 0.177308
0.235142 0.217107 0.231529
0.385042 0.261641 0.284525
0.561167 0.305584 0.335752
0.722450 0.344333 0.382704
0.838181 0.374713 0.422530
0.912712 0.397187 0.454508
0.952243 0.412581 0.478469
0.969395 0.421934 0.495193
0.978015 0.427353 0.506715
0.983657 0.432372 0.516510
0.044371 0.189623 0.165525
0.044507 0.189996 0.155945
0.053494 0.191427 0.160327
0.069272 0.194214 0.170014
0.090887 0.198607 0.184050
0.148416 0.237357 0.230153
0.253173 0.284256 0.277318
0.404715 0.334278 0.324813
0.579150 0.381299 0.371262
0.735890 0.419673 0.413887
0.847308 0.446436 0.449471
0.918609 0.463236 0.477615
0.955125 0.472021 0.498228
0.971021 0.474901 0.512136
0.979005 0.474453 0.521289
0.984411 0.474120 0.529088
0.070362 0.288977 0.258549
0.070461 0.289261 0.251446
0.081150 0.290559 0.254244
0.101158 0.293109 0.260519
0.130429 0.297133 0.270084
0.169923 0.302811 0.282759
0.278987 0.354819 0.326565
0.432364 0.409106 0.370489
0.603898 0.457128 0.413089
0.754213 0.493386 0.451406
0.859600 0.515800 0.482572
0.926565 0.527343 0.506524
0.958938 0.530844 0.523411
0.973135 0.528774 0.533972
0.980491 0.523840 0.540339
0.985403 0.519316 0.545875
0.109762 0.410614 0.346322
0.109863 0.410784 0.340285
0.124258 0.411931 0.342423
0.152367 0.414200 0.347095
0.195243 0.417736 0.354375
0.250646 0.422749 0.364355
0.316347 0.429239 0.376796
0.467975 0.482115 0.418541
0.635104 0.527261 0.458035
0.776894 0.557988 0.492478
0.874885 0.574653 0.519540
0.935715 0.581482 0.539367
0.963396 0.581357 0.552563
0.975869 0.576471 0.559735
0.982237 0.569108 0.563127
0.986615 0.562045 0.566073
0.172706 0.531601 0.430562
0.172843 0.531691 0.425664
0.192503 0.532520 0.427316
0.229981 0.534069 0.431030
0.284113 0.536540 0.436795
0.351993 0.539942 0.444715
0.430033 0.544397 0.454741
0.514774 0.549771 0.466778
0.671703 0.585084 0.503672
0.803132 0.608754 0.534771
0.892519 0.620938 0.558261
0.945381 0.624722 0.574594
0.968307 0.622349 0.584328
0.978766 0.615809 0.588358
0.984304 0.607201 0.588827
0.988011 0.598932 0.589123
0.267164 0.617929 0.508142
0.267297 0.617956 0.504545
0.288797 0.618420 0.505888
0.329826 0.619289 0.508757
0.388796 0.620658 0.513238
0.461619 0.622564 0.519525
0.543684 0.625083 0.527458
0.629843 0.628222 0.537105
0.714742 0.631872 0.548238
0.831907 0.651173 0.576830
0.911897 0.661360 0.597500
0.955087 0.663193 0.610969
0.973358 0.658698 0.617808
0.981916 0.650363 0.618984
0.986442 0.640307 0.616638
0.989559 0.630861 0.614411
0.380644 0.678978 0.575010
0.380792 0.679046 0.572419
0.400879 0.679299 0.573455
0.439498 0.680033 0.575737
0.494986 0.681181 0.579238
0.563692 0.682703 0.584307
0.640104 0.684746 0.590651
0.718467 0.687403 0.598465
0.793417 0.690617 0.607670
0.862106 0.694299 0.618216
0.931415 0.704394 0.637000
0.964126 0.704152 0.648301
0.978321 0.696509 0.652656
0.985105 0.684939 0.651150
0.988634 0.672198 0.646199
0.991243 0.660817 0.641522
0.492715 0.736179 0.629732
0.492872 0.736207 0.627904
0.509467 0.736496 0.628752
0.541519 0.737213 0.630567
0.588119 0.738180 0.633501
0.646046 0.739900 0.637644
0.710517 0.741919 0.642956
0.776402 0.744589 0.649584
0.839675 0.747666 0.657462
0.898272 0.751539 0.666600
0.946626 0.755821 0.677003
0.972192 0.754243 0.686719
0.983019 0.741321 0.688971
0.988193 0.724405 0.684985
0.990913 0.707019 0.677383
0.992856 0.692121 0.670276
0.588910 0.789666 0.674293
0.589030 0.789663 0.672926
0.601717 0.789993 0.673606
0.626330 0.790613 0.675251
0.662402 0.791610 0.677779
0.707851 0.793007 0.681267
0.758984 0.794865 0.685950
0.812291 0.797224 0.691712
0.864762 0.800124 0.698647
0.914142 0.803517 0.706816
0.953196 0.807449 0.716144
0.977411 0.811944 0.726685
0.987221 0.797161 0.727002
0.991095 0.772516 0.720508
0.993007 0.748195 0.710243
0.994504 0.727848 0.700685
0.662260 0.833153 0.709611
0.662323 0.833181 0.708460
0.671698 0.833442 0.709159
0.689996 0.833978 0.710526
0.717149 0.834883 0.712695
0.751889 0.836115 0.715867
0.791880 0.837770 0.719922
0.834730 0.839840 0.725098
0.878188 0.842362 0.731325
0.920004 0.845321 0.738643
0.953283 0.848804 0.747052
0.975319 0.852644 0.756656
0.989467 0.857077 0.767365
0.993613 0.831278 0.758287
0.994916 0.798125 0.745093
0.995921 0.770675 0.732798
0.712855 0.865468 0.736023
0.712956 0.865443 0.735212
0.720003 0.865613 0.735718
0.733757 0.866158 0.736954
0.754574 0.866895 0.738946
0.781405 0.867982 0.741639
0.813221 0.869336 0.745299
0.848173 0.871103 0.749845
0.884363 0.873320 0.755402
0.920367 0.875922 0.761888
0.950197 0.878950 0.769435
0.971146 0.882311 0.778078
0.985541 0.886197 0.787708
0.994779 0.890450 0.798405
0.996562 0.857577 0.782162
0.997242 0.821834 0.767035
0.747446 0.888945 0.755676
0.747512 0.888946 0.754952
0.752872 0.889072 0.755522
0.763563 0.889470 0.756530
0.779904 0.890140 0.758279
0.801401 0.891051 0.760677
0.827056 0.892288 0.763867
0.856134 0.893872 0.767924
0.886758 0.895725 0.772761
0.918036 0.897922 0.778597
0.945427 0.900391 0.785281
0.965833 0.903305 0.792881
0.980585 0.906682 0.801514
0.990938 0.910301 0.810948
0.997226 0.914410 0.821209
0.998299 0.881249 0.803448
0.775375 0.908815 0.772929
0.775376 0.908812 0.772263
0.779614 0.908964 0.772738
0.788110 0.909299 0.773694
0.801179 0.909888 0.775163
0.818531 0.910746 0.777372
0.839634 0.911730 0.780186
0.863882 0.913079 0.783784
0.890038 0.914628 0.788110
0.917046 0.916569 0.793218
0.941854 0.918854 0.799138
0.961218 0.921276 0.805899
0.976031 0.924158 0.813523
0.986846 0.927279 0.821765
0.994426 0.930801 0.830854
0.998682 0.934676 0.840481
0.004788 0.012592 0.063887
0.010218 0.015050 0.063887
0.021076 0.022435 0.063887
0.040358 0.037140 0.063887
0.070653 0.056761 0.122747
0.122118 0.081594 0.187332
0.217202 0.111877 0.249418
0.365126 0.147870 0.308612
0.543036 0.188953 0.361822
0.708665 0.230451 0.406566
0.828990 0.269292 0.441612
0.906611 0.303737 0.468514
0.949214 0.331973 0.488411
0.967662 0.353141 0.502159
0.976875 0.368654 0.511705
0.982938 0.382138 0.520102
0.007748 0.029858 0.063887
0.009114 0.024402 0.063887
0.023334 0.027911 0.063887
0.042486 0.039741 0.063887
0.072559 0.058183 0.116442
0.124072 0.082460 0.179247
0.219437 0.112487 0.240658
0.367172 0.148345 0.299495
0.544592 0.189275 0.352790
0.709684 0.230703 0.398300
0.829641 0.269493 0.434503
0.907016 0.303903 0.462616
0.949386 0.332113 0.483579
0.967810 0.353312 0.498262
0.976944 0.368884 0.508540
0.983017 0.382238 0.517487
0.014686 0.061181 0.063887
0.015241 0.061968 0.063887
0.024900 0.063712 0.063887
0.048657 0.063835 0.063887
0.082643 0.070779 0.063887
0.136798 0.089676 0.123263
0.234810 0.117365 0.186527
0.382035 0.151972 0.246297
0.556797 0.192018 0.302719
0.718173 0.232814 0.354128
0.835097 0.271293 0.398072
0.910749 0.305487 0.433737
0.951317 0.333597 0.461003
0.968975 0.354750 0.480537
0.977798 0.370298 0.494417
0.983604 0.383644 0.506111
0.027020 0.113839 0.116516
0.027260 0.114381 0.111256
0.030239 0.117982 0.075523
0.049954 0.120092 0.084734
0.083355 0.137529 0.125329
0.139950 0.164141 0.173278
0.241827 0.199624 0.224927
0.391741 0.239757 0.277266
0.566723 0.280558 0.328531
0.726284 0.318087 0.375989
0.840738 0.349152 0.416555
0.914453 0.373641 0.449349
0.953211 0.391713 0.474182
0.970079 0.403685 0.491561
0.978500 0.411582 0.503776
0.984062 0.418771 0.514096
0.044802 0.190183 0.203962
0.044934 0.190568 0.198734
0.046253 0.193414 0.169330
0.065660 0.196244 0.174751
0.091422 0.200034 0.189154
0.150195 0.233901 0.229707
0.256104 0.276464 0.273998
0.408142 0.322941 0.320077
0.582249 0.367390 0.366021
0.738259 0.404411 0.408589
0.848997 0.430981 0.444575
0.919969 0.448364 0.473252
0.955852 0.458268 0.494514
0.971581 0.462322 0.508927
0.979484 0.463097 0.518628
0.984783 0.463991 0.526900
0.070808 0.289490 0.288070
0.070919 0.289758 0.283194
0.071705 0.291856 0.257799
0.094212 0.294623 0.261546
0.127200 0.298456 0.271574
0.170664 0.303980 0.284856
0.280199 0.352243 0.325777
0.433683 0.403558 0.367994
0.605256 0.449652 0.409664
0.755355 0.484797 0.447612
0.860612 0.506920 0.478837
0.927344 0.518557 0.503038
0.959403 0.522428 0.520296
0.973565 0.520750 0.531266
0.980796 0.516280 0.538027
0.985633 0.512265 0.543945
0.110286 0.411019 0.371623
0.110401 0.411189 0.367084
0.111011 0.412631 0.344167
0.140943 0.415180 0.347138
0.187491 0.418649 0.354665
0.247184 0.423589 0.365007
0.317050 0.429999 0.377922
0.468442 0.480201 0.417827
0.635541 0.523755 0.456184
0.777274 0.553734 0.490035
0.875235 0.570118 0.516837
0.936039 0.576808 0.536735
0.963687 0.576608 0.550045
0.976119 0.571734 0.557524
0.982465 0.564440 0.561164
0.986819 0.557479 0.564343
0.173434 0.531920 0.451215
0.173552 0.532017 0.447297
0.174079 0.532783 0.428195
0.213858 0.534501 0.430680
0.272289 0.536943 0.436619
0.344593 0.540346 0.444770
0.426858 0.544761 0.455110
0.515310 0.550159 0.467444
0.671853 0.584076 0.503101
0.803170 0.606950 0.533464
0.892614 0.618611 0.556516
0.945532 0.622145 0.572678
0.968493 0.619592 0.582429
0.978901 0.612994 0.586566
0.984407 0.604347 0.587198
0.988176 0.596070 0.587722
0.268004 0.618123 0.523759
0.268157 0.618148 0.520679
0.268544 0.618504 0.506190
0.311624 0.619464 0.508290
0.374592 0.620785 0.512908
0.451730 0.622789 0.519279
0.537786 0.625306 0.527391
0.627414 0.628384 0.537311
0.715107 0.632052 0.548681
0.831936 0.650505 0.576407
0.911944 0.660119 0.596558
0.955127 0.661590 0.609741
0.973405 0.656896 0.616477
0.981996 0.648464 0.617607
0.986498 0.638402 0.615384
0.989667 0.629002 0.613243
0.381453 0.679156 0.586451
0.381639 0.679180 0.584169
0.381873 0.679389 0.573490
0.422015 0.680119 0.575311
0.480905 0.681268 0.578874
0.553207 0.682765 0.583957
0.633116 0.684864 0.590456
0.714562 0.687474 0.598449
0.791871 0.690691 0.607803
0.862274 0.694401 0.618493
0.931420 0.703772 0.636696
0.964113 0.703028 0.647567
0.978331 0.695162 0.651730
0.985148 0.683499 0.650163
0.988726 0.670783 0.645217
0.991321 0.659398 0.640592
0.493520 0.736301 0.638289
0.493658 0.736345 0.636555
0.493835 0.736520 0.628685
0.526823 0.737240 0.630155
0.575837 0.738291 0.633128
0.636592 0.739948 0.637314
0.703757 0.741942 0.642711
0.772103 0.744575 0.649418
0.837377 0.747755 0.657441
0.897355 0.751573 0.666691
0.946659 0.755958 0.677222
0.972185 0.753634 0.686488
0.983059 0.740284 0.688419
0.988212 0.723208 0.684281
0.990944 0.705814 0.676648
0.992913 0.690964 0.669565
0.589580 0.789796 0.680838
0.589693 0.789794 0.679506
0.589823 0.789991 0.673529
0.614935 0.790672 0.674871
0.652714 0.791680 0.677383
0.700042 0.793052 0.680945
0.753086 0.794957 0.685634
0.808169 0.797326 0.691470
0.862104 0.800173 0.698512
0.912713 0.803623 0.706806
0.952795 0.807565 0.716270
0.977429 0.812089 0.726922
0.987221 0.796696 0.726931
0.991098 0.771667 0.720134
0.993028 0.747303 0.709739
0.994536 0.726935 0.700107
0.662837 0.833279 0.714742
0.662888 0.833312 0.713682
0.662974 0.833411 0.709012
0.681551 0.834015 0.710186
0.709768 0.834959 0.712469
0.745722 0.836154 0.715614
0.786974 0.837873 0.719706
0.831115 0.839892 0.724938
0.875582 0.842442 0.731203
0.918365 0.845382 0.738547
0.952661 0.848823 0.747055
0.975156 0.852756 0.756755
0.989473 0.857217 0.767598
0.993618 0.830848 0.758191
0.994921 0.797451 0.744855
0.995925 0.769865 0.732463
0.713348 0.865508 0.740209
0.713425 0.865507 0.739392
0.713610 0.865622 0.735693
0.727473 0.866215 0.736697
0.748747 0.866927 0.738664
0.776533 0.868008 0.741384
0.809147 0.869430 0.745120
0.845040 0.871110 0.749715
0.882023 0.873378 0.755215
0.918673 0.876001 0.761779
0.949342 0.878945 0.769467
0.970862 0.882359 0.778092
0.985427 0.886239 0.787784
0.994767 0.890562 0.798547
0.996569 0.857311 0.782123
0.997251 0.821290 0.766898
0.747749 0.888994 0.759219
0.747817 0.889002 0.758445
0.747911 0.889142 0.755480
0.758644 0.889532 0.756335
0.775372 0.890210 0.758046
0.797314 0.891100 0.760439
0.823766 0.892324 0.763673
0.853312 0.893855 0.767780
0.884617 0.895747 0.772664
0.916440 0.897972 0.778489
0.944511 0.900502 0.785209
0.965401 0.903449 0.792872
0.980398 0.906731 0.801546
0.990889 0.910417 0.811061
0.997227 0.914417 0.821337
0.998296 0.880938 0.803495
0.775646 0.908895 0.775806
0.775688 0.908862 0.775238
0.775812 0.909029 0.772745
0.784249 0.909424 0.773539
0.797516 0.910007 0.774975
0.815222 0.910788 0.777211
0.836827 0.911810 0.780025
0.861474 0.913213 0.783620
0.887976 0.914669 0.787986
0.915505 0.916643 0.793127
0.940944 0.918864 0.799117
0.960739 0.921348 0.805855
0.975722 0.924230 0.813531
0.986767 0.927381 0.821793
0.994404 0.930897 0.830921
0.998681 0.934725 0.840644
0.008856 0.022789 0.142835
0.013908 0.024583 0.143828
0.026093 0.030991 0.148024
0.041278 0.040790 0.156079
0.071364 0.059880 0.206260
0.122996 0.084417 0.261525
0.218468 0.114539 0.320044
0.366538 0.150454 0.377320
0.544336 0.191366 0.427156
0.709678 0.232656 0.466126
0.829703 0.271342 0.494064
0.907069 0.305563 0.513533
0.949466 0.333601 0.526408
0.967799 0.354582 0.534203
0.976965 0.369961 0.538871
0.983024 0.383212 0.543170
0.011287 0.038835 0.146459
0.011077 0.028959 0.170517
0.026767 0.033986 0.165989
0.043018 0.043204 0.165578
0.073052 0.061295 0.208031
0.124830 0.085298 0.259941
0.220572 0.115158 0.316763
0.368529 0.150947 0.373098
0.545872 0.191730 0.422541
0.710690 0.232941 0.461555
0.830288 0.271554 0.489751
0.907529 0.305760 0.509649
0.949650 0.333793 0.523036
0.967904 0.354773 0.531293
0.977025 0.370129 0.536340
0.983047 0.383373 0.540980
0.018380 0.073864 0.160872
0.018329 0.072177 0.166149
0.024072 0.062088 0.194816
0.048724 0.063977 0.194894
0.082166 0.073189 0.217032
0.136695 0.092403 0.254356
0.235225 0.120047 0.302705
0.382859 0.154580 0.353862
0.557736 0.194473 0.401065
0.718961 0.235064 0.440136
0.835711 0.273362 0.469867
0.911035 0.307373 0.492051
0.951548 0.335312 0.507937
0.969106 0.356187 0.518510
0.977892 0.371524 0.525553
0.983622 0.384717 0.531969
0.027932 0.115370 0.185646
0.028197 0.115853 0.186848
0.031082 0.118880 0.194286
0.049001 0.120117 0.200464
0.090293 0.117433 0.196365
0.160019 0.118948 0.200432
0.270391 0.137955 0.232578
0.420101 0.167625 0.276201
0.589427 0.204009 0.323632
0.741633 0.242496 0.369609
0.850716 0.279589 0.410018
0.921134 0.312882 0.443404
0.956611 0.340341 0.469188
0.972161 0.360994 0.487701
0.980074 0.376184 0.500952
0.985323 0.389279 0.512201
0.045635 0.191334 0.255949
0.045800 0.191715 0.254320
0.047159 0.194377 0.246998
0.054556 0.202124 0.217796
0.093262 0.205228 0.218833
0.159127 0.226465 0.240328
0.271250 0.257984 0.273563
0.425751 0.295321 0.314258
0.598269 0.333224 0.357710
0.750090 0.366932 0.399661
0.857369 0.393257 0.436051
0.925709 0.412618 0.465672
0.958956 0.425617 0.488041
0.973545 0.433254 0.503641
0.981081 0.437435 0.514440
0.986041 0.441445 0.523634
0.071706 0.290544 0.332516
0.071831 0.290806 0.329955
0.072671 0.292831 0.318091
0.076528 0.299435 0.279548
0.118490 0.303817 0.280769
0.173518 0.308147 0.294403
0.286312 0.347811 0.327830
0.442108 0.392375 0.365380
0.613689 0.433566 0.404492
0.762237 0.465916 0.441310
0.865899 0.487071 0.472412
0.931116 0.498876 0.497034
0.961601 0.503541 0.515007
0.975105 0.502972 0.526765
0.982064 0.499777 0.534418
0.986682 0.497083 0.540966
0.111397 0.412014 0.411354
0.111512 0.412159 0.408543
0.112146 0.413500 0.395232
0.114970 0.418080 0.356641
0.167816 0.422233 0.357989
0.239179 0.426632 0.368781
0.319434 0.432530 0.382300
0.472053 0.477078 0.418065
0.639451 0.516960 0.453715
0.780848 0.545052 0.486154
0.878348 0.560538 0.512390
0.938284 0.566862 0.532283
0.965072 0.566542 0.545909
0.977114 0.561738 0.553909
0.983394 0.554632 0.558179
0.987626 0.548089 0.561902
0.174885 0.532575 0.484793
0.175035 0.532668 0.482126
0.175584 0.533454 0.469619
0.178090 0.535904 0.435954
0.243763 0.538805 0.437616
0.327646 0.542000 0.446161
0.420059 0.546210 0.456940
0.516952 0.551368 0.469820
