LUT color transfer/LUTs/93.cube
LUT_3D_SIZE 6
0.088021 0.216238 0.342745
0.171997 0.210544 0.333851
0.457926 0.218659 0.348342
0.752226 0.256634 0.400190
0.933199 0.293390 0.452865
0.983034 0.316330 0.486313
0.094479 0.288375 0.349390
0.180764 0.290676 0.341603
0.454380 0.296864 0.365516
0.754570 0.308563 0.411725
0.935527 0.321299 0.459904
0.983727 0.331421 0.490221
0.182213 0.372889 0.443656
0.253877 0.375318 0.439430
0.500763 0.381358 0.458448
0.770253 0.391799 0.476462
0.940970 0.399273 0.497965
0.984991 0.394312 0.511845
0.365393 0.653170 0.514440
0.415894 0.657737 0.513398
0.611472 0.668979 0.518671
0.833242 0.691820 0.527388
0.957581 0.669720 0.532880
0.988377 0.608681 0.536123
0.585835 0.891861 0.549695
0.612529 0.892862 0.549285
0.726604 0.895330 0.552425
0.871620 0.900196 0.559014
0.974905 0.907259 0.571262
0.993246 0.860972 0.568606
0.744917 0.944897 0.592422
0.756432 0.945202 0.591995
0.812208 0.945828 0.596427
0.895677 0.947162 0.605935
0.967451 0.949279 0.622479
0.996745 0.952091 0.648435
0.073760 0.196565 0.442893
0.168320 0.194091 0.444895
0.455987 0.220783 0.459130
0.751676 0.258393 0.475552
0.933220 0.294363 0.492930
0.983042 0.316851 0.505530
0.095947 0.288792 0.448856
0.142084 0.279034 0.446188
0.485561 0.274543 0.436797
0.794787 0.283813 0.449375
0.952094 0.306121 0.477193
0.988054 0.323692 0.499196
0.185003 0.373431 0.487918
0.211455 0.381271 0.472836
0.510661 0.387708 0.473720
0.793191 0.389321 0.485521
0.952715 0.391263 0.502181
0.988587 0.386276 0.514428
0.367699 0.654258 0.526522
0.383944 0.667669 0.520955
0.592512 0.680117 0.521493
0.835937 0.698625 0.529591
0.961314 0.669334 0.534509
0.990125 0.604518 0.537551
0.587541 0.892083 0.556188
0.596667 0.895018 0.552955
0.710145 0.897826 0.553747
0.866676 0.902049 0.560523
0.975059 0.908233 0.572966
0.993762 0.861315 0.570310
0.745788 0.944977 0.599610
0.750891 0.945799 0.596848
0.803195 0.946603 0.598247
0.891020 0.947845 0.607837
0.966513 0.949711 0.624444
0.996748 0.952333 0.650437
0.078866 0.208486 0.541813
0.189474 0.199675 0.541683
0.464238 0.229532 0.538137
0.750303 0.265465 0.540325
0.933319 0.298201 0.542066
0.983157 0.319022 0.539944
0.098204 0.297630 0.538019
0.125542 0.266525 0.542705
0.489674 0.268053 0.543784
0.791636 0.287795 0.543352
0.951557 0.309140 0.542293
0.988004 0.325616 0.539527
0.196346 0.377302 0.540913
0.221343 0.383611 0.544128
0.427153 0.372947 0.545807
0.827126 0.365054 0.539531
0.969859 0.353824 0.533274
0.990647 0.363623 0.536406
0.378106 0.659025 0.559365
0.393866 0.671393 0.558175
0.493214 0.711435 0.547212
0.843834 0.727148 0.545523
0.971788 0.652821 0.546875
0.993591 0.573025 0.547554
0.594648 0.893235 0.591405
0.603587 0.895905 0.588131
0.649335 0.904749 0.572264
0.838566 0.908485 0.571354
0.975573 0.912218 0.585579
0.995384 0.859931 0.580937
0.749811 0.945230 0.634820
0.754877 0.946041 0.632158
0.777199 0.948860 0.619212
0.867474 0.950077 0.618490
0.961630 0.951390 0.635798
0.996688 0.953254 0.662488
0.090198 0.224137 0.654292
0.200072 0.214426 0.655179
0.487715 0.240640 0.638805
0.759415 0.277498 0.630297
0.934108 0.305291 0.621744
0.983384 0.323198 0.596611
0.109735 0.303709 0.638032
0.127651 0.270009 0.679977
0.489330 0.268172 0.674349
0.792132 0.294440 0.659235
0.950860 0.314824 0.635186
0.987945 0.329428 0.600950
0.201700 0.384057 0.629814
0.219930 0.384737 0.653159
0.343085 0.346545 0.684559
0.805584 0.346552 0.691270
0.970301 0.353001 0.648811
0.991047 0.365064 0.600905
0.398401 0.669316 0.669652
0.412903 0.678812 0.677675
0.502395 0.705028 0.705611
0.790883 0.680018 0.708215
0.974908 0.655712 0.673386
0.993947 0.622404 0.646228
0.608842 0.895287 0.705025
0.617463 0.897711 0.704328
0.661672 0.905753 0.697014
0.790815 0.913547 0.670311
0.975035 0.917045 0.674856
0.996560 0.867551 0.676897
0.757923 0.945808 0.724527
0.762727 0.946553 0.722681
0.784405 0.949197 0.712850
0.840438 0.952049 0.692148
0.949745 0.953296 0.689962
0.996418 0.954565 0.717986
0.110924 0.244166 0.864579
0.201245 0.237586 0.868094
0.467978 0.257594 0.854767
0.737628 0.286352 0.843136
0.931801 0.314565 0.843999
0.983848 0.329380 0.765080
0.129831 0.305231 0.852149
0.140744 0.275229 0.882635
0.447226 0.274962 0.886670
0.751705 0.298059 0.883392
0.944277 0.321929 0.874024
0.987972 0.335228 0.783768
0.217331 0.379702 0.837935
0.230391 0.376128 0.874398
0.311229 0.337403 0.893362
0.713830 0.337626 0.900430
0.955298 0.352237 0.913163
0.991499 0.367985 0.802276
0.396864 0.624415 0.861674
0.409003 0.627412 0.877038
0.464839 0.611157 0.916611
0.687255 0.536405 0.916595
0.954840 0.551348 0.924797
0.993970 0.591394 0.838920
0.630253 0.893901 0.911818
0.637819 0.895646 0.915837
0.675880 0.900615 0.928959
0.787378 0.903203 0.942029
0.970334 0.906353 0.944149
0.997037 0.905143 0.931726
0.770394 0.946636 0.880563
0.774890 0.947400 0.881272
0.795438 0.949703 0.882155
0.848998 0.952449 0.880040
0.963481 0.954093 0.912970
0.996968 0.955348 0.930968
0.133126 0.260406 0.932480
0.192754 0.256881 0.932911
0.402149 0.270692 0.935897
0.652285 0.292188 0.941708
0.860176 0.315195 0.950202
0.978318 0.337299 0.960608
0.149832 0.301659 0.935091
0.161761 0.283118 0.934347
0.376437 0.284542 0.936756
0.641751 0.302159 0.942606
0.857255 0.321802 0.951049
0.978219 0.342699 0.961364
0.226741 0.362359 0.945383
0.239441 0.356466 0.944797
0.322653 0.336628 0.943374
0.611072 0.338896 0.947674
0.850911 0.353439 0.955709
0.978377 0.378181 0.965412
0.381763 0.539753 0.961784
0.393514 0.531855 0.962279
0.467063 0.504253 0.961328
0.677377 0.507787 0.963016
0.876655 0.536806 0.968385
0.982480 0.586303 0.976000
0.589347 0.820128 0.976881
0.597458 0.822034 0.980532
0.648215 0.814569 0.981248
0.789339 0.818853 0.982111
0.958386 0.878329 0.987575
0.992556 0.892754 0.991213
0.786984 0.944539 0.992637
0.790762 0.944994 0.993331
0.807324 0.946401 0.995569
0.875856 0.946332 0.996216
0.971484 0.948708 0.997415
0.997073 0.952880 0.998732
