LUT color transfer/LUTs/93.cube
LUT_3D_SIZE 16
0.088021 0.216238 0.342745
0.093691 0.213389 0.340500
0.122956 0.214911 0.339202
0.171997 0.210544 0.333851
0.249626 0.208383 0.332315
0.350209 0.210792 0.337068
0.457926 0.218659 0.348342
0.565033 0.230080 0.363868
0.664172 0.243056 0.381506
0.752226 0.256634 0.400190
0.826920 0.269992 0.419011
0.887266 0.282384 0.436842
0.933199 0.293390 0.452865
0.959886 0.302757 0.466597
0.974553 0.310320 0.477651
0.983034 0.316330 0.486313
0.090036 0.228449 0.345717
0.095925 0.227252 0.344147
0.123215 0.225057 0.340385
0.172769 0.219522 0.332426
0.250598 0.215526 0.326950
0.352626 0.216228 0.328683
0.461959 0.222731 0.338999
0.569598 0.233101 0.354922
0.668635 0.245332 0.373661
0.755921 0.258322 0.393696
0.829873 0.271253 0.413937
0.889640 0.283340 0.432970
0.934712 0.294119 0.450034
0.960704 0.303292 0.464531
0.975004 0.310745 0.476186
0.983329 0.316673 0.485229
0.088358 0.255799 0.341405
0.092564 0.255644 0.337145
0.123412 0.256107 0.331540
0.176091 0.254457 0.338847
0.252683 0.253010 0.332365
0.350704 0.255216 0.335263
0.458974 0.260014 0.345623
0.567507 0.266349 0.360861
0.667699 0.273458 0.378563
0.756096 0.281219 0.397616
0.830528 0.289353 0.417076
0.890471 0.297330 0.435515
0.935497 0.304822 0.452048
0.961208 0.311427 0.466084
0.975350 0.317001 0.477336
0.983621 0.321597 0.486071
0.094479 0.288375 0.349390
0.097027 0.288926 0.343488
0.122144 0.289811 0.334074
0.180764 0.290676 0.341603
0.253764 0.290747 0.349387
0.347701 0.293324 0.355337
0.454380 0.296864 0.365516
0.563398 0.300704 0.379243
0.664896 0.304534 0.394852
0.754570 0.308563 0.411725
0.829879 0.312836 0.428863
0.890377 0.317123 0.445211
0.935527 0.321299 0.459904
0.961356 0.325149 0.472418
0.975486 0.328532 0.482432
0.983727 0.331421 0.490221
0.112662 0.316092 0.375464
0.114631 0.316574 0.370333
0.136452 0.317423 0.362461
0.191050 0.317874 0.368255
0.264771 0.318746 0.377150
0.352811 0.320349 0.384351
0.456425 0.323177 0.393864
0.564047 0.325990 0.405006
0.665212 0.328561 0.417563
0.754941 0.331138 0.431210
0.830591 0.333843 0.445283
0.891208 0.336556 0.458760
0.936258 0.339126 0.471017
0.961840 0.341449 0.481446
0.975884 0.343350 0.489803
0.983966 0.344831 0.496235
0.141266 0.340377 0.409466
0.142914 0.340798 0.405403
0.163323 0.341598 0.399172
0.216575 0.342079 0.403590
0.288943 0.342881 0.410388
0.374513 0.344153 0.419463
0.470488 0.346308 0.426302
0.573829 0.349318 0.434666
0.672053 0.352020 0.443685
0.759780 0.354697 0.453738
0.834123 0.357469 0.464374
0.893890 0.359967 0.474732
0.937964 0.362053 0.484171
0.962766 0.363427 0.492274
0.976472 0.364037 0.498731
0.984380 0.364005 0.503665
0.182213 0.372889 0.443656
0.183671 0.373438 0.440752
0.202880 0.374570 0.436303
0.253877 0.375318 0.439430
0.324339 0.376627 0.444219
0.408538 0.378604 0.450631
0.500763 0.381358 0.458448
0.594518 0.384427 0.463807
0.686920 0.388137 0.469706
0.770253 0.391799 0.476462
0.841404 0.395288 0.483882
0.898952 0.397894 0.491203
0.940970 0.399273 0.497965
0.964418 0.399074 0.503768
0.977339 0.397190 0.508378
0.984991 0.394312 0.511845
0.234970 0.432563 0.473372
0.236191 0.433411 0.471487
0.253294 0.435163 0.468510
0.300867 0.436485 0.470587
0.367584 0.438641 0.473804
0.448119 0.441896 0.478086
0.536827 0.446386 0.483361
0.628173 0.452331 0.489414
0.709875 0.454359 0.492854
0.786546 0.458409 0.496988
0.852926 0.462017 0.501702
0.906907 0.463599 0.506513
0.945469 0.462614 0.511031
0.966795 0.458443 0.514910
0.978792 0.451481 0.517944
0.985862 0.443008 0.520167
0.296447 0.532151 0.496742
0.297497 0.533184 0.495603
0.312180 0.535479 0.493693
0.355054 0.537220 0.495018
0.416002 0.540076 0.497057
0.490588 0.544194 0.499868
0.573220 0.549705 0.503242
0.658567 0.556878 0.507234
0.740841 0.565783 0.511574
0.807814 0.565095 0.513967
0.868082 0.566004 0.516773
0.917504 0.564085 0.519747
0.951115 0.558176 0.522607
0.969873 0.547784 0.525093
0.980615 0.533271 0.526966
0.986971 0.516572 0.528215
0.365393 0.653170 0.514440
0.366235 0.654012 0.513750
0.378554 0.656138 0.512575
0.415894 0.657737 0.513398
0.469809 0.660387 0.514709
0.536625 0.664070 0.516468
0.611472 0.668979 0.518671
0.688870 0.675267 0.521248
0.763884 0.682885 0.524194
0.833242 0.691820 0.527388
0.886277 0.687612 0.529121
0.929909 0.680771 0.530992
0.957581 0.669720 0.532880
0.973413 0.653429 0.534458
0.982788 0.632472 0.535534
0.988377 0.608681 0.536123
0.439468 0.764110 0.527777
0.440158 0.764730 0.527376
0.450183 0.766226 0.526627
0.481748 0.767370 0.527195
0.527782 0.769227 0.528060
0.585660 0.771996 0.529253
0.651096 0.775530 0.530760
0.719352 0.779852 0.532638
0.786028 0.785147 0.534778
0.848441 0.791322 0.537343
0.905010 0.798374 0.540193
0.942313 0.790244 0.541595
0.964263 0.776081 0.542920
0.977227 0.756790 0.544035
0.985109 0.732621 0.544592
0.989899 0.705125 0.544584
0.514388 0.844639 0.538773
0.514952 0.844969 0.538467
0.522881 0.845752 0.537918
0.548492 0.846439 0.538344
0.586486 0.847614 0.539050
0.634713 0.849203 0.540010
0.689933 0.851287 0.541322
0.748216 0.853727 0.542914
0.805986 0.856711 0.544924
0.861184 0.860281 0.547366
0.911942 0.864152 0.550250
0.951914 0.868464 0.553730
0.970828 0.858982 0.554843
0.981173 0.841627 0.555583
0.987594 0.819285 0.555556
0.991593 0.792885 0.554811
0.585835 0.891861 0.549695
0.586366 0.892030 0.549394
0.592333 0.892473 0.548879
0.612529 0.892862 0.549285
0.642717 0.893411 0.550012
0.681549 0.894299 0.551038
0.726604 0.895330 0.552425
0.774834 0.896712 0.554119
0.823916 0.898350 0.556312
0.871620 0.900196 0.559014
0.916400 0.902332 0.562344
0.951927 0.904761 0.566399
0.974905 0.907259 0.571262
0.984983 0.898201 0.571475
0.990035 0.881590 0.570568
0.993246 0.860972 0.568606
0.649626 0.918608 0.562198
0.650054 0.918649 0.561905
0.654429 0.918943 0.561358
0.669996 0.919184 0.561858
0.693497 0.919484 0.562678
0.723851 0.920000 0.563817
0.759800 0.920635 0.565380
0.799172 0.921395 0.567435
0.840026 0.922296 0.570002
0.880775 0.923426 0.573171
0.919853 0.924766 0.577089
0.951188 0.926123 0.581750
0.972552 0.927710 0.587358
0.986815 0.929440 0.594007
0.992325 0.920904 0.591696
0.994841 0.906024 0.587805
0.702739 0.934661 0.576709
0.703053 0.934673 0.576413
0.706209 0.934803 0.575787
0.718090 0.934940 0.576363
0.736255 0.935167 0.577287
0.759950 0.935493 0.578610
0.788461 0.935893 0.580391
0.820401 0.936430 0.582736
0.854318 0.937077 0.585657
0.888801 0.937787 0.589262
0.922565 0.938614 0.593590
0.950193 0.939562 0.598808
0.970004 0.940578 0.604987
0.983919 0.941725 0.612207
0.993225 0.943033 0.620713
0.996298 0.935156 0.614220
0.744917 0.944897 0.592422
0.745065 0.944930 0.592101
0.747262 0.945048 0.591372
0.756432 0.945202 0.591995
0.770531 0.945333 0.593036
0.789327 0.945557 0.594441
0.812208 0.945828 0.596427
0.838239 0.946202 0.598978
0.866523 0.946640 0.602132
0.895677 0.947162 0.605935
0.924820 0.947810 0.610588
0.949193 0.948477 0.616066
0.967451 0.949279 0.622479
0.980983 0.950147 0.630001
0.990562 0.951066 0.638599
0.996745 0.952091 0.648435
0.085062 0.212362 0.352594
0.089942 0.208313 0.350439
0.122273 0.211394 0.350387
0.171756 0.209203 0.346888
0.249587 0.208084 0.347327
0.350040 0.210821 0.352770
0.457747 0.218829 0.363182
0.564930 0.230215 0.376989
0.664078 0.243208 0.392632
0.752205 0.256758 0.409286
0.826893 0.270087 0.426219
0.887252 0.282483 0.442356
0.933200 0.293466 0.457010
0.959892 0.302802 0.469682
0.974547 0.310351 0.479958
0.983039 0.316361 0.488044
0.087125 0.225134 0.355336
0.092229 0.222889 0.353678
0.122502 0.221707 0.350630
0.172449 0.218155 0.345663
0.250587 0.215379 0.343232
0.352660 0.216548 0.346444
0.462116 0.223215 0.356063
0.570010 0.233600 0.370174
0.669217 0.245826 0.386631
0.756550 0.258778 0.404290
0.830517 0.271635 0.422283
0.890144 0.283674 0.439383
0.935063 0.294413 0.454882
0.960956 0.303524 0.468128
0.975223 0.310991 0.478946
0.983506 0.316894 0.487368
0.088527 0.255901 0.355512
0.092810 0.255760 0.352838
0.120914 0.255180 0.342704
0.175948 0.253317 0.349495
0.253515 0.250597 0.341633
0.354112 0.251599 0.341727
0.464193 0.255802 0.350137
0.573334 0.262059 0.363936
0.673249 0.269463 0.380810
0.760745 0.277729 0.399269
0.834373 0.286437 0.418255
0.893403 0.294985 0.436367
0.937369 0.302941 0.452676
0.962282 0.309965 0.466557
0.976114 0.315860 0.477736
0.984066 0.320719 0.486420
0.094671 0.288410 0.361659
0.097260 0.288960 0.357249
0.117505 0.290061 0.340015
0.180653 0.291073 0.347483
0.255802 0.290640 0.356204
0.351116 0.292638 0.360094
0.458911 0.295790 0.368950
0.568297 0.299455 0.381749
0.669644 0.303170 0.396761
0.758633 0.307219 0.413072
0.833291 0.311553 0.429880
0.893041 0.315949 0.445944
0.937381 0.320241 0.460455
0.962387 0.324251 0.472860
0.976202 0.327771 0.482802
0.984158 0.330740 0.490532
0.112838 0.316105 0.384920
0.114897 0.316605 0.380830
0.131600 0.317902 0.366099
0.188952 0.318353 0.371777
0.265639 0.319140 0.380492
0.355049 0.320449 0.387337
0.459658 0.323045 0.396357
0.567740 0.325686 0.406884
0.669003 0.328153 0.419008
0.758290 0.330631 0.432307
0.833457 0.333287 0.446099
0.893402 0.335936 0.459396
0.937875 0.338513 0.471482
0.962738 0.340807 0.481815
0.976475 0.342768 0.490117
0.984397 0.344271 0.496530
0.141456 0.340424 0.416394
0.143224 0.340860 0.412962
0.158120 0.342056 0.401402
0.213376 0.342500 0.405724
0.287929 0.343270 0.412376
0.375449 0.344447 0.421264
0.472427 0.346466 0.427841
0.576356 0.349325 0.435972
0.674700 0.351893 0.444711
0.762297 0.354440 0.454533
0.836466 0.357104 0.464998
0.895653 0.359514 0.475216
0.939260 0.361539 0.484569
0.963586 0.362926 0.492570
0.976911 0.363462 0.498975
0.984689 0.363468 0.503927
0.182403 0.372893 0.448291
0.184034 0.373514 0.445859
0.197526 0.375191 0.437546
0.250098 0.375924 0.440623
0.322238 0.377173 0.445337
0.408013 0.379114 0.451680
0.501509 0.381786 0.459410
0.595899 0.384689 0.464604
0.688638 0.388212 0.470390
0.771967 0.391735 0.477036
0.843076 0.395033 0.484317
0.900431 0.397545 0.491554
0.941989 0.398802 0.498263
0.965044 0.398513 0.504008
0.977821 0.396675 0.508605
0.985281 0.393803 0.512060
0.235157 0.432627 0.476309
0.236549 0.433540 0.474706
0.248168 0.436137 0.469208
0.296928 0.437435 0.471266
0.364931 0.439542 0.474448
0.446809 0.442722 0.478680
0.536530 0.447052 0.483900
0.628620 0.452922 0.489907
0.710782 0.454795 0.493268
0.787639 0.458603 0.497351
0.854083 0.461973 0.502027
0.907974 0.463412 0.506764
0.946171 0.462247 0.511227
0.967305 0.458056 0.515087
0.979100 0.451003 0.518111
0.986114 0.442547 0.520307
0.296628 0.532209 0.498513
0.297831 0.533456 0.497552
0.307569 0.536694 0.494084
0.351257 0.538409 0.495404
0.413156 0.541142 0.497423
0.488748 0.545172 0.500154
0.572361 0.550639 0.503542
0.658354 0.557637 0.507506
0.741184 0.566402 0.511829
0.808474 0.565569 0.514193
0.868875 0.566266 0.516951
0.918267 0.564113 0.519918
0.951624 0.558097 0.522754
0.970220 0.547465 0.525186
0.980852 0.532908 0.527065
0.987141 0.516195 0.528312
0.365522 0.653229 0.515499
0.366575 0.654244 0.514909
0.374517 0.657159 0.512792
0.412443 0.658727 0.513614
0.467053 0.661355 0.514911
0.534676 0.664926 0.516652
0.610204 0.669712 0.518841
0.688331 0.675929 0.521434
0.763797 0.683403 0.524349
0.833394 0.692276 0.527527
0.886548 0.688052 0.529270
0.930251 0.680991 0.531113
0.957914 0.669710 0.532985
0.973616 0.653368 0.534547
0.982955 0.632267 0.535633
0.988517 0.608492 0.536242
0.439675 0.764113 0.528455
0.440518 0.764919 0.528114
0.446774 0.766938 0.526761
0.478749 0.768222 0.527304
0.525280 0.769929 0.528166
0.583753 0.772587 0.529374
0.649784 0.776079 0.530869
0.718557 0.780423 0.532753
0.785632 0.785607 0.534894
0.848356 0.791649 0.537439
0.905162 0.798730 0.540306
0.942593 0.790546 0.541688
0.964391 0.776102 0.543007
0.977371 0.756816 0.544137
0.985227 0.732564 0.544686
0.990018 0.705033 0.544677
0.514462 0.844640 0.539271
0.515246 0.845023 0.539010
0.520102 0.846193 0.538011
0.546042 0.846867 0.538433
0.584354 0.847930 0.539133
0.632995 0.849624 0.540120
0.688698 0.851607 0.541398
0.747400 0.854055 0.542997
0.805493 0.856971 0.545034
0.860912 0.860501 0.547449
0.911843 0.864381 0.550338
0.952004 0.868589 0.553791
0.970910 0.859146 0.554956
0.981258 0.841715 0.555631
0.987718 0.819327 0.555650
0.991653 0.792859 0.554892
0.585991 0.891884 0.550136
0.586645 0.892100 0.549904
0.590195 0.892710 0.548961
0.610579 0.893109 0.549399
0.640975 0.893654 0.550136
0.680162 0.894437 0.551118
0.725558 0.895555 0.552489
0.774082 0.896883 0.554208
0.823431 0.898506 0.556428
0.871294 0.900316 0.559104
0.916214 0.902456 0.562451
0.951896 0.904805 0.566504
0.974916 0.907321 0.571362
0.985025 0.898259 0.571631
0.990026 0.881634 0.570668
0.993250 0.860987 0.568732
0.649778 0.918600 0.562690
0.650254 0.918710 0.562439
0.652761 0.919085 0.561433
0.668479 0.919329 0.561949
0.692149 0.919624 0.562777
0.722759 0.920083 0.563911
0.758884 0.920708 0.565494
0.798494 0.921514 0.567539
0.839538 0.922407 0.570127
0.880429 0.923548 0.573280
0.919513 0.924797 0.577187
0.951112 0.926209 0.581884
0.972511 0.927739 0.587479
0.986825 0.929443 0.594139
0.992359 0.920926 0.591847
0.994885 0.906069 0.587966
0.702904 0.934666 0.577204
0.703286 0.934713 0.576999
0.705014 0.934920 0.575872
0.717045 0.935012 0.576458
0.735162 0.935262 0.577378
0.759048 0.935561 0.578709
0.787699 0.935937 0.580516
0.819757 0.936457 0.582837
0.853875 0.937129 0.585797
0.888490 0.937809 0.589360
0.922321 0.938648 0.593705
0.950078 0.939581 0.598958
0.970019 0.940680 0.605116
0.983953 0.941782 0.612343
0.993220 0.943031 0.620823
0.996317 0.935193 0.614359
0.744956 0.944871 0.592923
0.745263 0.944977 0.592713
0.746391 0.945106 0.591490
0.755593 0.945224 0.592143
0.769774 0.945398 0.593177
0.788639 0.945597 0.594583
0.811584 0.945893 0.596561
0.837787 0.946272 0.599095
0.865992 0.946656 0.602259
0.895393 0.947248 0.606057
0.924614 0.947847 0.610709
0.949012 0.948500 0.616229
0.967394 0.949333 0.622611
0.980970 0.950164 0.630083
0.990567 0.951072 0.638716
0.996747 0.952107 0.648561
0.076625 0.200723 0.389489
0.079230 0.192447 0.387586
0.114218 0.194794 0.389660
0.170636 0.202870 0.390565
0.249443 0.206792 0.394618
0.349537 0.211078 0.401153
0.457183 0.219458 0.409098
0.564436 0.230908 0.418431
0.663814 0.243841 0.428555
0.751971 0.257317 0.439391
0.826841 0.270549 0.450639
0.887262 0.282828 0.461634
0.933204 0.293745 0.471958
0.959871 0.303026 0.481088
0.974519 0.310559 0.488667
0.983029 0.316530 0.494745
0.078761 0.214964 0.391315
0.081606 0.209236 0.389784
0.112043 0.202449 0.389164
0.170987 0.210766 0.389657
0.250312 0.213681 0.392598
0.352201 0.216570 0.398293
0.461544 0.223766 0.405847
0.569520 0.234273 0.415103
0.668795 0.246427 0.425380
0.756435 0.259294 0.436577
0.830498 0.272073 0.448234
0.890088 0.284013 0.459717
0.935052 0.294676 0.470483
0.960972 0.303775 0.479967
0.975238 0.311181 0.487887
0.983499 0.317069 0.494216
0.086819 0.254497 0.397680
0.090456 0.253719 0.397438
0.108988 0.246418 0.392837
0.172906 0.245237 0.387964
0.253816 0.241946 0.383953
0.358357 0.239967 0.382875
0.475215 0.241834 0.386644
0.587003 0.248211 0.395366
0.686761 0.257197 0.407192
0.772462 0.267567 0.420830
0.843874 0.278396 0.435340
0.900916 0.288912 0.449652
0.942088 0.298479 0.462920
0.965070 0.306810 0.474520
0.977804 0.313709 0.484085
0.985320 0.319266 0.491626
0.095440 0.288540 0.401676
0.098054 0.289104 0.400616
0.110979 0.290234 0.390552
0.174508 0.290941 0.375621
0.260517 0.288968 0.388497
0.362320 0.288118 0.383282
0.475444 0.289457 0.385708
0.587402 0.292179 0.393862
0.688335 0.295652 0.405540
0.774959 0.299920 0.419493
0.846835 0.304829 0.434430
0.903725 0.309967 0.449231
0.944002 0.315080 0.462885
0.966359 0.319855 0.474727
0.978672 0.324046 0.484321
0.985971 0.327646 0.491839
0.113584 0.316204 0.416950
0.115669 0.316696 0.415084
0.125455 0.318552 0.403254
0.174984 0.319884 0.387516
0.268240 0.320651 0.395536
0.364168 0.320583 0.402345
0.472643 0.322125 0.408153
0.582889 0.323980 0.415787
0.684134 0.325874 0.425715
0.772061 0.328006 0.437323
0.845004 0.330403 0.449803
0.902792 0.332958 0.462143
0.943792 0.335525 0.473581
0.966260 0.337949 0.483426
0.978706 0.340057 0.491463
0.985981 0.341866 0.497690
0.142248 0.340500 0.440194
0.144004 0.340966 0.438318
0.152335 0.342703 0.427694
0.196367 0.344230 0.415322
0.282206 0.344868 0.421432
0.379303 0.345898 0.429592
0.480363 0.347035 0.434981
0.586613 0.349205 0.442067
0.685791 0.351127 0.449489
0.772801 0.353200 0.458250
0.845554 0.355375 0.467843
0.903339 0.357364 0.477371
0.944246 0.359154 0.486237
0.966581 0.360427 0.493897
0.978908 0.361037 0.500125
0.986182 0.361217 0.504915
0.183262 0.373093 0.464868
0.184856 0.373670 0.463286
0.192226 0.376164 0.455086
0.231520 0.378570 0.446146
0.312058 0.379592 0.450572
0.405329 0.381263 0.456503
0.504647 0.383685 0.463736
0.601919 0.385700 0.468252
0.695993 0.388529 0.473582
0.779346 0.391239 0.479594
0.850023 0.393907 0.486352
0.906238 0.395789 0.493131
0.945911 0.396647 0.499513
0.967530 0.396095 0.505063
0.979475 0.394217 0.509470
0.986485 0.391542 0.512860
0.235982 0.432920 0.487134
0.237389 0.433825 0.486007
0.243703 0.437652 0.480343
0.278233 0.441467 0.474374
0.352534 0.443322 0.477353
0.440433 0.446168 0.481400
0.535048 0.450118 0.486398
0.630792 0.455533 0.492101
0.714907 0.456504 0.495194
0.792307 0.459290 0.498970
0.858705 0.461734 0.503360
0.912268 0.462341 0.507881
0.949080 0.460484 0.512136
0.969190 0.455823 0.515861
0.980436 0.448704 0.518788
0.987068 0.440312 0.520944
0.297464 0.532638 0.505280
0.298638 0.533823 0.504528
0.304078 0.538547 0.500946
0.333642 0.543318 0.497142
0.400301 0.545834 0.499065
0.480574 0.549461 0.501704
0.568233 0.554459 0.504969
0.657498 0.560920 0.508785
0.742605 0.569155 0.512967
0.811073 0.567556 0.515164
0.871809 0.567160 0.517805
0.921113 0.564100 0.520645
0.953530 0.557212 0.523377
0.971588 0.546044 0.525768
0.981848 0.531092 0.527596
0.987976 0.514337 0.528815
0.366272 0.653634 0.519611
0.367332 0.654630 0.519140
0.372014 0.658874 0.516955
0.396579 0.663030 0.514597
0.454709 0.665370 0.515827
0.526035 0.668718 0.517560
0.604827 0.673145 0.519650
0.685756 0.678906 0.522159
0.763216 0.686008 0.525044
0.834173 0.694403 0.528146
0.888182 0.689701 0.529843
0.931949 0.681825 0.531666
0.959069 0.669754 0.533466
0.974570 0.652756 0.534984
0.983648 0.631346 0.536078
0.989059 0.607367 0.536686
0.440262 0.764494 0.531132
0.441166 0.765156 0.530788
0.445185 0.768228 0.529417
0.465230 0.771073 0.527893
0.514253 0.772850 0.528724
0.575356 0.775313 0.529930
0.643916 0.778542 0.531424
0.715089 0.782635 0.533264
0.783981 0.787542 0.535390
0.848058 0.793370 0.537879
0.905631 0.800073 0.540729
0.943294 0.791460 0.542141
0.965083 0.776623 0.543439
0.978000 0.756882 0.544524
0.985728 0.732396 0.545087
0.990439 0.704502 0.545111
0.515107 0.844751 0.541343
0.515842 0.845161 0.541090
0.519204 0.846919 0.540007
0.535014 0.848580 0.538871
0.574991 0.849699 0.539560
0.625556 0.851163 0.540523
0.683199 0.853010 0.541829
0.743658 0.855305 0.543432
0.803219 0.858184 0.545433
0.859792 0.861491 0.547880
0.911534 0.865112 0.550777
0.952166 0.869215 0.554248
0.971200 0.859622 0.555443
0.981549 0.841943 0.556150
0.987972 0.819412 0.556135
0.991910 0.792879 0.555331
0.586484 0.891973 0.552081
0.587106 0.892150 0.551880
0.589878 0.893147 0.550873
0.601987 0.893971 0.549799
0.633493 0.894508 0.550537
0.673931 0.895318 0.551542
0.720632 0.896360 0.552857
0.770523 0.897627 0.554590
0.820949 0.899102 0.556813
0.869764 0.900890 0.559558
0.915432 0.902923 0.562901
0.951678 0.905203 0.566950
0.974942 0.907623 0.571889
0.985134 0.898556 0.572163
0.990292 0.881824 0.571175
0.993449 0.861092 0.569251
0.650162 0.918669 0.564731
0.650729 0.918766 0.564484
0.652975 0.919328 0.563555
0.661919 0.919844 0.562363
0.686331 0.920167 0.563191
0.717778 0.920620 0.564365
0.754875 0.921147 0.565952
0.795313 0.921947 0.567979
0.837188 0.922828 0.570551
0.878888 0.923899 0.573746
0.918557 0.925106 0.577667
0.950714 0.926489 0.582391
0.972412 0.928016 0.588049
0.986857 0.929602 0.594718
0.992479 0.921097 0.592468
0.994963 0.906246 0.588570
0.703179 0.934677 0.579330
0.703596 0.934767 0.579138
0.705542 0.935037 0.578212
0.712101 0.935399 0.576948
0.730754 0.935586 0.577890
0.755215 0.935892 0.579208
0.784434 0.936304 0.581026
0.817159 0.936796 0.583386
0.851832 0.937411 0.586281
0.886902 0.938134 0.589861
0.921295 0.938923 0.594254
0.949556 0.939802 0.599465
0.969777 0.940846 0.605665
0.983847 0.941920 0.612927
0.993238 0.943150 0.621410
0.996323 0.935348 0.614992
0.745197 0.944889 0.595077
0.745535 0.945003 0.594858
0.747079 0.945266 0.594021
0.751857 0.945520 0.592668
0.766323 0.945649 0.593666
0.785545 0.945871 0.595152
0.808896 0.946126 0.597125
0.835505 0.946507 0.599666
0.864266 0.946934 0.602802
0.894027 0.947441 0.606654
0.923580 0.948045 0.611303
0.948482 0.948734 0.616791
0.967114 0.949514 0.623223
0.980789 0.950303 0.630703
0.990549 0.951127 0.639341
0.996745 0.952160 0.649141
0.073760 0.196565 0.442893
0.075441 0.186435 0.442125
0.108892 0.187416 0.442959
0.168320 0.194091 0.444895
0.249177 0.204407 0.448179
0.348480 0.211650 0.453718
0.455987 0.220783 0.459130
0.563511 0.232317 0.464558
0.663248 0.245103 0.469912
0.751676 0.258393 0.475552
0.826648 0.271456 0.481508
0.887210 0.283564 0.487348
0.933220 0.294363 0.492930
0.959935 0.303497 0.497871
0.974561 0.310933 0.502098
0.983042 0.316851 0.505530
0.075448 0.210759 0.443635
0.077324 0.203149 0.443000
0.104611 0.192689 0.442650
0.166929 0.199367 0.444830
0.249849 0.210343 0.447858
0.351318 0.216790 0.453353
0.460413 0.224890 0.458543
0.568587 0.235537 0.463753
0.668169 0.247637 0.468975
0.756064 0.260340 0.474573
0.830262 0.272950 0.480528
0.890099 0.284721 0.486482
0.935035 0.295244 0.492144
0.960975 0.304232 0.497270
0.975251 0.311556 0.501625
0.983521 0.317382 0.505171
0.082255 0.251159 0.446374
0.084544 0.248468 0.446244
0.093334 0.229052 0.443305
0.158151 0.220539 0.443681
0.252043 0.234380 0.445843
0.358118 0.238350 0.449566
0.474369 0.242170 0.453856
0.586092 0.249093 0.458337
0.686015 0.258157 0.463264
0.771996 0.268454 0.468946
0.843677 0.279165 0.475300
0.900730 0.289560 0.481887
0.942012 0.299033 0.488333
0.965012 0.307267 0.494242
0.977796 0.314089 0.499315
0.985325 0.319571 0.503523
0.095947 0.288792 0.448856
0.098355 0.289125 0.449782
0.109821 0.289063 0.451860
0.142084 0.279034 0.446188
0.256233 0.279714 0.442242
0.364768 0.276907 0.438769
0.485561 0.274543 0.436797
0.606151 0.274620 0.437813
0.709564 0.278045 0.442307
0.794787 0.283813 0.449375
0.863541 0.290993 0.458171
0.917111 0.298645 0.467728
0.952094 0.306121 0.477193
0.971032 0.312930 0.485812
0.981776 0.318786 0.493216
0.988054 0.323692 0.499196
0.115136 0.316421 0.456842
0.117227 0.316890 0.456864
0.127027 0.318709 0.455907
0.152463 0.320496 0.445053
0.259773 0.321285 0.430347
0.374723 0.319358 0.443313
0.491495 0.318034 0.437970
0.607039 0.317974 0.438022
0.709507 0.318684 0.442166
0.795285 0.320174 0.449275
0.864896 0.322368 0.458343
0.918730 0.325030 0.468185
0.953407 0.327959 0.477900
0.972035 0.330939 0.486704
0.982469 0.333716 0.494011
0.988579 0.336220 0.499892
0.143864 0.340755 0.471591
0.145630 0.341155 0.471020
0.153960 0.342884 0.467862
0.174763 0.345848 0.455374
0.258490 0.347489 0.441454
0.384124 0.348464 0.448296
0.494919 0.347415 0.452814
0.605414 0.347939 0.457032
0.705882 0.348512 0.460967
0.791650 0.349465 0.466927
0.862130 0.350747 0.474300
0.916995 0.352114 0.482114
0.952629 0.353538 0.489768
0.971657 0.354658 0.496580
0.982288 0.355588 0.502311
0.988496 0.356170 0.506809
0.185003 0.373431 0.487918
0.186563 0.373985 0.487225
0.193931 0.376440 0.483731
0.211455 0.381271 0.472836
0.282486 0.384541 0.462390
0.396006 0.385785 0.467451
0.510661 0.387708 0.473720
0.613742 0.387408 0.476773
0.709684 0.388327 0.481247
0.793191 0.389321 0.485521
0.862625 0.390526 0.490908
0.917175 0.391246 0.496585
0.952715 0.391263 0.502181
0.971726 0.390338 0.507155
0.982330 0.388569 0.511226
0.988587 0.386276 0.514428
0.237693 0.433502 0.503050
0.239076 0.434348 0.502428
0.245433 0.438164 0.499513
0.260140 0.445771 0.491315
0.320887 0.451237 0.484053
0.423956 0.453513 0.487634
0.530846 0.456771 0.492074
0.635378 0.461258 0.497179
