LUT color transfer/LUTs/94.cube
LUT_3D_SIZE 6
0.041663 0.059720 0.178673
0.095254 0.060094 0.182797
0.335419 0.092734 0.269331
0.743162 0.152231 0.382005
0.955373 0.214080 0.459796
0.990318 0.253139 0.494657
0.049095 0.120829 0.207302
0.098007 0.124063 0.213405
0.349462 0.164043 0.292831
0.755660 0.214649 0.395204
0.958459 0.252924 0.466950
0.991026 0.276761 0.498182
0.121538 0.276143 0.377200
0.184031 0.279002 0.380043
0.407002 0.291542 0.410418
0.787306 0.349217 0.466260
0.964987 0.378724 0.501874
0.992280 0.373835 0.516378
0.314452 0.590953 0.501476
0.382788 0.595629 0.502478
0.607483 0.612232 0.510448
0.851406 0.646901 0.522701
0.976176 0.656997 0.534580
0.994707 0.591257 0.538188
0.565549 0.882748 0.546048
0.605546 0.883849 0.546503
0.744255 0.887597 0.550253
0.904245 0.894682 0.558451
0.987628 0.898515 0.573923
0.997472 0.837882 0.570386
0.721051 0.938522 0.582043
0.739571 0.938828 0.582700
0.810622 0.939834 0.587669
0.909394 0.941842 0.598516
0.979135 0.944904 0.617866
0.999430 0.944559 0.649044
0.038829 0.054457 0.355168
0.095805 0.061374 0.350916
0.335504 0.095661 0.410398
0.744083 0.154570 0.470389
0.955621 0.215704 0.499513
0.990376 0.254227 0.512077
0.050445 0.123261 0.351353
0.090878 0.109314 0.358624
0.399025 0.121917 0.378907
0.788668 0.168699 0.433468
0.965618 0.224165 0.480784
0.992471 0.260697 0.504994
0.123933 0.277133 0.448720
0.137876 0.285570 0.415298
0.423571 0.295680 0.424992
0.808549 0.337479 0.468717
0.971051 0.358231 0.501840
0.993766 0.354943 0.516470
0.317522 0.592664 0.520111
0.327145 0.603525 0.508264
0.586237 0.620370 0.512230
0.855675 0.650158 0.524133
0.978096 0.647374 0.534832
0.995574 0.578174 0.538371
0.567831 0.883174 0.554034
0.573583 0.885544 0.548422
0.723860 0.889420 0.550843
0.899518 0.895876 0.559206
0.987954 0.898738 0.574947
0.997758 0.835008 0.570819
0.722390 0.938632 0.590523
0.725996 0.939382 0.585237
0.798465 0.940443 0.588492
0.903992 0.942348 0.599463
0.978507 0.945235 0.619074
0.999476 0.944576 0.650200
0.049752 0.068541 0.525380
0.136579 0.076942 0.522760
0.355658 0.107430 0.520989
0.748237 0.164434 0.540360
0.956704 0.222434 0.548231
0.990584 0.258774 0.545185
0.063062 0.159724 0.521942
0.091755 0.105583 0.535100
0.407985 0.129508 0.531422
0.787902 0.177961 0.542531
0.965840 0.230584 0.546682
0.992681 0.265226 0.543575
0.134050 0.288578 0.528429
0.146726 0.294198 0.532650
0.371980 0.250650 0.536497
0.861484 0.263894 0.534747
0.983617 0.277420 0.533957
0.993318 0.314661 0.539199
0.330615 0.599790 0.559099
0.340530 0.609708 0.556713
0.440036 0.657979 0.541176
0.879429 0.662005 0.538900
0.986231 0.583945 0.541401
0.995555 0.521260 0.549785
0.577442 0.884836 0.599898
0.583245 0.886968 0.593343
0.627720 0.897425 0.567416
0.873813 0.902678 0.568703
0.989640 0.899106 0.584933
0.998179 0.819418 0.583824
0.727862 0.939101 0.633722
0.731552 0.939808 0.628045
0.755425 0.943307 0.607946
0.876996 0.945066 0.609169
0.975957 0.946994 0.630089
0.999584 0.944299 0.659545
0.074273 0.100178 0.636182
0.184266 0.107486 0.633783
0.470254 0.135495 0.631854
0.768796 0.182913 0.641241
0.958837 0.235224 0.655287
0.991059 0.267842 0.615822
0.088173 0.194347 0.634768
0.108598 0.122864 0.699960
0.486446 0.149418 0.676560
0.797809 0.194773 0.667778
0.966679 0.242951 0.663468
0.993052 0.274244 0.617085
0.169764 0.333956 0.644871
0.174458 0.328009 0.672516
0.318599 0.230074 0.740746
0.850465 0.258320 0.746432
0.983935 0.285848 0.682625
0.993780 0.321464 0.612465
0.356456 0.619679 0.694682
0.365194 0.625467 0.704190
0.440097 0.634563 0.750741
0.825040 0.543675 0.758304
0.987717 0.545584 0.694166
0.996134 0.592325 0.676859
0.596617 0.887950 0.757670
0.602397 0.889987 0.754872
0.645670 0.899022 0.746475
0.832271 0.909405 0.733371
0.991602 0.898490 0.738206
0.998350 0.856936 0.765728
0.738851 0.939931 0.750555
0.742348 0.940607 0.745873
0.765469 0.943813 0.731757
0.853711 0.948112 0.725880
0.972742 0.949671 0.729549
0.999654 0.942597 0.766279
0.106500 0.135976 0.887583
0.205433 0.141792 0.887006
0.479578 0.165106 0.887242
0.765631 0.205182 0.893497
0.955357 0.253877 0.907815
0.991682 0.282030 0.819881
0.120738 0.208551 0.889497
0.133007 0.151235 0.919658
0.467020 0.174589 0.924773
0.773917 0.213369 0.919828
0.960912 0.260800 0.923656
0.993386 0.288406 0.829576
0.204626 0.338222 0.896390
0.205130 0.324376 0.924176
0.292888 0.228484 0.927024
0.743833 0.257870 0.936919
0.968400 0.299896 0.950746
0.994342 0.332794 0.833707
0.384923 0.594865 0.922273
0.387950 0.588396 0.932540
0.425566 0.527219 0.952197
0.719290 0.451151 0.950412
0.969761 0.499118 0.961844
0.996340 0.575017 0.880514
0.625379 0.872884 0.957497
0.629865 0.873442 0.960288
0.657687 0.873633 0.972303
0.807909 0.858481 0.977132
0.984019 0.882460 0.981507
0.998877 0.893969 0.971092
0.755545 0.941330 0.932646
0.758952 0.941908 0.932823
0.780843 0.944715 0.937595
0.863487 0.948620 0.955404
0.989393 0.950707 0.990307
0.999769 0.950073 0.989465
0.133697 0.161465 0.970293
0.203843 0.165804 0.970762
0.420386 0.183276 0.972714
0.679339 0.213899 0.976358
0.884110 0.253319 0.981518
0.986099 0.301758 0.987501
0.146206 0.209216 0.971559
0.157127 0.174170 0.971158
0.395279 0.191004 0.973063
0.669444 0.220660 0.976782
0.881700 0.259258 0.981906
0.986153 0.308053 0.987895
0.217950 0.312527 0.976926
0.218909 0.296898 0.976531
0.310369 0.243725 0.976227
0.640785 0.267135 0.979679
0.876809 0.302641 0.984621
0.986568 0.355636 0.990125
0.368010 0.499755 0.985693
0.370981 0.485479 0.985496
0.429689 0.436929 0.985190
0.719597 0.470678 0.988623
0.908492 0.521441 0.992040
0.990179 0.592890 0.995624
0.576996 0.778844 0.994904
0.581913 0.773562 0.994858
0.633974 0.756369 0.995001
0.828746 0.782540 0.996617
0.980294 0.884711 0.999466
0.997377 0.896374 0.999975
0.778206 0.928654 0.999975
0.783133 0.928373 0.999975
0.818902 0.927396 0.999975
0.927388 0.931040 1.000000
0.991812 0.943978 1.005540
0.999590 0.950340 1.015817
