LUT color transfer/LUTs/94.cube
LUT_3D_SIZE 16
0.041663 0.059720 0.178673
0.046227 0.059957 0.179287
0.063110 0.059912 0.179747
0.095254 0.060094 0.182797
0.144774 0.065952 0.199704
0.223541 0.077517 0.231388
0.335419 0.092734 0.269331
0.472276 0.110690 0.308657
0.615400 0.130724 0.346733
0.743162 0.152231 0.382005
0.842165 0.174330 0.413217
0.913542 0.195341 0.439257
0.955373 0.214080 0.459796
0.974898 0.229934 0.475302
0.984775 0.242762 0.486528
0.990318 0.253139 0.494657
0.041662 0.065528 0.179454
0.046271 0.065550 0.179728
0.063355 0.065623 0.179230
0.096567 0.064912 0.177747
0.148717 0.069377 0.190912
0.230125 0.080183 0.221678
0.343584 0.094886 0.259602
0.480581 0.112509 0.299662
0.622549 0.132313 0.338995
0.748483 0.153615 0.375769
0.845887 0.175536 0.408581
0.916077 0.196361 0.436039
0.956495 0.214940 0.457654
0.975492 0.230653 0.473864
0.985125 0.243348 0.485509
0.990512 0.253659 0.493932
0.042548 0.087263 0.183037
0.046504 0.087357 0.180214
0.064327 0.087530 0.181024
0.096905 0.089878 0.182550
0.149308 0.095801 0.196839
0.232402 0.107073 0.227806
0.347611 0.122013 0.265300
0.485472 0.139329 0.304824
0.627265 0.158034 0.343607
0.752231 0.177254 0.379840
0.848716 0.195796 0.412015
0.917950 0.213041 0.438788
0.957492 0.228334 0.459770
0.976050 0.241378 0.475440
0.985505 0.252127 0.486685
0.990803 0.260895 0.494758
0.049095 0.120829 0.207302
0.051218 0.121851 0.199354
0.068945 0.122433 0.203496
0.098007 0.124063 0.213405
0.149232 0.133432 0.232287
0.232710 0.147205 0.259888
0.349462 0.164043 0.292831
0.488794 0.181803 0.327834
0.631142 0.198874 0.362591
0.755660 0.214649 0.395204
0.851327 0.228919 0.424134
0.919897 0.241683 0.448172
0.958459 0.252924 0.466950
0.976573 0.262520 0.480969
0.985792 0.270348 0.490996
0.991026 0.276761 0.498182
0.064238 0.166371 0.257817
0.065548 0.167542 0.250036
0.082826 0.168354 0.254184
0.113053 0.169936 0.263568
0.157381 0.173948 0.276791
0.241440 0.190032 0.300972
0.358770 0.207745 0.329026
0.498140 0.224876 0.358917
0.639471 0.240381 0.388718
0.762198 0.254073 0.416635
0.856071 0.266053 0.441053
0.923133 0.276320 0.461301
0.960017 0.284756 0.477098
0.977315 0.291416 0.488822
0.986309 0.296352 0.497198
0.991325 0.300079 0.503202
0.087770 0.220225 0.317715
0.088786 0.221146 0.311196
0.107230 0.221859 0.314733
0.141357 0.223368 0.321696
0.191998 0.225865 0.332285
0.260721 0.231268 0.345837
0.377832 0.248828 0.369608
0.515476 0.266091 0.394489
0.653727 0.282137 0.418901
0.772639 0.296484 0.441326
0.863322 0.308682 0.460763
0.927836 0.318311 0.476741
0.962138 0.325107 0.489158
0.978514 0.329219 0.498372
0.986940 0.331086 0.504824
0.991732 0.331642 0.509394
0.121538 0.276143 0.377200
0.122718 0.276907 0.372391
0.143643 0.277575 0.374973
0.184031 0.279002 0.380043
0.242408 0.281302 0.387748
0.315952 0.284639 0.398070
0.407002 0.291542 0.410418
0.541349 0.311753 0.430369
0.674307 0.331444 0.449266
0.787306 0.349217 0.466260
0.873324 0.363520 0.480845
0.933846 0.373548 0.492704
0.964987 0.378724 0.501874
0.980014 0.379641 0.508517
0.987899 0.377485 0.513107
0.992280 0.373835 0.516378
0.169818 0.345550 0.430207
0.171328 0.346322 0.427099
0.195146 0.347166 0.428846
0.239776 0.348904 0.432311
0.303866 0.351724 0.437576
0.383405 0.355785 0.444621
0.473516 0.361311 0.453175
0.575152 0.371843 0.462776
0.700642 0.398535 0.476706
0.805739 0.422002 0.488984
0.885888 0.439567 0.499274
0.940961 0.449759 0.507592
0.968389 0.452066 0.513926
0.981873 0.447974 0.518505
0.988930 0.439890 0.521556
0.993014 0.430080 0.523586
0.235375 0.448734 0.471919
0.236951 0.449703 0.470092
0.261224 0.450862 0.471202
0.307135 0.453135 0.473366
0.372827 0.456886 0.476710
0.453585 0.462255 0.481181
0.543759 0.469544 0.486646
0.637140 0.478824 0.492801
0.731551 0.494405 0.499400
0.827362 0.524169 0.507855
0.900605 0.543675 0.514851
0.948772 0.551729 0.520489
0.972151 0.548831 0.524759
0.983940 0.537778 0.527750
0.990258 0.521663 0.529676
0.993841 0.503659 0.530786
0.314452 0.590953 0.501476
0.316001 0.591951 0.500502
0.339069 0.593125 0.501148
0.382788 0.595629 0.502478
0.445472 0.599584 0.504453
0.522372 0.604959 0.507141
0.607483 0.612232 0.510448
0.694336 0.621415 0.514236
0.776305 0.632321 0.518384
0.851406 0.646901 0.522701
0.917007 0.662962 0.527584
0.956824 0.665990 0.531565
0.976176 0.656997 0.534580
0.986206 0.639657 0.536696
0.991632 0.616594 0.537771
0.994707 0.591257 0.538188
0.401054 0.728402 0.521092
0.402483 0.729210 0.520579
0.422812 0.730124 0.520938
0.461505 0.731943 0.521733
0.517428 0.734864 0.522935
0.586366 0.738961 0.524608
0.662509 0.744176 0.526693
0.739668 0.750899 0.529169
0.812212 0.758792 0.532026
0.878171 0.767901 0.535197
0.933417 0.775519 0.538738
0.964521 0.772973 0.542059
0.980167 0.759885 0.544596
0.988487 0.738947 0.546150
0.993039 0.712303 0.546642
0.995593 0.682563 0.546389
0.487238 0.827246 0.534643
0.488422 0.827686 0.534297
0.505294 0.828247 0.534581
0.537605 0.829322 0.535133
0.584656 0.831050 0.536038
0.643136 0.833463 0.537301
0.708215 0.836557 0.538900
0.774083 0.840435 0.540932
0.837233 0.845067 0.543417
0.895268 0.850219 0.546390
0.944088 0.855814 0.549986
0.971660 0.856424 0.554295
0.984022 0.843106 0.556820
0.990786 0.823270 0.558047
0.994508 0.797332 0.557795
0.996534 0.767608 0.556605
0.565549 0.882748 0.546048
0.566408 0.882966 0.545763
0.579767 0.883266 0.545987
0.605546 0.883849 0.546503
0.643387 0.884756 0.547371
0.690883 0.885941 0.548590
0.744255 0.887597 0.550253
0.799452 0.889573 0.552407
0.853407 0.891991 0.555033
0.904245 0.894682 0.558451
0.946736 0.897671 0.562572
0.973545 0.900967 0.567696
0.987628 0.898515 0.573923
0.992931 0.883238 0.574569
0.995861 0.862945 0.573063
0.997472 0.837882 0.570386
0.631044 0.911782 0.557646
0.631625 0.911934 0.557297
0.641972 0.912054 0.557599
0.661986 0.912396 0.558211
0.691650 0.912896 0.559121
0.729248 0.913632 0.560480
0.772319 0.914538 0.562355
0.818127 0.915840 0.564810
0.864105 0.917153 0.567909
0.908261 0.918736 0.571775
0.945935 0.920576 0.576562
0.971039 0.922496 0.582427
0.987080 0.924737 0.589533
0.994890 0.921582 0.597984
0.997038 0.906630 0.594515
0.998273 0.888037 0.589400
0.682061 0.928264 0.569746
0.682502 0.928365 0.569399
0.690431 0.928412 0.569722
0.705959 0.928655 0.570415
0.729146 0.928981 0.571457
0.759017 0.929443 0.573005
0.793909 0.930076 0.575087
0.831874 0.930861 0.577775
0.870952 0.931743 0.581206
0.909414 0.932824 0.585410
0.943412 0.934043 0.590670
0.967217 0.935377 0.596918
0.983362 0.936904 0.604490
0.993710 0.938459 0.613389
0.998104 0.935409 0.623901
0.998882 0.921598 0.615372
0.721051 0.938522 0.582043
0.721279 0.938580 0.581664
0.727479 0.938679 0.582029
0.739571 0.938828 0.582700
0.757955 0.939083 0.583829
0.781941 0.939392 0.585464
0.810622 0.939834 0.587669
0.842245 0.940387 0.590539
0.875710 0.941066 0.594099
0.909394 0.941842 0.598516
0.940126 0.942710 0.603868
0.962920 0.943779 0.610287
0.979135 0.944904 0.617866
0.990313 0.946080 0.626845
0.997116 0.947450 0.637191
0.999430 0.944559 0.649044
0.041236 0.059025 0.199449
0.045890 0.059285 0.199915
0.063102 0.059697 0.202037
0.095171 0.060194 0.207520
0.144643 0.066163 0.223665
0.223494 0.077738 0.252947
0.335415 0.092932 0.288450
0.472341 0.110886 0.325228
0.615483 0.130910 0.360618
0.743222 0.152391 0.393117
0.842211 0.174483 0.421582
0.913558 0.195454 0.445252
0.955389 0.214202 0.464024
0.974869 0.230037 0.478262
0.984787 0.242849 0.488642
0.990321 0.253218 0.496236
0.041076 0.064745 0.200057
0.045724 0.064701 0.200318
0.063324 0.065068 0.201057
0.096422 0.064465 0.202645
0.148039 0.068998 0.215374
0.228710 0.079785 0.243174
0.341469 0.094485 0.278182
0.478187 0.112109 0.315388
0.620410 0.131931 0.351882
0.746746 0.153258 0.385890
0.844763 0.175253 0.416123
0.915231 0.196109 0.441363
0.956205 0.214792 0.461385
0.975307 0.230517 0.476494
0.985081 0.243297 0.487455
0.990465 0.253666 0.495402
0.042630 0.087300 0.205430
0.046428 0.087404 0.203600
0.064259 0.087384 0.203175
0.098108 0.088023 0.198026
0.153304 0.091935 0.204244
0.238672 0.102163 0.231307
0.354774 0.116399 0.266843
0.492405 0.133356 0.305364
0.633044 0.152031 0.343702
0.756430 0.171687 0.379756
0.851491 0.190942 0.411833
0.919885 0.208960 0.438622
0.958421 0.225029 0.459638
0.976539 0.238663 0.475329
0.985803 0.249842 0.486610
0.991011 0.258974 0.494731
0.049239 0.120888 0.225803
0.051133 0.121808 0.219255
0.067621 0.123222 0.212980
0.098870 0.124430 0.221143
0.151727 0.132733 0.236940
0.236902 0.145548 0.262316
0.354773 0.161596 0.293998
0.494174 0.178898 0.328311
0.635864 0.195767 0.362740
0.759231 0.211541 0.395178
0.853866 0.225965 0.424036
0.921559 0.238993 0.448025
0.959260 0.250484 0.466837
0.976958 0.260316 0.480868
0.986111 0.268410 0.490927
0.991226 0.275073 0.498163
0.064392 0.166451 0.271508
0.065470 0.167421 0.264176
0.080320 0.169369 0.257863
0.112404 0.170754 0.267024
0.158543 0.174436 0.279747
0.243745 0.189795 0.302731
0.362124 0.206983 0.329941
0.501860 0.223686 0.359397
0.643010 0.238898 0.388843
0.764979 0.252392 0.416611
0.858114 0.264198 0.440962
0.924546 0.274440 0.461189
0.960678 0.282931 0.477013
0.977739 0.289636 0.488756
0.986565 0.294675 0.497171
0.991488 0.298587 0.503166
0.087923 0.220328 0.328019
0.088685 0.221015 0.321433
0.103882 0.222597 0.316341
0.139419 0.224018 0.323300
0.191612 0.226362 0.333793
0.261806 0.231593 0.347198
0.379734 0.248744 0.370384
0.517854 0.265619 0.394901
0.656180 0.281359 0.419058
0.774579 0.295434 0.441346
0.864898 0.307378 0.460711
0.928933 0.316863 0.476684
0.962722 0.323552 0.489126
0.978833 0.327672 0.498295
0.987157 0.329626 0.504782
0.991903 0.330302 0.509407
0.121728 0.276225 0.384918
0.122369 0.276784 0.379559
0.139350 0.278150 0.375759
0.180877 0.279488 0.380841
0.240743 0.281748 0.388541
0.315714 0.285016 0.398844
0.407982 0.291786 0.411090
0.542700 0.311657 0.430731
0.675877 0.331043 0.449417
0.788599 0.348449 0.466326
0.874403 0.362519 0.480837
0.934693 0.372306 0.492661
0.965387 0.377369 0.501834
0.980298 0.378223 0.508477
0.988044 0.376137 0.513105
0.992440 0.372597 0.516377
0.170046 0.345612 0.435421
0.170662 0.346171 0.431635
0.190103 0.347724 0.429240
0.235808 0.349467 0.432704
0.301201 0.352190 0.437976
0.382142 0.356194 0.445014
0.473364 0.361660 0.453554
0.575881 0.372089 0.463091
0.701579 0.398434 0.476898
0.806531 0.421529 0.489062
0.886580 0.438777 0.499299
0.941461 0.448665 0.507577
0.968713 0.450820 0.513913
0.982074 0.446708 0.518486
0.989083 0.438560 0.521533
0.993105 0.428860 0.523573
0.235562 0.448816 0.475029
0.236154 0.449610 0.472715
0.255928 0.451536 0.471409
0.302794 0.453857 0.473580
0.369619 0.457517 0.476916
0.451602 0.462847 0.481370
0.542748 0.469966 0.486817
0.637049 0.479226 0.492986
0.731909 0.494683 0.499553
0.827932 0.524050 0.507939
0.901063 0.543068 0.514881
0.949146 0.550945 0.520487
0.972313 0.547813 0.524750
0.984026 0.536671 0.527757
0.990353 0.520483 0.529673
0.993877 0.502535 0.530784
0.314669 0.591031 0.503247
0.315242 0.591785 0.501943
0.334021 0.593891 0.501269
0.378518 0.596248 0.502559
0.442081 0.600168 0.504552
0.520045 0.605493 0.507232
0.606059 0.612732 0.510519
0.693711 0.621788 0.514300
0.776242 0.632672 0.518489
0.851667 0.646994 0.522812
0.917304 0.662867 0.527623
0.957032 0.665596 0.531585
0.976317 0.656375 0.534584
0.986302 0.638822 0.536697
0.991697 0.615708 0.537770
0.994780 0.590369 0.538191
0.401262 0.728630 0.522068
0.401728 0.728996 0.521331
0.418274 0.730663 0.520986
0.457580 0.732459 0.521788
0.514238 0.735381 0.522998
0.584036 0.739278 0.524641
0.660927 0.744561 0.526716
0.738823 0.751230 0.529222
0.811873 0.759047 0.532062
0.878183 0.768225 0.535222
0.933542 0.775613 0.538797
0.964580 0.772817 0.542071
0.980234 0.759537 0.544616
0.988535 0.738592 0.546160
0.993080 0.711740 0.546641
0.995658 0.681963 0.546398
0.487446 0.827373 0.535281
0.487852 0.827621 0.534780
0.501550 0.828500 0.534605
0.534288 0.829629 0.535146
0.581880 0.831334 0.536069
0.640972 0.833767 0.537308
0.706620 0.836824 0.538909
0.773194 0.840709 0.540967
0.836679 0.845164 0.543434
0.895033 0.850256 0.546416
0.944093 0.855900 0.550045
0.971664 0.856413 0.554324
0.984030 0.843053 0.556831
0.990848 0.823088 0.558087
0.994503 0.797041 0.557788
0.996564 0.767237 0.556622
0.565707 0.882797 0.546575
0.566049 0.882930 0.546167
0.576802 0.883396 0.546034
0.602838 0.883954 0.546526
0.641070 0.884847 0.547404
0.689064 0.886146 0.548626
0.742879 0.887738 0.550294
0.798539 0.889734 0.552444
0.852870 0.892073 0.555074
0.903901 0.894700 0.558480
0.946626 0.897724 0.562626
0.973544 0.900961 0.567737
0.987649 0.898520 0.573970
0.992954 0.883213 0.574606
0.995843 0.862860 0.573104
0.997495 0.837657 0.570417
0.631159 0.911792 0.558176
0.631453 0.911902 0.557748
0.639682 0.912149 0.557600
0.659888 0.912511 0.558202
0.689763 0.912996 0.559136
0.727833 0.913729 0.560524
0.771249 0.914620 0.562403
0.817243 0.915842 0.564865
0.863461 0.917248 0.567942
0.907821 0.918799 0.571830
0.945774 0.920589 0.576606
0.970959 0.922576 0.582445
0.987047 0.924770 0.589575
0.994908 0.921587 0.598059
0.997050 0.906614 0.594575
0.998286 0.887919 0.589443
0.682181 0.928300 0.570306
0.682471 0.928358 0.569930
0.688720 0.928476 0.569778
0.704351 0.928709 0.570442
0.727733 0.929089 0.571476
0.757784 0.929475 0.573032
0.792928 0.930115 0.575109
0.831125 0.930901 0.577814
0.870359 0.931777 0.581225
0.909031 0.932849 0.585495
0.943162 0.934068 0.590713
0.967087 0.935436 0.596976
0.983336 0.936890 0.604552
0.993711 0.938478 0.613506
0.998110 0.935432 0.623944
0.998893 0.921576 0.615428
0.721122 0.938520 0.582555
0.721328 0.938567 0.582212
0.726125 0.938725 0.582034
0.738270 0.938846 0.582717
0.756807 0.939118 0.583898
0.780957 0.939427 0.585512
0.809779 0.939906 0.587723
0.841580 0.940417 0.590569
0.875233 0.941086 0.594136
0.908958 0.941913 0.598548
0.939931 0.942767 0.603918
0.962813 0.943795 0.610367
0.979085 0.944889 0.617918
0.990283 0.946106 0.626883
0.997124 0.947451 0.637325
0.999435 0.944558 0.649109
0.039849 0.056658 0.266570
0.045084 0.057010 0.266854
0.063235 0.058441 0.267974
0.094789 0.060682 0.275464
0.144182 0.067078 0.290580
0.223233 0.078700 0.315664
0.335429 0.093835 0.345967
0.472530 0.111724 0.376546
0.615793 0.131705 0.404677
0.743434 0.153105 0.428959
0.842446 0.175137 0.449235
0.913679 0.196042 0.465817
0.955508 0.214707 0.479028
0.974931 0.230461 0.489150
0.984827 0.243219 0.496688
0.990312 0.253563 0.502340
0.039045 0.062303 0.267017
0.043885 0.061680 0.267128
0.063108 0.063125 0.268465
0.096143 0.064594 0.275733
0.147510 0.069810 0.289236
0.228303 0.080700 0.312714
0.341347 0.095367 0.341770
0.478352 0.112941 0.371844
0.620648 0.132699 0.400008
0.747018 0.153988 0.424864
0.844906 0.175882 0.445886
0.915366 0.196675 0.463263
0.956275 0.215267 0.477159
0.975339 0.230941 0.487817
0.985121 0.243675 0.495729
0.990479 0.253984 0.501654
0.041947 0.087155 0.269655
0.045132 0.086531 0.270531
0.061713 0.082744 0.269293
0.098175 0.083136 0.269596
0.157574 0.082961 0.273479
0.247017 0.090286 0.289888
0.364732 0.102596 0.314600
0.501822 0.118648 0.343633
0.640582 0.137415 0.373621
0.761736 0.157979 0.402456
0.855274 0.179276 0.428374
0.922248 0.199548 0.450346
0.959604 0.217735 0.468010
0.977115 0.233151 0.481508
0.986225 0.245695 0.491404
0.991301 0.255899 0.498649
0.049861 0.121126 0.281821
0.051725 0.121999 0.281269
0.062673 0.124339 0.272827
0.100771 0.124139 0.268057
0.161601 0.126875 0.266086
0.255571 0.134867 0.278035
0.378924 0.147316 0.301977
0.518941 0.162389 0.332025
0.657159 0.178732 0.364145
0.774954 0.195100 0.395448
0.864965 0.210913 0.423779
0.928899 0.225649 0.447605
0.962763 0.238848 0.466457
0.978936 0.250249 0.480587
0.987297 0.259698 0.490756
0.992023 0.267485 0.498091
0.065040 0.166800 0.316504
0.066109 0.167754 0.313471
0.071962 0.171831 0.293961
0.107941 0.174434 0.285928
0.163924 0.176499 0.295675
0.254736 0.188294 0.313371
0.377680 0.202762 0.335793
0.519195 0.217621 0.362344
0.658898 0.231551 0.390113
0.777393 0.244231 0.416930
0.867206 0.255632 0.440842
0.930586 0.265799 0.460936
0.963678 0.274532 0.476713
0.979500 0.281769 0.488546
0.987687 0.287501 0.497023
0.992218 0.292073 0.503124
0.088594 0.220607 0.363679
0.089367 0.221316 0.359929
0.093405 0.224492 0.338953
0.129188 0.227083 0.332093
0.189713 0.228862 0.342174
0.267169 0.233147 0.354503
0.388580 0.248234 0.374921
0.528799 0.263465 0.397341
0.667077 0.277776 0.420191
0.783668 0.290591 0.441722
0.871796 0.301528 0.460717
0.933606 0.310353 0.476545
0.965131 0.316769 0.488937
0.980275 0.321000 0.498138
0.988121 0.323304 0.504662
0.992584 0.324471 0.509385
0.122437 0.276532 0.412127
0.123100 0.277057 0.408656
0.126430 0.279577 0.390337
0.165480 0.281949 0.385186
0.232782 0.283868 0.392781
0.314732 0.286757 0.402876
0.412473 0.292935 0.414657
0.549035 0.311310 0.432784
0.682681 0.329201 0.450485
0.794784 0.345147 0.466763
0.879419 0.357938 0.480958
0.938033 0.366817 0.492615
0.967228 0.371303 0.501712
0.981419 0.372111 0.508408
0.988776 0.370251 0.513065
0.993011 0.367135 0.516361
0.170912 0.345962 0.453995
0.171543 0.346572 0.451398
0.174660 0.349216 0.438077
0.217178 0.351998 0.434792
0.289004 0.354520 0.440076
0.376169 0.358251 0.447012
0.472805 0.363344 0.455477
0.579152 0.373255 0.464769
0.705484 0.397950 0.477814
0.810421 0.419414 0.489510
0.890049 0.435194 0.499450
0.943754 0.443885 0.507625
0.969988 0.445326 0.513891
0.982931 0.440985 0.518446
0.989716 0.433034 0.521496
0.993569 0.423634 0.523584
0.236482 0.449336 0.486570
0.237063 0.450036 0.484837
0.239900 0.453234 0.476332
0.282638 0.456900 0.474593
0.355034 0.460416 0.477894
0.442583 0.465429 0.482331
0.538623 0.472253 0.487739
0.636759 0.481090 0.493868
0.734004 0.495950 0.500330
0.830160 0.523314 0.508363
0.903210 0.540823 0.515088
0.950568 0.547325 0.520580
0.973248 0.543308 0.524768
0.984716 0.531743 0.527758
0.990823 0.515503 0.529674
0.994297 0.497709 0.530802
0.315588 0.591600 0.509884
0.316092 0.592274 0.508851
0.318720 0.595509 0.503911
0.358752 0.599204 0.503028
0.426872 0.602895 0.505005
0.509580 0.608089 0.507704
0.599989 0.615012 0.510967
0.691083 0.623615 0.514741
0.776105 0.634235 0.518892
0.852874 0.648082 0.523178
0.918473 0.662060 0.527808
0.957884 0.663653 0.531675
0.976862 0.653425 0.534625
0.986683 0.635351 0.536699
0.992009 0.611854 0.537771
0.995027 0.586464 0.538231
0.402240 0.728921 0.525982
0.402602 0.729399 0.525324
0.404870 0.731760 0.522459
0.439910 0.734517 0.522012
0.500001 0.737192 0.523218
0.573556 0.741248 0.524884
0.654166 0.746297 0.526977
0.734963 0.752623 0.529468
0.810265 0.760235 0.532286
0.877997 0.769082 0.535508
0.934144 0.776164 0.539036
0.965077 0.772319 0.542220
0.980586 0.758137 0.544702
0.988816 0.736439 0.546236
0.993274 0.709057 0.546692
0.995877 0.679176 0.546460
0.488260 0.827547 0.537991
0.488659 0.827905 0.537559
0.490550 0.829190 0.535558
0.519397 0.830827 0.535300
0.569477 0.832404 0.536198
0.631534 0.834805 0.537474
0.699994 0.837810 0.539082
0.768946 0.841567 0.541154
0.834373 0.845913 0.543629
0.894074 0.850830 0.546630
0.944004 0.856372 0.550278
0.971921 0.856597 0.554551
0.984274 0.842611 0.557001
0.991024 0.822133 0.558162
0.994662 0.795672 0.557864
0.996696 0.765456 0.556702
0.566404 0.882917 0.549005
0.566718 0.883092 0.548584
0.568312 0.883750 0.546857
0.591004 0.884600 0.546653
0.630919 0.885515 0.547540
0.680992 0.886655 0.548769
0.736898 0.888223 0.550413
0.794466 0.890172 0.552592
0.850333 0.892466 0.555270
0.902476 0.895088 0.558665
0.946125 0.898032 0.562849
0.973534 0.901190 0.568000
0.987737 0.898599 0.574270
0.993028 0.882919 0.574792
0.995912 0.862232 0.573224
0.997615 0.836795 0.570506
0.631755 0.911860 0.560625
0.632031 0.911968 0.560257
0.633396 0.912413 0.558499
0.650720 0.912849 0.558319
0.681815 0.913360 0.559276
0.721187 0.913981 0.560678
0.766137 0.914972 0.562549
0.813520 0.916121 0.565009
0.860949 0.917466 0.568108
0.906196 0.919055 0.572048
0.945071 0.920805 0.576881
0.970764 0.922766 0.582749
0.987040 0.924829 0.589878
0.994912 0.921578 0.598378
0.997111 0.906462 0.594790
0.998302 0.887577 0.589590
0.682668 0.928305 0.572864
0.682923 0.928403 0.572456
0.684020 0.928669 0.570733
0.697331 0.928986 0.570578
0.721417 0.929305 0.571664
0.752432 0.929719 0.573188
0.788602 0.930349 0.575291
0.827693 0.931097 0.578005
0.867929 0.931958 0.581470
0.907416 0.932981 0.585726
0.942336 0.934253 0.590968
0.966758 0.935566 0.597279
0.983256 0.937000 0.604859
0.993711 0.938572 0.613839
0.998147 0.935441 0.624273
0.998920 0.921461 0.615651
0.721566 0.938568 0.585166
0.721774 0.938594 0.584747
0.722738 0.938813 0.583123
0.732805 0.939077 0.582941
0.751810 0.939300 0.584080
0.776597 0.939644 0.585711
0.806134 0.940097 0.587957
0.838743 0.940607 0.590829
0.872994 0.941266 0.594368
0.907363 0.942005 0.598819
0.939003 0.942939 0.604181
0.962336 0.943880 0.610675
0.978909 0.945016 0.618273
0.990266 0.946152 0.627219
0.997117 0.947555 0.637679
0.999447 0.944555 0.649433
0.038829 0.054457 0.355168
0.045083 0.054938 0.355308
0.066025 0.056937 0.354881
0.095805 0.061374 0.350916
0.143478 0.068948 0.362146
0.222859 0.080596 0.384617
0.335504 0.095661 0.410398
0.472994 0.113428 0.434419
0.616408 0.133260 0.454476
0.744083 0.154570 0.470389
0.842866 0.176458 0.482724
0.914049 0.197219 0.492265
0.955621 0.215704 0.499513
0.974990 0.231312 0.504964
0.984894 0.243977 0.509010
0.990376 0.254227 0.512077
0.037085 0.060316 0.355632
0.042294 0.058638 0.355729
0.064891 0.060582 0.356235
0.097059 0.064626 0.354144
0.146632 0.071494 0.364529
0.227685 0.082548 0.385545
0.341248 0.097161 0.410019
0.478619 0.114621 0.433255
0.621110 0.134269 0.452938
0.747558 0.155442 0.468797
0.845288 0.177195 0.481235
0.915730 0.197827 0.491010
0.956392 0.216269 0.498491
0.975431 0.231810 0.504145
0.985109 0.244443 0.508386
0.990529 0.254654 0.511606
0.041281 0.089496 0.353623
0.043224 0.087302 0.356906
0.056587 0.074979 0.357253
0.097897 0.078860 0.359309
0.156751 0.083355 0.369326
0.245801 0.091746 0.385734
0.363920 0.104236 0.405810
0.501533 0.120269 0.426155
0.640633 0.138950 0.444691
0.761969 0.159429 0.460637
0.855457 0.180582 0.473965
0.922492 0.200690 0.484875
0.959617 0.218712 0.493625
0.977158 0.233990 0.500435
0.986234 0.246442 0.505611
0.991349 0.256570 0.509539
0.050445 0.123261 0.351353
0.051976 0.123739 0.354086
0.060233 0.123111 0.362192
0.090878 0.109314 0.358624
0.162777 0.113115 0.359457
0.267451 0.115034 0.366533
0.399025 0.121917 0.378907
0.540592 0.134068 0.395429
0.675774 0.150082 0.414272
0.788668 0.168699 0.433468
0.874414 0.188194 0.451456
0.934747 0.207086 0.467454
0.965618 0.224165 0.480784
0.980517 0.238780 0.491249
0.988321 0.250859 0.499156
0.992471 0.260697 0.504994
0.066359 0.167516 0.373723
0.067437 0.168399 0.374037
0.073248 0.172217 0.374521
0.092129 0.176930 0.362023
0.169331 0.175399 0.353687
0.275211 0.178434 0.353398
0.411072 0.185690 0.359114
0.557597 0.196161 0.375200
0.693839 0.207926 0.396738
0.804459 0.220050 0.419925
0.886754 0.232016 0.441943
0.942566 0.243448 0.461115
0.969671 0.253954 0.476613
0.982933 0.263203 0.488385
0.989863 0.270911 0.496974
0.992680 0.277085 0.503151
0.089971 0.221287 0.411268
0.090732 0.221949 0.410162
0.094789 0.224971 0.404272
0.107125 0.231239 0.379949
0.179547 0.234504 0.367136
0.279814 0.236102 0.376137
0.409330 0.245886 0.390801
0.554161 0.257112 0.406580
0.691643 0.268191 0.425197
0.803758 0.278448 0.444151
0.887016 0.287528 0.461766
0.943027 0.295275 0.476844
0.970049 0.301482 0.488955
0.983205 0.306147 0.498089
0.990033 0.309432 0.504657
0.993146 0.311273 0.509429
0.123933 0.277133 0.448720
0.124602 0.277668 0.447230
0.127979 0.280072 0.439860
0.137876 0.285570 0.415298
0.209794 0.289171 0.405748
0.311886 0.291249 0.415038
0.423571 0.295680 0.424992
0.564054 0.310224 0.439428
0.698575 0.324680 0.454251
0.808549 0.337479 0.468717
0.890631 0.347696 0.481879
0.945028 0.354622 0.493011
0.971051 0.358231 0.501840
0.983732 0.358997 0.508424
0.990439 0.357692 0.513100
0.993766 0.354943 0.516470
0.172654 0.346717 0.479702
0.173310 0.347288 0.478399
0.176473 0.349923 0.471952
0.185266 0.355912 0.452527
0.257536 0.360450 0.446362
0.361624 0.363424 0.452977
0.471948 0.367705 0.461006
0.587018 0.376126 0.469432
