LUT color transfer/LUTs/95.cube
LUT_3D_SIZE 6
0.175372 -0.088562 -0.088562
0.376119 -0.088563 -0.088563
0.594018 -0.088567 -0.088567
0.801150 -0.088569 -0.088569
0.966456 -0.088581 -0.088581
1.008719 -0.088588 -0.088588
0.175371 0.063994 -0.088565
0.376118 0.063994 -0.088566
0.594018 0.070872 -0.088570
0.801150 0.070341 -0.088573
0.966456 0.063542 -0.088584
1.008719 0.048250 -0.088591
0.175366 0.363483 -0.088573
0.382647 0.363483 -0.088574
0.594017 0.363482 -0.088578
0.801149 0.362133 -0.088583
0.966456 0.344416 -0.088594
1.008719 0.299994 -0.088593
0.175357 0.662862 -0.088593
0.382159 0.662862 -0.088594
0.593080 0.662862 -0.088595
0.801148 0.662862 -0.088603
0.966455 0.635851 -0.088608
1.008719 0.567986 -0.088611
0.175353 0.928955 -0.088622
0.375655 0.928954 -0.088623
0.580676 0.928954 -0.088627
0.782596 0.928954 -0.088629
0.966454 0.928953 -0.088636
1.008718 0.840307 -0.088631
0.175342 1.008718 -0.088645
0.359171 1.008718 -0.088643
0.549468 1.008717 -0.088646
0.735940 1.008717 -0.088652
0.920978 1.008717 -0.088660
1.008717 1.008717 -0.088669
0.175371 -0.088562 0.248460
0.376119 -0.088563 0.248460
0.594018 -0.088567 0.261641
0.801150 -0.088570 0.260638
0.966456 -0.088581 0.247568
1.008719 -0.088588 0.215359
0.175371 0.063994 0.248459
0.376118 0.063993 0.248458
0.640013 0.027407 0.161748
0.840167 0.013547 0.113223
0.981702 0.009535 0.094783
1.008719 0.063992 0.248452
0.175366 0.363483 0.261634
0.297445 0.374569 0.109147
0.595617 0.365755 0.101398
0.815951 0.351805 0.092752
0.975917 0.327433 0.086954
1.008719 0.308209 0.248446
0.175357 0.662862 0.260624
0.280973 0.670182 0.085134
0.578282 0.667953 0.084018
0.802233 0.664407 0.082329
0.970406 0.633293 0.081181
1.008719 0.571761 0.248446
0.175353 0.928955 0.247539
0.277110 0.933204 0.079801
0.561477 0.932533 0.079629
0.777141 0.931333 0.079374
0.966848 0.929790 0.079160
1.008718 0.841801 0.248429
0.175342 1.008718 0.215326
0.376092 1.008718 0.248421
0.555258 1.008717 0.248421
0.738524 1.008717 0.248418
0.921882 1.008717 0.248412
1.008717 1.008717 0.248405
0.175371 -0.088564 0.610383
0.382653 -0.088565 0.610383
0.594018 -0.088569 0.610382
0.801150 -0.088571 0.609258
0.966456 -0.088582 0.594278
1.008719 -0.088589 0.554611
0.175370 0.070871 0.610383
0.358390 0.047588 0.684513
0.630207 0.022720 0.652028
0.836019 0.012711 0.616799
0.980944 0.009312 0.586362
1.008719 0.063992 0.562188
0.175366 0.363483 0.610381
0.295442 0.371151 0.616786
0.594017 0.363482 0.610381
0.866745 0.312677 0.566258
0.994832 0.283466 0.539044
1.008719 0.363478 0.610378
0.175357 0.662862 0.609255
0.280681 0.669362 0.592154
0.489540 0.690889 0.468621
0.805502 0.669097 0.441819
0.986453 0.623465 0.418144
1.008718 0.598725 0.610377
0.175353 0.928954 0.594272
0.277079 0.933027 0.570422
0.437552 0.949405 0.377663
0.749366 0.942785 0.366454
0.968647 0.933495 0.351084
1.008718 0.852712 0.610374
0.175342 1.008718 0.554625
0.376091 1.008718 0.562201
0.594010 1.008717 0.610372
0.757104 1.008717 0.610372
0.928284 1.008717 0.610371
1.008717 1.008717 0.610370
0.175370 -0.088566 0.819377
0.382146 -0.088567 0.819377
0.593075 -0.088571 0.819377
0.801150 -0.088574 0.819376
0.966456 -0.088582 0.802995
1.008719 -0.088592 0.760128
0.175369 0.070344 0.819377
0.329377 0.027197 0.893865
0.614099 0.017478 0.867301
0.829274 0.011432 0.843593
0.979522 0.008923 0.813662
1.008719 0.063991 0.762566
0.175365 0.362134 0.819376
0.292462 0.362184 0.841371
0.582418 0.346889 0.883468
0.861067 0.293884 0.870033
0.994626 0.269343 0.824936
1.008719 0.363477 0.779838
0.175356 0.662862 0.819375
0.280151 0.667863 0.822358
0.483401 0.682940 0.831281
0.801148 0.662861 0.819375
0.990734 0.629510 0.799111
1.008718 0.662860 0.819374
0.175352 0.928954 0.802993
0.276988 0.932499 0.798770
0.435543 0.947112 0.775691
0.705031 0.954682 0.730278
0.969644 0.935636 0.706401
1.008718 0.880069 0.819372
0.175341 1.008717 0.760125
0.376090 1.008717 0.762562
0.594010 1.008717 0.779853
0.801144 1.008717 0.819371
0.943029 1.008717 0.819371
1.008717 1.008717 0.819371
0.175369 -0.088570 0.964655
0.375670 -0.088571 0.964655
0.580681 -0.088569 0.964655
0.782600 -0.088577 0.964655
0.966456 -0.088586 0.964655
1.008719 -0.088589 0.918914
0.175368 0.063545 0.964655
0.315599 0.019994 0.996361
0.590703 0.013924 0.992094
0.803887 0.010485 0.983990
0.977633 0.008442 0.976597
1.008719 0.063990 0.919695
0.175364 0.344417 0.964655
0.289893 0.340078 0.983017
0.578044 0.340648 0.995475
0.817331 0.309797 0.995046
0.994286 0.244142 0.994018
1.008719 0.363477 0.925454
0.175356 0.635852 0.964654
0.280009 0.638920 0.971780
0.480289 0.651181 0.993313
0.794106 0.652564 0.991872
0.989783 0.615942 0.989395
1.008718 0.662860 0.939583
0.175350 0.928954 0.964653
0.276872 0.931860 0.966120
0.432561 0.943567 0.972009
0.696433 0.948398 0.974469
0.966454 0.928953 0.964652
1.008717 0.928952 0.964652
0.175340 1.008717 0.918911
0.376089 1.008717 0.919692
0.594009 1.008717 0.925452
0.801144 1.008717 0.939581
0.966453 1.008717 0.964651
1.008717 1.008717 0.964651
0.175368 -0.088568 1.008720
0.359183 -0.088569 1.008720
0.549460 -0.088572 1.008720
0.735947 -0.088578 1.008720
0.920983 -0.088585 1.008719
1.008719 -0.088591 1.008719
0.175367 0.048255 1.008720
0.376113 0.063993 1.008720
0.555248 0.063996 1.008720
0.738532 0.063994 1.008720
0.921887 0.063993 1.008719
1.008719 0.063989 1.008719
0.175364 0.299998 1.008720
0.376117 0.308214 1.008720
0.594016 0.363481 1.008719
0.757090 0.363480 1.008719
0.928287 0.363478 1.008719
1.008719 0.363476 1.008719
0.175357 0.567988 1.008719
0.376110 0.571763 1.008719
0.594015 0.598726 1.008719
0.801147 0.662861 1.008719
0.943031 0.662860 1.008718
1.008718 0.662859 1.008718
0.175354 0.840309 1.008718
0.376105 0.841803 1.008718
0.594012 0.852713 1.008718
0.801146 0.880070 1.008718
0.966454 0.928952 1.008718
1.008717 0.928952 1.008717
0.175338 1.008717 1.008717
0.376087 1.008717 1.008717
0.594009 1.008717 1.008717
0.801144 1.008717 1.008717
0.966453 1.008717 1.008717
1.008717 1.008717 1.008717
