LUT color transfer/LUTs/95.cube
LUT_3D_SIZE 16
0.175372 -0.088562 -0.088562
0.182496 -0.088562 -0.088562
0.297639 -0.088562 -0.088562
0.376119 -0.088563 -0.088563
0.449764 -0.088564 -0.088564
0.522257 -0.088565 -0.088565
0.594018 -0.088567 -0.088567
0.664661 -0.088569 -0.088569
0.733913 -0.088572 -0.088572
0.801150 -0.088569 -0.088569
0.866088 -0.088573 -0.088573
0.925478 -0.088577 -0.088577
0.966456 -0.088581 -0.088581
0.989543 -0.088585 -0.088585
0.998788 -0.088585 -0.088585
1.008719 -0.088588 -0.088588
0.175372 -0.065352 -0.088562
0.182495 -0.065352 -0.088562
0.297639 -0.060804 -0.088562
0.376119 -0.058459 -0.088563
0.449764 -0.056926 -0.088564
0.522257 -0.055858 -0.088565
0.594018 -0.055198 -0.088567
0.664661 -0.054934 -0.088569
0.733913 -0.055024 -0.088572
0.801150 -0.055465 -0.088570
0.866088 -0.056218 -0.088573
0.925478 -0.057304 -0.088577
0.966456 -0.058698 -0.088581
0.989543 -0.060444 -0.088585
0.998788 -0.062656 -0.088586
1.008719 -0.065389 -0.088588
0.175371 0.012670 -0.088563
0.183530 0.012670 -0.088563
0.297639 0.012670 -0.088563
0.376118 0.014110 -0.088564
0.449763 0.015029 -0.088565
0.522257 0.015656 -0.088566
0.594018 0.016039 -0.088568
0.664661 0.016187 -0.088570
0.733913 0.016139 -0.088567
0.801150 0.015886 -0.088571
0.866088 0.015451 -0.088574
0.925478 0.014816 -0.088578
0.966456 0.013981 -0.088582
0.989543 0.012911 -0.088583
0.998788 0.011514 -0.088586
1.008719 0.009743 -0.088589
0.175371 0.063994 -0.088565
0.184010 0.063994 -0.088565
0.301649 0.063994 -0.088565
0.376118 0.063994 -0.088566
0.449763 0.067278 -0.088567
0.522257 0.069513 -0.088568
0.594018 0.070872 -0.088570
0.664660 0.071418 -0.088572
0.733913 0.071239 -0.088569
0.801150 0.070341 -0.088573
0.866088 0.068812 -0.088576
0.925478 0.066535 -0.088580
0.966456 0.063542 -0.088584
0.989543 0.059701 -0.088585
0.998788 0.054676 -0.088588
1.008719 0.048250 -0.088591
0.175370 0.159725 -0.088568
0.184305 0.159725 -0.088568
0.304054 0.159725 -0.088568
0.379301 0.159725 -0.088569
0.449763 0.159725 -0.088570
0.522256 0.163496 -0.088571
0.594018 0.165741 -0.088567
0.664660 0.166644 -0.088570
0.733913 0.166365 -0.088573
0.801150 0.164880 -0.088576
0.866087 0.162321 -0.088579
0.925478 0.158433 -0.088583
0.966456 0.153238 -0.088584
0.989543 0.146322 -0.088588
0.998788 0.136870 -0.088591
1.008719 0.123963 -0.088593
0.175368 0.261409 -0.088573
0.184523 0.261409 -0.088573
0.305612 0.261409 -0.088567
0.381365 0.261409 -0.088568
0.452477 0.261408 -0.088569
0.522256 0.261408 -0.088570
0.594018 0.264251 -0.088572
0.664660 0.265381 -0.088574
0.733912 0.265008 -0.088577
0.801150 0.263154 -0.088580
0.866087 0.259924 -0.088584
0.925478 0.255049 -0.088584
0.966456 0.248512 -0.088588
0.989543 0.239803 -0.088592
0.998788 0.227956 -0.088595
1.008719 0.211723 -0.088591
0.175366 0.363483 -0.088573
0.184636 0.363483 -0.088573
0.306577 0.363483 -0.088573
0.382647 0.363483 -0.088574
0.454083 0.363483 -0.088575
0.524270 0.363483 -0.088576
0.594017 0.363482 -0.088578
0.664660 0.364766 -0.088581
0.733912 0.364350 -0.088583
0.801149 0.362133 -0.088583
0.866087 0.358181 -0.088587
0.925477 0.352336 -0.088590
0.966456 0.344416 -0.088594
0.989543 0.333912 -0.088591
0.998788 0.319550 -0.088594
1.008719 0.299994 -0.088593
0.175364 0.464932 -0.088581
0.184683 0.464932 -0.088581
0.306961 0.464932 -0.088581
0.383147 0.464932 -0.088582
0.454733 0.464932 -0.088583
0.525091 0.464931 -0.088584
0.594965 0.464921 -0.088583
0.664652 0.464921 -0.088585
0.733911 0.464426 -0.088588
0.801149 0.461788 -0.088591
0.866086 0.457194 -0.088594
0.925477 0.450314 -0.088592
0.966456 0.441018 -0.088592
0.989543 0.428679 -0.088595
0.998788 0.411786 -0.088598
1.008719 0.388807 -0.088598
0.175361 0.565030 -0.088587
0.184670 0.565030 -0.088587
0.306806 0.565030 -0.088588
0.382983 0.565030 -0.088588
0.454520 0.565030 -0.088589
0.524808 0.565030 -0.088591
0.594639 0.565030 -0.088592
0.664326 0.565030 -0.088589
0.733911 0.565029 -0.088592
0.801149 0.562036 -0.088592
0.866086 0.556771 -0.088595
0.925477 0.548804 -0.088598
0.966455 0.538125 -0.088601
0.989543 0.523957 -0.088604
0.998788 0.504514 -0.088605
1.008719 0.478135 -0.088606
0.175357 0.662862 -0.088593
0.184582 0.662862 -0.088593
0.306190 0.662862 -0.088593
0.382159 0.662862 -0.088594
0.453460 0.662862 -0.088591
0.523500 0.662862 -0.088593
0.593080 0.662862 -0.088595
0.662458 0.662862 -0.088597
0.731809 0.662862 -0.088600
0.801148 0.662862 -0.088603
0.866085 0.656967 -0.088606
0.925476 0.647894 -0.088609
0.966455 0.635851 -0.088608
0.989543 0.619822 -0.088611
0.998788 0.597906 -0.088612
1.008719 0.567986 -0.088611
0.175353 0.757657 -0.088602
0.184444 0.757657 -0.088602
0.305110 0.757657 -0.088602
0.380711 0.757657 -0.088603
0.451612 0.757657 -0.088604
0.521206 0.757657 -0.088605
0.590313 0.757657 -0.088607
0.659301 0.757657 -0.088609
0.728128 0.757656 -0.088609
0.797133 0.757656 -0.088612
0.866084 0.757656 -0.088616
0.925476 0.747692 -0.088618
0.966455 0.734187 -0.088620
0.989543 0.716234 -0.088622
0.998788 0.691768 -0.088623
1.008718 0.658396 -0.088621
0.175357 0.847847 -0.088612
0.184226 0.847847 -0.088612
0.303473 0.847847 -0.088612
0.378562 0.847847 -0.088613
0.448828 0.847847 -0.088614
0.517755 0.847847 -0.088615
0.586239 0.847847 -0.088617
0.654527 0.847847 -0.088619
0.722676 0.847846 -0.088621
0.790909 0.847846 -0.088622
0.859255 0.847846 -0.088625
0.925475 0.847846 -0.088630
0.966455 0.832897 -0.088626
0.989542 0.813097 -0.088627
0.998788 0.786018 -0.088627
1.008718 0.749099 -0.088630
0.175353 0.928955 -0.088622
0.183947 0.928955 -0.088622
0.301273 0.928955 -0.088623
0.375655 0.928954 -0.088623
0.445084 0.928954 -0.088624
0.513122 0.928954 -0.088625
0.580676 0.928954 -0.088627
0.648083 0.928954 -0.088629
0.715297 0.928954 -0.088626
0.782596 0.928954 -0.088629
0.850031 0.928954 -0.088633
0.916459 0.928953 -0.088631
0.966454 0.928953 -0.088636
0.989542 0.909855 -0.088636
0.998788 0.880645 -0.088635
1.008718 0.840307 -0.088631
0.175349 0.977910 -0.088630
0.183582 0.977910 -0.088630
0.298298 0.977910 -0.088630
0.371791 0.977910 -0.088631
0.440090 0.977910 -0.088632
0.506977 0.977910 -0.088633
0.573314 0.977910 -0.088629
0.639491 0.977910 -0.088631
0.705551 0.977910 -0.088633
0.771607 0.977910 -0.088636
0.837731 0.977910 -0.088639
0.903831 0.977910 -0.088643
0.957468 0.977910 -0.088645
0.989542 0.977909 -0.088650
0.998788 0.960487 -0.088648
1.008718 0.928691 -0.088643
0.175345 0.997551 -0.088636
0.183114 0.997551 -0.088636
0.294178 0.997551 -0.088636
0.366461 0.997551 -0.088637
0.433244 0.997551 -0.088638
0.498530 0.997551 -0.088639
0.563231 0.997551 -0.088640
0.627750 0.997551 -0.088642
0.692133 0.997551 -0.088645
0.756516 0.997551 -0.088644
0.820998 0.997551 -0.088648
0.885483 0.997551 -0.088651
0.943351 0.997550 -0.088656
0.981373 0.997550 -0.088660
0.998788 0.997550 -0.088663
1.008717 0.984615 -0.088659
0.175342 1.008718 -0.088645
0.182461 1.008718 -0.088645
0.288450 1.008718 -0.088645
0.359171 1.008718 -0.088643
0.423865 1.008718 -0.088644
0.486992 1.008718 -0.088645
0.549468 1.008717 -0.088646
0.611688 1.008717 -0.088648
0.673815 1.008717 -0.088650
0.735940 1.008717 -0.088652
0.798117 1.008717 -0.088655
0.860244 1.008717 -0.088659
0.920978 1.008717 -0.088660
0.966332 1.008717 -0.088664
0.992777 1.008717 -0.088663
1.008717 1.008717 -0.088669
0.175372 -0.088562 -0.065352
0.182496 -0.088562 -0.065352
0.297639 -0.088562 -0.060804
0.376119 -0.088563 -0.058459
0.449764 -0.088564 -0.056925
0.522257 -0.088565 -0.055858
0.594018 -0.088567 -0.055198
0.664661 -0.088569 -0.054934
0.733913 -0.088572 -0.055024
0.801150 -0.088569 -0.055465
0.866088 -0.088573 -0.056218
0.925478 -0.088577 -0.057303
0.966456 -0.088581 -0.058698
0.989543 -0.088585 -0.060443
0.998788 -0.088585 -0.062656
1.008719 -0.088588 -0.065388
0.175372 -0.065352 -0.065352
0.182495 -0.065352 -0.065352
0.297639 -0.065352 -0.065352
0.376119 -0.065353 -0.065353
0.449764 -0.065354 -0.065354
0.522257 -0.065354 -0.065354
0.594018 -0.065357 -0.065357
0.664661 -0.065359 -0.065359
0.733913 -0.065363 -0.065363
0.801150 -0.065365 -0.065365
0.866088 -0.065370 -0.065370
0.925478 -0.065373 -0.065373
0.966456 -0.065378 -0.065378
0.989543 -0.065380 -0.065380
0.998788 -0.065384 -0.065384
1.008719 -0.065388 -0.065388
0.175371 0.012670 -0.060805
0.182495 0.012670 -0.065353
0.297639 0.012670 -0.065353
0.376118 0.013541 -0.065354
0.449763 0.014160 -0.065354
0.522257 0.014600 -0.065356
0.594018 0.014873 -0.065358
0.664661 0.014972 -0.065361
0.733913 0.014919 -0.065363
0.801150 0.014705 -0.065366
0.866088 0.014354 -0.065371
0.925478 0.013837 -0.065375
0.966456 0.013164 -0.065379
0.989543 0.012302 -0.065381
0.998788 0.011177 -0.065385
1.008719 0.009742 -0.065388
0.175371 0.063994 -0.058461
0.182495 0.063994 -0.065354
0.300093 0.063994 -0.065354
0.376118 0.063994 -0.065355
0.449763 0.066558 -0.065356
0.522257 0.068379 -0.065358
0.594018 0.069506 -0.065360
0.664660 0.069899 -0.065363
0.733913 0.069688 -0.065365
0.801150 0.068821 -0.065369
0.866088 0.067357 -0.065372
0.925478 0.065228 -0.065377
0.966456 0.062458 -0.065382
0.989543 0.058884 -0.065383
0.998788 0.054222 -0.065387
1.008719 0.048250 -0.065390
0.175370 0.159725 -0.056931
0.182494 0.159725 -0.065358
0.301776 0.159725 -0.065358
0.378611 0.159725 -0.065359
0.449763 0.159725 -0.065360
0.522256 0.162934 -0.065362
0.594018 0.164886 -0.065363
0.664660 0.165581 -0.065366
0.733913 0.165222 -0.065369
0.801150 0.163710 -0.065373
0.866087 0.161152 -0.065376
0.925478 0.157383 -0.065381
0.966456 0.152307 -0.065382
0.989543 0.145602 -0.065387
0.998788 0.136420 -0.065391
1.008719 0.123963 -0.065392
0.175368 0.261409 -0.055868
0.182492 0.261409 -0.065364
0.302929 0.261409 -0.065362
0.380325 0.261409 -0.065363
0.452058 0.261409 -0.065364
0.522256 0.261408 -0.065366
0.594018 0.263911 -0.065368
0.664660 0.264811 -0.065371
0.733912 0.264299 -0.065373
0.801150 0.262418 -0.065377
0.866087 0.259152 -0.065382
0.925478 0.254331 -0.065383
0.966456 0.247887 -0.065387
0.989543 0.239325 -0.065390
0.998788 0.227648 -0.065394
1.008719 0.211723 -0.065396
0.175366 0.363483 -0.055210
0.182490 0.363483 -0.065370
0.303638 0.363483 -0.065370
0.381354 0.363483 -0.065371
0.453467 0.363483 -0.065372
0.524043 0.363483 -0.065372
0.594017 0.363482 -0.065375
0.664659 0.364542 -0.065378
0.733912 0.363944 -0.065381
0.801150 0.361613 -0.065382
0.866087 0.357638 -0.065386
0.925477 0.351807 -0.065390
0.966456 0.343962 -0.065393
0.989543 0.333543 -0.065397
0.998788 0.319305 -0.065399
1.008719 0.299994 -0.065400
0.175364 0.464932 -0.054955
0.182488 0.464932 -0.065378
0.303893 0.464932 -0.065379
0.381740 0.464932 -0.065379
0.453967 0.464931 -0.065380
0.524657 0.464921 -0.065382
0.594780 0.464921 -0.065381
0.664652 0.464921 -0.065384
0.733911 0.464232 -0.065387
0.801149 0.461482 -0.065389
0.866086 0.456868 -0.065394
0.925477 0.449942 -0.065398
0.966456 0.440684 -0.065400
0.989543 0.428381 -0.065404
0.998788 0.411621 -0.065407
1.008719 0.388807 -0.065408
0.175361 0.565030 -0.055056
0.182485 0.565030 -0.065386
0.303743 0.565030 -0.065387
0.381545 0.565030 -0.065388
0.453708 0.565030 -0.065389
0.524316 0.565030 -0.065390
0.594356 0.565030 -0.065391
0.664156 0.565030 -0.065394
0.733911 0.565029 -0.065398
0.801149 0.561889 -0.065400
0.866086 0.556535 -0.065403
0.925477 0.548511 -0.065408
0.966455 0.537869 -0.065408
0.989543 0.523742 -0.065411
0.998788 0.504391 -0.065413
1.008719 0.478135 -0.065414
0.175357 0.662862 -0.055506
0.182482 0.662863 -0.065398
0.303200 0.662863 -0.065399
0.380718 0.662863 -0.065399
0.452618 0.662862 -0.065399
0.522975 0.662862 -0.065401
0.592742 0.662862 -0.065403
0.662268 0.662862 -0.065406
0.731756 0.662862 -0.065410
0.801148 0.662862 -0.065411
0.866085 0.656881 -0.065414
0.925476 0.647778 -0.065418
0.966455 0.635730 -0.065419
0.989543 0.619687 -0.065422
0.998788 0.597773 -0.065423
1.008719 0.567986 -0.065423
0.175353 0.757657 -0.056268
0.182479 0.757657 -0.065409
0.302271 0.757657 -0.065409
0.379342 0.757657 -0.065410
0.450793 0.757657 -0.065411
0.520669 0.757657 -0.065413
0.589937 0.757657 -0.065415
0.659105 0.757657 -0.065418
0.727996 0.757656 -0.065420
0.797045 0.757656 -0.065424
0.866084 0.757656 -0.065427
0.925476 0.747615 -0.065430
0.966455 0.734078 -0.065432
0.989543 0.716105 -0.065434
0.998788 0.691728 -0.065434
1.008718 0.658396 -0.065433
0.175357 0.847847 -0.057365
0.182475 0.847847 -0.065423
0.300875 0.847847 -0.065424
0.377306 0.847847 -0.065424
0.448060 0.847847 -0.065426
0.517247 0.847847 -0.065427
0.585860 0.847847 -0.065428
0.654264 0.847846 -0.065430
0.722501 0.847846 -0.065434
0.790825 0.847846 -0.065434
0.859210 0.847846 -0.065439
0.925475 0.847846 -0.065444
0.966454 0.832824 -0.065445
0.989542 0.813001 -0.065446
0.998788 0.785960 -0.065445
1.008718 0.749100 -0.065444
0.175353 0.928955 -0.058767
0.182471 0.928954 -0.065434
0.299020 0.928954 -0.065435
0.374572 0.928954 -0.065436
0.444398 0.928954 -0.065437
0.512678 0.928954 -0.065439
0.580358 0.928954 -0.065441
0.647841 0.928954 -0.065443
0.715170 0.928954 -0.065445
0.782514 0.928954 -0.065449
0.849964 0.928954 -0.065453
0.916411 0.928953 -0.065457
0.966454 0.928953 -0.065462
0.989542 0.909835 -0.065463
0.998788 0.880677 -0.065461
1.008718 0.840307 -0.065457
0.175349 0.977910 -0.060521
0.182467 0.977910 -0.065450
0.296549 0.977910 -0.065450
0.370958 0.977910 -0.065451
0.439556 0.977910 -0.065452
0.506622 0.977910 -0.065453
0.573048 0.977910 -0.065454
0.639297 0.977910 -0.065456
0.705377 0.977910 -0.065459
0.771509 0.977910 -0.065463
0.837640 0.977910 -0.065464
0.903791 0.977910 -0.065469
0.957444 0.977910 -0.065473
0.989542 0.977909 -0.065479
0.998788 0.960470 -0.065477
1.008718 0.928691 -0.065472
0.175345 0.997551 -0.062739
0.182463 0.997551 -0.065463
0.293141 0.997551 -0.065463
0.365963 0.997551 -0.065461
0.432932 0.997551 -0.065462
0.498308 0.997551 -0.065463
0.563057 0.997551 -0.065465
0.627621 0.997551 -0.065468
0.692027 0.997551 -0.065471
0.756412 0.997551 -0.065472
0.820953 0.997551 -0.065476
0.885435 0.997551 -0.065481
0.943369 0.997551 -0.065484
0.981365 0.997550 -0.065490
0.998788 0.997550 -0.065493
1.008717 0.984615 -0.065489
0.175342 1.008718 -0.065471
0.182461 1.008718 -0.065471
0.288451 1.008718 -0.065472
0.359172 1.008718 -0.065472
0.423866 1.008718 -0.065471
0.486992 1.008718 -0.065473
0.549468 1.008717 -0.065474
0.611688 1.008717 -0.065477
0.673815 1.008717 -0.065479
0.735940 1.008717 -0.065481
0.798117 1.008717 -0.065484
0.860244 1.008717 -0.065488
0.920978 1.008717 -0.065490
0.966332 1.008717 -0.065495
0.992777 1.008717 -0.065500
1.008717 1.008717 -0.065507
0.175372 -0.088562 0.109449
0.183531 -0.088562 0.109449
0.297639 -0.088562 0.109449
0.376119 -0.088563 0.115589
0.449764 -0.088564 0.119336
0.522257 -0.088565 0.121829
0.594018 -0.088567 0.123327
0.664661 -0.088569 0.123903
0.733913 -0.088572 0.123707
0.801150 -0.088569 0.122732
0.866088 -0.088573 0.121019
0.925478 -0.088577 0.118477
0.966456 -0.088581 0.115046
0.989543 -0.088585 0.110501
0.998788 -0.088586 0.104276
1.008719 -0.088588 0.095823
0.175371 -0.060804 0.109449
0.182495 -0.065352 0.109449
0.297639 -0.065352 0.109449
0.376119 -0.065353 0.113201
0.449763 -0.065353 0.115785
0.522257 -0.065355 0.117594
0.594018 -0.065357 0.118707
0.664661 -0.065360 0.119098
0.733913 -0.065363 0.118885
0.801150 -0.065365 0.118026
0.866088 -0.065370 0.116589
0.925478 -0.065373 0.114447
0.966456 -0.065378 0.111595
0.989543 -0.065380 0.107828
0.998788 -0.065384 0.102725
1.008719 -0.065388 0.095824
0.175371 0.012670 0.109448
0.182495 0.012670 0.109448
0.297639 0.012670 0.109448
0.398800 0.007978 0.086605
0.476262 0.004503 0.064835
0.545870 0.002957 0.052402
0.614053 0.002213 0.045256
0.681725 0.001823 0.041019
0.748505 0.001603 0.038434
0.813894 0.001474 0.036839
0.877259 0.001398 0.035865
0.933770 0.001354 0.035293
0.971483 0.001332 0.034995
0.992094 0.001323 0.034872
0.999494 0.001322 0.034857
1.008719 0.012664 0.109427
0.175371 0.063994 0.115587
0.182495 0.063994 0.113199
0.261886 0.069403 0.059928
0.377228 0.065133 0.054965
0.459709 0.061995 0.049433
0.535024 0.059200 0.044823
0.607105 0.056931 0.041390
0.677209 0.055034 0.038966
0.745505 0.053343 0.037314
0.811870 0.051691 0.036219
0.875761 0.049981 0.035528
0.932862 0.048063 0.035121
0.971047 0.045886 0.034920
0.991944 0.043328 0.034855
0.999494 0.040143 0.034872
1.008719 0.052134 0.109429
0.175370 0.159725 0.119339
0.182494 0.159725 0.115781
0.248663 0.165404 0.044308
0.368599 0.163425 0.043089
0.450582 0.160884 0.041552
0.527510 0.160347 0.039812
0.601326 0.159157 0.038306
0.672909 0.157333 0.037099
0.742267 0.154998 0.036201
0.809402 0.152096 0.035578
0.873943 0.148575 0.035171
0.931754 0.144216 0.034950
0.970452 0.138943 0.034862
0.991690 0.132338 0.034867
0.999419 0.123678 0.034921
1.008719 0.127889 0.109427
0.175368 0.261409 0.121823
0.182492 0.261409 0.117587
0.243323 0.265803 0.038463
0.365170 0.264974 0.038078
0.447344 0.263723 0.037559
0.522886 0.262303 0.036962
0.597210 0.262551 0.036325
0.669383 0.261594 0.035793
0.739404 0.259544 0.035377
0.807105 0.256462 0.035091
0.872115 0.252267 0.034923
0.930502 0.246830 0.034857
0.969795 0.239962 0.034871
0.991419 0.231320 0.034940
0.999378 0.219812 0.035030
1.008719 0.214528 0.109424
0.175366 0.363483 0.123324
0.182490 0.363483 0.118695
0.240986 0.366959 0.035992
0.363567 0.366525 0.035865
0.445667 0.365859 0.035688
0.521342 0.365036 0.035478
0.594501 0.364154 0.035261
0.666876 0.363796 0.035071
0.737224 0.361987 0.034937
0.805151 0.358631 0.034866
0.870426 0.353899 0.034858
0.929341 0.347468 0.034907
0.969154 0.339232 0.035000
0.991134 0.328620 0.035114
0.999272 0.314438 0.035226
1.008719 0.302063 0.109419
0.175364 0.464932 0.123898
0.182488 0.464932 0.119097
0.240060 0.467797 0.035030
0.362531 0.467546 0.034999
0.444373 0.467173 0.034955
0.519955 0.466715 0.034908
0.593095 0.466153 0.034869
0.665089 0.465520 0.034854
0.735482 0.463799 0.034871
0.803597 0.460256 0.034925
0.868977 0.454934 0.035016
0.928289 0.447502 0.035135
0.968520 0.437899 0.035275
0.990792 0.425394 0.035424
0.999211 0.408627 0.035543
1.008719 0.390414 0.109415
0.175361 0.565030 0.123696
0.182485 0.565030 0.118869
0.239901 0.567441 0.034866
0.361589 0.567290 0.034873
0.443056 0.567071 0.034889
0.518365 0.566741 0.034915
0.591272 0.566382 0.034960
0.663092 0.565974 0.035032
0.734277 0.565528 0.035134
0.802410 0.561681 0.035256
0.867850 0.555750 0.035403
0.927405 0.547360 0.035562
0.967927 0.536317 0.035729
0.990514 0.522006 0.035879
0.999158 0.502631 0.035983
1.008719 0.479364 0.109415
0.175357 0.662862 0.122716
0.182482 0.662863 0.118007
0.240197 0.664998 0.035170
0.360553 0.664884 0.035197
0.441419 0.664690 0.035237
0.516235 0.664539 0.035302
0.588709 0.664233 0.035389
0.660166 0.663952 0.035505
0.730966 0.663691 0.035658
0.801464 0.663341 0.035847
0.867017 0.656708 0.036012
0.926640 0.647285 0.036182
0.967497 0.634930 0.036351
0.990305 0.618712 0.036494
0.999112 0.596739 0.036570
1.008719 0.568938 0.109409
0.175353 0.757657 0.120998
0.182479 0.757657 0.116564
0.240788 0.759470 0.035788
0.359243 0.759417 0.035821
0.439336 0.759286 0.035874
0.513452 0.759152 0.035954
0.585359 0.759013 0.036058
0.656312 0.758714 0.036195
0.726517 0.758555 0.036372
0.796462 0.758272 0.036582
0.866315 0.758025 0.036831
0.926045 0.747589 0.036997
0.967117 0.733763 0.037147
0.990047 0.715710 0.037260
0.999014 0.691161 0.037296
1.008718 0.659117 0.109402
0.175357 0.847847 0.118448
0.182475 0.847847 0.114415
0.241555 0.849376 0.036592
0.357546 0.849321 0.036628
0.436611 0.849242 0.036689
0.509853 0.849166 0.036773
0.580912 0.849019 0.036885
0.651007 0.848854 0.037032
0.720486 0.848728 0.037216
0.789689 0.848536 0.037436
0.858837 0.848283 0.037695
0.925596 0.848107 0.037988
0.966772 0.832902 0.038113
0.989868 0.812896 0.038190
0.998936 0.785809 0.038167
1.008718 0.749670 0.109391
0.175353 0.928955 0.115015
0.182471 0.928954 0.111558
0.242421 0.930095 0.037504
0.355369 0.930079 0.037540
0.433165 0.929999 0.037603
0.505295 0.929926 0.037690
0.575272 0.929909 0.037807
0.644298 0.929810 0.037953
0.712747 0.929670 0.038134
0.781000 0.929522 0.038355
0.849155 0.929416 0.038611
0.916243 0.929305 0.038902
0.966532 0.929134 0.039247
0.989744 0.909963 0.039271
0.998863 0.880675 0.039180
1.008718 0.840655 0.109389
0.175349 0.977910 0.110458
0.182467 0.977910 0.107790
0.243302 0.978491 0.038440
0.352591 0.978467 0.038481
0.428715 0.978439 0.038539
0.499376 0.978420 0.038624
0.567957 0.978404 0.038737
0.635699 0.978361 0.038879
0.702873 0.978318 0.039058
0.769747 0.978244 0.039274
0.836541 0.978209 0.039521
0.903217 0.978150 0.039802
0.957334 0.978109 0.040130
0.989636 0.978008 0.040494
0.998868 0.960580 0.040332
1.008718 0.928881 0.109375
0.175345 0.997551 0.104234
0.182463 0.997551 0.102675
0.244102 0.997699 0.039297
0.348824 0.997692 0.039334
0.422710 0.997679 0.039390
0.491434 0.997680 0.039474
0.558211 0.997721 0.039580
0.624074 0.997669 0.039718
0.689507 0.997703 0.039884
0.754588 0.997687 0.040087
0.819679 0.997651 0.040319
0.884603 0.997629 0.040587
0.943014 0.997606 0.040892
0.981316 0.997580 0.041233
0.998816 0.997609 0.041621
1.008717 0.984664 0.109374
0.175342 1.008718 0.095769
0.182461 1.008718 0.095771
0.297590 1.008718 0.109376
0.363651 1.008718 0.109375
0.426714 1.008718 0.109374
0.488970 1.008718 0.109373
0.550954 1.008718 0.109374
0.612851 1.008717 0.109372
0.674687 1.008717 0.109370
0.736582 1.008717 0.109368
0.798548 1.008717 0.109377
0.860613 1.008717 0.109374
0.921163 1.008717 0.109372
0.966413 1.008717 0.109368
0.992746 1.008717 0.109363
1.008717 1.008717 0.109358
0.175371 -0.088562 0.248460
0.184011 -0.088562 0.248460
0.301651 -0.088562 0.248460
0.376119 -0.088563 0.248460
0.449763 -0.088564 0.254832
0.522257 -0.088565 0.259082
0.594018 -0.088567 0.261641
0.664661 -0.088570 0.262650
0.733913 -0.088572 0.262312
0.801150 -0.088570 0.260638
0.866088 -0.088573 0.257750
0.925478 -0.088577 0.253400
0.966456 -0.088581 0.247568
0.989543 -0.088582 0.239874
0.998788 -0.088586 0.229440
1.008719 -0.088588 0.215359
0.175371 -0.058459 0.248460
0.182495 -0.065352 0.248460
0.300095 -0.065353 0.248460
0.376119 -0.065353 0.248460
0.449763 -0.065353 0.253453
0.522257 -0.065355 0.256929
0.594018 -0.065357 0.259065
0.664661 -0.065360 0.259819
0.733913 -0.065363 0.259417
0.801150 -0.065366 0.257777
0.866088 -0.065370 0.254988
0.925478 -0.065373 0.250871
0.966456 -0.065379 0.245421
0.989543 -0.065380 0.238208
0.998788 -0.065385 0.228470
1.008719 -0.065388 0.215359
0.175371 0.014110 0.248460
0.182495 0.013541 0.248460
0.292645 0.011009 0.303737
0.395661 0.006850 0.288610
0.473620 0.004154 0.265916
0.544302 0.002835 0.249988
0.613158 0.002163 0.240043
0.681118 0.001800 0.233415
0.748140 0.001592 0.228458
0.813640 0.001468 0.224107
0.877113 0.001395 0.219920
0.933656 0.001353 0.215385
0.971412 0.001331 0.210255
0.992056 0.001323 0.204143
0.999485 0.001322 0.196345
1.008719 0.012664 0.223978
0.175371 0.063994 0.248459
0.182495 0.063994 0.248459
0.260343 0.067763 0.255760
0.376118 0.063993 0.248458
0.474269 0.052864 0.225559
0.563176 0.038247 0.191477
0.640013 0.027407 0.161748
0.709855 0.020616 0.140040
0.776245 0.016326 0.124436
0.840167 0.013547 0.113223
0.901823 0.011687 0.105069
0.950953 0.010420 0.099136
0.981702 0.009535 0.094783
0.996727 0.008919 0.091635
0.999940 0.024402 0.152519
1.008719 0.063992 0.248452
0.175369 0.159725 0.254829
0.182494 0.159725 0.253442
0.248271 0.164679 0.234956
0.337497 0.171158 0.175375
0.451655 0.162367 0.161985
0.540916 0.153423 0.147246
0.620632 0.144217 0.133748
0.694690 0.135579 0.122327
0.764697 0.127780 0.113062
0.831538 0.120723 0.105748
0.895297 0.114230 0.100049
0.947410 0.107928 0.095672
0.979976 0.101580 0.092328
0.996149 0.094872 0.089835
0.999939 0.103522 0.139945
1.008719 0.139152 0.248451
0.175368 0.261409 0.259078
0.182492 0.261409 0.256928
0.243197 0.265519 0.227356
0.311621 0.273897 0.131375
0.433978 0.269412 0.126430
0.524144 0.264058 0.120615
0.605795 0.259412 0.114271
0.682105 0.253918 0.108367
0.754365 0.247943 0.103133
0.823143 0.241542 0.098691
0.888510 0.234889 0.094977
0.943401 0.227530 0.091982
0.977987 0.219407 0.089605
0.995425 0.210098 0.087788
0.999938 0.204432 0.119700
1.008719 0.222669 0.248449
