LUT color transfer/LUTs/96.cube
LUT_3D_SIZE 6
0.175372 -0.088562 -0.088562
0.434642 -0.088563 -0.088563
0.689275 -0.088567 -0.088567
0.880143 -0.088569 -0.088569
0.984085 -0.088581 -0.088581
1.008719 -0.088588 -0.088588
0.175371 0.064126 -0.088565
0.434643 0.064126 -0.088566
0.689275 0.071026 -0.088570
0.880143 0.070495 -0.088573
0.984085 0.063682 -0.088584
1.008719 0.048352 -0.088591
0.175366 0.363909 -0.088573
0.442952 0.363909 -0.088574
0.689273 0.363908 -0.088578
0.880142 0.362553 -0.088583
0.984085 0.344823 -0.088594
1.008719 0.300386 -0.088593
0.175357 0.663529 -0.088593
0.442315 0.663529 -0.088594
0.688302 0.663529 -0.088595
0.880141 0.663528 -0.088603
0.984085 0.636494 -0.088608
1.008719 0.568591 -0.088611
0.175353 0.929644 -0.088622
0.434054 0.929644 -0.088623
0.675319 0.929644 -0.088627
0.864822 0.929643 -0.088629
0.984084 0.929642 -0.088636
1.008718 0.841093 -0.088631
0.175342 1.008708 -0.088645
0.412988 1.008708 -0.088643
0.641641 1.008708 -0.088646
0.824699 1.008707 -0.088652
0.960656 1.008707 -0.088660
1.008717 1.008707 -0.088669
0.175371 -0.088562 0.248717
0.434642 -0.088563 0.248716
0.689275 -0.088567 0.261932
0.880143 -0.088570 0.260932
0.984085 -0.088581 0.247842
1.008719 -0.088588 0.215597
0.175371 0.064126 0.248715
0.434643 0.064126 0.248714
0.747419 0.018263 0.131708
0.915229 0.007813 0.085698
0.992162 0.005984 0.074872
1.008719 0.064122 0.248706
0.175366 0.363909 0.261922
0.308956 0.376470 0.082863
0.691085 0.366429 0.078145
0.893201 0.351555 0.074029
0.989017 0.326752 0.072188
1.008719 0.308590 0.248721
0.175357 0.663529 0.260930
0.298175 0.671248 0.071834
0.672120 0.668902 0.071696
0.881031 0.665157 0.071613
0.986147 0.633826 0.071740
1.008719 0.572367 0.248721
0.175353 0.929644 0.247803
0.298635 0.934053 0.072282
0.654148 0.933329 0.072448
0.860099 0.932082 0.072753
0.984336 0.930501 0.073317
1.008718 0.842535 0.248696
0.175342 1.008708 0.215544
0.434625 1.008708 0.248686
0.647978 1.008708 0.248687
0.827002 1.008707 0.248682
0.961100 1.008707 0.248675
1.008717 1.008707 0.248664
0.175371 -0.088564 0.610748
0.442959 -0.088565 0.610748
0.689275 -0.088569 0.610747
0.880143 -0.088571 0.609647
0.984085 -0.088582 0.594611
1.008719 -0.088589 0.554983
0.175370 0.071028 0.610748
0.400077 0.040305 0.712914
0.734197 0.014194 0.661542
0.911471 0.007368 0.618307
0.991783 0.005909 0.586025
1.008719 0.064121 0.562540
0.175366 0.363908 0.610746
0.307104 0.372497 0.617866
0.689273 0.363908 0.610746
0.946530 0.286795 0.542235
0.999200 0.262698 0.518728
1.008719 0.363903 0.610743
0.175357 0.663529 0.609644
0.298127 0.670326 0.591666
0.526156 0.699211 0.401248
0.884561 0.671342 0.364458
0.995338 0.619960 0.332938
1.008718 0.599344 0.610741
0.175353 0.929644 0.594605
0.298685 0.933827 0.570046
0.459064 0.952965 0.288376
0.831148 0.945409 0.278526
0.985326 0.934805 0.266611
1.008718 0.853522 0.610737
0.175342 1.008708 0.555005
0.434625 1.008708 0.562560
0.689290 1.008707 0.610740
0.843117 1.008707 0.610740
0.964474 1.008707 0.610739
1.008717 1.008707 0.610737
0.175370 -0.088566 0.819741
0.442326 -0.088567 0.819741
0.688307 -0.088571 0.819741
0.880143 -0.088574 0.819740
0.984085 -0.088582 0.803413
1.008719 -0.088592 0.760465
0.175369 0.070497 0.819741
0.351028 0.018071 0.912192
0.714011 0.010244 0.875998
0.905439 0.006747 0.846618
0.991034 0.005787 0.814829
1.008719 0.064132 0.762941
0.175365 0.362555 0.819740
0.304561 0.362815 0.844036
0.671179 0.339293 0.909500
0.941234 0.259064 0.890196
0.999130 0.243609 0.829461
1.008719 0.363902 0.780228
0.175356 0.663529 0.819739
0.298035 0.668796 0.822896
0.517422 0.688715 0.834686
0.880140 0.663528 0.819738
0.997987 0.619335 0.792837
1.008718 0.663527 0.819737
0.175352 0.929644 0.803411
0.298797 0.933328 0.799053
0.456920 0.950374 0.770703
0.755382 0.963431 0.685022
0.986263 0.938493 0.651812
1.008718 0.880890 0.819736
0.175341 1.008708 0.760462
0.434624 1.008708 0.762938
0.689290 1.008707 0.780225
0.880137 1.008707 0.819735
0.972181 1.008707 0.819734
1.008717 1.008707 0.819734
0.175369 -0.088570 0.964988
0.434081 -0.088571 0.964988
0.675328 -0.088569 0.964988
0.864827 -0.088577 0.964987
0.984085 -0.088586 0.964987
1.008719 -0.088589 0.919295
0.175368 0.063683 0.964988
0.334961 0.013193 0.998570
0.687335 0.008020 0.994572
0.884132 0.006339 0.985719
0.989963 0.005655 0.977586
1.008719 0.064131 0.920147
0.175364 0.344825 0.964987
0.302612 0.340041 0.984661
0.668792 0.336103 0.998203
0.898517 0.297266 0.997999
0.999039 0.208288 0.997440
1.008719 0.363902 0.925843
0.175356 0.636495 0.964986
0.298015 0.639792 0.972429
0.513095 0.654006 0.996939
0.872605 0.650202 0.996045
0.997666 0.600479 0.994322
1.008718 0.663526 0.940052
0.175350 0.929643 0.964985
0.298977 0.932630 0.966505
0.453761 0.946219 0.973342
0.744579 0.955322 0.977923
0.984084 0.929642 0.964984
1.008717 0.929641 0.964983
0.175340 1.008708 0.919292
0.434623 1.008707 0.920144
0.689289 1.008707 0.925840
0.880137 1.008707 0.940050
0.984083 1.008707 0.964982
1.008717 1.008707 0.964982
0.175368 -0.088568 1.008710
0.413036 -0.088569 1.008710
0.641633 -0.088572 1.008710
0.824704 -0.088578 1.008710
0.960659 -0.088585 1.008710
1.008719 -0.088591 1.008709
0.175367 0.048359 1.008710
0.434638 0.064122 1.008710
0.647967 0.064128 1.008710
0.826983 0.064126 1.008710
0.961103 0.064123 1.008709
1.008719 0.064129 1.008709
0.175364 0.300394 1.008710
0.434642 0.308597 1.008710
0.689272 0.363906 1.008709
0.843094 0.363905 1.008709
0.964476 0.363903 1.008709
1.008719 0.363901 1.008709
0.175357 0.568591 1.008709
0.434634 0.572368 1.008709
0.689270 0.599345 1.008709
0.880140 0.663527 1.008709
0.972182 0.663527 1.008708
1.008718 0.663526 1.008708
0.175354 0.841095 1.008708
0.434629 0.842537 1.008708
0.689266 0.853523 1.008708
0.880139 0.880891 1.008708
0.984084 0.929641 1.008708
1.008717 0.929641 1.008707
0.175338 1.008707 1.008707
0.434620 1.008707 1.008707
0.689289 1.008707 1.008707
0.880136 1.008707 1.008707
0.984083 1.008707 1.008707
1.008717 1.008707 1.008707
