LUT color transfer/LUTs/96.cube
LUT_3D_SIZE 16
0.175372 -0.088562 -0.088562
0.182496 -0.088562 -0.088562
0.333121 -0.088562 -0.088562
0.434642 -0.088563 -0.088563
0.526157 -0.088564 -0.088564
0.611284 -0.088565 -0.088565
0.689275 -0.088567 -0.088567
0.759498 -0.088569 -0.088569
0.822930 -0.088572 -0.088572
0.880143 -0.088569 -0.088569
0.929307 -0.088573 -0.088573
0.963030 -0.088577 -0.088577
0.984085 -0.088581 -0.088581
0.995413 -0.088585 -0.088585
0.999610 -0.088585 -0.088585
1.008719 -0.088588 -0.088588
0.175372 -0.065352 -0.088562
0.182495 -0.065352 -0.088562
0.333121 -0.060804 -0.088562
0.434642 -0.058459 -0.088563
0.526157 -0.056926 -0.088564
0.611284 -0.055858 -0.088565
0.689275 -0.055198 -0.088567
0.759498 -0.054934 -0.088569
0.822930 -0.055024 -0.088572
0.880143 -0.055465 -0.088570
0.929307 -0.056218 -0.088573
0.963030 -0.057304 -0.088577
0.984085 -0.058698 -0.088581
0.995413 -0.060444 -0.088585
0.999610 -0.062656 -0.088586
1.008719 -0.065389 -0.088588
0.175371 0.012698 -0.088563
0.183530 0.012698 -0.088563
0.333120 0.012698 -0.088563
0.434644 0.014143 -0.088564
0.526157 0.015063 -0.088565
0.611284 0.015690 -0.088566
0.689275 0.016076 -0.088568
0.759498 0.016225 -0.088570
0.822930 0.016175 -0.088567
0.880143 0.015923 -0.088571
0.929307 0.015487 -0.088574
0.963030 0.014849 -0.088578
0.984085 0.014013 -0.088582
0.995413 0.012940 -0.088583
0.999610 0.011540 -0.088586
1.008719 0.009765 -0.088589
0.175371 0.064126 -0.088565
0.184010 0.064126 -0.088565
0.338387 0.064126 -0.088565
0.434643 0.064126 -0.088566
0.526156 0.067432 -0.088567
0.611283 0.069670 -0.088568
0.689275 0.071026 -0.088570
0.759498 0.071570 -0.088572
0.822929 0.071402 -0.088569
0.880143 0.070495 -0.088573
0.929307 0.068959 -0.088576
0.963030 0.066685 -0.088580
0.984085 0.063682 -0.088584
0.995413 0.059827 -0.088585
0.999610 0.054793 -0.088588
1.008719 0.048352 -0.088591
0.175370 0.159995 -0.088568
0.184305 0.159995 -0.088568
0.341518 0.159995 -0.088568
0.438690 0.159995 -0.088569
0.526155 0.159995 -0.088570
0.611283 0.163781 -0.088571
0.689275 0.166020 -0.088567
0.759498 0.166918 -0.088570
0.822929 0.166653 -0.088573
0.880143 0.165149 -0.088576
0.929307 0.162615 -0.088579
0.963030 0.158702 -0.088583
0.984085 0.153520 -0.088584
0.995413 0.146579 -0.088588
0.999610 0.137125 -0.088591
1.008719 0.124207 -0.088593
0.175368 0.261765 -0.088573
0.184523 0.261765 -0.088573
0.343615 0.261765 -0.088567
0.441340 0.261765 -0.088568
0.529469 0.261764 -0.088569
0.611282 0.261764 -0.088570
0.689274 0.264610 -0.088572
0.759498 0.265731 -0.088574
0.822929 0.265384 -0.088577
0.880142 0.263491 -0.088580
0.929307 0.260263 -0.088584
0.963030 0.255369 -0.088584
0.984085 0.248822 -0.088588
0.995413 0.240134 -0.088592
0.999610 0.228274 -0.088595
1.008719 0.212027 -0.088591
0.175366 0.363909 -0.088573
0.184636 0.363909 -0.088573
0.344833 0.363909 -0.088573
0.442952 0.363909 -0.088574
0.531433 0.363908 -0.088575
0.613533 0.363908 -0.088576
0.689273 0.363908 -0.088578
0.759497 0.365245 -0.088581
0.822929 0.364765 -0.088583
0.880142 0.362553 -0.088583
0.929306 0.358577 -0.088587
0.963029 0.352745 -0.088590
0.984085 0.344823 -0.088594
0.995413 0.334293 -0.088591
0.999610 0.319923 -0.088594
1.008719 0.300386 -0.088593
0.175364 0.465446 -0.088581
0.184683 0.465446 -0.088581
0.345340 0.465445 -0.088581
0.443546 0.465445 -0.088582
0.532199 0.465445 -0.088583
0.614444 0.465445 -0.088584
0.690207 0.465477 -0.088583
0.759490 0.465477 -0.088585
0.822928 0.464920 -0.088588
0.880142 0.462278 -0.088591
0.929306 0.457714 -0.088594
0.963029 0.450786 -0.088592
0.984085 0.441518 -0.088592
0.995413 0.429151 -0.088595
0.999610 0.412277 -0.088598
1.008719 0.389243 -0.088598
0.175361 0.565611 -0.088587
0.184670 0.565611 -0.088587
0.345151 0.565611 -0.088588
0.443352 0.565611 -0.088588
0.531937 0.565611 -0.088589
0.614132 0.565611 -0.088591
0.689885 0.565611 -0.088592
0.759179 0.565611 -0.088589
0.822928 0.565611 -0.088592
0.880141 0.562617 -0.088592
0.929305 0.557349 -0.088595
0.963029 0.549353 -0.088598
0.984085 0.538673 -0.088601
0.995413 0.524516 -0.088604
0.999610 0.505061 -0.088605
1.008719 0.478655 -0.088606
0.175357 0.663529 -0.088593
0.184582 0.663529 -0.088593
0.344346 0.663529 -0.088593
0.442315 0.663529 -0.088594
0.530658 0.663529 -0.088591
0.612653 0.663529 -0.088593
0.688302 0.663529 -0.088595
0.757439 0.663529 -0.088597
0.821119 0.663529 -0.088600
0.880141 0.663528 -0.088603
0.929305 0.657688 -0.088606
0.963029 0.648521 -0.088609
0.984085 0.636494 -0.088608
0.995413 0.620431 -0.088611
0.999610 0.598563 -0.088612
1.008719 0.568591 -0.088611
0.175353 0.758379 -0.088602
0.184444 0.758379 -0.088602
0.342924 0.758379 -0.088602
0.440484 0.758379 -0.088603
0.528423 0.758379 -0.088604
0.610073 0.758379 -0.088605
0.685421 0.758379 -0.088607
0.754402 0.758378 -0.088609
0.817864 0.758378 -0.088609
0.876860 0.758377 -0.088612
0.929304 0.758377 -0.088616
0.963028 0.748369 -0.088618
0.984084 0.734844 -0.088620
0.995413 0.716945 -0.088622
0.999610 0.692527 -0.088623
1.008718 0.659073 -0.088621
0.175357 0.848648 -0.088612
0.184226 0.848648 -0.088612
0.340779 0.848648 -0.088612
0.437777 0.848647 -0.088613
0.525074 0.848647 -0.088614
0.606136 0.848647 -0.088615
0.681099 0.848647 -0.088617
0.749753 0.848647 -0.088619
0.812973 0.848647 -0.088621
0.871689 0.848647 -0.088622
0.924783 0.848646 -0.088625
0.963028 0.848646 -0.088630
0.984084 0.833675 -0.088626
0.995412 0.813822 -0.088627
0.999610 0.786727 -0.088627
1.008718 0.749809 -0.088630
0.175353 0.929644 -0.088622
0.183947 0.929644 -0.088622
0.337893 0.929644 -0.088623
0.434054 0.929644 -0.088623
0.520487 0.929644 -0.088624
0.600865 0.929644 -0.088625
0.675319 0.929644 -0.088627
0.743595 0.929643 -0.088629
0.806383 0.929643 -0.088626
0.864822 0.929643 -0.088629
0.918410 0.929643 -0.088633
0.958219 0.929642 -0.088631
0.984084 0.929642 -0.088636
0.995412 0.910663 -0.088636
0.999610 0.881472 -0.088635
1.008718 0.841093 -0.088631
0.175349 0.978321 -0.088630
0.183582 0.978321 -0.088630
0.333984 0.978321 -0.088630
0.429144 0.978321 -0.088631
0.514410 0.978321 -0.088632
0.593793 0.978321 -0.088633
0.667444 0.978320 -0.088629
0.735179 0.978320 -0.088631
0.797549 0.978320 -0.088633
0.855498 0.978320 -0.088636
0.909469 0.978320 -0.088639
0.951455 0.978320 -0.088643
0.979598 0.978320 -0.088645
0.995412 0.978319 -0.088650
0.999610 0.960981 -0.088648
1.008718 0.929433 -0.088643
0.175345 0.997710 -0.088636
0.183114 0.997710 -0.088636
0.328583 0.997710 -0.088636
0.422341 0.997710 -0.088637
0.506036 0.997710 -0.088638
0.584058 0.997710 -0.088639
0.656619 0.997710 -0.088640
0.723529 0.997710 -0.088642
0.785205 0.997710 -0.088645
0.842609 0.997710 -0.088644
0.896359 0.997710 -0.088648
0.941208 0.997710 -0.088651
0.972340 0.997710 -0.088656
0.991510 0.997710 -0.088660
0.999610 0.997710 -0.088663
1.008717 0.984966 -0.088659
0.175342 1.008708 -0.088645
0.182461 1.008708 -0.088645
0.321022 1.008708 -0.088645
0.412988 1.008708 -0.088643
0.494520 1.008708 -0.088644
0.570584 1.008708 -0.088645
0.641641 1.008708 -0.088646
0.707445 1.008708 -0.088648
0.768231 1.008708 -0.088650
0.824699 1.008707 -0.088652
0.877660 1.008707 -0.088655
0.925437 1.008707 -0.088659
0.960656 1.008707 -0.088660
0.984068 1.008707 -0.088664
0.996976 1.008707 -0.088663
1.008717 1.008707 -0.088669
0.175372 -0.088562 -0.065352
0.182496 -0.088562 -0.065352
0.333121 -0.088562 -0.060804
0.434642 -0.088563 -0.058459
0.526157 -0.088564 -0.056925
0.611284 -0.088565 -0.055858
0.689275 -0.088567 -0.055198
0.759498 -0.088569 -0.054934
0.822930 -0.088572 -0.055024
0.880143 -0.088569 -0.055465
0.929307 -0.088573 -0.056218
0.963030 -0.088577 -0.057303
0.984085 -0.088581 -0.058698
0.995413 -0.088585 -0.060443
0.999610 -0.088585 -0.062656
1.008719 -0.088588 -0.065388
0.175372 -0.065352 -0.065352
0.182495 -0.065352 -0.065352
0.333121 -0.065352 -0.065352
0.434642 -0.065353 -0.065353
0.526157 -0.065354 -0.065354
0.611284 -0.065354 -0.065354
0.689275 -0.065357 -0.065357
0.759498 -0.065359 -0.065359
0.822930 -0.065363 -0.065363
0.880143 -0.065365 -0.065365
0.929307 -0.065370 -0.065370
0.963030 -0.065373 -0.065373
0.984085 -0.065378 -0.065378
0.995413 -0.065380 -0.065380
0.999610 -0.065384 -0.065384
1.008719 -0.065388 -0.065388
0.175371 0.012698 -0.060805
0.182495 0.012698 -0.065353
0.333120 0.012698 -0.065353
0.434644 0.013570 -0.065354
0.526157 0.014191 -0.065354
0.611284 0.014634 -0.065356
0.689275 0.014908 -0.065358
0.759498 0.015007 -0.065361
0.822930 0.014952 -0.065363
0.880143 0.014738 -0.065366
0.929307 0.014386 -0.065371
0.963030 0.013869 -0.065375
0.984085 0.013194 -0.065379
0.995413 0.012329 -0.065381
0.999610 0.011204 -0.065385
1.008719 0.009765 -0.065388
0.175371 0.064126 -0.058461
0.182495 0.064126 -0.065354
0.336359 0.064126 -0.065354
0.434643 0.064126 -0.065355
0.526156 0.066713 -0.065356
0.611283 0.068530 -0.065358
0.689275 0.069665 -0.065360
0.759498 0.070061 -0.065363
0.822929 0.069844 -0.065365
0.880143 0.068970 -0.065369
0.929307 0.067508 -0.065372
0.963030 0.065374 -0.065377
0.984085 0.062596 -0.065382
0.995413 0.059013 -0.065383
0.999610 0.054342 -0.065387
1.008719 0.048352 -0.065390
0.175370 0.159995 -0.056931
0.182494 0.159995 -0.065358
0.338554 0.159995 -0.065358
0.437813 0.159995 -0.065359
0.526155 0.159995 -0.065360
0.611283 0.163218 -0.065362
0.689275 0.165156 -0.065363
0.759498 0.165855 -0.065366
0.822929 0.165492 -0.065369
0.880143 0.163987 -0.065373
0.929307 0.161425 -0.065376
0.963030 0.157647 -0.065381
0.984085 0.152565 -0.065382
0.995413 0.145866 -0.065387
0.999610 0.136677 -0.065391
1.008719 0.124207 -0.065392
0.175368 0.261765 -0.055868
0.182492 0.261765 -0.065364
0.340047 0.261765 -0.065362
0.439990 0.261765 -0.065363
0.528979 0.261764 -0.065364
0.611282 0.261764 -0.065366
0.689274 0.264238 -0.065368
0.759497 0.265176 -0.065371
0.822929 0.264648 -0.065373
0.880143 0.262759 -0.065377
0.929307 0.259491 -0.065382
0.963030 0.254654 -0.065383
0.984085 0.248213 -0.065387
0.995413 0.239666 -0.065390
0.999610 0.227989 -0.065394
1.008719 0.212027 -0.065396
0.175366 0.363909 -0.055210
0.182490 0.363909 -0.065370
0.340999 0.363909 -0.065370
0.441327 0.363909 -0.065371
0.530673 0.363908 -0.065372
0.613264 0.363908 -0.065372
0.689273 0.363908 -0.065375
0.759497 0.364983 -0.065378
0.822929 0.364385 -0.065381
0.880142 0.362053 -0.065382
0.929306 0.358075 -0.065386
0.963029 0.352235 -0.065390
0.984085 0.344380 -0.065393
0.995413 0.333929 -0.065397
0.999610 0.319704 -0.065399
1.008719 0.300387 -0.065400
0.175364 0.465446 -0.054955
0.182488 0.465445 -0.065378
0.341320 0.465445 -0.065379
0.441798 0.465445 -0.065379
0.531294 0.465445 -0.065380
0.613992 0.465477 -0.065382
0.690087 0.465477 -0.065381
0.759490 0.465477 -0.065384
0.822928 0.464751 -0.065387
0.880142 0.461984 -0.065389
0.929306 0.457394 -0.065394
0.963029 0.450426 -0.065398
0.984085 0.441197 -0.065400
0.995413 0.428877 -0.065404
0.999610 0.412100 -0.065407
1.008719 0.389243 -0.065408
0.175361 0.565611 -0.055056
0.182485 0.565611 -0.065386
0.341139 0.565611 -0.065387
0.441546 0.565611 -0.065388
0.530943 0.565611 -0.065389
0.613573 0.565611 -0.065390
0.689622 0.565611 -0.065391
0.759082 0.565611 -0.065394
0.822928 0.565611 -0.065398
0.880141 0.562483 -0.065400
0.929305 0.557140 -0.065403
0.963029 0.549112 -0.065408
0.984085 0.538432 -0.065408
0.995413 0.524332 -0.065411
0.999610 0.504946 -0.065413
1.008719 0.478655 -0.065414
0.175357 0.663529 -0.055506
0.182482 0.663529 -0.065398
0.340423 0.663529 -0.065399
0.440516 0.663529 -0.065399
0.529623 0.663529 -0.065399
0.612082 0.663529 -0.065401
0.687891 0.663529 -0.065403
0.757311 0.663529 -0.065406
0.821033 0.663529 -0.065410
0.880141 0.663529 -0.065411
0.929305 0.657564 -0.065414
0.963029 0.648415 -0.065418
0.984085 0.636383 -0.065419
0.995413 0.620323 -0.065422
0.999610 0.598434 -0.065423
1.008719 0.568591 -0.065423
0.175353 0.758379 -0.056268
0.182479 0.758379 -0.065409
0.339201 0.758379 -0.065409
0.438774 0.758379 -0.065410
0.527427 0.758379 -0.065411
0.609459 0.758379 -0.065413
0.685034 0.758379 -0.065415
0.754182 0.758378 -0.065418
0.817709 0.758378 -0.065420
0.876768 0.758377 -0.065424
0.929304 0.758377 -0.065427
0.963028 0.748213 -0.065430
0.984084 0.734741 -0.065432
0.995413 0.716770 -0.065434
0.999610 0.692490 -0.065434
1.008718 0.659073 -0.065433
0.175357 0.848648 -0.057365
0.182475 0.848647 -0.065423
0.337370 0.848647 -0.065424
0.436184 0.848647 -0.065424
0.524125 0.848647 -0.065426
0.605567 0.848647 -0.065427
0.680720 0.848647 -0.065428
0.749530 0.848647 -0.065430
0.812867 0.848647 -0.065434
0.871623 0.848647 -0.065434
0.924759 0.848646 -0.065439
0.963028 0.848646 -0.065444
0.984084 0.833637 -0.065445
0.995412 0.813727 -0.065446
0.999610 0.786661 -0.065445
1.008718 0.749809 -0.065444
0.175353 0.929644 -0.058767
0.182471 0.929644 -0.065434
0.334940 0.929644 -0.065435
0.432718 0.929644 -0.065436
0.519681 0.929644 -0.065437
0.600370 0.929644 -0.065439
0.674978 0.929644 -0.065441
0.743289 0.929643 -0.065443
0.806229 0.929643 -0.065445
0.864762 0.929643 -0.065449
0.918392 0.929643 -0.065453
0.958216 0.929642 -0.065457
0.984084 0.929642 -0.065462
0.995412 0.910612 -0.065463
0.999610 0.881512 -0.065461
1.008718 0.841093 -0.065457
0.175349 0.978321 -0.060521
0.182467 0.978321 -0.065450
0.331667 0.978321 -0.065450
0.428081 0.978321 -0.065451
0.513777 0.978321 -0.065452
0.593389 0.978320 -0.065453
0.667189 0.978320 -0.065454
0.734995 0.978320 -0.065456
0.797409 0.978320 -0.065459
0.855422 0.978320 -0.065463
0.909414 0.978320 -0.065464
0.951420 0.978320 -0.065469
0.979581 0.978320 -0.065473
0.995412 0.978319 -0.065479
0.999610 0.961001 -0.065477
1.008718 0.929433 -0.065472
0.175345 0.997710 -0.062739
0.182463 0.997710 -0.065463
0.327209 0.997710 -0.065463
0.421731 0.997710 -0.065461
0.505653 0.997710 -0.065462
0.583803 0.997710 -0.065463
0.656475 0.997710 -0.065465
0.723431 0.997710 -0.065468
0.785147 0.997710 -0.065471
0.842538 0.997710 -0.065472
0.896377 0.997710 -0.065476
0.941171 0.997710 -0.065481
0.972352 0.997710 -0.065484
0.991504 0.997710 -0.065490
0.999610 0.997710 -0.065493
1.008717 0.984966 -0.065489
0.175342 1.008708 -0.065471
0.182461 1.008708 -0.065471
0.321023 1.008708 -0.065472
0.412988 1.008708 -0.065472
0.494521 1.008708 -0.065471
0.570584 1.008708 -0.065473
0.641641 1.008708 -0.065474
0.707445 1.008708 -0.065477
0.768231 1.008708 -0.065479
0.824699 1.008707 -0.065481
0.877660 1.008707 -0.065484
0.925437 1.008707 -0.065488
0.960656 1.008707 -0.065490
0.984068 1.008707 -0.065495
0.996976 1.008707 -0.065500
1.008717 1.008707 -0.065507
0.175372 -0.088562 0.109572
0.183531 -0.088562 0.109572
0.333121 -0.088562 0.109572
0.434642 -0.088563 0.115716
0.526157 -0.088564 0.119472
0.611284 -0.088565 0.121957
0.689275 -0.088567 0.123472
0.759498 -0.088569 0.124046
0.822930 -0.088572 0.123843
0.880143 -0.088569 0.122878
0.929307 -0.088573 0.121160
0.963030 -0.088577 0.118612
0.984085 -0.088581 0.115180
0.995413 -0.088585 0.110628
0.999610 -0.088586 0.104393
1.008719 -0.088588 0.095932
0.175371 -0.060804 0.109572
0.182495 -0.065352 0.109572
0.333121 -0.065352 0.109572
0.434642 -0.065353 0.113324
0.526157 -0.065353 0.115912
0.611284 -0.065355 0.117730
0.689275 -0.065357 0.118849
0.759498 -0.065360 0.119234
0.822930 -0.065363 0.119023
0.880143 -0.065365 0.118158
0.929307 -0.065370 0.116724
0.963030 -0.065373 0.114578
0.984085 -0.065378 0.111722
0.995413 -0.065380 0.107952
0.999610 -0.065384 0.102845
1.008719 -0.065388 0.095933
0.175371 0.012698 0.109571
0.182495 0.012698 0.109571
0.333120 0.012698 0.109570
0.473708 0.006227 0.076390
0.565018 0.002814 0.051104
0.641648 0.001705 0.039658
0.712021 0.001314 0.034754
0.776820 0.001163 0.032673
0.836378 0.001105 0.031831
0.891115 0.001086 0.031563
0.936608 0.001087 0.031579
0.967485 0.001099 0.031749
0.986669 0.001117 0.032008
0.996610 0.001137 0.032291
0.999831 0.001155 0.032561
1.008719 0.012694 0.109555
0.175371 0.064126 0.115719
0.182495 0.064126 0.113321
0.270654 0.070702 0.046236
0.436323 0.065482 0.041758
0.539848 0.061660 0.037436
0.627168 0.058566 0.034510
0.703819 0.056225 0.032828
0.772152 0.054374 0.031976
0.833558 0.052777 0.031614
0.889314 0.051225 0.031546
0.935605 0.049578 0.031654
0.967012 0.047738 0.031870
0.986449 0.045608 0.032143
0.996546 0.043090 0.032430
0.999869 0.039924 0.032702
1.008719 0.052249 0.109553
0.175370 0.159995 0.119470
0.182494 0.159995 0.115912
0.255932 0.166238 0.034223
0.423961 0.164056 0.033597
0.527261 0.161251 0.032893
0.617599 0.160515 0.032238
0.697281 0.159181 0.031803
0.767641 0.157265 0.031585
0.830518 0.154943 0.031548
0.887139 0.152024 0.031640
0.934488 0.148520 0.031829
0.966367 0.144173 0.032082
0.986168 0.138894 0.032359
0.996429 0.132312 0.032652
0.999843 0.123652 0.032918
1.008719 0.128136 0.109550
0.175368 0.261765 0.121959
0.182492 0.261765 0.117726
0.252813 0.266429 0.031839
0.419662 0.265525 0.031747
0.522996 0.264196 0.031649
0.611986 0.262675 0.031574
0.692708 0.262878 0.031546
0.764174 0.261884 0.031592
0.827878 0.259841 0.031709
0.885230 0.256652 0.031898
0.933229 0.252500 0.032135
0.965700 0.246995 0.032402
0.985824 0.240143 0.032690
0.996318 0.231497 0.032980
0.999808 0.220009 0.033226
1.008719 0.214864 0.109547
0.175366 0.363909 0.123454
0.182490 0.363909 0.118831
0.252446 0.367515 0.031563
0.417867 0.367067 0.031580
0.520922 0.366383 0.031612
0.610167 0.365522 0.031669
0.689754 0.364614 0.031767
0.761666 0.364223 0.031919
0.825901 0.362368 0.032104
0.883548 0.359043 0.032327
0.932137 0.354244 0.032579
0.965100 0.347807 0.032865
0.985471 0.339544 0.033152
0.996166 0.328944 0.033413
0.999769 0.314762 0.033641
1.008719 0.302464 0.109546
0.175364 0.465446 0.124044
0.182488 0.465445 0.119236
0.252974 0.468406 0.031962
0.416764 0.468120 0.032001
0.519425 0.467741 0.032073
0.608554 0.467288 0.032171
0.688297 0.466711 0.032301
0.759945 0.466076 0.032479
0.824318 0.464313 0.032691
0.882209 0.460757 0.032929
0.931206 0.455431 0.033194
0.964510 0.447992 0.033456
0.985173 0.438370 0.033731
0.996008 0.425843 0.033985
0.999781 0.409036 0.034172
1.008719 0.390881 0.109548
0.175361 0.565611 0.123831
0.182485 0.565611 0.119002
0.253889 0.568098 0.032657
0.415678 0.567942 0.032708
0.517804 0.567686 0.032785
0.606708 0.567375 0.032892
0.686379 0.566987 0.033047
0.758019 0.566581 0.033231
0.823213 0.566136 0.033455
0.881170 0.562252 0.033696
0.930462 0.556309 0.033951
0.964014 0.547933 0.034203
0.984923 0.536868 0.034451
0.995915 0.522522 0.034674
0.999740 0.503132 0.034820
1.008719 0.479896 0.109548
0.175357 0.663529 0.122859
0.182482 0.663529 0.118142
0.255041 0.665710 0.033533
0.414439 0.665633 0.033582
0.515892 0.665412 0.033664
0.604312 0.665235 0.033779
0.683666 0.665014 0.033929
0.755206 0.664602 0.034116
0.820359 0.664421 0.034342
0.880451 0.664009 0.034622
0.929881 0.657432 0.034860
0.963656 0.647898 0.035090
0.984677 0.635636 0.035307
0.995802 0.619341 0.035488
0.999702 0.597371 0.035590
1.008719 0.569538 0.109537
0.175353 0.758379 0.121136
0.182479 0.758379 0.116697
0.256337 0.760156 0.034536
0.412807 0.760161 0.034586
0.513331 0.760043 0.034668
0.601145 0.759832 0.034777
0.680124 0.759737 0.034923
0.751473 0.759444 0.035106
0.816389 0.759307 0.035332
0.876343 0.759037 0.035602
0.929417 0.758710 0.035916
0.963308 0.748221 0.036116
0.984466 0.734412 0.036299
0.995651 0.716338 0.036436
0.999663 0.691913 0.036481
1.008718 0.659750 0.109528
0.175357 0.848648 0.118581
0.182475 0.848647 0.114540
0.257716 0.850151 0.035615
0.410686 0.850106 0.035662
0.510042 0.850067 0.035737
0.597037 0.849980 0.035843
0.675503 0.849828 0.035982
0.746392 0.849626 0.036159
0.811044 0.849573 0.036383
0.870669 0.849337 0.036644
0.924468 0.849109 0.036941
0.963074 0.848882 0.037287
0.984303 0.833699 0.037428
0.995597 0.813699 0.037513
0.999691 0.786594 0.037489
1.008718 0.750365 0.109520
0.175353 0.929644 0.115144
0.182471 0.929644 0.111683
0.259124 0.930773 0.036722
0.407976 0.930752 0.036766
0.505853 0.930771 0.036835
0.591839 0.930662 0.036937
0.669515 0.930639 0.037070
0.739880 0.930532 0.037242
0.804144 0.930354 0.037454
0.863402 0.930242 0.037702
0.917817 0.930160 0.037983
0.958078 0.929988 0.038315
0.984149 0.929849 0.038690
0.995479 0.910751 0.038719
0.999660 0.881509 0.038622
1.008718 0.841387 0.109515
0.175349 0.978321 0.110584
0.182467 0.978321 0.107916
0.260473 0.978912 0.037798
0.404409 0.978884 0.037838
0.500392 0.978849 0.037905
0.584978 0.978822 0.037998
0.661750 0.978814 0.038126
0.731464 0.978758 0.038292
0.795078 0.978692 0.038491
0.853947 0.978671 0.038721
0.908561 0.978588 0.038986
0.951175 0.978604 0.039304
0.979491 0.978526 0.039654
0.995463 0.978423 0.040041
0.999639 0.961101 0.039867
1.008718 0.929571 0.109499
0.175345 0.997710 0.104351
0.182463 0.997710 0.102794
0.261653 0.997858 0.038747
0.399559 0.997863 0.038788
0.493016 0.997848 0.038847
0.575722 0.997849 0.038935
0.651099 0.997823 0.039056
0.719844 0.997832 0.039210
0.782808 0.997811 0.039392
0.840956 0.997789 0.039609
0.895274 0.997813 0.039854
0.940756 0.997782 0.040146
0.972216 0.997764 0.040475
0.991485 0.997745 0.040833
0.999622 0.997722 0.041245
1.008717 0.984981 0.109497
0.175342 1.008708 0.095882
0.182461 1.008708 0.095879
0.333051 1.008708 0.109499
0.418782 1.008708 0.109499
0.498044 1.008708 0.109498
0.572880 1.008708 0.109501
0.643240 1.008708 0.109500
0.708493 1.008708 0.109500
0.769021 1.008708 0.109497
0.825314 1.008707 0.109495
0.878082 1.008707 0.109500
0.925705 1.008707 0.109497
0.960742 1.008707 0.109499
0.984072 1.008707 0.109496
0.996981 1.008707 0.109490
1.008717 1.008707 0.109484
0.175371 -0.088562 0.248717
0.184011 -0.088562 0.248717
0.338389 -0.088562 0.248717
0.434642 -0.088563 0.248716
0.526157 -0.088564 0.255127
0.611284 -0.088565 0.259369
0.689275 -0.088567 0.261932
0.759498 -0.088570 0.262931
0.822930 -0.088572 0.262622
0.880143 -0.088570 0.260932
0.929307 -0.088573 0.258037
0.963030 -0.088577 0.253696
0.984085 -0.088581 0.247842
0.995413 -0.088582 0.240133
0.999610 -0.088586 0.229681
1.008719 -0.088588 0.215597
0.175371 -0.058459 0.248717
0.182495 -0.065352 0.248717
0.336361 -0.065353 0.248717
0.434642 -0.065353 0.248716
0.526157 -0.065353 0.253753
0.611284 -0.065355 0.257221
0.689275 -0.065357 0.259363
0.759498 -0.065360 0.260095
0.822930 -0.065363 0.259712
0.880143 -0.065366 0.258060
0.929307 -0.065370 0.255271
0.963030 -0.065373 0.251159
0.984085 -0.065379 0.245700
0.995413 -0.065380 0.238473
0.999610 -0.065385 0.228726
1.008719 -0.065388 0.215597
0.175371 0.014143 0.248716
0.182495 0.013570 0.248716
0.323309 0.010266 0.328174
0.467271 0.005010 0.302255
0.560787 0.002536 0.269527
0.639498 0.001633 0.249808
0.710867 0.001292 0.238758
0.776278 0.001156 0.231961
0.836084 0.001103 0.227118
0.890863 0.001086 0.222970
0.936480 0.001088 0.218998
0.967442 0.001100 0.214586
0.986630 0.001118 0.209537
0.996596 0.001137 0.203528
0.999830 0.001156 0.195766
1.008719 0.012694 0.224223
0.175371 0.064126 0.248715
0.182495 0.064126 0.248715
0.268568 0.068676 0.257498
0.434643 0.064126 0.248714
0.568059 0.047893 0.214551
0.671807 0.029190 0.166985
0.747419 0.018263 0.131708
0.809928 0.012521 0.108799
0.865412 0.009478 0.094498
0.915229 0.007813 0.085698
0.952581 0.006867 0.080267
0.977327 0.006316 0.076943
0.992162 0.005984 0.074872
0.998861 0.005785 0.073601
1.000000 0.022791 0.147331
1.008719 0.064122 0.248706
0.175369 0.159995 0.255129
0.182494 0.159995 0.253743
0.255636 0.165443 0.233529
0.363986 0.175112 0.147421
0.529141 0.163415 0.131966
0.636990 0.151848 0.116070
0.721643 0.140838 0.102785
0.792073 0.131113 0.092734
0.853310 0.122874 0.085583
0.907432 0.115737 0.080673
0.948395 0.109374 0.077409
0.975342 0.103298 0.075257
0.991311 0.097208 0.073867
0.998635 0.090860 0.072997
1.000000 0.101527 0.133682
1.008719 0.139406 0.248727
0.175368 0.261765 0.259378
0.182492 0.261765 0.257216
0.252768 0.266117 0.226032
0.325260 0.276662 0.100594
0.503032 0.271233 0.096203
0.613754 0.264860 0.091341
0.703105 0.259263 0.086455
0.777996 0.253103 0.082354
0.842731 0.246703 0.079122
0.899834 0.240023 0.076702
0.944089 0.233179 0.074958
0.973030 0.225753 0.073736
0.990204 0.217598 0.072927
0.998274 0.208269 0.072405
1.000000 0.203175 0.111476
1.008719 0.222991 0.248724
