LUT color transfer/LUTs/98.cube
LUT_3D_SIZE 16
0.191002 0.064164 0.052772
0.215268 0.066223 0.054562
0.264104 0.068038 0.055630
0.334327 0.067521 0.053559
0.420365 0.064100 0.047253
0.514778 0.060228 0.038719
0.610729 0.057803 0.029937
0.701009 0.057132 0.022495
0.780037 0.057074 0.016934
0.845172 0.056643 0.013244
0.896006 0.055431 0.011024
0.934193 0.053521 0.009801
0.962102 0.051147 0.009095
0.981670 0.048486 0.008484
0.993567 0.045787 0.007721
0.999200 0.043638 0.007160
0.194158 0.078271 0.054157
0.216781 0.079284 0.055004
0.263912 0.081132 0.055094
0.332838 0.083214 0.052390
0.418258 0.086005 0.045883
0.512714 0.090595 0.037436
0.609105 0.096624 0.028892
0.699942 0.102333 0.021735
0.779420 0.106028 0.016412
0.844706 0.107013 0.012904
0.895792 0.105513 0.010809
0.934038 0.102181 0.009635
0.962058 0.097740 0.008874
0.981621 0.092684 0.008146
0.993616 0.087610 0.007309
0.999166 0.083541 0.006738
0.192403 0.106710 0.052399
0.216532 0.106943 0.052494
0.262139 0.107563 0.051740
0.329576 0.112452 0.048675
0.413821 0.121689 0.042429
0.508435 0.135034 0.034528
0.605741 0.149661 0.026633
0.697655 0.161979 0.020081
0.778001 0.169645 0.015276
0.843961 0.172091 0.012145
0.895292 0.170075 0.010253
0.933799 0.164850 0.009093
0.961936 0.157767 0.008175
0.981571 0.149639 0.007234
0.993565 0.141470 0.006322
0.999147 0.134917 0.005777
0.182021 0.152469 0.045102
0.213389 0.152298 0.044872
0.264049 0.152260 0.043914
0.325945 0.153671 0.041316
0.408543 0.167100 0.036335
0.502819 0.187155 0.029811
0.601129 0.209925 0.023129
0.694529 0.229363 0.017526
0.776091 0.241587 0.013462
0.842849 0.245828 0.010809
0.894716 0.243294 0.009112
0.933530 0.236013 0.007883
0.961804 0.225912 0.006722
0.981462 0.214298 0.005590
0.993509 0.202643 0.004690
0.999172 0.193271 0.004248
0.168347 0.219282 0.034418
0.213319 0.219008 0.034164
0.272735 0.218600 0.033400
0.337318 0.218905 0.031649
0.406466 0.222497 0.028395
0.498713 0.246293 0.023807
0.596894 0.275075 0.018773
0.691372 0.301209 0.014338
0.774215 0.318362 0.011054
0.841823 0.324622 0.008788
0.894209 0.321647 0.007150
0.933286 0.312226 0.005747
0.961650 0.298883 0.004478
0.981453 0.283583 0.003400
0.993523 0.268168 0.002680
0.999157 0.255767 0.002371
0.160274 0.309042 0.023706
0.220868 0.308858 0.023519
0.289768 0.308501 0.023042
0.358727 0.308200 0.022059
0.428080 0.309504 0.020277
0.500074 0.315301 0.017537
0.595587 0.346644 0.014147
0.689559 0.377228 0.010818
0.772915 0.398506 0.008116
0.841112 0.406787 0.006020
0.893882 0.403315 0.004485
0.933160 0.391573 0.003248
0.961611 0.374886 0.002205
0.981437 0.355721 0.001270
0.993488 0.336402 0.000559
0.999130 0.320824 -0.001544
0.161174 0.418504 0.014822
0.233785 0.418401 0.014708
0.310595 0.418208 0.014426
0.385076 0.417877 0.013917
0.456725 0.418061 0.013048
0.527588 0.420387 0.011627
0.598841 0.426323 0.009573
0.689929 0.458107 0.007092
0.772616 0.481806 0.004942
0.840961 0.491485 0.003197
0.893767 0.487343 0.001966
0.933124 0.473201 0.000716
0.961649 0.453124 -0.003856
0.981424 0.429901 -0.004593
0.993533 0.406566 -0.004698
0.999124 0.387727 -0.004666
0.166571 0.536941 0.007921
0.246457 0.536892 0.007862
0.328910 0.536843 0.007715
0.408260 0.536718 0.007450
0.483359 0.536622 0.007059
0.555102 0.537244 0.006399
0.624916 0.539297 0.005311
0.691640 0.541917 0.003698
0.772623 0.566780 0.002141
0.840723 0.577650 -0.002313
0.893737 0.573049 -0.004786
0.933113 0.556561 -0.005175
0.961646 0.532906 -0.005137
0.981423 0.505660 -0.005069
0.993533 0.478187 -0.004993
0.999124 0.456072 -0.004927
0.171482 0.650732 0.003111
0.255033 0.650720 0.003083
0.340732 0.650696 0.003013
0.423136 0.650621 0.002890
0.500926 0.650635 0.002731
0.574308 0.650721 0.002451
0.644215 0.651188 0.001902
0.710453 0.651370 0.000342
0.770369 0.648339 -0.004966
0.839150 0.662107 -0.005621
0.893161 0.658882 -0.005636
0.932969 0.640936 -0.005589
0.961646 0.614020 -0.005504
0.981422 0.582622 -0.005399
0.993532 0.550947 -0.005289
0.999123 0.525455 -0.005198
0.173487 0.749712 -0.005494
0.258318 0.749712 -0.005501
0.345219 0.749712 -0.005518
0.428741 0.749712 -0.005549
0.507559 0.749712 -0.005598
0.581764 0.749712 -0.005665
0.652062 0.749761 -0.005752
0.718676 0.749564 -0.005857
0.780218 0.747282 -0.005969
0.832777 0.737843 -0.006053
0.889974 0.740233 -0.006072
0.932058 0.724506 -0.006013
0.961451 0.695864 -0.005899
0.981421 0.660590 -0.005758
0.993532 0.624716 -0.005614
0.999123 0.595818 -0.005496
0.172601 0.829779 -0.005895
0.257018 0.829779 -0.005902
0.343504 0.829779 -0.005916
0.426615 0.829779 -0.005942
0.505017 0.829779 -0.005983
0.578887 0.829779 -0.006040
0.648786 0.829779 -0.006113
0.715187 0.829729 -0.006205
0.777929 0.828809 -0.006308
0.834415 0.823892 -0.006403
0.880145 0.808818 -0.006453
0.927639 0.801680 -0.006419
0.960206 0.776111 -0.006304
0.981214 0.739058 -0.006138
0.993531 0.699426 -0.005962
0.999122 0.667034 -0.005819
0.169539 0.891399 -0.006199
0.252503 0.891399 -0.006204
0.337464 0.891399 -0.006216
0.419119 0.891399 -0.006238
0.496178 0.891399 -0.006273
0.568728 0.891398 -0.006321
0.637408 0.891398 -0.006383
0.702819 0.891398 -0.006461
0.765119 0.891192 -0.006553
0.823688 0.889664 -0.006652
0.875430 0.882688 -0.006733
0.915428 0.863394 -0.006754
0.954938 0.848657 -0.006681
0.979786 0.815522 -0.006522
0.993167 0.774220 -0.006327
0.999121 0.738988 -0.006161
0.165134 0.937069 -0.006422
0.245991 0.937069 -0.006426
0.328771 0.937069 -0.006436
0.408326 0.937069 -0.006455
0.483379 0.937069 -0.006484
0.554040 0.937069 -0.006525
0.620976 0.937069 -0.006578
0.684677 0.937068 -0.006644
0.745610 0.937068 -0.006724
0.803920 0.936704 -0.006815
0.858570 0.934816 -0.006909
0.905977 0.926285 -0.006978
0.941108 0.904049 -0.006977
0.973893 0.883188 -0.006872
0.991611 0.846660 -0.006692
0.998828 0.810884 -0.006516
0.159956 0.969318 -0.006579
0.238311 0.969318 -0.006582
0.318518 0.969318 -0.006591
0.395621 0.969318 -0.006607
0.468322 0.969318 -0.006631
0.536847 0.969318 -0.006666
0.601639 0.969317 -0.006711
0.663323 0.969317 -0.006768
0.722414 0.969317 -0.006835
0.779174 0.969317 -0.006915
0.833610 0.968967 -0.007005
0.884498 0.966664 -0.007094
0.927976 0.957035 -0.007151
0.958604 0.932156 -0.007130
0.985235 0.909660 -0.007015
0.997138 0.880248 -0.006869
0.157142 0.946179 0.015834
0.230477 0.946164 0.016360
0.308055 0.946198 0.016965
0.383921 0.946203 0.016999
0.456258 0.946068 0.016135
0.524640 0.946047 0.014811
0.589281 0.945926 0.013531
0.650254 0.945879 0.012562
0.707632 0.945858 0.011847
0.761906 0.945909 0.011249
0.813224 0.945894 0.010665
0.861939 0.945505 0.010066
0.906866 0.942847 0.009460
0.943874 0.931771 0.008849
0.975318 0.919892 0.008267
0.993906 0.903196 0.007823
0.162013 0.812272 0.031709
0.224694 0.812349 0.032541
0.299585 0.812347 0.033419
0.377001 0.812280 0.033096
0.453066 0.811965 0.030920
0.525601 0.811633 0.027829
0.593772 0.811282 0.024852
0.656556 0.811135 0.022611
0.713260 0.811009 0.021035
0.763978 0.810956 0.019822
0.809330 0.810917 0.018740
0.850409 0.810895 0.017682
0.890054 0.813672 0.016647
0.934353 0.826636 0.015627
0.969558 0.831311 0.014695
0.991312 0.827755 0.014030
0.178873 0.486583 0.049034
0.222130 0.486731 0.049969
0.288844 0.486814 0.050817
0.365699 0.486504 0.049762
0.444524 0.485611 0.045832
0.520500 0.484549 0.040505
0.591429 0.483634 0.035419
0.658534 0.487138 0.031603
0.733700 0.509441 0.028970
0.797809 0.527328 0.027075
0.850882 0.541330 0.025486
0.894362 0.552187 0.024022
0.930108 0.560660 0.022618
0.959382 0.566671 0.021287
0.981586 0.569460 0.020118
0.995078 0.568556 0.019375
0.191264 0.226554 0.057273
0.219152 0.226759 0.057075
0.272775 0.226876 0.056878
0.340645 0.226432 0.054488
0.414254 0.226339 0.048765
0.506954 0.241601 0.041382
0.601354 0.257636 0.034247
0.690416 0.272379 0.028717
0.768736 0.284424 0.024945
0.833653 0.293478 0.022492
0.885004 0.299783 0.020795
0.924367 0.303971 0.019475
0.954019 0.306648 0.018357
0.975707 0.308298 0.017455
0.990155 0.309110 0.016881
0.997953 0.309401 0.016838
0.190815 0.106794 0.057784
0.214229 0.106899 0.056596
0.261328 0.107035 0.055198
0.330004 0.110769 0.051962
0.415050 0.118227 0.045726
0.509859 0.129574 0.037844
0.607031 0.142445 0.030096
0.698650 0.153420 0.023885
0.778804 0.160240 0.019556
0.844543 0.162285 0.016830
0.895747 0.160214 0.015162
0.934165 0.155219 0.014113
0.962211 0.148484 0.013392
0.981684 0.140813 0.013002
0.993711 0.133205 0.013068
0.999217 0.127133 0.013665
0.176944 0.152525 0.052345
0.207232 0.152429 0.049242
0.261171 0.152234 0.046869
0.325407 0.153125 0.043694
0.409206 0.165665 0.038515
0.503879 0.184514 0.031714
0.602188 0.206058 0.024745
0.695443 0.224497 0.018925
0.776774 0.236040 0.014783
0.843343 0.239862 0.012235
0.895116 0.237200 0.010858
0.933811 0.229978 0.010195
0.962023 0.220068 0.009900
0.981574 0.208717 0.009968
0.993646 0.197396 0.010467
0.999206 0.188295 0.011371
0.156303 0.219350 0.045366
0.201635 0.219289 0.039421
0.267190 0.218897 0.036108
0.335352 0.218969 0.033404
0.406185 0.222076 0.030045
0.499154 0.245264 0.025334
0.597583 0.273208 0.020209
0.691966 0.298475 0.015829
0.774671 0.314967 0.012847
0.842195 0.320830 0.011198
0.894442 0.317686 0.010436
0.933482 0.308209 0.010132
0.961810 0.294964 0.010015
0.981581 0.279802 0.010100
0.993581 0.264560 0.010448
0.999193 0.252341 0.011083
0.136140 0.309146 0.040848
0.203596 0.309134 0.030817
0.281807 0.308819 0.026089
0.355331 0.308499 0.023513
0.426890 0.309610 0.021712
0.499837 0.314934 0.019008
0.595800 0.345882 0.015820
0.689883 0.375761 0.013107
0.773210 0.396444 0.011463
0.841359 0.404304 0.010751
0.894028 0.400613 0.010511
0.933278 0.388814 0.010437
0.961753 0.372164 0.010400
0.981486 0.352990 0.010437
0.993513 0.333779 0.010638
0.999178 0.318373 0.011036
0.122493 0.418584 0.040194
0.212321 0.418623 0.025627
0.300886 0.418448 0.019077
0.380428 0.418174 0.015984
0.454654 0.418298 0.015209
0.526836 0.420458 0.014061
0.598634 0.426008 0.012694
0.690048 0.457435 0.011657
0.772710 0.480606 0.011191
0.841051 0.489906 0.011086
0.893858 0.485536 0.011064
0.933201 0.471264 0.011020
0.961640 0.451083 0.010946
0.981472 0.427923 0.010895
0.993543 0.404583 0.010939
0.999148 0.385853 0.011119
0.116361 0.537052 0.041730
0.222280 0.537092 0.023719
0.318114 0.537061 0.016006
0.402803 0.536916 0.012336
0.480554 0.536867 0.012176
0.553764 0.537357 0.011966
0.624365 0.539295 0.011756
0.691413 0.541625 0.011690
0.772645 0.566247 0.011757
0.840799 0.576803 0.011805
0.893778 0.571844 0.011744
0.933144 0.555200 0.011606
0.961633 0.531434 0.011437
0.981417 0.504146 0.011287
0.993506 0.476691 0.011205
0.999133 0.454592 0.011224
0.114583 0.650764 0.043347
0.229246 0.650733 0.023401
0.329246 0.650765 0.015560
0.417122 0.650735 0.011883
0.497554 0.650729 0.011936
0.572441 0.650816 0.012017
0.643252 0.651193 0.012136
0.710077 0.651389 0.012287
0.770269 0.648117 0.012412
0.839137 0.661746 0.012398
0.893206 0.658216 0.012212
0.933009 0.640067 0.011936
0.961607 0.612977 0.011672
0.981441 0.581487 0.011461
0.993489 0.549827 0.011322
0.999126 0.524353 0.011266
0.113440 0.749750 0.043914
0.231799 0.749802 0.023222
0.333394 0.749786 0.015749
0.422455 0.749794 0.012337
0.503969 0.749791 0.012380
0.579604 0.749788 0.012433
0.650808 0.749828 0.012502
0.718016 0.749634 0.012579
0.779910 0.747250 0.012620
0.832687 0.737706 0.012549
0.889956 0.739952 0.012327
0.932079 0.724054 0.012028
0.961430 0.695133 0.011729
0.981435 0.659843 0.011496
0.993485 0.623919 0.011343
0.999124 0.594986 0.011269
0.111360 0.829807 0.043304
0.230372 0.829784 0.022592
0.331607 0.829804 0.015538
0.420209 0.829810 0.012344
0.501272 0.829809 0.012358
0.576557 0.829809 0.012371
0.647364 0.829808 0.012385
0.714316 0.829764 0.012400
0.777430 0.828857 0.012401
0.834187 0.823862 0.012349
0.880049 0.808717 0.012207
0.927613 0.801404 0.011969
0.960212 0.775693 0.011704
0.981225 0.738587 0.011481
0.993484 0.698744 0.011329
0.999123 0.666416 0.011256
0.108378 0.891418 0.041834
0.226125 0.891446 0.021623
0.325705 0.891461 0.015012
0.412744 0.891385 0.012054
0.492333 0.891385 0.012054
0.566316 0.891385 0.012053
0.635806 0.891385 0.012052
0.701741 0.891384 0.012047
0.764456 0.891251 0.012041
0.823358 0.889696 0.012019
0.875237 0.882650 0.011954
0.915309 0.863276 0.011823
0.954956 0.848487 0.011641
0.979784 0.815191 0.011452
0.993171 0.773792 0.011311
0.999123 0.738447 0.011241
0.104969 0.937082 0.039886
0.220177 0.936985 0.020530
0.317249 0.936995 0.014417
0.402044 0.936998 0.011713
0.479567 0.936998 0.011712
0.551593 0.936997 0.011710
0.619286 0.936997 0.011707
0.683543 0.936997 0.011704
0.744878 0.936997 0.011700
0.803423 0.936742 0.011695
0.858232 0.934788 0.011677
0.905865 0.926314 0.011626
0.941006 0.903921 0.011529
0.973880 0.883070 0.011399
0.991603 0.846437 0.011283
0.998828 0.810574 0.011221
0.101420 0.969324 0.037706
0.213299 0.969333 0.019443
0.307366 0.969339 0.013878
0.389487 0.969340 0.011459
0.464591 0.969340 0.011458
0.534358 0.969340 0.011456
0.599976 0.969340 0.011454
0.662163 0.969340 0.011451
0.721576 0.969339 0.011448
0.778629 0.969339 0.011445
0.833284 0.968986 0.011439
0.884266 0.966660 0.011423
0.927916 0.957019 0.011384
0.958533 0.932081 0.011318
0.985186 0.909466 0.011244
0.997129 0.880110 0.011198
0.115114 0.946164 0.044702
0.203640 0.946189 0.028085
0.296141 0.946193 0.025971
0.377164 0.946182 0.025994
0.451893 0.946050 0.026729
0.521674 0.946040 0.027143
0.587140 0.945928 0.027312
0.648738 0.945885 0.027269
0.706608 0.945865 0.026942
0.761120 0.945835 0.026306
0.812759 0.945902 0.025400
0.861648 0.945511 0.024333
0.906685 0.942836 0.023193
0.943782 0.931711 0.022046
0.975281 0.919788 0.020975
0.993877 0.903032 0.020163
0.145579 0.812359 0.062967
0.191217 0.812393 0.046161
0.284927 0.812371 0.046313
0.368258 0.812214 0.047816
0.447057 0.811877 0.049173
0.521353 0.811602 0.049857
0.590731 0.811260 0.050068
0.654457 0.811127 0.049877
0.711862 0.811007 0.049127
0.763105 0.810956 0.047751
0.808818 0.810918 0.045817
0.850117 0.810896 0.043535
0.889837 0.813548 0.041096
0.934278 0.826480 0.038637
0.969526 0.831043 0.036358
0.991326 0.827477 0.034625
0.179004 0.486739 0.081107
0.203789 0.486761 0.072947
0.275122 0.486657 0.069338
0.357901 0.486094 0.071384
0.439882 0.485041 0.072554
0.517961 0.483785 0.072726
0.590402 0.482762 0.072370
0.658624 0.486233 0.071660
0.733836 0.507513 0.070310
0.797966 0.524835 0.068125
0.851042 0.538452 0.065183
0.894437 0.549224 0.061741
0.930184 0.557848 0.058096
0.959476 0.563993 0.054466
0.981617 0.566970 0.051202
0.995134 0.566337 0.048879
0.191609 0.226821 0.082829
0.213488 0.226673 0.080164
0.267226 0.226260 0.077751
0.339204 0.224878 0.078123
0.416042 0.224097 0.077133
0.509185 0.235911 0.075091
0.603546 0.248352 0.072950
0.692249 0.260113 0.071076
0.770273 0.270333 0.069112
0.834825 0.278649 0.066653
0.885923 0.285254 0.063626
0.925107 0.290330 0.060221
0.954677 0.294268 0.056650
0.976325 0.297266 0.053244
0.990592 0.299398 0.050484
0.998072 0.300730 0.049003
0.189871 0.106904 0.080883
0.210921 0.106671 0.079087
0.259204 0.105694 0.075945
0.331345 0.104921 0.072830
0.419343 0.104100 0.068049
0.515404 0.104970 0.062229
0.612352 0.107955 0.056786
0.703054 0.111382 0.052726
0.782285 0.113307 0.049776
0.847273 0.112925 0.047308
0.898007 0.110348 0.044895
0.936022 0.106198 0.042450
0.963794 0.101153 0.040009
0.983052 0.095868 0.038115
0.994623 0.091166 0.037528
0.999548 0.088210 0.038774
0.173350 0.152457 0.082002
0.195751 0.152537 0.076470
0.250543 0.152234 0.067072
0.323470 0.151329 0.060596
0.412453 0.159706 0.054086
0.509380 0.172693 0.046971
0.607819 0.188340 0.039832
0.700269 0.201996 0.034188
0.780650 0.210276 0.030371
0.846503 0.212380 0.027869
0.897715 0.209147 0.026060
0.936032 0.202213 0.024614
0.963932 0.193147 0.023369
0.983233 0.183050 0.023308
0.994840 0.173231 0.025486
0.999630 0.165789 0.029801
0.148220 0.219324 0.085650
0.175218 0.219729 0.075362
0.243007 0.219973 0.057011
0.326796 0.219540 0.047204
0.405363 0.220604 0.040504
0.502267 0.240900 0.034885
0.601649 0.264857 0.028656
0.695806 0.286326 0.023258
0.777847 0.299876 0.019467
0.844882 0.303992 0.017197
0.896775 0.299987 0.015934
0.935474 0.290323 0.015226
0.963665 0.277454 0.014816
0.983075 0.262912 0.016242
0.994740 0.248530 0.020425
0.999594 0.237211 0.026424
0.119957 0.309206 0.093661
0.157170 0.309748 0.078766
0.243315 0.310347 0.050011
0.339342 0.310151 0.036566
0.421533 0.310439 0.029672
0.499320 0.313965 0.026663
0.597603 0.342794 0.023063
0.692234 0.369853 0.019872
0.775428 0.387888 0.017679
0.843348 0.393936 0.016425
0.895801 0.389169 0.015719
0.934836 0.376856 0.015287
0.963230 0.360204 0.014987
0.982787 0.341325 0.016399
0.994533 0.322540 0.020491
0.999480 0.307596 0.026390
0.093404 0.418670 0.104574
0.146891 0.419218 0.085774
0.250817 0.419881 0.047133
0.358279 0.419877 0.030196
0.444924 0.419840 0.021913
0.523432 0.421085 0.020715
0.598085 0.425156 0.019221
0.690976 0.455027 0.017888
0.774136 0.476196 0.016963
0.842482 0.483715 0.016379
0.895221 0.478107 0.015970
0.934453 0.463117 0.015631
0.962931 0.442742 0.015350
0.982530 0.419539 0.016688
0.994319 0.396401 0.020644
0.999456 0.377861 0.026421
0.072327 0.537123 0.115075
0.143380 0.537501 0.093245
0.259851 0.538186 0.046781
0.376241 0.538329 0.027840
0.467318 0.538259 0.018229
0.547730 0.538497 0.017962
0.622082 0.539712 0.017640
0.690894 0.540855 0.017352
0.773186 0.564293 0.017094
0.841722 0.573441 0.016821
0.894707 0.567247 0.016501
0.934051 0.549724 0.016166
0.962619 0.525589 0.015844
0.982291 0.498092 0.017065
0.994244 0.470604 0.020857
0.999389 0.448534 0.026485
0.062169 0.650826 0.122214
0.142389 0.651172 0.098459
0.265764 0.651609 0.046818
0.387763 0.651907 0.027325
0.481908 0.651886 0.017320
0.564169 0.651806 0.017380
0.639190 0.651953 0.017461
0.708382 0.651589 0.017542
0.769779 0.647438 0.017562
0.839496 0.660230 0.017443
0.893787 0.655696 0.017172
0.933708 0.636583 0.016818
0.962370 0.608954 0.016441
0.982017 0.577032 0.017530
0.993990 0.545281 0.021112
0.999295 0.519675 0.026563
0.060851 0.749826 0.124999
0.141079 0.750056 0.100377
0.267128 0.750482 0.046214
0.391566 0.750643 0.027142
0.486804 0.750685 0.017471
0.569817 0.750664 0.017578
0.645294 0.750597 0.017715
0.715241 0.750141 0.017880
0.778756 0.747438 0.018013
0.832311 0.737100 0.018034
0.890150 0.738798 0.017868
0.932517 0.722058 0.017541
0.961964 0.692558 0.017128
0.981840 0.656664 0.018069
0.993870 0.620480 0.021423
0.999269 0.591441 0.026656
0.061111 0.829808 0.123905
0.138526 0.830036 0.099317
0.264466 0.830332 0.044841
0.388796 0.830488 0.026736
0.483443 0.830538 0.017758
0.565841 0.830482 0.017863
0.640784 0.830449 0.017997
0.710479 0.830264 0.018162
0.775472 0.829182 0.018336
0.833313 0.824010 0.018469
0.879817 0.808325 0.018462
0.927796 0.800446 0.018251
0.960539 0.774244 0.017866
0.981558 0.736552 0.018676
0.993760 0.696395 0.021775
0.999272 0.663732 0.026765
0.060801 0.891440 0.120130
0.135072 0.891507 0.096195
0.258987 0.891809 0.042963
0.381404 0.891930 0.026129
0.474286 0.891902 0.018013
0.555087 0.891915 0.018104
0.628658 0.891847 0.018222
0.697158 0.891815 0.018370
0.761714 0.891618 0.018547
0.821811 0.889916 0.018735
0.874517 0.882689 0.018858
0.915068 0.862934 0.018827
0.955058 0.847747 0.018569
0.980005 0.813990 0.019313
0.993481 0.772245 0.022167
0.999196 0.736578 0.026881
0.060367 0.937056 0.114783
0.131196 0.937223 0.091885
0.251842 0.937401 0.040868
0.371258 0.937487 0.025425
0.461636 0.937478 0.018207
0.540294 0.937482 0.018288
0.611856 0.937450 0.018391
0.678607 0.937368 0.018523
0.741534 0.937406 0.018685
0.801409 0.937034 0.018869
0.857107 0.934936 0.019049
0.905334 0.926337 0.019166
0.940882 0.903644 0.019106
0.973901 0.882461 0.019901
0.991736 0.845460 0.022563
0.998950 0.809375 0.026992
0.060997 0.969324 0.108650
0.127765 0.969374 0.087020
0.244021 0.969589 0.039066
0.359598 0.969611 0.025424
0.447050 0.969654 0.019403
0.523137 0.969612 0.019465
0.592423 0.969558 0.019547
0.656953 0.969564 0.019648
0.717990 0.969561 0.019769
0.776193 0.969596 0.019918
0.831747 0.969218 0.020086
0.883409 0.966754 0.020245
0.927527 0.957035 0.020329
0.958405 0.931897 0.021135
0.985192 0.909028 0.023450
0.997129 0.879350 0.027281
0.099179 0.946171 0.110217
0.139747 0.946200 0.092433
0.231143 0.946327 0.049649
0.347313 0.946350 0.042680
0.434196 0.946275 0.041498
0.510124 0.946204 0.042952
0.579210 0.946212 0.044071
0.643118 0.946072 0.044585
0.702644 0.946071 0.044414
0.758366 0.945990 0.043616
0.810966 0.946042 0.042336
0.860502 0.945580 0.040784
0.906048 0.942904 0.039115
0.943542 0.931647 0.037762
0.975188 0.919580 0.037247
0.993868 0.902589 0.038016
0.140209 0.812282 0.125486
0.168726 0.812285 0.113826
0.220982 0.812262 0.080000
0.337479 0.812133 0.073499
0.428711 0.811866 0.075513
0.509150 0.811626 0.078677
0.582397 0.811346 0.081108
0.648694 0.811204 0.082143
0.707908 0.811133 0.081634
0.760464 0.811042 0.079683
0.807167 0.810979 0.076625
0.849208 0.810939 0.072902
0.889264 0.813333 0.068925
0.933897 0.826003 0.064987
0.969388 0.830508 0.061544
0.991239 0.826634 0.059247
0.175813 0.486613 0.140424
0.201049 0.486438 0.135009
0.249856 0.486089 0.120736
0.334324 0.485564 0.109574
0.426461 0.484620 0.113768
0.510219 0.483592 0.118524
0.586701 0.482687 0.122145
0.657146 0.485446 0.123567
0.732761 0.504657 0.122517
0.797180 0.520543 0.119129
0.850499 0.533534 0.113940
0.894051 0.544072 0.107688
0.929883 0.552704 0.101036
0.959346 0.559180 0.094418
0.981547 0.562456 0.088394
0.995099 0.561994 0.083981
0.186678 0.226871 0.131820
0.210812 0.226068 0.130462
0.260359 0.224847 0.126995
0.333074 0.223065 0.123971
0.415518 0.221651 0.127112
0.509118 0.227533 0.130380
0.603933 0.233115 0.132636
0.692897 0.238784 0.133021
0.770874 0.244820 0.131177
0.835439 0.251396 0.127077
0.886532 0.258218 0.121220
0.925606 0.264899 0.114339
0.955054 0.271094 0.107111
0.976648 0.276686 0.100124
0.990772 0.281368 0.094105
0.998151 0.284601 0.089884
0.183102 0.109670 0.125485
0.205720 0.107616 0.125211
0.256462 0.102949 0.124301
0.330614 0.098214 0.123865
0.421293 0.090672 0.128401
0.519413 0.081092 0.135494
0.617197 0.071582 0.143584
0.707674 0.063914 0.150363
0.786351 0.058298 0.154231
0.850643 0.054105 0.154451
0.900814 0.050646 0.151333
0.938469 0.047598 0.145821
0.965819 0.045358 0.138987
0.984602 0.045189 0.131872
0.995329 0.048044 0.125599
0.999786 0.051529 0.121057
0.168527 0.152516 0.125600
0.188961 0.152113 0.123714
0.240691 0.150956 0.118503
0.319455 0.148037 0.109366
0.416281 0.146286 0.101813
0.518889 0.144027 0.094381
0.619255 0.142856 0.087312
0.710970 0.142699 0.081202
0.789989 0.141762 0.076312
0.854313 0.138856 0.072137
0.904215 0.134023 0.068147
0.941602 0.127867 0.064214
0.968733 0.121395 0.061107
0.986730 0.115813 0.060383
0.996508 0.112436 0.063196
0.999970 0.110662 0.066356
0.145616 0.219057 0.135298
0.162810 0.219606 0.130177
0.216661 0.220374 0.116008
0.306218 0.220198 0.092041
0.403356 0.218025 0.078790
0.509620 0.231120 0.069466
0.612777 0.245341 0.061550
0.706966 0.257745 0.054234
0.787833 0.264663 0.048585
0.853416 0.264765 0.044584
0.904159 0.258946 0.041596
0.941984 0.249144 0.039190
0.969325 0.237249 0.038578
0.987367 0.224762 0.042192
0.996924 0.213336 0.050538
0.999970 0.204760 0.057532
0.119129 0.308916 0.151777
0.134085 0.309865 0.143492
0.194123 0.311702 0.120499
0.297550 0.313278 0.079254
0.408834 0.312707 0.060374
0.499264 0.312454 0.050421
0.604094 0.336498 0.044830
0.700289 0.357042 0.039255
0.783201 0.369317 0.034731
0.850454 0.371272 0.031579
0.902211 0.364134 0.029474
0.940756 0.350978 0.028049
0.968501 0.334362 0.028913
0.986853 0.316292 0.034967
0.996770 0.298864 0.045791
0.999970 0.285272 0.054597
0.092821 0.418490 0.171686
0.108274 0.419509 0.160808
0.179420 0.421469 0.130728
0.296511 0.423703 0.073337
0.420963 0.424049 0.049575
0.516001 0.423757 0.039117
0.598121 0.424356 0.036834
0.694875 0.450895 0.034312
0.778999 0.467561 0.032027
0.847336 0.471181 0.030182
0.899930 0.462914 0.028751
0.938946 0.446520 0.027660
0.967084 0.425563 0.028352
0.986002 0.402457 0.033964
0.996433 0.379763 0.044495
0.999970 0.361714 0.054006
0.072052 0.537084 0.189626
0.092535 0.537800 0.176868
0.173133 0.539589 0.141681
0.299671 0.541681 0.071792
