LUT color transfer/LUTs/98.cube
LUT_3D_SIZE 6
0.191002 0.064164 0.052772
0.334327 0.067521 0.053559
0.610729 0.057803 0.029937
0.845172 0.056643 0.013244
0.962102 0.051147 0.009095
0.999200 0.043638 0.007160
0.182021 0.152469 0.045102
0.325945 0.153671 0.041316
0.601129 0.209925 0.023129
0.842849 0.245828 0.010809
0.961804 0.225912 0.006722
0.999172 0.193271 0.004248
0.161174 0.418504 0.014822
0.385076 0.417877 0.013917
0.598841 0.426323 0.009573
0.840961 0.491485 0.003197
0.961649 0.453124 -0.003856
0.999124 0.387727 -0.004666
0.173487 0.749712 -0.005494
0.428741 0.749712 -0.005549
0.652062 0.749761 -0.005752
0.832777 0.737843 -0.006053
0.961451 0.695864 -0.005899
0.999123 0.595818 -0.005496
0.165134 0.937069 -0.006422
0.408326 0.937069 -0.006455
0.620976 0.937069 -0.006578
0.803920 0.936704 -0.006815
0.941108 0.904049 -0.006977
0.998828 0.810884 -0.006516
0.162013 0.812272 0.031709
0.377001 0.812280 0.033096
0.593772 0.811282 0.024852
0.763978 0.810956 0.019822
0.890054 0.813672 0.016647
0.991312 0.827755 0.014030
0.175813 0.486613 0.140424
0.334324 0.485564 0.109574
0.586701 0.482687 0.122145
0.797180 0.520543 0.119129
0.929883 0.552704 0.101036
0.995099 0.561994 0.083981
0.168527 0.152516 0.125600
0.319455 0.148037 0.109366
0.619255 0.142856 0.087312
0.854313 0.138856 0.072137
0.968733 0.121395 0.061107
0.999970 0.110662 0.066356
0.092821 0.418490 0.171686
0.296511 0.423703 0.073337
0.598121 0.424356 0.036834
0.847336 0.471181 0.030182
0.967084 0.425563 0.028352
0.999970 0.361714 0.054006
0.060894 0.749824 0.206083
0.299910 0.752773 0.069279
0.633157 0.753039 0.028952
0.832132 0.736691 0.028519
0.963811 0.687834 0.027023
0.999811 0.584628 0.051871
0.060375 0.937055 0.189157
0.278366 0.938570 0.060200
0.595468 0.938815 0.027049
0.797224 0.938054 0.027287
0.940738 0.903411 0.027230
0.999179 0.807065 0.051345
0.136116 0.812007 0.201165
0.272989 0.812157 0.130147
0.566949 0.811704 0.118466
0.755838 0.811308 0.117673
0.888183 0.813045 0.102026
0.991196 0.825309 0.090223
0.157889 0.485276 0.399406
0.332192 0.483567 0.383181
0.569971 0.482832 0.347150
0.794086 0.496733 0.337080
0.928888 0.520050 0.281982
0.995051 0.531160 0.233673
0.134215 0.214463 0.414270
0.312261 0.137335 0.440757
0.621586 0.090212 0.427590
0.861401 0.065976 0.447895
0.972723 0.064006 0.394815
0.999970 0.086663 0.331767
0.082683 0.424828 0.395968
0.207997 0.426141 0.400127
0.586231 0.412281 0.369697
0.890530 0.359460 0.306520
0.987253 0.320962 0.284151
0.999970 0.315354 0.288445
0.061116 0.749815 0.462793
0.162996 0.755508 0.432238
0.483875 0.776959 0.231226
0.837903 0.744669 0.195700
0.981338 0.672183 0.239900
0.999970 0.573434 0.303633
0.060431 0.937051 0.424673
0.151263 0.940157 0.386876
0.419452 0.955590 0.185432
0.768059 0.952848 0.157347
0.944010 0.909588 0.165951
0.999970 0.803813 0.281640
0.122317 0.811529 0.448164
0.276921 0.812011 0.420704
0.512506 0.813852 0.354406
0.742815 0.813715 0.335623
0.889799 0.814260 0.297524
0.991590 0.815282 0.282380
0.134404 0.530435 0.685817
0.326844 0.519819 0.678764
0.578837 0.491547 0.672452
0.815564 0.482099 0.684560
0.939468 0.481974 0.608439
0.996117 0.476184 0.512785
0.105948 0.249686 0.768631
0.291441 0.124144 0.803127
0.652565 0.071944 0.800143
0.851776 0.057597 0.754745
0.971452 0.060698 0.676082
0.999970 0.085554 0.562185
0.070902 0.496908 0.748046
0.188741 0.476016 0.774081
0.534279 0.347354 0.842586
0.878755 0.314854 0.803060
0.986689 0.327302 0.668318
0.999970 0.345883 0.560087
0.061162 0.746258 0.732471
0.160646 0.747840 0.735415
0.449935 0.760925 0.754639
0.833620 0.744950 0.741538
0.979622 0.718423 0.704438
0.999970 0.709076 0.698080
0.060550 0.937043 0.676456
0.150937 0.939820 0.665541
0.410142 0.956046 0.627990
0.775416 0.956487 0.640664
0.953844 0.930102 0.653217
0.999970 0.870667 0.714507
0.107307 0.811205 0.655967
0.265917 0.811780 0.645458
0.520816 0.813689 0.636566
0.798792 0.813636 0.713596
0.926474 0.814792 0.691825
0.994743 0.803251 0.656895
0.118902 0.561054 0.879664
0.295531 0.549969 0.876664
0.527429 0.510699 0.873516
0.785073 0.482065 0.899357
0.948024 0.481844 0.903627
0.998025 0.479442 0.805827
0.094293 0.225523 0.956804
0.261560 0.106296 0.976774
0.602484 0.073426 0.976550
0.806449 0.061999 0.964978
0.956389 0.057566 0.927041
0.999970 0.083789 0.795069
0.070431 0.452536 0.942592
0.192327 0.424304 0.964052
0.489704 0.305839 0.986206
0.793503 0.313057 0.985536
0.967941 0.306155 0.949771
0.999970 0.334094 0.793471
0.058248 0.695651 0.940209
0.159301 0.689095 0.950637
0.470256 0.672289 0.980670
0.800581 0.692868 0.979582
0.969787 0.704676 0.954754
0.999970 0.718186 0.858446
0.060293 0.916654 0.913467
0.149898 0.917827 0.915297
0.410962 0.930482 0.931267
0.780072 0.940077 0.942106
0.959390 0.935698 0.938997
0.999917 0.930578 0.929279
0.097537 0.818051 0.833480
0.246012 0.817459 0.830089
0.494002 0.818141 0.835269
0.780026 0.816710 0.887742
0.944572 0.812212 0.937196
0.997859 0.807120 0.910020
0.143695 0.575107 0.983423
0.267759 0.566964 0.983158
0.472683 0.531488 0.983991
0.711574 0.482865 0.989973
0.883305 0.482006 0.996539
0.988138 0.481466 0.999735
0.143482 0.188035 1.002310
0.251622 0.100962 1.002216
0.531355 0.090725 1.001628
0.710663 0.088162 1.000822
0.863874 0.085919 1.000143
0.984825 0.085409 0.999963
0.112816 0.376687 1.000861
0.231456 0.348861 1.000757
0.469855 0.285076 1.000196
0.702587 0.319362 1.000042
0.861266 0.319927 0.999963
0.984615 0.319926 0.999963
0.073554 0.579058 1.000016
0.227559 0.566358 1.000010
0.503042 0.556270 0.999963
0.782011 0.664617 0.999963
0.905078 0.702910 0.999963
0.988954 0.703173 0.999963
0.070803 0.789109 0.999963
0.227449 0.784073 0.999963
0.503635 0.780210 0.999963
0.808815 0.847270 0.999963
0.951958 0.921448 0.999963
0.995587 0.931676 0.999963
0.070592 0.975384 0.999963
0.227440 0.974917 0.999963
0.503642 0.974511 0.999963
0.808996 0.981746 0.999963
0.958320 0.992700 0.999963
0.999018 0.998387 0.999963
