LUT color transfer/LUTs/99.cube
LUT_3D_SIZE 16
0.026834 0.020615 0.017609
0.035977 0.022253 0.019074
0.061108 0.024535 0.020929
0.116228 0.026428 0.022011
0.210738 0.027218 0.021532
0.321002 0.027720 0.020410
0.437713 0.028639 0.019579
0.551010 0.029985 0.019447
0.652424 0.031318 0.019868
0.737004 0.032256 0.020558
0.803684 0.032661 0.021281
0.854140 0.032610 0.021900
0.891282 0.032243 0.022371
0.917125 0.031688 0.022707
0.933011 0.031059 0.022907
0.940601 0.030527 0.023000
0.029393 0.029250 0.019449
0.038016 0.030351 0.020358
0.062427 0.032600 0.021593
0.116641 0.035782 0.022263
0.210277 0.039807 0.021647
0.320258 0.045015 0.020543
0.437146 0.051068 0.019810
0.550735 0.056721 0.019772
0.652380 0.060666 0.020262
0.737085 0.062290 0.020978
0.803958 0.061797 0.021689
0.854404 0.059807 0.022271
0.891462 0.057006 0.022710
0.917350 0.053850 0.023004
0.933290 0.050783 0.023166
0.940847 0.048404 0.023233
0.031417 0.051160 0.020614
0.040465 0.051732 0.021012
0.064346 0.053263 0.021582
0.117435 0.058672 0.021889
0.209468 0.068549 0.021422
0.318994 0.082918 0.020734
0.436184 0.099470 0.020408
0.550327 0.114173 0.020657
0.652523 0.123672 0.021298
0.737676 0.126852 0.022058
0.804561 0.124659 0.022737
0.855109 0.118777 0.023240
0.892152 0.110974 0.023571
0.918057 0.102416 0.023757
0.933817 0.094269 0.023830
0.941280 0.087994 0.023822
0.031407 0.098751 0.019803
0.042578 0.098921 0.019901
0.069512 0.099850 0.020091
0.119951 0.102993 0.020332
0.209838 0.119959 0.020539
0.318144 0.145266 0.020876
0.435573 0.172577 0.021528
0.550573 0.194857 0.022454
0.653431 0.208271 0.023425
0.738936 0.212407 0.024247
0.805994 0.208947 0.024815
0.856497 0.200326 0.025136
0.893501 0.188668 0.025243
0.919216 0.175397 0.025218
0.934830 0.162099 0.025100
0.942179 0.151426 0.024961
0.031401 0.184421 0.018595
0.046604 0.184453 0.018621
0.080178 0.184787 0.018713
0.137831 0.186601 0.019013
0.215207 0.192356 0.019776
0.320635 0.220034 0.021284
0.437070 0.252020 0.023324
0.552417 0.279581 0.025435
0.655848 0.296471 0.027086
0.741631 0.301564 0.028029
0.808743 0.296855 0.028369
0.859060 0.285404 0.028304
0.895773 0.270171 0.028012
0.921229 0.252906 0.027598
0.936559 0.235601 0.027149
0.943711 0.221736 0.026772
0.035151 0.292709 0.020087
0.055501 0.292826 0.020145
0.098776 0.293054 0.020303
0.167295 0.293938 0.020684
0.245754 0.297143 0.021589
0.330207 0.304837 0.023429
0.443086 0.337641 0.026344
0.557151 0.367844 0.029687
0.660467 0.387135 0.032351
0.746116 0.392647 0.033667
0.812923 0.386384 0.033736
0.862849 0.372005 0.033067
0.899108 0.353044 0.032110
0.924054 0.331687 0.031090
0.939170 0.310356 0.030143
0.945969 0.293351 0.029423
0.043305 0.415587 0.025090
0.068963 0.415734 0.025197
0.123245 0.416136 0.025468
0.201224 0.416895 0.025985
0.282944 0.418736 0.026942
0.367557 0.422876 0.028672
0.454818 0.430002 0.031529
0.565403 0.459926 0.035310
0.667357 0.480033 0.038828
0.752473 0.485372 0.040717
0.818542 0.477174 0.040776
0.867745 0.459591 0.039524
0.903391 0.436730 0.037731
0.927754 0.411098 0.035861
0.942358 0.385689 0.034204
0.948861 0.365443 0.033006
0.054356 0.540556 0.032869
0.084312 0.540727 0.033018
0.147963 0.541210 0.033371
0.230849 0.542020 0.034032
0.316486 0.543496 0.035091
0.403065 0.545853 0.036731
0.490185 0.549611 0.039184
0.574755 0.552699 0.042457
0.674904 0.573061 0.045867
0.759552 0.578654 0.048227
0.825147 0.568749 0.048695
0.873655 0.547900 0.047344
0.908443 0.520955 0.044881
0.932215 0.490981 0.042055
0.946261 0.461376 0.039491
0.952353 0.437765 0.037654
0.065734 0.654945 0.041642
0.098069 0.655139 0.041802
0.166097 0.655524 0.042186
0.250656 0.656246 0.042907
0.338554 0.657435 0.044032
0.426989 0.659290 0.045647
0.515038 0.661591 0.047859
0.600723 0.663334 0.050630
0.678603 0.660226 0.053534
0.764610 0.668558 0.055697
0.831553 0.659634 0.056528
0.880091 0.636598 0.055578
0.914284 0.605666 0.053059
0.937417 0.571239 0.049572
0.950827 0.537407 0.046104
0.956489 0.510439 0.043510
0.075427 0.750613 0.049759
0.107995 0.750690 0.049918
0.175963 0.751148 0.050299
0.259677 0.751728 0.051001
0.347555 0.752782 0.052097
0.436148 0.754298 0.053661
0.524310 0.756151 0.055728
0.610905 0.757989 0.058293
0.692572 0.757060 0.061029
0.762027 0.747611 0.063215
0.834064 0.744646 0.064032
0.885648 0.723652 0.063379
0.920434 0.690623 0.061225
0.943021 0.651969 0.057753
0.955847 0.613733 0.053827
0.961171 0.583405 0.050627
0.082644 0.825695 0.056353
0.113805 0.825824 0.056490
0.178851 0.826150 0.056844
0.259843 0.826670 0.057493
0.345717 0.827639 0.058504
0.432604 0.828754 0.059951
0.519264 0.830322 0.061869
0.605072 0.832206 0.064285
0.688611 0.833393 0.067069
0.764762 0.829910 0.069639
0.825988 0.815111 0.071062
0.885990 0.803096 0.070610
0.925217 0.773192 0.068647
0.948802 0.732564 0.065503
0.961305 0.690344 0.061782
0.966301 0.656629 0.058547
0.087584 0.882196 0.061305
0.116306 0.882335 0.061443
0.176968 0.882566 0.061749
0.253960 0.883062 0.062334
0.336503 0.883755 0.063256
0.420395 0.884725 0.064544
0.504307 0.886118 0.066267
0.587598 0.887739 0.068464
0.669775 0.889443 0.071122
0.749038 0.889976 0.074026
0.819900 0.884540 0.076370
0.874019 0.865902 0.077089
0.923922 0.847165 0.075552
0.952940 0.810579 0.072487
0.966802 0.766793 0.068986
0.971570 0.729925 0.066084
0.090764 0.923528 0.064887
0.116614 0.923612 0.064995
0.172252 0.923867 0.065268
0.244568 0.924318 0.065788
0.323029 0.924788 0.066610
0.403245 0.925641 0.067743
0.483610 0.926748 0.069256
0.563478 0.928167 0.071190
0.642714 0.929786 0.073568
0.720826 0.931393 0.076364
0.795703 0.931368 0.079307
0.861328 0.924592 0.081423
0.909149 0.903307 0.081540
0.950348 0.879309 0.079071
0.970426 0.840405 0.075425
0.976818 0.803027 0.072312
0.092633 0.952347 0.067341
0.115554 0.952343 0.067434
0.165928 0.952555 0.067676
0.233250 0.952908 0.068123
0.307229 0.953313 0.068832
0.383321 0.954062 0.069816
0.459854 0.955003 0.071147
0.535976 0.956166 0.072829
0.611515 0.957560 0.074909
0.686460 0.959174 0.077385
0.760349 0.960769 0.080264
0.830676 0.960366 0.083175
0.891327 0.952398 0.085063
0.933230 0.928991 0.084626
0.966623 0.904116 0.081682
0.979968 0.873343 0.078265
0.088726 0.929914 0.065181
0.108722 0.930052 0.065363
0.154448 0.930223 0.065733
0.219025 0.930474 0.066252
0.291423 0.930931 0.066887
0.366680 0.931440 0.067704
0.442311 0.932189 0.068787
0.516875 0.933153 0.070179
0.589671 0.934406 0.071885
0.660446 0.935787 0.073946
0.729325 0.937468 0.076354
0.796152 0.938832 0.079059
0.858975 0.937999 0.081707
0.911044 0.928606 0.083101
0.953027 0.915529 0.082407
0.976961 0.897693 0.080071
0.074358 0.802959 0.054809
0.091468 0.803135 0.055237
0.133229 0.803382 0.055975
0.200377 0.803656 0.056732
0.277923 0.803979 0.057241
0.359171 0.804365 0.057700
0.440160 0.804895 0.058365
0.517769 0.805733 0.059339
0.589931 0.806627 0.060597
0.656100 0.807809 0.062103
0.716592 0.809080 0.063822
0.772560 0.810642 0.065752
0.825221 0.812114 0.067848
0.886230 0.824555 0.069682
0.935102 0.828726 0.070624
0.965311 0.824884 0.070431
0.047882 0.478622 0.035280
0.061474 0.478969 0.036049
0.097608 0.479553 0.037298
0.166653 0.480040 0.038356
0.252152 0.480184 0.038554
0.340963 0.480215 0.038362
0.427797 0.480418 0.038349
0.508789 0.481570 0.038751
0.602784 0.503520 0.039473
0.684854 0.521447 0.040348
0.753853 0.535524 0.041264
0.811296 0.546745 0.042182
0.859596 0.555802 0.043112
0.900027 0.562514 0.043993
0.931266 0.565979 0.044654
0.950466 0.565428 0.044885
0.034661 0.189709 0.025682
0.044648 0.190239 0.026034
0.072890 0.191270 0.026981
0.129620 0.192416 0.027633
0.211026 0.193171 0.027212
0.316529 0.210177 0.026320
0.430066 0.228861 0.025729
0.540844 0.245794 0.025744
0.640490 0.259597 0.026222
0.724483 0.269904 0.026894
0.791674 0.277257 0.027550
0.843615 0.282304 0.028112
0.883148 0.285734 0.028569
0.912490 0.288070 0.028940
0.932212 0.289528 0.029217
0.943112 0.290214 0.029392
0.030994 0.051254 0.023232
0.039564 0.051685 0.022984
0.063711 0.052819 0.023210
0.117336 0.057298 0.023379
0.210007 0.065578 0.022836
0.319798 0.077833 0.021998
0.436993 0.092110 0.021505
0.551052 0.104843 0.021615
0.653138 0.113096 0.022150
0.738094 0.115813 0.022828
0.805001 0.113723 0.023428
0.855475 0.108405 0.023878
0.892520 0.101411 0.024163
0.918311 0.093798 0.024317
0.934193 0.086538 0.024356
0.941709 0.080981 0.024335
0.030064 0.098796 0.023087
0.040201 0.098965 0.021885
0.067637 0.099713 0.021441
0.119099 0.102282 0.021415
0.209968 0.118124 0.021505
0.318716 0.142034 0.021674
0.436244 0.168020 0.022131
0.551113 0.189252 0.022908
0.653843 0.201965 0.023773
0.739343 0.205791 0.024537
0.806396 0.202257 0.025080
0.856930 0.193731 0.025386
0.893882 0.182299 0.025504
0.919592 0.169317 0.025485
0.935255 0.156305 0.025374
0.942586 0.145880 0.025241
0.028757 0.184477 0.022875
0.042094 0.184590 0.020651
0.076376 0.184890 0.019796
0.135551 0.186482 0.019766
0.214539 0.191720 0.020491
0.320760 0.218713 0.021937
0.437423 0.249758 0.023865
0.552746 0.276452 0.025859
0.656209 0.292781 0.027421
0.741899 0.297485 0.028315
0.809007 0.292603 0.028631
0.859369 0.281207 0.028555
0.896079 0.266024 0.028270
0.921532 0.248892 0.027866
0.936964 0.231784 0.027430
0.944065 0.218053 0.027067
0.030919 0.292778 0.025533
0.048487 0.292927 0.022260
0.092683 0.293216 0.021216
0.163481 0.294053 0.021205
0.244217 0.297037 0.022105
0.329681 0.304314 0.023947
0.443109 0.336640 0.026819
0.557340 0.366210 0.030107
0.660692 0.384897 0.032709
0.746394 0.390110 0.033969
0.813123 0.383575 0.034008
0.863004 0.369177 0.033336
0.899289 0.350261 0.032382
0.924335 0.328928 0.031369
0.939400 0.307699 0.030430
0.946302 0.290747 0.029719
0.037460 0.415648 0.031721
0.059423 0.415832 0.027429
0.114746 0.416212 0.026308
0.196111 0.417004 0.026383
0.280421 0.418770 0.027349
0.366470 0.422768 0.029094
0.454424 0.429615 0.031954
0.565351 0.459146 0.035718
0.667353 0.478747 0.039199
0.752462 0.483736 0.041056
0.818691 0.475343 0.041090
0.867952 0.457660 0.039822
0.903580 0.434752 0.038019
0.927966 0.409110 0.036157
0.942592 0.383784 0.034506
0.949165 0.363522 0.033314
0.047234 0.540620 0.040461
0.072680 0.540830 0.035340
0.137550 0.541285 0.034205
0.224850 0.542096 0.034384
0.313143 0.543575 0.035459
0.401316 0.545904 0.037107
0.489362 0.549454 0.039570
0.574394 0.552310 0.042858
0.674853 0.572462 0.046267
0.759525 0.577763 0.048609
0.825255 0.567643 0.049046
0.873752 0.546561 0.047677
0.908618 0.519551 0.045204
0.932435 0.489582 0.042375
0.946434 0.459977 0.039806
0.952678 0.436417 0.037977
0.057881 0.654954 0.049738
0.085172 0.655115 0.044138
0.155241 0.655544 0.043017
0.244126 0.656363 0.043238
0.334647 0.657534 0.044366
0.424677 0.659284 0.046001
0.513807 0.661581 0.048229
0.600080 0.663228 0.051010
0.678280 0.660030 0.053924
0.764563 0.668171 0.056087
0.831637 0.659065 0.056914
0.880213 0.635762 0.055944
0.914469 0.604788 0.053417
0.937546 0.570259 0.049929
0.950950 0.536367 0.046447
0.956738 0.509411 0.043857
0.067450 0.750622 0.057855
0.094789 0.750724 0.052180
0.165113 0.751107 0.051090
0.252933 0.751801 0.051330
0.343369 0.752810 0.052435
0.433502 0.754335 0.054001
0.522680 0.756180 0.056086
0.610061 0.757986 0.058672
0.692154 0.757062 0.061420
0.761796 0.747418 0.063597
0.834045 0.744295 0.064427
0.885747 0.723193 0.063770
0.920582 0.689987 0.061629
0.943118 0.651248 0.058139
0.956013 0.612996 0.054193
0.961281 0.582605 0.051001
0.075020 0.825726 0.064043
0.101018 0.825855 0.058610
0.168398 0.826200 0.057603
0.253132 0.826754 0.057818
0.341430 0.827641 0.058840
0.429764 0.828767 0.060296
0.517426 0.830400 0.062228
0.603891 0.832263 0.064656
0.687836 0.833339 0.067452
0.764437 0.829919 0.070021
0.825916 0.814949 0.071459
0.885978 0.802852 0.071006
0.925231 0.772779 0.069055
0.948833 0.732115 0.065903
0.961407 0.689865 0.062184
0.966422 0.656111 0.058945
0.080578 0.882254 0.068362
0.104434 0.882310 0.063363
0.167079 0.882588 0.062472
0.247439 0.883038 0.062665
0.332215 0.883823 0.063581
0.417522 0.884756 0.064890
0.502343 0.886170 0.066623
0.586282 0.887745 0.068815
0.668893 0.889518 0.071491
0.748578 0.890018 0.074389
0.819698 0.884529 0.076758
0.873852 0.865836 0.077481
0.923930 0.846966 0.075945
0.952973 0.810284 0.072896
0.966844 0.766395 0.069407
0.971734 0.729556 0.066503
0.084487 0.923519 0.071204
0.105902 0.923651 0.066736
0.163030 0.923889 0.065942
0.238342 0.924233 0.066118
0.318843 0.924797 0.066937
0.400390 0.925684 0.068086
0.481592 0.926799 0.069614
0.562058 0.928164 0.071544
0.641747 0.929805 0.073932
0.720209 0.931417 0.076748
0.795321 0.931416 0.079688
0.861134 0.924556 0.081842
0.909044 0.903204 0.081948
0.950374 0.879180 0.079484
0.970399 0.840215 0.075832
0.976828 0.802803 0.072719
0.087086 0.952347 0.072916
0.106025 0.952428 0.068988
0.157437 0.952568 0.068314
0.227391 0.952911 0.068466
0.303225 0.953407 0.069172
0.380535 0.954116 0.070174
0.457819 0.954993 0.071500
0.534541 0.956208 0.073182
0.610455 0.957614 0.075269
0.685732 0.959141 0.077757
0.759813 0.960782 0.080642
0.830461 0.960356 0.083559
0.891203 0.952460 0.085467
0.933184 0.928885 0.085027
0.966660 0.903984 0.082098
0.980031 0.873175 0.078679
0.084392 0.929994 0.071732
0.099877 0.930079 0.067545
0.146094 0.930207 0.067203
0.213049 0.930471 0.067689
0.287102 0.930921 0.068642
0.363492 0.931434 0.069774
0.439949 0.932199 0.071097
0.515100 0.933146 0.072623
0.588373 0.934398 0.074357
0.659543 0.935789 0.076321
0.728696 0.937445 0.078586
0.795793 0.938850 0.081107
0.858727 0.937993 0.083554
0.910996 0.928599 0.084797
0.953074 0.915527 0.083921
0.976950 0.897596 0.081470
0.072026 0.803106 0.065541
0.082221 0.803204 0.059702
0.124155 0.803415 0.060122
0.193271 0.803667 0.061557
0.272460 0.803977 0.063364
0.354919 0.804376 0.065118
0.436990 0.804932 0.066780
0.515443 0.805724 0.068267
0.588338 0.806692 0.069564
0.654987 0.807797 0.070690
0.715797 0.809128 0.071751
0.772235 0.810636 0.072906
0.824984 0.812094 0.074192
0.886171 0.824436 0.075275
0.935099 0.828613 0.075546
0.965323 0.824718 0.074876
0.048211 0.478969 0.051124
0.055728 0.479152 0.046874
0.089884 0.479498 0.046295
0.159867 0.479759 0.048995
0.247542 0.479711 0.051849
0.338085 0.479558 0.054289
0.426492 0.479682 0.056250
0.508774 0.480881 0.057651
0.602830 0.501985 0.058359
0.684970 0.519266 0.058367
0.753980 0.533139 0.057846
0.811507 0.544333 0.057064
0.859752 0.553490 0.056272
0.900146 0.560306 0.055522
0.931384 0.563959 0.054761
0.950617 0.563494 0.053973
0.035243 0.190261 0.040128
0.042983 0.190415 0.038846
0.069866 0.190780 0.038460
0.127899 0.190908 0.040554
0.211250 0.190323 0.042511
0.317855 0.204581 0.043891
0.431555 0.219665 0.044903
0.542256 0.233622 0.045623
0.641656 0.245534 0.045889
0.725619 0.255319 0.045557
0.792670 0.263084 0.044702
0.844496 0.269094 0.043527
0.884006 0.273833 0.042232
0.913299 0.277527 0.040954
0.933061 0.280239 0.039804
0.943966 0.281908 0.038971
0.031035 0.051614 0.036781
0.038569 0.051689 0.035900
0.062297 0.051851 0.034825
0.117251 0.053046 0.034700
0.212049 0.055021 0.034503
0.323116 0.058284 0.033923
0.440639 0.062735 0.033344
0.554468 0.067017 0.033118
0.656048 0.069670 0.033116
0.740705 0.070112 0.033069
0.807209 0.068549 0.032817
0.857564 0.065682 0.032381
0.894440 0.062169 0.031822
0.920326 0.058454 0.031192
0.936091 0.054979 0.030579
0.943509 0.052337 0.030091
0.029297 0.098918 0.040706
0.036388 0.099062 0.037281
0.061365 0.099356 0.032294
0.116078 0.100026 0.030152
0.210868 0.110990 0.029263
0.321886 0.128088 0.028792
0.440028 0.147668 0.028396
0.554759 0.164001 0.028361
0.657125 0.173543 0.028601
0.742253 0.175742 0.028895
0.808995 0.171848 0.029071
0.859380 0.163821 0.029088
0.896293 0.153397 0.028980
0.921930 0.141753 0.028772
0.937646 0.130255 0.028527
0.945021 0.121082 0.028309
0.027277 0.184552 0.047180
0.034017 0.184886 0.040200
0.062061 0.185404 0.029938
0.126039 0.186270 0.026249
0.211863 0.189222 0.025550
0.321978 0.212985 0.026606
0.440004 0.239860 0.027863
0.555515 0.262712 0.029169
0.658769 0.276303 0.030191
0.744321 0.279448 0.030749
0.811293 0.273884 0.030875
0.861669 0.262521 0.030725
0.898359 0.247804 0.030413
0.923894 0.231341 0.030019
0.939337 0.215040 0.029617
0.946547 0.202047 0.029284
0.028946 0.292915 0.058494
0.035569 0.293326 0.047453
0.068470 0.293986 0.031238
0.146242 0.294781 0.026418
0.237247 0.296992 0.025710
0.327830 0.302403 0.027513
0.443811 0.332557 0.030219
0.558849 0.359329 0.033190
0.662418 0.375659 0.035456
0.748031 0.379145 0.036451
0.814854 0.371789 0.036325
0.864933 0.357058 0.035570
0.901263 0.338247 0.034580
0.926329 0.317217 0.033582
0.941593 0.296497 0.032659
0.948509 0.279945 0.031979
0.035213 0.415803 0.074170
0.041870 0.416194 0.058934
0.080338 0.416944 0.036628
0.172789 0.417776 0.031034
0.268911 0.419406 0.030167
0.361764 0.422673 0.031971
0.452857 0.428008 0.034874
0.565618 0.456111 0.038606
0.668393 0.473932 0.041974
0.753676 0.477316 0.043678
0.819958 0.467836 0.043559
0.869345 0.449622 0.042187
0.905070 0.426496 0.040325
0.929657 0.401036 0.038458
0.944410 0.375909 0.036808
0.951079 0.355931 0.035634
0.044878 0.540793 0.091198
0.051536 0.541135 0.072361
0.094554 0.541836 0.044862
0.197294 0.542721 0.038873
0.297842 0.544139 0.037953
0.393610 0.546278 0.039657
0.486026 0.549339 0.042202
0.573240 0.551121 0.045574
0.675034 0.570255 0.049025
0.760351 0.574296 0.051344
0.826143 0.563040 0.051688
0.874863 0.541317 0.050217
0.909911 0.513981 0.047659
0.933788 0.483878 0.044789
0.947992 0.454378 0.042211
0.954219 0.430904 0.040379
0.055556 0.655165 0.105670
0.062051 0.655347 0.084465
0.107270 0.655983 0.053718
0.214222 0.656858 0.047639
0.316962 0.658088 0.046759
0.414563 0.659652 0.048430
0.508471 0.661928 0.050716
0.597713 0.663169 0.053588
0.677453 0.659115 0.056587
0.764766 0.666548 0.058797
0.832177 0.656477 0.059640
0.880933 0.632456 0.058633
0.915382 0.600985 0.056040
0.938601 0.566284 0.052490
0.952251 0.532329 0.048980
0.958130 0.505457 0.046366
0.065256 0.750685 0.115066
0.071385 0.750960 0.093120
0.116176 0.751510 0.061453
0.222174 0.752199 0.055601
0.324356 0.753299 0.054770
0.421804 0.754653 0.056377
0.515704 0.756504 0.058520
0.606207 0.758228 0.061166
0.690339 0.756975 0.063996
0.761186 0.746730 0.066237
0.834157 0.743114 0.067100
0.886185 0.721267 0.066493
0.921230 0.687633 0.064374
0.943998 0.648555 0.060860
0.957045 0.610147 0.056877
0.962407 0.579751 0.053646
0.073018 0.825858 0.119315
0.078674 0.826007 0.097957
0.121044 0.826549 0.067328
0.222679 0.827129 0.061934
0.321977 0.828036 0.061168
0.417302 0.829114 0.062656
0.509396 0.830726 0.064624
0.598961 0.832506 0.067104
0.685176 0.833516 0.069954
0.763208 0.829860 0.072605
0.825466 0.814491 0.074078
0.886089 0.801979 0.073692
0.925768 0.771503 0.071819
0.949491 0.730376 0.068721
0.962226 0.687915 0.064994
0.967253 0.654110 0.061727
0.078803 0.882321 0.119642
0.083917 0.882504 0.099772
0.122727 0.882920 0.071389
0.218063 0.883380 0.066595
0.313011 0.884122 0.065908
0.404830 0.885144 0.067238
0.493743 0.886389 0.069004
0.580545 0.888053 0.071251
0.665387 0.889765 0.073974
0.746624 0.890161 0.076940
0.818755 0.884534 0.079354
0.873649 0.865513 0.080141
0.924041 0.846388 0.078655
0.953416 0.809323 0.075678
0.967450 0.765238 0.072261
0.972408 0.728282 0.069386
0.082939 0.923619 0.117617
0.087545 0.923799 0.099621
0.122373 0.924194 0.074036
0.210527 0.924558 0.069854
0.300252 0.925243 0.069275
0.387732 0.925997 0.070440
0.472859 0.927145 0.071990
0.556001 0.928434 0.073968
0.637638 0.930116 0.076393
0.717591 0.931673 0.079263
0.793843 0.931543 0.082271
0.860460 0.924631 0.084464
0.908890 0.903071 0.084613
0.950506 0.878757 0.082214
0.970868 0.839570 0.078616
0.977313 0.801998 0.075581
0.085776 0.952400 0.114206
0.089858 0.952555 0.098209
0.120723 0.952851 0.075588
0.201367 0.953204 0.072008
0.285502 0.953690 0.071522
0.368327 0.954394 0.072543
0.449175 0.955371 0.073891
0.528292 0.956487 0.075590
0.606032 0.957802 0.077714
0.682741 0.959448 0.080260
0.757878 0.960991 0.083202
0.829349 0.960526 0.086165
0.890714 0.952477 0.088112
0.933097 0.928833 0.087718
0.966853 0.903800 0.084804
0.980380 0.872834 0.081422
0.083411 0.930099 0.111207
0.087506 0.930220 0.097732
0.112425 0.930453 0.075974
0.188222 0.930793 0.073489
0.269934 0.931207 0.073865
0.351360 0.931775 0.075557
0.431123 0.932598 0.077377
0.508680 0.933525 0.079180
0.583681 0.934636 0.080969
0.656187 0.936019 0.082791
0.726410 0.937656 0.084784
0.794339 0.939010 0.086969
0.857971 0.938153 0.089043
0.910669 0.928599 0.089922
0.953015 0.915408 0.088729
0.977134 0.897378 0.086043
0.071543 0.803178 0.109516
0.076561 0.803354 0.099391
0.093336 0.803532 0.076135
0.168434 0.803825 0.074764
0.255235 0.804173 0.077524
0.342623 0.804655 0.081515
0.427975 0.805181 0.085148
0.508978 0.805957 0.087759
0.583752 0.806895 0.089133
0.651894 0.808040 0.089504
0.713866 0.809307 0.089239
0.771019 0.810838 0.088807
0.824265 0.812048 0.088478
0.885780 0.824249 0.088003
0.935009 0.828344 0.086903
0.965406 0.824273 0.085248
0.048157 0.479181 0.099476
0.055343 0.479183 0.094423
0.076632 0.479324 0.082361
0.139875 0.479458 0.076167
0.234911 0.479470 0.082721
0.330215 0.479518 0.090480
0.422338 0.479762 0.097130
0.507232 0.480598 0.101076
0.601650 0.499871 0.101888
0.684002 0.515956 0.099914
0.753344 0.529219 0.096054
0.811052 0.540170 0.091339
0.859469 0.549386 0.086536
0.900035 0.556444 0.081998
0.931390 0.560369 0.077955
0.950688 0.560077 0.074831
0.034729 0.191040 0.080184
0.042805 0.190454 0.079016
0.066732 0.189838 0.076521
0.122797 0.189242 0.075992
0.210774 0.188265 0.082532
0.317791 0.197163 0.089909
0.431778 0.205518 0.096013
0.542666 0.213373 0.099286
0.642383 0.221215 0.099242
0.726223 0.229308 0.096236
0.793289 0.237358 0.091163
0.845238 0.245053 0.085078
0.884711 0.252048 0.078854
0.913981 0.258197 0.072964
0.933845 0.263281 0.067843
0.944660 0.266642 0.064155
0.029894 0.054209 0.072764
0.037441 0.052906 0.072509
0.061321 0.050388 0.072261
0.116780 0.048588 0.073601
0.213227 0.046121 0.080652
0.325643 0.043229 0.091363
0.444082 0.040630 0.103253
0.558118 0.038858 0.113225
0.659633 0.037818 0.119110
0.743985 0.037158 0.120170
0.810331 0.036616 0.117019
0.860551 0.036069 0.111021
0.897411 0.035514 0.103617
0.923109 0.034949 0.095755
0.938918 0.034427 0.088377
0.946300 0.034023 0.082790
0.028599 0.099622 0.078164
0.034688 0.099185 0.076246
0.056515 0.098336 0.071668
0.111394 0.096685 0.065200
0.211429 0.097701 0.062219
0.327220 0.098975 0.060759
0.447837 0.100758 0.059233
0.563094 0.102538 0.057428
0.665266 0.102774 0.055615
0.749728 0.100522 0.053780
0.816050 0.096179 0.051807
0.866073 0.090626 0.049760
0.902761 0.084653 0.047748
0.928354 0.078790 0.045852
0.944070 0.073542 0.044198
0.951355 0.069685 0.043023
0.027074 0.184763 0.094173
0.031291 0.185071 0.088666
0.050100 0.185611 0.075057
0.106867 0.185899 0.056250
0.206587 0.185334 0.049521
0.324992 0.201124 0.047954
0.447401 0.217972 0.047540
0.564092 0.231891 0.046703
0.667349 0.239201 0.045742
0.752605 0.238850 0.044773
0.819282 0.232033 0.043765
0.869442 0.220902 0.042743
0.906061 0.207410 0.041782
0.931560 0.192862 0.040884
0.947152 0.178754 0.040107
0.954410 0.167677 0.039567
0.029046 0.293030 0.119909
0.031876 0.293627 0.110079
0.048137 0.294860 0.085979
0.107955 0.296382 0.052878
0.221197 0.297339 0.043212
0.324346 0.298977 0.041828
0.447260 0.324158 0.043950
0.564813 0.344765 0.045820
0.668903 0.355823 0.046878
0.754923 0.355975 0.046897
0.821795 0.346886 0.046074
0.871940 0.331664 0.044878
0.908435 0.313178 0.043637
0.933716 0.293102 0.042505
0.949071 0.273532 0.041560
0.956202 0.258083 0.040892
0.035409 0.416060 0.149931
0.037495 0.416644 0.137308
0.052255 0.417995 0.103758
0.116229 0.419859 0.056322
0.241782 0.421414 0.044587
0.351152 0.423330 0.042924
0.450688 0.425645 0.046018
0.567820 0.450460 0.049764
0.672398 0.464333 0.052891
0.758386 0.464468 0.054185
0.825088 0.452973 0.053571
0.874848 0.433820 0.051776
0.911012 0.410540 0.049623
0.935873 0.385347 0.047583
0.950947 0.360858 0.045874
0.957887 0.341529 0.044699
0.045147 0.541034 0.176110
0.046935 0.541582 0.161815
0.060922 0.542741 0.123423
0.128350 0.544573 0.064160
0.262077 0.546238 0.051210
0.376060 0.548033 0.049066
0.479166 0.549877 0.051861
0.571653 0.549402 0.055568
