LUT color transfer/LUTs/99.cube
LUT_3D_SIZE 6
0.026834 0.020615 0.017609
0.116228 0.026428 0.022011
0.437713 0.028639 0.019579
0.737004 0.032256 0.020558
0.891282 0.032243 0.022371
0.940601 0.030527 0.023000
0.031407 0.098751 0.019803
0.119951 0.102993 0.020332
0.435573 0.172577 0.021528
0.738936 0.212407 0.024247
0.893501 0.188668 0.025243
0.942179 0.151426 0.024961
0.043305 0.415587 0.025090
0.201224 0.416895 0.025985
0.454818 0.430002 0.031529
0.752473 0.485372 0.040717
0.903391 0.436730 0.037731
0.948861 0.365443 0.033006
0.075427 0.750613 0.049759
0.259677 0.751728 0.051001
0.524310 0.756151 0.055728
0.762027 0.747611 0.063215
0.920434 0.690623 0.061225
0.961171 0.583405 0.050627
0.090764 0.923528 0.064887
0.244568 0.924318 0.065788
0.483610 0.926748 0.069256
0.720826 0.931393 0.076364
0.909149 0.903307 0.081540
0.976818 0.803027 0.072312
0.074358 0.802959 0.054809
0.200377 0.803656 0.056732
0.440160 0.804895 0.058365
0.656100 0.807809 0.062103
0.825221 0.812114 0.067848
0.965311 0.824884 0.070431
0.048157 0.479181 0.099476
0.139875 0.479458 0.076167
0.422338 0.479762 0.097130
0.684002 0.515956 0.099914
0.859469 0.549386 0.086536
0.950688 0.560077 0.074831
0.028599 0.099622 0.078164
0.111394 0.096685 0.065200
0.447837 0.100758 0.059233
0.749728 0.100522 0.053780
0.902761 0.084653 0.047748
0.951355 0.069685 0.043023
0.035409 0.416060 0.149931
0.116229 0.419859 0.056322
0.450688 0.425645 0.046018
0.758386 0.464468 0.054185
0.911012 0.410540 0.049623
0.957887 0.341529 0.044699
0.065515 0.750935 0.202840
0.145932 0.753500 0.079800
0.500816 0.757936 0.067243
0.760515 0.746113 0.075620
0.923803 0.683731 0.074474
0.966452 0.575311 0.063548
0.083149 0.923736 0.191612
0.144947 0.925537 0.089066
0.454592 0.928321 0.080451
0.712534 0.932564 0.088095
0.908897 0.903041 0.093886
0.979044 0.801045 0.085663
0.071324 0.803138 0.186151
0.122726 0.804484 0.119271
0.411526 0.806155 0.118436
0.646533 0.808847 0.123561
0.823313 0.812491 0.115168
0.965610 0.823642 0.105534
0.047365 0.479269 0.380047
0.141878 0.479508 0.366466
0.405076 0.483544 0.340744
0.682178 0.499417 0.335786
0.859600 0.523684 0.281585
0.951532 0.535390 0.230612
0.025284 0.169794 0.392411
0.107448 0.088160 0.408342
0.450771 0.058287 0.407376
0.756612 0.055391 0.434217
0.909063 0.054673 0.382735
0.954757 0.057724 0.318916
0.037266 0.423983 0.403881
0.072172 0.422805 0.404185
0.430950 0.411764 0.380509
0.792498 0.381404 0.347634
0.938802 0.347755 0.325533
0.972155 0.336022 0.320624
0.067378 0.752471 0.477400
0.092502 0.756581 0.447776
0.370766 0.772648 0.301490
0.765336 0.752828 0.296556
0.944925 0.682057 0.330414
0.978689 0.591611 0.358121
0.084482 0.924665 0.437998
0.107693 0.927812 0.403238
0.332770 0.942286 0.277542
0.688640 0.944423 0.277759
0.916202 0.911512 0.289664
0.987132 0.811263 0.355228
0.071877 0.803482 0.444203
0.128374 0.805798 0.420346
0.377751 0.813154 0.382935
0.644563 0.815464 0.378720
0.832757 0.817809 0.349148
0.968883 0.817903 0.332362
0.045496 0.517713 0.653423
0.139282 0.510827 0.648786
0.421626 0.492752 0.656922
0.721386 0.487675 0.684547
0.880152 0.489572 0.616040
0.954515 0.485264 0.528963
0.022982 0.206602 0.724917
0.094851 0.077401 0.747070
0.484691 0.047534 0.749503
0.746498 0.049022 0.724376
0.908589 0.052987 0.654270
0.955080 0.056865 0.550980
0.036849 0.480037 0.727693
0.065247 0.457794 0.744702
0.379478 0.351150 0.790399
0.783785 0.343902 0.768747
0.940823 0.359140 0.668123
0.973987 0.370483 0.578433
0.069631 0.748674 0.741025
0.094248 0.749774 0.742972
0.358036 0.760064 0.757652
0.767089 0.755777 0.758149
0.947158 0.742522 0.737892
0.985978 0.734001 0.730489
0.087203 0.926447 0.687011
0.110585 0.929221 0.677846
0.348811 0.943584 0.661135
0.734897 0.946730 0.714103
0.933363 0.931549 0.732994
0.992049 0.881948 0.758156
0.072189 0.804295 0.649705
0.122863 0.806421 0.641440
0.392846 0.813867 0.649326
0.730957 0.817843 0.741504
0.888830 0.820843 0.729244
0.975193 0.811880 0.697070
0.044182 0.548573 0.828311
0.112850 0.540774 0.826630
0.362498 0.510480 0.831639
0.677658 0.487304 0.865353
0.892048 0.490717 0.875977
0.958287 0.489417 0.790625
0.020217 0.176973 0.885444
0.073096 0.059224 0.904906
0.425299 0.043225 0.908311
0.682178 0.043562 0.903718
0.888356 0.049532 0.879429
0.955489 0.055008 0.768944
0.028899 0.423994 0.884986
0.056459 0.397702 0.904554
0.332066 0.306269 0.935762
0.687360 0.329324 0.940303
0.920297 0.333230 0.916386
0.975268 0.357030 0.790484
0.052341 0.677344 0.904133
0.074817 0.672169 0.913245
0.351543 0.670458 0.944434
0.731205 0.714812 0.952000
0.939115 0.733773 0.938107
0.987625 0.744296 0.867491
0.087020 0.906603 0.905140
0.110156 0.908376 0.907388
0.348207 0.922269 0.923581
0.741392 0.936062 0.938323
0.942903 0.939534 0.943254
0.995391 0.936878 0.937527
0.073604 0.808138 0.813625
0.113559 0.809198 0.811777
0.367699 0.816602 0.826327
0.707949 0.820548 0.883572
0.911460 0.820245 0.929721
0.980697 0.817264 0.907665
0.044257 0.564808 0.932866
0.091704 0.558768 0.933104
0.305296 0.528630 0.934239
0.587613 0.486791 0.940756
0.803001 0.489440 0.949581
0.945441 0.491820 0.957554
0.018815 0.132969 0.935480
0.059247 0.047776 0.948956
0.347874 0.043779 0.951896
0.567355 0.043837 0.949758
0.767772 0.046409 0.949752
0.936126 0.051244 0.953895
0.023668 0.343135 0.932506
0.055199 0.320533 0.949625
0.307642 0.281882 0.965598
0.581531 0.328605 0.969753
0.786217 0.332709 0.972404
0.955719 0.337197 0.975683
0.037235 0.553643 0.942302
0.063758 0.547898 0.954156
0.359723 0.562368 0.973774
0.707670 0.689508 0.984002
0.863788 0.728641 0.987073
0.974762 0.732182 0.988941
0.061436 0.769189 0.962082
0.086064 0.769173 0.968295
0.374860 0.782143 0.982465
0.751290 0.859429 0.990975
0.933123 0.928293 0.996207
0.991521 0.938642 0.997897
0.092925 0.960574 0.983300
0.118380 0.962435 0.985716
0.394821 0.969316 0.992705
0.762305 0.981075 0.997051
0.945532 0.993173 0.999965
0.998597 0.998495 0.999965
