LUTs/100.cube
LUT_3D_SIZE 16
0.109667 0.092967 0.086825
0.120891 0.095089 0.088767
0.153258 0.098396 0.091591
0.215254 0.101299 0.093602
0.304522 0.102260 0.093270
0.410867 0.101450 0.091026
0.521792 0.101159 0.089474
0.628234 0.103748 0.091135
0.726089 0.109849 0.096675
0.812556 0.118942 0.105598
0.882946 0.131760 0.118812
0.932101 0.149759 0.137807
0.958204 0.172094 0.161243
0.970782 0.194025 0.184042
0.979044 0.219768 0.210387
0.988951 0.253647 0.244599
0.112951 0.104074 0.089644
0.123394 0.105522 0.090781
0.154344 0.108377 0.092420
0.214790 0.112160 0.093165
0.302976 0.115862 0.091746
0.408653 0.119230 0.089056
0.519268 0.123334 0.087731
0.625824 0.129156 0.089895
0.724135 0.136700 0.095943
0.810914 0.145312 0.105179
0.881662 0.155626 0.118399
0.931386 0.169598 0.137184
0.957898 0.187474 0.160583
0.970603 0.205889 0.183620
0.978961 0.229007 0.210316
0.988829 0.261054 0.244870
0.115088 0.132224 0.091132
0.125379 0.132779 0.091460
0.154979 0.134433 0.091605
0.213061 0.139069 0.090593
0.298994 0.147042 0.087754
0.403231 0.157646 0.084715
0.513533 0.169071 0.084078
0.620618 0.179868 0.087387
0.719542 0.189347 0.094527
0.806950 0.197175 0.104505
0.878489 0.203988 0.117893
0.929301 0.211641 0.136242
0.956913 0.221564 0.159267
0.970197 0.233023 0.182664
0.978763 0.250552 0.210091
0.988758 0.278660 0.245495
0.111534 0.183165 0.087207
0.123443 0.183014 0.087014
0.154807 0.183197 0.086249
0.210269 0.185381 0.084200
0.292932 0.195446 0.080860
0.394836 0.211752 0.078366
0.504594 0.230380 0.079224
0.612262 0.246743 0.084329
0.712137 0.258934 0.093091
0.800410 0.266708 0.104298
0.872976 0.270726 0.118048
0.925217 0.272328 0.135582
0.954955 0.273389 0.157263
0.969376 0.276060 0.180983
0.978314 0.285994 0.209715
0.988451 0.308451 0.246713
0.102567 0.257450 0.078187
0.118098 0.257122 0.077895
0.155283 0.256432 0.077072
0.213310 0.256489 0.075446
0.288800 0.260513 0.073281
0.386539 0.277583 0.072468
0.494524 0.299881 0.075341
0.602247 0.320552 0.082537
0.702829 0.335639 0.093183
0.791581 0.344034 0.105852
0.865127 0.346241 0.119956
0.919299 0.343319 0.136002
0.951814 0.336758 0.154918
0.967847 0.331009 0.178623
0.977640 0.332945 0.209091
0.988094 0.349061 0.248526
0.097021 0.350307 0.072199
0.116798 0.350014 0.072039
0.161740 0.349251 0.071626
0.224732 0.348355 0.070927
0.299138 0.349051 0.070278
0.383959 0.354794 0.071091
0.486928 0.375364 0.075490
0.592482 0.397122 0.084342
0.692475 0.414012 0.096659
0.781305 0.423209 0.110738
0.855592 0.424458 0.124871
0.911481 0.418225 0.138684
0.947002 0.405981 0.153574
0.965373 0.393013 0.175918
0.976335 0.387586 0.208120
0.987300 0.397549 0.250652
0.102549 0.453156 0.076156
0.125719 0.452901 0.076179
0.176118 0.452355 0.076239
0.243148 0.451375 0.076417
0.318132 0.450542 0.076950
0.398696 0.451534 0.078677
0.484986 0.456903 0.083257
0.584960 0.475581 0.092296
0.682343 0.491963 0.105225
0.770333 0.501371 0.119924
0.844622 0.501895 0.133433
0.901708 0.493404 0.144902
0.939603 0.477115 0.155358
0.961024 0.458452 0.174038
0.974080 0.446663 0.206757
0.986247 0.451091 0.252307
0.120666 0.555433 0.091805
0.145358 0.555227 0.091969
0.195724 0.554724 0.092371
0.263130 0.553886 0.093128
0.338282 0.552701 0.094423
0.416798 0.551626 0.096616
0.497665 0.551917 0.100708
0.580504 0.554685 0.108098
0.672913 0.568136 0.119503
0.758579 0.576467 0.132623
0.831967 0.576121 0.144605
0.889479 0.566072 0.153836
0.929290 0.547001 0.160336
0.953921 0.524206 0.174169
0.969913 0.507472 0.205440
0.984130 0.507025 0.252648
0.147667 0.649241 0.116244
0.170346 0.649050 0.116473
0.216614 0.648510 0.117006
0.280889 0.647735 0.118021
0.354136 0.646362 0.119613
0.430870 0.644591 0.121897
0.508533 0.642657 0.125173
0.586369 0.641123 0.130202
0.663171 0.640134 0.137715
0.745195 0.646560 0.147379
0.817211 0.645389 0.156995
0.874694 0.634341 0.164325
0.915864 0.613680 0.168299
0.943259 0.588266 0.178064
0.962851 0.567910 0.205491
0.980504 0.563763 0.250912
0.174739 0.728918 0.142110
0.194020 0.728640 0.142317
0.234928 0.728238 0.142755
0.294046 0.727267 0.143648
0.363460 0.725798 0.145003
0.437188 0.723716 0.146881
0.512077 0.720989 0.149303
0.586683 0.717780 0.152544
0.659660 0.714013 0.157000
0.728854 0.708632 0.162971
0.799441 0.707517 0.169724
0.857143 0.696726 0.175176
0.899549 0.675560 0.177628
0.929511 0.648836 0.184252
0.953070 0.626481 0.205956
0.975488 0.619929 0.244882
0.196959 0.791701 0.163747
0.213173 0.791457 0.163888
0.248685 0.790978 0.164264
0.301856 0.789922 0.164913
0.366092 0.788314 0.165960
0.435654 0.786068 0.167395
0.507123 0.783132 0.169230
0.578504 0.779353 0.171478
0.648628 0.774781 0.174273
0.715647 0.768625 0.177789
0.776795 0.759040 0.181922
0.835514 0.750343 0.185525
0.879972 0.730919 0.186927
0.912987 0.704728 0.190623
0.940793 0.681808 0.204842
0.968206 0.674199 0.232889
0.213103 0.836811 0.179682
0.226729 0.836495 0.179799
0.257234 0.836000 0.180084
0.304355 0.834975 0.180581
0.362818 0.833344 0.181377
0.427360 0.831043 0.182429
0.494531 0.828039 0.183815
0.562243 0.824195 0.185466
0.629162 0.819443 0.187408
0.694123 0.813587 0.189648
0.754818 0.805234 0.192131
0.807681 0.791699 0.194374
0.855800 0.776798 0.195118
0.892907 0.753795 0.196325
0.925333 0.732488 0.202876
0.957235 0.725088 0.218114
0.223237 0.865127 0.189916
0.234696 0.864881 0.190017
0.260762 0.864366 0.190217
0.302083 0.863365 0.190605
0.354632 0.861819 0.191191
0.413753 0.859633 0.192027
0.476146 0.856765 0.193055
0.539621 0.853142 0.194313
0.602790 0.848635 0.195727
0.664842 0.843183 0.197350
0.724400 0.836237 0.199039
0.778969 0.826083 0.200572
0.824503 0.809688 0.201203
0.867687 0.793443 0.201535
0.905147 0.776435 0.204145
0.940179 0.770963 0.211759
0.230006 0.883923 0.196872
0.239614 0.883718 0.196941
0.261905 0.883295 0.197124
0.297938 0.882365 0.197401
0.344865 0.880977 0.197876
0.398578 0.879048 0.198506
0.456115 0.876369 0.199321
0.515272 0.873116 0.200297
0.574603 0.868937 0.201420
0.633398 0.864146 0.202677
0.690770 0.858250 0.203969
0.745391 0.850704 0.205258
0.794652 0.839514 0.206051
0.837683 0.824115 0.206785
0.881335 0.814519 0.208794
0.919098 0.812336 0.213887
0.229784 0.871791 0.197199
0.238265 0.871560 0.197344
0.258417 0.871174 0.197643
0.292218 0.870456 0.198039
0.337764 0.869220 0.198479
0.391323 0.867494 0.198968
0.449098 0.865254 0.199599
0.508299 0.862417 0.200514
0.567194 0.858940 0.201635
0.624752 0.854767 0.202984
0.680058 0.849898 0.204597
0.732294 0.844114 0.206501
0.780174 0.836706 0.208574
0.824437 0.827544 0.210989
0.868780 0.823265 0.214821
0.906580 0.824786 0.221265
0.213794 0.782742 0.182778
0.222320 0.782681 0.183233
0.243709 0.782504 0.184038
0.281908 0.781983 0.184861
0.336176 0.780946 0.185410
0.401302 0.779409 0.185634
0.470697 0.777480 0.185986
0.539421 0.775220 0.186986
0.605147 0.772619 0.188741
0.666477 0.769580 0.191225
0.721724 0.766351 0.194583
0.769127 0.762590 0.199295
0.813171 0.763094 0.205276
0.853474 0.763426 0.211793
0.890574 0.764263 0.220337
0.921276 0.768173 0.232571
0.160355 0.504431 0.134318
0.170662 0.504670 0.135391
0.198148 0.505009 0.137239
0.249531 0.505116 0.138944
0.322807 0.504484 0.139466
0.408454 0.503237 0.138870
0.495928 0.501862 0.138539
0.585740 0.507191 0.140022
0.673302 0.515368 0.143748
0.752648 0.522406 0.149352
0.819519 0.528023 0.157336
0.869908 0.532654 0.168879
0.902386 0.536447 0.183691
0.924843 0.539544 0.198791
0.943897 0.544507 0.217168
0.961641 0.553958 0.242029
0.125533 0.251059 0.103651
0.136059 0.251598 0.104435
0.166352 0.252564 0.105913
0.223189 0.253697 0.106852
0.304752 0.255728 0.106000
0.406525 0.261886 0.103911
0.513893 0.268446 0.102789
0.617689 0.275403 0.104726
0.713693 0.282468 0.110215
0.798811 0.289331 0.118705
0.868675 0.296231 0.130576
0.918259 0.304294 0.147366
0.945924 0.313877 0.168393
0.960677 0.323721 0.189251
0.971327 0.337034 0.213676
0.982933 0.357506 0.245719
0.114940 0.132387 0.094829
0.124898 0.132920 0.094692
0.154654 0.134158 0.094666
0.213122 0.137832 0.093718
0.299471 0.144328 0.091061
0.404181 0.153194 0.088023
0.514715 0.163031 0.087159
0.621866 0.172697 0.090128
0.720664 0.181636 0.096969
0.808077 0.189428 0.106781
0.879424 0.196719 0.120168
0.929863 0.205442 0.138567
0.957145 0.216784 0.161649
0.970281 0.229427 0.184808
0.978745 0.247909 0.211923
0.988724 0.276618 0.246956
0.110644 0.183190 0.091746
0.121645 0.183117 0.090446
0.153320 0.183168 0.089123
0.209758 0.184882 0.086931
0.293173 0.193994 0.083494
0.395565 0.209085 0.080832
0.505646 0.226594 0.081394
0.613378 0.242053 0.086196
0.713235 0.253807 0.094734
0.801471 0.261365 0.105817
0.873772 0.265491 0.119613
0.925895 0.267623 0.137323
0.955247 0.269530 0.159284
0.969452 0.273037 0.182965
0.978371 0.283675 0.211372
0.988491 0.306600 0.248053
0.100739 0.257453 0.083897
0.114345 0.257219 0.081465
0.151823 0.256506 0.079635
0.211608 0.256435 0.077649
0.288398 0.259990 0.075373
0.386814 0.276360 0.074373
0.495150 0.297834 0.077033
0.603031 0.317862 0.084045
0.703552 0.332435 0.094568
0.792390 0.340560 0.107155
0.865875 0.342793 0.121296
0.919939 0.339965 0.137556
0.952074 0.333917 0.156864
0.967954 0.328658 0.180578
0.977597 0.331018 0.210773
0.988058 0.347518 0.249880
0.094133 0.350317 0.078988
0.110877 0.350079 0.075611
0.156216 0.349377 0.073768
0.221550 0.348440 0.072595
0.297771 0.348954 0.071855
0.383627 0.354284 0.072564
0.487072 0.374400 0.076829
0.592904 0.395647 0.085591
0.693038 0.412117 0.097846
0.781961 0.421083 0.111878
0.856225 0.422150 0.126038
0.912073 0.415951 0.140046
0.947310 0.403921 0.155352
0.965518 0.391243 0.177788
0.976327 0.386091 0.209778
0.987346 0.396310 0.251974
0.098779 0.453180 0.083743
0.117998 0.453017 0.079676
0.169247 0.452490 0.078019
0.238846 0.451474 0.077690
0.315866 0.450585 0.078182
0.397669 0.451426 0.079833
0.484718 0.456523 0.084379
0.585068 0.474897 0.093373
0.682573 0.490872 0.106282
0.770739 0.500065 0.120937
0.845121 0.500393 0.134433
0.902152 0.491844 0.146002
0.939891 0.475594 0.156747
0.961186 0.457081 0.175649
0.974133 0.445491 0.208321
0.986207 0.450026 0.253582
0.116496 0.555441 0.099754
0.136766 0.555291 0.095360
0.188410 0.554824 0.093949
0.258241 0.553967 0.094191
0.335374 0.552759 0.095476
0.415207 0.551660 0.097651
0.496969 0.551861 0.101701
0.580329 0.554437 0.109111
0.672953 0.567661 0.120478
0.758738 0.575728 0.133529
0.832308 0.575241 0.145473
0.889879 0.565054 0.154736
0.929650 0.545982 0.161405
0.954191 0.523253 0.175440
0.970051 0.506548 0.206789
0.984170 0.506263 0.253899
0.143533 0.649277 0.124019
0.162480 0.649102 0.119716
0.209582 0.648682 0.118500
0.275930 0.647849 0.118991
0.351032 0.646460 0.120573
0.428914 0.644730 0.122849
0.507470 0.642695 0.126116
0.585905 0.641113 0.131093
0.663083 0.640041 0.138591
0.745257 0.646214 0.148191
0.817336 0.644894 0.157800
0.874995 0.633780 0.165098
0.916191 0.613006 0.169168
0.943486 0.587565 0.179050
0.963060 0.567229 0.206631
0.980629 0.563144 0.252096
0.171242 0.728939 0.148699
0.187212 0.728751 0.145044
0.228547 0.728313 0.144034
0.289270 0.727435 0.144481
0.360195 0.725969 0.145841
0.435053 0.723805 0.147689
0.510769 0.721075 0.150123
0.585955 0.717819 0.153331
0.659279 0.714023 0.157781
0.728776 0.708495 0.163749
0.799485 0.707205 0.170456
0.857343 0.696324 0.175896
0.899757 0.675223 0.178393
0.929733 0.648388 0.185075
0.953291 0.625985 0.206964
0.975574 0.619412 0.246050
0.194058 0.791714 0.169255
0.207431 0.791560 0.166192
0.243050 0.790976 0.165352
0.297437 0.789948 0.165672
0.362942 0.788472 0.166711
0.433471 0.786190 0.168142
0.505650 0.783189 0.169961
0.577584 0.779422 0.172194
0.648103 0.774799 0.174966
0.715381 0.768607 0.178486
0.776725 0.758904 0.182605
0.835612 0.750234 0.186206
0.880149 0.730711 0.187621
0.913065 0.704348 0.191408
0.940918 0.681445 0.205800
0.968269 0.673812 0.234060
0.210723 0.836822 0.184317
0.221892 0.836606 0.181783
0.252359 0.836095 0.181081
0.300351 0.835089 0.181283
0.359845 0.833416 0.182053
0.425228 0.831187 0.183147
0.493019 0.828142 0.184490
0.561152 0.824301 0.186153
0.628490 0.819560 0.188065
0.693741 0.813636 0.190287
0.754646 0.805210 0.192792
0.807620 0.791639 0.195000
0.855843 0.776674 0.195751
0.893044 0.753657 0.197048
0.925473 0.732174 0.203753
0.957350 0.724924 0.219239
0.221299 0.865143 0.193828
0.230678 0.864968 0.191742
0.256589 0.864470 0.191134
0.298568 0.863507 0.191292
0.351926 0.861932 0.191877
0.411768 0.859771 0.192678
0.474643 0.856853 0.193698
0.538554 0.853234 0.194957
0.602054 0.848695 0.196366
0.664387 0.843258 0.197971
0.724193 0.836283 0.199630
0.778792 0.826066 0.201199
0.824446 0.809617 0.201779
0.867739 0.793343 0.202169
0.905180 0.776338 0.204865
0.940234 0.770788 0.212580
0.228405 0.883948 0.200174
0.236303 0.883780 0.198464
0.258370 0.883333 0.197981
0.294893 0.882463 0.198066
0.342474 0.881090 0.198543
0.396772 0.879139 0.199162
0.454710 0.876482 0.199980
0.514221 0.873171 0.200928
0.573857 0.869023 0.202043
0.632832 0.864179 0.203279
0.690409 0.858297 0.204584
0.745210 0.850743 0.205813
0.794538 0.839504 0.206620
0.837672 0.824054 0.207367
0.881362 0.814455 0.209406
0.919177 0.812249 0.214524
0.228640 0.871846 0.200987
0.235460 0.871700 0.199422
0.255348 0.871296 0.199202
0.289462 0.870555 0.199660
0.335480 0.869358 0.200406
0.389479 0.867624 0.201215
0.447609 0.865281 0.202091
0.507118 0.862476 0.203064
0.566313 0.858983 0.204215
0.624112 0.854826 0.205490
0.679641 0.849909 0.206973
0.731954 0.844120 0.208673
0.779969 0.836731 0.210489
0.824352 0.827530 0.212671
0.868751 0.823221 0.216334
0.906619 0.824700 0.222627
0.213476 0.782888 0.189644
0.219750 0.782856 0.187884
0.240751 0.782578 0.188470
0.279017 0.782119 0.190068
0.333596 0.781038 0.192035
0.399108 0.779463 0.193701
0.468920 0.777536 0.195136
0.538080 0.775288 0.196664
0.604152 0.772618 0.198467
0.665792 0.769645 0.200615
0.721194 0.766313 0.203301
0.768949 0.762588 0.207039
0.812969 0.763006 0.211855
0.853344 0.763300 0.217272
0.890520 0.764134 0.224905
0.921255 0.768003 0.236493
0.161673 0.504934 0.148529
0.169712 0.505121 0.147672
0.195801 0.505219 0.148969
0.247129 0.505114 0.152976
0.320815 0.504249 0.157226
0.407207 0.502799 0.160496
0.495412 0.501230 0.162933
0.585664 0.506277 0.165529
0.673289 0.513916 0.168984
0.752693 0.520563 0.173355
0.819525 0.526048 0.179278
0.869880 0.530744 0.188016
0.902353 0.534787 0.199465
0.924795 0.538233 0.211542
0.943873 0.543397 0.227459
0.961604 0.553059 0.250476
0.127042 0.251998 0.121193
0.136572 0.252278 0.121405
0.165935 0.252848 0.123115
0.222910 0.253093 0.126937
0.305095 0.253835 0.130512
0.407330 0.257438 0.132812
0.515191 0.261285 0.134470
0.619252 0.266078 0.137220
0.715220 0.271870 0.141851
0.800255 0.278268 0.148330
0.869704 0.285744 0.157409
0.918791 0.295361 0.170796
0.946036 0.306880 0.187737
0.960698 0.318406 0.204858
0.971293 0.333050 0.226184
0.982952 0.354506 0.255872
0.115493 0.133128 0.113133
0.125092 0.133542 0.113022
0.154681 0.134289 0.113139
0.213460 0.135090 0.113472
0.300716 0.136235 0.112860
0.406762 0.138049 0.111368
0.518598 0.140888 0.110654
0.626155 0.145485 0.112861
0.725124 0.151904 0.118597
0.812120 0.159642 0.127240
0.882490 0.169509 0.139397
0.931453 0.183359 0.156769
0.957683 0.200539 0.177956
0.970358 0.217909 0.198790
0.978775 0.239847 0.223456
0.988690 0.270807 0.256374
0.110148 0.183189 0.114358
0.119562 0.183291 0.111847
0.149635 0.183357 0.107853
0.208258 0.183566 0.104585
0.294005 0.188778 0.100870
0.398515 0.198546 0.097545
0.510040 0.210910 0.096783
0.618418 0.222608 0.100177
0.718364 0.232084 0.107606
0.806293 0.239023 0.118076
0.877901 0.244080 0.131685
0.928496 0.249112 0.149948
0.956213 0.255162 0.172413
0.969643 0.262440 0.195193
0.978388 0.276036 0.221905
0.988478 0.300889 0.256691
0.099414 0.257280 0.113434
0.108772 0.257237 0.107462
0.140896 0.256841 0.098212
0.205013 0.256199 0.092722
0.286606 0.257929 0.088816
0.388248 0.271174 0.086694
0.498329 0.289145 0.088016
0.606991 0.306245 0.093954
0.707891 0.318869 0.103729
0.796701 0.325966 0.116014
0.869794 0.328185 0.130241
0.922714 0.326594 0.147561
0.953295 0.322877 0.168581
0.968250 0.320157 0.192184
0.977700 0.324656 0.220986
0.988108 0.342604 0.258203
0.092242 0.350148 0.115894
0.101366 0.350145 0.106220
0.136567 0.349790 0.091543
0.208418 0.348754 0.084896
0.291740 0.348503 0.082119
0.382219 0.352445 0.082104
0.488169 0.370515 0.085622
0.595177 0.389596 0.093798
0.695979 0.404276 0.105716
0.785228 0.412113 0.119599
0.859360 0.412712 0.133752
0.914599 0.406820 0.148756
0.948560 0.395926 0.166001
0.965912 0.384703 0.188927
0.976499 0.381056 0.219861
0.987368 0.392284 0.260229
0.096590 0.453058 0.126438
0.105412 0.453083 0.113991
0.143297 0.452892 0.095012
0.220584 0.451921 0.087923
0.305819 0.450803 0.086249
0.393344 0.451008 0.087581
0.483595 0.455005 0.091780
0.585792 0.472088 0.100507
0.684261 0.486659 0.113249
0.772963 0.494782 0.127669
0.847484 0.494407 0.141047
0.904376 0.485724 0.153209
0.941597 0.469873 0.165479
0.962021 0.452136 0.185570
0.974365 0.441498 0.217893
0.986318 0.446827 0.261676
0.114290 0.555326 0.144146
0.122649 0.555374 0.131093
0.160539 0.555283 0.110261
0.237464 0.554488 0.103273
0.322663 0.553130 0.102375
0.408458 0.551831 0.104441
0.493950 0.551524 0.108387
0.579540 0.553390 0.115684
0.673532 0.565748 0.126762
0.760026 0.572854 0.139488
0.833998 0.571646 0.151303
0.891710 0.561079 0.160806
0.931352 0.542005 0.168371
0.955385 0.519610 0.183578
0.970679 0.503439 0.215295
0.984487 0.503672 0.261607
0.141438 0.649129 0.165049
0.149180 0.649213 0.152791
0.183017 0.649052 0.133437
0.254827 0.648367 0.127231
0.337029 0.646930 0.126771
0.420529 0.645026 0.128930
0.502860 0.642868 0.132066
0.583809 0.640907 0.136879
0.662495 0.639234 0.144119
0.745813 0.644903 0.153549
0.818430 0.642962 0.163008
0.876370 0.631371 0.170412
0.917630 0.610409 0.174879
0.944799 0.584950 0.185476
0.963964 0.564891 0.213683
0.981040 0.561095 0.259327
0.169549 0.728780 0.184585
0.175907 0.728891 0.173647
0.204691 0.728670 0.156726
0.269190 0.727902 0.151524
0.346117 0.726434 0.151177
0.425891 0.724166 0.152962
0.505121 0.721388 0.155311
0.582785 0.718053 0.158409
0.657819 0.713821 0.162698
0.728507 0.708081 0.168545
0.799860 0.706330 0.175214
0.858142 0.695044 0.180685
0.900890 0.673546 0.183352
0.930884 0.646707 0.190563
0.954145 0.624326 0.213217
0.975961 0.617867 0.253149
0.192712 0.791583 0.200118
0.198046 0.791642 0.190653
0.222325 0.791394 0.176183
0.279124 0.790601 0.171881
0.349418 0.788898 0.171518
0.424191 0.786655 0.172900
0.499460 0.783529 0.174640
0.573673 0.779699 0.176797
0.645843 0.774948 0.179473
0.714483 0.768546 0.182895
0.776501 0.758587 0.186908
0.835965 0.749588 0.190544
0.880833 0.729816 0.192114
0.913976 0.703402 0.196327
0.941610 0.680282 0.211652
0.968691 0.672742 0.241133
0.209595 0.836640 0.210627
0.214135 0.836687 0.202581
0.234734 0.836466 0.190469
0.284105 0.835596 0.186902
0.347352 0.833967 0.186529
0.416253 0.831641 0.187547
0.486738 0.828520 0.188868
0.556899 0.824662 0.190434
0.625706 0.819733 0.192290
0.692155 0.813740 0.194413
0.753901 0.805165 0.196804
0.807486 0.791378 0.198993
0.856078 0.776258 0.199845
0.893618 0.753090 0.201533
0.925959 0.731530 0.209115
0.957677 0.724084 0.225794
0.220398 0.865037 0.216171
0.224317 0.865026 0.209415
0.241820 0.864780 0.199380
0.284470 0.864010 0.196444
0.340693 0.862470 0.196125
0.403418 0.860249 0.196893
0.468564 0.857258 0.197875
0.534204 0.853562 0.199044
0.599084 0.849006 0.200380
0.662415 0.843459 0.201913
0.723006 0.836338 0.203484
0.778339 0.826063 0.204947
0.824320 0.809487 0.205571
0.867888 0.793092 0.206185
0.905613 0.775917 0.209317
0.940784 0.770323 0.217638
0.227706 0.883843 0.219138
0.231166 0.883879 0.213553
0.246106 0.883640 0.205289
0.282866 0.882922 0.202930
0.332589 0.881530 0.202697
0.389236 0.879576 0.203272
0.449059 0.876927 0.204039
0.509978 0.873506 0.204931
0.570801 0.869333 0.205988
0.630703 0.864402 0.207131
0.688963 0.858417 0.208359
0.744322 0.850785 0.209538
0.794087 0.839468 0.210277
0.837581 0.823973 0.211061
0.881477 0.814227 0.213237
0.919467 0.812006 0.218525
0.228278 0.871760 0.219558
0.231764 0.871809 0.215015
0.245076 0.871585 0.207796
0.279134 0.870951 0.206314
0.326739 0.869761 0.206915
0.382597 0.867937 0.208254
0.442292 0.865697 0.209527
0.503066 0.862773 0.210684
0.563304 0.859273 0.211802
0.621893 0.855040 0.212930
0.678132 0.850062 0.214071
0.731022 0.844303 0.215319
0.779393 0.836785 0.216602
0.824169 0.827536 0.218261
0.868714 0.823085 0.221500
0.906676 0.824543 0.227537
0.214008 0.783045 0.214387
0.218498 0.783063 0.210903
0.232435 0.782958 0.204103
0.270033 0.782449 0.203869
0.325681 0.781348 0.207106
0.392692 0.779741 0.211232
0.463863 0.777775 0.214618
0.534245 0.775463 0.217057
0.601373 0.772936 0.218894
0.663873 0.769872 0.220396
0.719950 0.766425 0.221851
0.768208 0.762702 0.223792
0.812523 0.762953 0.226432
0.853048 0.763099 0.229695
0.890375 0.763853 0.235555
0.921206 0.767642 0.245839
0.164012 0.505784 0.188044
0.171755 0.505785 0.186216
0.193434 0.505750 0.182884
0.241232 0.505358 0.183616
0.315711 0.504362 0.192069
0.403474 0.502806 0.201469
0.493234 0.501224 0.208708
0.583969 0.505319 0.213488
0.672086 0.512099 0.216775
0.751637 0.518007 0.219250
0.818806 0.523045 0.221671
0.869448 0.527708 0.225312
0.902133 0.532011 0.230761
0.924704 0.535807 0.237219
0.943704 0.541344 0.248376
0.961574 0.551383 0.267934
0.129563 0.254297 0.166635
0.139397 0.253969 0.166280
0.167350 0.253809 0.166423
0.222209 0.253290 0.169765
0.304555 0.252666 0.179333
0.406550 0.252881 0.189618
0.514591 0.252798 0.197321
0.618972 0.254135 0.202374
0.715152 0.257506 0.206138
0.800379 0.262840 0.209456
0.869792 0.270655 0.213428
0.918704 0.282110 0.219717
0.945975 0.296215 0.228243
0.960557 0.310197 0.237734
0.971239 0.326870 0.252697
0.982923 0.349895 0.277534
0.116519 0.137398 0.158790
0.126303 0.136627 0.158791
0.155971 0.135486 0.159474
0.214096 0.134520 0.162418
0.301074 0.131921 0.169780
0.407745 0.128323 0.178735
0.520559 0.125474 0.186841
0.629057 0.125873 0.193602
0.728221 0.130356 0.199615
0.815154 0.138637 0.205385
0.884844 0.151567 0.211945
0.932427 0.170672 0.221017
0.957921 0.192596 0.231616
0.970331 0.213371 0.242528
0.978682 0.237630 0.258661
0.988679 0.269897 0.284862
0.109978 0.184150 0.159793
0.119230 0.184001 0.158789
0.148533 0.183782 0.156847
0.207621 0.183271 0.154700
0.294769 0.182322 0.153494
0.401781 0.182069 0.152329
0.516127 0.183340 0.151500
0.626430 0.186305 0.152593
0.727213 0.190868 0.156566
0.814617 0.196944 0.163606
0.884373 0.205796 0.174828
0.931569 0.219222 0.191888
0.957021 0.234358 0.211009
0.969682 0.249032 0.229160
0.978330 0.268048 0.250993
0.988381 0.296237 0.281135
0.098904 0.256921 0.166491
0.107097 0.256945 0.162752
0.134735 0.256831 0.154371
0.196409 0.256228 0.143018
0.284029 0.255317 0.136000
0.390654 0.262047 0.131207
0.504693 0.272290 0.129558
0.615783 0.283025 0.132167
0.717638 0.291587 0.138929
0.806647 0.297174 0.148883
0.878079 0.300580 0.162640
0.927602 0.303586 0.181809
0.954932 0.306118 0.203807
0.968515 0.309208 0.225309
0.977501 0.318398 0.250271
0.987981 0.339197 0.283068
0.091929 0.349658 0.178331
0.098457 0.349773 0.171382
0.123283 0.349813 0.155047
0.186522 0.349250 0.132015
0.280353 0.348022 0.120985
0.379766 0.349068 0.116369
0.491292 0.362734 0.117237
0.601324 0.377273 0.123133
0.703670 0.388601 0.133183
0.793595 0.394455 0.145447
0.867192 0.394837 0.159624
0.920249 0.390756 0.177263
0.950985 0.383432 0.198301
0.966461 0.376203 0.221270
0.976363 0.376044 0.249048
0.987316 0.389601 0.284931
0.096613 0.452715 0.194840
0.101666 0.452857 0.185477
0.123790 0.453005 0.163152
0.186679 0.452738 0.130921
0.285167 0.451370 0.118014
0.384260 0.450348 0.114851
0.481898 0.452297 0.117739
0.588067 0.466675 0.125273
0.688699 0.478629 0.136796
0.778638 0.484749 0.149906
0.853587 0.483508 0.163240
0.909602 0.475168 0.177544
0.944480 0.460905 0.194128
0.963048 0.445662 0.216303
0.974519 0.437457 0.246417
0.986256 0.444557 0.285956
0.114536 0.555021 0.213044
0.118691 0.555209 0.202671
0.138717 0.555477 0.177883
0.197715 0.555352 0.142107
0.296092 0.554092 0.129549
0.393930 0.552265 0.127519
0.487818 0.550960 0.130680
0.578319 0.551441 0.137023
