LUTs/100.cube
LUT_3D_SIZE 6
0.109667 0.092967 0.086825
0.215254 0.101299 0.093602
0.521792 0.101159 0.089474
0.812556 0.118942 0.105598
0.958204 0.172094 0.161243
0.988951 0.253647 0.244599
0.111534 0.183165 0.087207
0.210269 0.185381 0.084200
0.504594 0.230380 0.079224
0.800410 0.266708 0.104298
0.954955 0.273389 0.157263
0.988451 0.308451 0.246713
0.102549 0.453156 0.076156
0.243148 0.451375 0.076417
0.484986 0.456903 0.083257
0.770333 0.501371 0.119924
0.939603 0.477115 0.155358
0.986247 0.451091 0.252307
0.174739 0.728918 0.142110
0.294046 0.727267 0.143648
0.512077 0.720989 0.149303
0.728854 0.708632 0.162971
0.899549 0.675560 0.177628
0.975488 0.619929 0.244882
0.223237 0.865127 0.189916
0.302083 0.863365 0.190605
0.476146 0.856765 0.193055
0.664842 0.843183 0.197350
0.824503 0.809688 0.201203
0.940179 0.770963 0.211759
0.213794 0.782742 0.182778
0.281908 0.781983 0.184861
0.470697 0.777480 0.185986
0.666477 0.769580 0.191225
0.813171 0.763094 0.205276
0.921276 0.768173 0.232571
0.164012 0.505784 0.188044
0.241232 0.505358 0.183616
0.493234 0.501224 0.208708
0.751637 0.518007 0.219250
0.902133 0.532011 0.230761
0.961574 0.551383 0.267934
0.109978 0.184150 0.159793
0.207621 0.183271 0.154700
0.516127 0.183340 0.151500
0.814617 0.196944 0.163606
0.957021 0.234358 0.211009
0.988381 0.296237 0.281135
0.096613 0.452715 0.194840
0.186679 0.452738 0.130921
0.481898 0.452297 0.117739
0.778638 0.484749 0.149906
0.944480 0.460905 0.194128
0.986256 0.444557 0.285956
0.169864 0.728572 0.244282
0.232112 0.728760 0.180485
0.493675 0.722182 0.171723
0.727995 0.707231 0.183711
0.903449 0.671182 0.199604
0.976561 0.616465 0.274312
0.220534 0.864661 0.256886
0.260777 0.864667 0.216157
0.457170 0.858211 0.210988
0.658853 0.843885 0.214211
0.824243 0.809200 0.217461
0.941481 0.769751 0.232820
0.215075 0.783054 0.261834
0.259745 0.782961 0.239237
0.455714 0.778337 0.246955
0.660866 0.770324 0.253076
0.811748 0.762759 0.251824
0.921164 0.767093 0.263616
0.176902 0.509600 0.458942
0.269751 0.507353 0.452519
0.489668 0.502222 0.435712
0.747255 0.504031 0.437899
0.900986 0.514151 0.401768
0.961202 0.539045 0.380832
0.112733 0.242920 0.479416
0.225910 0.199335 0.483329
0.516996 0.167486 0.473325
0.814668 0.176107 0.493247
0.956254 0.232048 0.457568
0.988083 0.304209 0.433852
0.098856 0.458044 0.442631
0.168849 0.455243 0.440537
0.479592 0.450215 0.433099
0.794465 0.450268 0.434065
0.943617 0.467935 0.453681
0.983044 0.498037 0.487251
0.171961 0.726410 0.473940
0.211370 0.727442 0.451818
0.440026 0.725601 0.392934
0.727511 0.705821 0.384689
0.909811 0.674096 0.413288
0.973394 0.645451 0.479937
0.221436 0.862479 0.437620
0.250687 0.863263 0.416429
0.420183 0.861134 0.377624
0.648124 0.844430 0.373137
0.824164 0.808824 0.370503
0.941028 0.775168 0.409771
0.220826 0.782894 0.484523
0.274032 0.782839 0.472268
0.452554 0.780235 0.453476
0.659623 0.771002 0.445786
0.812971 0.760427 0.418990
0.920295 0.761965 0.400460
0.196968 0.537943 0.758079
0.288068 0.530122 0.755585
0.513296 0.507557 0.741888
0.756879 0.496254 0.724636
0.904347 0.498476 0.659196
0.960368 0.521790 0.580820
0.146448 0.285249 0.828518
0.250400 0.223946 0.836476
0.555241 0.191504 0.826328
0.805734 0.176363 0.787241
0.954307 0.228056 0.708732
0.987726 0.305380 0.618164
0.133669 0.515478 0.773235
0.199586 0.500380 0.788196
0.491739 0.462799 0.796065
0.788028 0.451791 0.768819
0.939359 0.476814 0.704359
0.981041 0.514859 0.653397
0.179417 0.723894 0.719162
0.217400 0.723336 0.719647
0.443474 0.720353 0.717758
0.730783 0.711182 0.710209
0.889320 0.706044 0.702657
0.955823 0.714125 0.708998
0.223178 0.857999 0.645654
0.251740 0.858384 0.638705
0.427968 0.854923 0.628870
0.681185 0.833813 0.656985
0.822412 0.809063 0.656616
0.919518 0.797148 0.672768
0.231339 0.782566 0.681099
0.279274 0.782506 0.677263
0.463616 0.778364 0.680980
0.704401 0.759521 0.715484
0.834327 0.747607 0.682956
0.916887 0.752629 0.640094
0.234348 0.556690 0.889610
0.292862 0.551221 0.888957
0.471263 0.530368 0.890936
0.715493 0.506587 0.902033
0.902348 0.491436 0.889094
0.959439 0.520399 0.795040
0.219996 0.292047 0.963485
0.284654 0.259231 0.963247
0.508408 0.255376 0.962793
0.739809 0.244591 0.961010
0.934944 0.234329 0.931514
0.986978 0.306966 0.813535
0.196520 0.490919 0.960435
0.267507 0.477213 0.960158
0.505720 0.480525 0.954492
0.738050 0.490069 0.947496
0.922333 0.477329 0.918233
0.979796 0.512461 0.821768
0.193011 0.698632 0.927212
0.241181 0.695461 0.932250
0.484544 0.698936 0.929095
0.732885 0.715396 0.901753
0.878370 0.708055 0.870961
0.949585 0.718041 0.829752
0.225440 0.843094 0.843981
0.253856 0.843014 0.844374
0.429397 0.840197 0.842400
0.686108 0.824924 0.826345
0.824582 0.812218 0.815519
0.896395 0.815170 0.813349
0.243476 0.785002 0.813228
0.279120 0.784738 0.811942
0.437952 0.780707 0.814862
0.672546 0.760239 0.833273
0.836906 0.739308 0.849510
0.914934 0.749581 0.820673
0.265835 0.568231 0.959691
0.302858 0.564975 0.959591
0.434880 0.550579 0.959315
0.634854 0.528787 0.957862
0.811925 0.523789 0.955043
0.946929 0.528608 0.947652
0.273567 0.300494 0.995381
0.316508 0.290406 0.995385
0.466787 0.301821 0.995456
0.641127 0.308453 0.995404
0.820042 0.318595 0.994550
0.973676 0.329301 0.992738
0.286763 0.445661 0.995482
0.335743 0.445085 0.995379
0.523433 0.498618 0.993795
0.684700 0.527039 0.992016
0.834379 0.526532 0.989884
0.969999 0.521719 0.986849
0.309706 0.624529 0.992752
0.353563 0.624005 0.992507
0.549049 0.663111 0.988699
0.742812 0.726640 0.976049
0.852704 0.729844 0.966042
0.949256 0.718506 0.959704
0.280105 0.794432 0.979552
0.320124 0.793633 0.979599
0.506277 0.800733 0.972588
0.715760 0.818158 0.946593
0.832859 0.821167 0.913634
0.902654 0.812102 0.905657
0.254365 0.916434 0.936575
0.279252 0.916431 0.936871
0.433251 0.913435 0.933018
0.671319 0.897180 0.911368
0.810181 0.880680 0.890316
0.881344 0.873049 0.889080
