LUTs/12.cube
TITLE "Generate by Resolve"
LUT_3D_SIZE 33
0 0 0
0 0 0
0 0 0
0.00468452 0 0
0.10576 0 0
0.177996 0 0
0.241688 0 0
0.300877 0 0
0.357351 0 0
0.412238 0 0
0.466438 0 0
0.520821 0 0
0.57673 0 0
0.637278 0 0
0.725719 0 0
0.788952 0 0
0.842496 0 0
0.891707 0 0
0.938109 0 0
0.982391 0 0
1 0 0
1 0 0
1 0 0
1 0 0
1 0 0
1 0 0
1 0 0
1 0 0
1 0 0
1 0 0
1 0 0
1 0.00259403 0.00259403
1 0.00833143 0.00833143
0 0 0
0 0 0
0 0 0
0.0083772 0 0
0.111498 0 0
0.186175 0 0
0.252857 0 0
0.315847 0 0
0.377447 0 0
0.44004 0 0
0.509392 0 0
0.601511 0 0
0.663294 0 0
0.718029 0 0
0.768811 0 0
0.8168 0 0
0.862638 0 0
0.906706 0 0
0.949279 0 0
0.99057 0 0
1 0 0
1 0 0
1 0.00637827 0
1 0.0129244 0
1 0.0192264 0
1 0.02533 0
1 0.0312352 0
1 0.0369726 0
1 0.0425574 0
1 0.0480049 0
1 0.053315 0
1 0.0585184 0
1 0.0635996 0.000228885
0 0 0
0 0 0
0 0 0
0.0113222 0 0
0.118639 0 0
0.199176 0 0
0.275212 0 0
0.370092 0 0
0.452308 0 0
0.516442 0 0
0.574182 0 0
0.627817 0 0
0.678416 0.00218204 0
0.726604 0.0109712 0
0.772808 0.019089 0
0.817319 0.026688 0
0.860395 0.0338598 0
0.902174 0.0406806 0
0.942809 0.0471962 0
0.982437 0.0534524 0
1 0.0594797 0
1 0.0653239 0
1 0.070985 0
1 0.0764782 0
1 0.0818341 0
1 0.0870527 0
1 0.0921645 0
1 0.0971542 0
1 0.102052 0
1 0.106844 0
1 0.111559 0
1 0.116182 0
1 0.120729 0
0 0 0
0 0 0
0 0 0
0 0 0
0.133898 0.0232395 0
0.224414 0.0403601 0
0.297948 0.0520638 0
0.36286 0.0617685 0
0.422171 0.0703441 0
0.477394 0.078172 0
0.529473 0.0854505 0
0.579004 0.0922866 0
0.626413 0.0987869 0
0.672023 0.105013 0
0.716091 0.110979 0
0.75877 0.116747 0
0.800244 0.122316 0
0.84062 0.127733 0
0.880018 0.133013 0
0.918517 0.138155 0
0.956191 0.143175 0
0.993118 0.148074 0
1 0.152895 0
1 0.15761 0
1 0.162234 0
1 0.166796 0
1 0.171267 0
1 0.175662 0
1 0.180011 0
1 0.184283 0
1 0.188495 0
1 0.19266 0
1 0.196765 0
0 0.0959793 0
0 0.139727 0
0 0.152193 0
0.0333104 0.143969 0
0.141024 0.141024 0
0.217609 0.144198 0
0.283742 0.148516 0
0.343664 0.153231 0
0.399252 0.158099 0
0.451545 0.162982 0
0.501213 0.167849 0
0.54873 0.172671 0
0.5944 0.177432 0
0.638498 0.182132 0
0.681208 0.18677 0
0.722698 0.191333 0
0.763088 0.195834 0
0.802502 0.200275 0
0.841001 0.204639 0
0.878676 0.208957 0
0.915587 0.213214 0
0.951812 0.217426 0
0.987366 0.221576 0
1 0.225681 0
1 0.22974 0
1 0.233738 0
1 0.237705 0
1 0.241627 0
1 0.245502 0
1 0.249348 0
1 0.253147 0
1 0.256916 0
1 0.260639 0
0 0.233997 0
0 0.24036 0
0 0.242313 0
0.0437324 0.227802 0
0.147005 0.220417 0
0.220188 0.220188 0
0.283604 0.22179 0
0.341283 0.224262 0
0.394965 0.227207 0
0.445594 0.230442 0
0.493828 0.23386 0
0.540047 0.2374 0
0.584573 0.241001 0
0.627619 0.244663 0
0.669383 0.248356 0
0.710018 0.252049 0
0.749599 0.255756 0
0.788266 0.259449 0
0.826078 0.263142 0
0.863111 0.266819 0
0.899443 0.270466 0
0.935088 0.274113 0
0.970123 0.277729 0
1 0.281331 0
1 0.284916 0
1 0.288472 0
1 0.292012 0
1 0.295521 0
1 0.299016 0
1 0.30248 0
1 0.305928 0
1 0.309361 0
1 0.312764 0
0 0.312749 0
0 0.315114 0
0 0.313954 0
0.0510262 0.296895 0
0.152178 0.287404 0
0.223545 0.285374 0
0.285405 0.285405 0
0.341695 0.286488 0
0.394125 0.288197 0
0.443671 0.290318 0
0.490883 0.292729 0
0.536187 0.295354 0
0.579873 0.298131 0
0.622156 0.301015 0
0.663203 0.303975 0
0.703151 0.306996 0
0.742123 0.310079 0
0.780194 0.313191 0
0.817456 0.31632 0
0.853971 0.319478 0
0.889799 0.322652 0
0.924987 0.325826 0
0.959579 0.329015 0
0.993606 0.332189 0
1 0.335378 0
1 0.338552 0
1 0.341726 0
1 0.344884 0
1 0.348043 0
1 0.351186 0
1 0.35433 0
1 0.357458 0
1 0.360571 0
0 0.379156 0
0 0.379538 0
0 0.376654 0
0.0570077 0.358099 0
0.156847 0.34728 0
0.227039 0.34406 0
0.287816 0.343023 0
0.34313 0.34313 0
0.39469 0.343954 0
0.443397 0.345266 0
0.48986 0.346929 0
0.534463 0.348852 0
0.577493 0.350958 0
0.619165 0.353231 0
0.659648 0.355627 0
0.699062 0.358114 0
0.737514 0.360678 0
0.775113 0.363317 0
0.811917 0.366003 0
0.848005 0.368719 0
0.883406 0.371481 0
0.918212 0.374258 0
0.952422 0.377066 0
0.986099 0.379889 0
1 0.382727 0
1 0.385565 0
1 0.388418 0
1 0.391287 0
1 0.394156 0
1 0.397009 0
1 0.399878 0
1 0.402747 0
1 0.405615 0
0 0.43859 0
0 0.43769 0
0 0.433677 0
0.0622721 0.414084 0
0.161166 0.402319 0
0.230488 0.398245 0
0.290471 0.396414 0
0.345068 0.395789 0
0.395926 0.395926 0
0.444007 0.396597 0
0.489876 0.397665 0
0.533913 0.399023 0
0.576425 0.40061 0
0.617594 0.40238 0
0.657588 0.404303 0
0.696559 0.406348 0
0.7346 0.408484 0
0.771786 0.410712 0
0.808209 0.413016 0
0.843915 0.415366 0
0.878981 0.417762 0
0.913436 0.420218 0
0.947326 0.42269 0
0.980682 0.425208 0
1 0.427741 0
1 0.430304 0
1 0.432868 0
1 0.435462 0
1 0.438071 0
1 0.440681 0
1 0.443305 0
1 0.445945 0
1 0.448569 0
0 0.493263 0
0 0.491463 0
0 0.48661 0
0.0670329 0.466255 0
0.165209 0.453773 0
0.233875 0.449027 0
0.293233 0.446586 0
0.347234 0.44538 0
0.397559 0.444968 0
0.445121 0.445121 0
0.490501 0.445701 0
0.534081 0.446601 0
0.57615 0.447745 0
0.616892 0.449104 0
0.656504 0.450614 0
0.695079 0.452277 0
0.732754 0.454063 0
0.769604 0.45594 0
0.805692 0.457893 0
0.841077 0.459937 0
0.875837 0.462028 0
0.909987 0.464179 0
0.943603 0.466377 0
0.976684 0.468605 0
1 0.470878 0
1 0.473182 0
1 0.475502 0
1 0.477867 0
1 0.480232 0
1 0.482628 0
1 0.485023 0
1 0.487449 0
1 0.489876 0
0 0.544427 0
0 0.541924 0
0 0.536431 0
0.0714427 0.515465 0
0.169039 0.502419 0
0.237171 0.497139 0
0.296025 0.494179 0
0.349554 0.492485 0
0.39942 0.49163 0
0.446555 0.491356 0
0.491524 0.491524 0
0.534707 0.492027 0
0.576394 0.492805 0
0.6168 0.493797 0
0.656062 0.494972 0
0.694316 0.496315 0
0.73167 0.49778 0
0.7682 0.499352 0
0.803998 0.501015 0
0.839109 0.50277 0
0.873594 0.504601 0
0.907485 0.506477 0
0.940841 0.508415 0
0.973693 0.510414 0
1 0.512444 0
1 0.514519 0
1 0.516625 0
1 0.518761 0
1 0.520928 0
1 0.52311 0
1 0.525322 0
1 0.527535 0
1 0.529778 0
0 0.592828 0
0 0.589761 0
0 0.583734 0
0.0755779 0.56228 0
0.172702 0.54876 0
0.240391 0.543038 0
0.298817 0.539651 0
0.351949 0.53756 0
0.401434 0.536324 0
0.448188 0.535683 0
0.492805 0.535485 0
0.535653 0.535653 0
0.57702 0.53611 0
0.617105 0.536797 0
0.656077 0.537682 0
0.694041 0.53872 0
0.731121 0.53991 0
0.767391 0.541207 0
0.80293 0.542626 0
0.837781 0.544121 0
0.872023 0.545708 0
0.905684 0.547356 0
0.938811 0.549081 0
0.971435 0.550851 0
1 0.552666 0
1 0.554528 0
1 0.556435 0
1 0.558373 0
1 0.560342 0
1 0.562341 0
1 0.56437 0
1 0.566415 0
1 0.56849 0
0 0.638972 0
0 0.635447 0
0 0.628977 0
0.0794842 0.607111 0
0.176226 0.593194 0
0.243519 0.587091 0
0.301595 0.583337 0
0.354376 0.580911 0
0.403525 0.579324 0
0.449973 0.578363 0
0.49427 0.577874 0
0.536828 0.577752 0
0.57792 0.57792 0
0.617731 0.578332 0
0.656428 0.578943 0
0.694133 0.579736 0
0.730968 0.580667 0
0.766995 0.581735 0
0.802304 0.58291 0
0.836942 0.584192 0
0.870954 0.585565 0
0.904418 0.586999 0
0.937331 0.58851 0
0.969757 0.590082 0
1 0.591699 0
1 0.593378 0
1 0.595102 0
1 0.596857 0
1 0.598657 0
1 0.600488 0
1 0.60235 0
1 0.604242 0
1 0.606149 0
0 0.683207 0
0 0.679301 0
0 0.672465 0
0.0832074 0.650233 0
0.179614 0.635981 0
0.246586 0.629541 0
0.304341 0.625483 0
0.356817 0.622751 0
0.405676 0.62089 0
0.45185 0.619638 0
0.495888 0.618875 0
0.53817 0.618494 0
0.579004 0.618402 0
0.61857 0.61857 0
0.657038 0.618952 0
0.694514 0.619516 0
0.731121 0.620233 0
0.766934 0.621073 0
0.802029 0.622049 0
0.836469 0.623117 0
0.870298 0.624292 0
0.903548 0.625544 0
0.936294 0.626856 0
0.968521 0.628244 0
1 0.629694 0
1 0.631205 0
1 0.632761 0
1 0.634348 0
1 0.635981 0
1 0.637659 0
1 0.639368 0
1 0.641108 0
1 0.642878 0
0 0.725841 0
0 0.721599 0
0 0.714443 0
0.0867933 0.69189 0
0.182895 0.677333 0
0.249577 0.670619 0
0.307057 0.666285 0
0.359274 0.663279 0
0.407874 0.661158 0
0.453788 0.659663 0
0.497581 0.658656 0
0.539635 0.65803 0
0.58024 0.657725 0
0.619593 0.657679 0
0.657832 0.657832 0
0.695109 0.658198 0
0.731517 0.658701 0
0.767147 0.659358 0
0.802045 0.660136 0
0.836301 0.661036 0
0.869947 0.662013 0
0.903029 0.663096 0
0.935592 0.66424 0
0.967666 0.665461 0
0.999283 0.666758 0
1 0.668101 0
1 0.66949 0
1 0.670939 0
1 0.672419 0
1 0.673961 0
1 0.675517 0
1 0.677119 0
1 0.678752 0
0 0.767056 0
0 0.762524 0
0 0.755077 0
0.0902419 0.732265 0
0.186069 0.717449 0
0.252506 0.710475 0
0.309743 0.705898 0
0.361715 0.702647 0
0.410086 0.700298 0
0.455772 0.698573 0
0.499352 0.697353 0
0.541207 0.696513 0
0.581598 0.69601 0
0.620752 0.69575 0
0.658808 0.69572 0
0.695888 0.695888 0
0.732113 0.696223 0
0.767559 0.696696 0
0.802289 0.697307 0
0.836362 0.698024 0
0.869841 0.698848 0
0.90277 0.699763 0
0.93518 0.700755 0
0.967086 0.701823 0
0.998566 0.702953 0
1 0.704158 0
1 0.705409 0
1 0.706706 0
1 0.708064 0
1 0.709453 0
1 0.710887 0
1 0.712352 0
1 0.713863 0
0 0.807034 0
0 0.802243 0
0 0.794537 0
0.0935683 0.771481 0
0.189166 0.756436 0
0.255375 0.749233 0
0.312383 0.744427 0
0.364141 0.740963 0
0.412299 0.738399 0
0.457786 0.736492 0
0.501167 0.735073 0
0.54284 0.734035 0
0.583047 0.733333 0
0.622003 0.732906 0
0.659892 0.732708 0
0.696803 0.732692 0
0.73286 0.73286 0
0.768139 0.733181 0
0.802716 0.733623 0
0.836637 0.734188 0
0.869963 0.734844 0
0.902739 0.735607 0
0.934997 0.736461 0
0.966766 0.737392 0
0.998093 0.738384 0
1 0.739437 0
1 0.740566 0
1 0.741741 0
1 0.742962 0
1 0.744228 0
1 0.745541 0
1 0.746883 0
1 0.748272 0
0 0.845914 0
0 0.840879 0
0 0.832959 0
0.0968032 0.809674 0
0.192187 0.794415 0
0.258183 0.786999 0
0.314992 0.78201 0
0.366552 0.778347 0
0.414527 0.775601 0
0.459831 0.773495 0
0.503029 0.771893 0
0.544518 0.770687 0
0.584558 0.769818 0
0.623362 0.769223 0
0.661067 0.768856 0
0.697826 0.768688 0
0.73373 0.768704 0
0.768856 0.768856 0
0.803281 0.769162 0
0.837064 0.769574 0
0.870253 0.770108 0
0.902876 0.770733 0
0.934997 0.771435 0
0.966644 0.772229 0
0.997848 0.773098 0
1 0.774029 0
1 0.775021 0
1 0.776074 0
1 0.777173 0
1 0.778332 0
1 0.779522 0
1 0.780758 0
1 0.782025 0
0 0.883787 0
0 0.878538 0
0 0.87042 0
0.0999313 0.846952 0
0.195132 0.831479 0
0.260945 0.823896 0
0.317571 0.818708 0
0.368948 0.814878 0
0.416754 0.811948 0
0.461891 0.809674 0
0.504921 0.807904 0
0.546242 0.806546 0
0.58613 0.805508 0
0.624781 0.804761 0
0.662348 0.804242 0
0.698955 0.803937 0
0.734707 0.8038 0
0.769696 0.803815 0
0.803983 0.803983 0
0.837629 0.804273 0
0.87068 0.804654 0
0.903181 0.805158 0
0.93518 0.805737 0
0.966705 0.806409 0
0.997772 0.807157 0
1 0.807965 0
1 0.80885 0
1 0.809781 0
1 0.810773 0
1 0.81181 0
1 0.812894 0
1 0.814023 0
1 0.815198 0
0 0.92076 0
0 0.915328 0
0 0.907027 0
0.102998 0.88336 0
0.198016 0.86772 0
0.263645 0.859953 0
0.320119 0.854612 0
0.371328 0.850614 0
0.418967 0.847517 0
0.463951 0.84509 0
0.506828 0.843183 0
0.548012 0.841672 0
0.587747 0.840497 0
0.626245 0.839597 0
0.663676 0.838941 0
0.700145 0.838499 0
0.735775 0.838224 0
0.770626 0.838117 0
0.804791 0.838148 0
0.8383 0.8383 0
0.871229 0.838575 0
0.903624 0.838956 0
0.9355 0.839414 0
0.966903 0.839979 0
0.997864 0.840604 0
1 0.841306 0
1 0.842069 0
1 0.842893 0
1 0.843778 0
1 0.844724 0
1 0.845701 0
1 0.846723 0
1 0.847807 0
0 0.956909 0
0 0.951308 0
0 0.942824 0
0.105974 0.919005 0
0.200839 0.903212 0
0.266316 0.895277 0
0.322621 0.889769 0
0.373693 0.885618 0
0.42118 0.882383 0
0.466011 0.87982 0
0.508751 0.87776 0
0.549798 0.876112 0
0.589395 0.8748 0
0.627771 0.873777 0
0.665064 0.872984 0
0.701411 0.872404 0
0.736904 0.872023 0
0.771649 0.871778 0
0.805676 0.871702 0
0.839078 0.871733 0
0.8719 0.8719 0
0.904173 0.87216 0
0.935927 0.872511 0
0.967224 0.872953 0
0.998077 0.873487 0
1 0.874083 0
1 0.874739 0
1 0.875471 0
1 0.876249 0
1 0.877089 0
1 0.877974 0
1 0.878904 0
1 0.879881 0
0 0.992309 0
0 0.986542 0
0 0.977905 0
0.108888 0.953933 0
0.203601 0.937987 0
0.26894 0.929915 0
0.325109 0.924254 0
0.376028 0.919966 0
0.423377 0.916594 0
0.468086 0.913893 0
0.510689 0.911696 0
0.551598 0.909926 0
0.591073 0.908492 0
0.629328 0.907332 0
0.666499 0.906432 0
0.702724 0.90573 0
0.738109 0.905226 0
0.772732 0.904875 0
0.806653 0.904677 0
0.839948 0.904616 0
0.872648 0.904662 0
0.904814 0.904814 0
0.936477 0.905058 0
0.967666 0.905409 0
0.998413 0.905821 0
1 0.906325 0
1 0.906889 0
1 0.907515 0
1 0.908202 0
1 0.908949 0
1 0.909743 0
1 0.910597 0
1 0.911482 0
0 1 0
0 1 0
0 1 0
0.111742 0.98819 0
0.206317 0.972107 0
0.271519 0.963897 0
0.32755 0.958114 0
0.378332 0.953704 0
0.425559 0.950195 0
0.470146 0.947372 0
0.512627 0.945052 0
0.553414 0.94316 0
0.592782 0.941604 0
0.6309 0.940337 0
0.667964 0.939315 0
0.704082 0.938506 0
0.739361 0.937881 0
0.773861 0.937438 0
0.807691 0.937118 0
0.840879 0.93695 0
0.873472 0.936904 0
0.905547 0.93695 0
0.937102 0.937102 0
0.9682 0.937346 0
0.998856 0.937667 0
1 0.938079 0
1 0.938552 0
1 0.939086 0
1 0.939681 0
1 0.940337 0
1 0.941054 0
1 0.941817 0
1 0.942611 0
0 1 0
0 1 0
0 1 0
0.114549 1 0
0.208988 1 0
0.274052 0.997284 0
0.329961 0.991379 0
0.380636 0.986847 0
0.427741 0.98323 0
0.472206 0.98027 0
0.51458 0.977844 0
0.555245 0.97583 0
0.594491 0.974166 0
0.632517 0.972793 0
0.669474 0.971664 0
0.705486 0.970748 0
0.740642 0.970031 0
0.775067 0.969482 0
0.808774 0.96907 0
0.841871 0.968795 0
0.874372 0.968643 0
0.90634 0.968612 0
0.937819 0.968658 0
0.968811 0.968811 0
0.99939 0.969055 0
1 0.96936 0
1 0.969757 0
1 0.970199 0
1 0.970718 0
1 0.971283 0
1 0.971908 0
1 0.972595 0
1 0.973312 0
0 1 0
0 1 0
0 1 0
0.117296 1 0
0.211612 1 0
0.276555 1 0
0.332357 1 0
0.38291 1 0
0.429908 1 0
0.47425 1 0
0.516518 1 0
0.557092 1 0
0.596231 1 0
0.63415 1 0
0.671 1 0
0.706905 1 0
0.741985 1 0
0.776303 1 0
0.809918 1 0
0.842908 1 0
0.875334 0.999939 0
0.90721 0.999802 0
0.938598 0.999771 0
0.969512 0.999832 0
0.999985 0.999985 0
1 1 0
1 1 0
1 1 0
1 1 0
1 1 0
1 1 0
1 1 0
1 1 0
0 1 0
0 1 0
0 1 0
0.119982 1 0
0.214191 1 0
0.279026 1 0
0.334707 1 0
0.385168 1 0
0.432044 1 0
0.476295 1 0
0.518456 1 0
0.558923 1 0
0.597971 1 0
0.635782 1 0
0.672541 1 0
0.70837 1 0
0.743343 1 0
0.777569 1 0
0.811109 1 0
0.844007 1 0
0.876341 1 0
0.908125 1 0
0.939437 1 0
0.97026 1 0
1 1 0
1 1 0
1 1 0
1 1 0
1 1 0
1 1 0
1 1 0
1 1 0
1 1 0
0 1 0
0 1 0
0 1 0
0.122637 1 0
0.216724 1 0
0.281468 1 0
0.337041 1 0
0.387396 1 0
0.43418 1 0
0.478325 1 0
0.520394 1 0
0.560769 1 0
0.599725 1 0
0.637446 1 0
0.674113 1 0
0.70985 1 0
0.744732 1 0
0.778866 1 0
0.812329 1 0
0.845151 1 0
0.877394 1 0
0.909102 1 0
0.940322 1 0
0.971069 1 0
1 1 0
1 1 0
1 1 0
1 1 0
1 1 0
1 1 0
1 1 0
1 1 0
1 1 0
0 1 0
0 1 0
0.00132753 1 0
0.125246 1 0
0.219242 1 0
0.283879 1 0
0.339361 1 0
0.389609 1 0
0.436301 1 0
