LUTs/12.cube
TITLE "Generate by Resolve"
LUT_3D_SIZE 9
0 0 0
0.10576 0 0
0.357351 0 0
0.57673 0 0
0.842496 0 0
1 0 0
1 0 0
1 0 0
1 0.00833143 0.00833143
0 0.0959793 0
0.141024 0.141024 0
0.399252 0.158099 0
0.5944 0.177432 0
0.763088 0.195834 0
0.915587 0.213214 0
1 0.22974 0
1 0.245502 0
1 0.260639 0
0 0.43859 0
0.161166 0.402319 0
0.395926 0.395926 0
0.576425 0.40061 0
0.7346 0.408484 0
0.878981 0.417762 0
1 0.427741 0
1 0.438071 0
1 0.448569 0
0 0.638972 0
0.176226 0.593194 0
0.403525 0.579324 0
0.57792 0.57792 0
0.730968 0.580667 0
0.870954 0.585565 0
1 0.591699 0
1 0.598657 0
1 0.606149 0
0 0.807034 0
0.189166 0.756436 0
0.412299 0.738399 0
0.583047 0.733333 0
0.73286 0.73286 0
0.869963 0.734844 0
0.998093 0.738384 0
1 0.742962 0
1 0.748272 0
0 0.956909 0
0.200839 0.903212 0
0.42118 0.882383 0
0.589395 0.8748 0
0.736904 0.872023 0
0.8719 0.8719 0
0.998077 0.873487 0
1 0.876249 0
1 0.879881 0
0 1 0
0.211612 1 0
0.429908 1 0
0.596231 1 0
0.741985 1 0
0.875334 0.999939 0
0.999985 0.999985 0
1 1 0
1 1 0
0 1 0
0.221714 1 0
0.438407 1 0
0.603235 1 0
0.747585 1 0
0.879622 1 0
1 1 0
1 1 0
1 1 0
0 1 0
0.231281 1 0
0.446677 1 0
0.610285 1 0
0.753475 1 0
0.884413 1 0
1 1 0
1 1 0
1 1 0
0 0 0.125948
0.0966812 0 0.0966812
0.352682 0 0.111528
0.591516 0 0.174548
0.842542 0 0.275288
1 0 0.315328
1 0 0.345739
1 0 0.371405
1 0 0.39411
0 0.135653 0.135653
0.137362 0.137362 0.137362
0.390616 0.149447 0.149447
0.583246 0.166278 0.166278
0.750332 0.183062 0.183062
0.901671 0.199298 0.199298
1 0.214939 0.214939
1 0.229999 0.229999
1 0.244541 0.244541
0 0.426764 0.185611
0.147936 0.38909 0.147936
0.381659 0.381659 0.140505
0.561349 0.385534 0.144381
0.718853 0.392752 0.151598
0.862684 0.40148 0.160311
0.996796 0.410986 0.169818
1 0.420905 0.179751
1 0.431052 0.189883
0 0.623636 0.206668
0.160266 0.577234 0.160266
0.38706 0.56286 0.145892
0.560998 0.560998 0.14403
0.713664 0.563363 0.146395
0.853315 0.56791 0.150942
0.983764 0.573754 0.156786
1 0.580438 0.16347
1 0.587671 0.170703
0 0.789975 0.222721
0.17174 0.738994 0.17174
0.394537 0.720653 0.153384
0.564996 0.715282 0.148028
0.714534 0.714534 0.14728
0.851392 0.716289 0.14902
0.979309 0.7196 0.152331
1 0.723964 0.15671
1 0.729091 0.161837
0 0.938766 0.236393
0.182422 0.884794 0.182422
0.402533 0.863752 0.161379
0.570535 0.85594 0.153567
0.717845 0.852964 0.150591
0.852659 0.852659 0.150286
0.978668 0.854063 0.151705
1 0.856687 0.154314
1 0.860166 0.157794
0 1 0.248615
0.192477 1 0.192477
0.410605 0.996414 0.169436
0.576761 0.986755 0.159792
0.722362 0.982071 0.155093
0.855558 0.980163 0.153185
0.980087 0.980087 0.153109
1 0.981277 0.154314
1 0.983444 0.156466
0 1 0.259831
0.202029 1 0.202029
0.418585 1 0.177417
0.583276 1 0.166308
0.727504 1 0.160235
0.859419 1 0.157046
0.982712 1 0.155734
1 1 0.155779
1 1 0.156832
0 1 0.270298
0.211154 1 0.211154
0.426429 1 0.185275
0.589929 1 0.172961
0.733013 1 0.165759
0.863844 1 0.161471
0.986114 1 0.159136
1 1 0.158206
1 1 0.158328
0 0 0.367773
0.10016 0 0.341314
0.362249 0 0.362249
0.644358 0 0.468559
0.850492 0 0.524392
1 0 0.559335
1 0 0.587213
1 0 0.611246
1 0 0.632792
0 0.152819 0.393988
0.142916 0.142916 0.38407
0.39237 0.151217 0.39237
0.582895 0.165927 0.40708
0.748547 0.181292 0.422446
0.898848 0.196475 0.437644
1 0.211292 0.452445
1 0.225696 0.46685
1 0.239689 0.480858
0 0.425849 0.425849
0.145739 0.386908 0.386908
0.378515 0.378515 0.378515
0.557443 0.381643 0.381643
0.714336 0.388235 0.388235
0.857649 0.396445 0.396445
0.991318 0.405493 0.405493
1 0.41503 0.41503
1 0.424826 0.424826
0 0.619501 0.443687
0.155566 0.572519 0.396719
0.381857 0.557656 0.381857
0.555367 0.555367 0.379568
0.707668 0.557366 0.381567
0.846983 0.561578 0.385779
0.977142 0.567132 0.391318
1 0.573541 0.397742
1 0.580545 0.40473
0 0.784207 0.458106
0.165606 0.732876 0.406775
0.388098 0.714199 0.388098
0.558267 0.708553 0.382452
0.707561 0.707561 0.38146
0.844175 0.709072 0.382971
0.971878 0.712169 0.386069
1 0.716335 0.390234
1 0.721279 0.395178
0 0.93193 0.470726
0.175357 0.877729 0.41651
0.395239 0.856443 0.395239
0.563027 0.848432 0.387228
0.710155 0.845258 0.384054
0.84477 0.84477 0.383566
0.970626 0.846021 0.384817
1 0.848478 0.387274
1 0.85182 0.3906
0 1 0.4822
0.18471 1 0.425879
0.402655 0.988464 0.402655
0.568658 0.978653 0.392844
0.714107 0.973816 0.387991
0.847166 0.971771 0.385946
0.971542 0.971542 0.385733
1 0.972625 0.386816
1 0.97467 0.388846
0 1 0.492836
0.193713 1 0.434882
0.410132 1 0.410132
0.574701 1 0.398886
0.718807 1 0.392691
0.850584 1 0.38938
0.97377 1 0.387961
1 1 0.3879
1 1 0.388861
0 1 0.502831
0.202396 1 0.443565
0.417578 1 0.417578
0.580957 1 0.405142
0.723934 1 0.397833
0.854673 1 0.393454
0.976837 1 0.391028
1 1 0.390005
1 1 0.390036
0 0 0.549752
0.109804 0 0.526772
0.381323 0 0.557122
0.666941 0 0.666941
0.860899 0 0.710597
1 0 0.741695
1 0 0.767422
1 0 0.790021
1 0 0.810513
0 0.16846 0.585428
0.151583 0.151583 0.568551
0.398032 0.156863 0.573831
0.586709 0.169741 0.586709
0.75111 0.183841 0.600809
0.90045 0.198077 0.615045
1 0.212131 0.629099
1 0.22591 0.642878
1 0.239384 0.656352
0 0.42916 0.604959
0.147921 0.389075 0.564889
0.379828 0.379828 0.555627
0.558038 0.382239 0.558038
0.714351 0.388251 0.564065
0.857176 0.395972 0.571771
0.990417 0.404593 0.580407
1 0.413764 0.589563
1 0.423224 0.599039
0 0.619867 0.619867
0.155383 0.572351 0.572351
0.381216 0.557015 0.557015
0.55433 0.55433 0.55433
0.706264 0.555962 0.555962
0.845273 0.559869 0.559869
0.975128 0.565133 0.565133
1 0.571283 0.571283
1 0.578042 0.578042
0 0.783032 0.632731
0.164096 0.73135 0.581064
0.386282 0.712383 0.562081
0.556161 0.706462 0.556161
0.705211 0.705211 0.55491
0.841611 0.706493 0.556207
0.9691 0.709377 0.559091
1 0.713359 0.563073
1 0.71812 0.567834
0 0.929747 0.644343
0.172915 0.875288 0.589883
0.392584 0.853788 0.568383
0.560174 0.845579 0.560174
0.707103 0.842222 0.556817
0.84155 0.84155 0.556161
0.967239 0.842649 0.557244
1 0.844938 0.559548
1 0.848142 0.562737
0 1 0.65507
0.181613 1 0.598581
0.399374 0.985199 0.575189
0.565209 0.975219 0.565209
0.710521 0.97023 0.56022
0.843442 0.968032 0.558038
0.967681 0.967681 0.557687
1 0.968643 0.558633
1 0.970565 0.560555
0 1 0.665141
0.190082 1 0.60705
0.406363 1 0.582162
0.570794 1 0.570794
0.714778 1 0.564477
0.846448 1 0.561044
0.969528 1 0.559518
1 1 0.55935
1 1 0.560204
0 1 0.674693
0.198337 1 0.615305
0.413382 1 0.589197
0.576669 1 0.576669
0.719554 1 0.569253
0.850172 1 0.564767
0.972259 1 0.562249
1 1 0.561135
1 1 0.56109
0 0 0.70901
0.123247 0 0.690517
0.415686 0 0.741787
0.684733 0 0.835019
0.871504 0 0.871504
1 0 0.899535
1 0 0.92343
1 0 0.944747
1 0 0.964279
0 0.182635 0.749889
0.160845 0.160845 0.728115
0.404822 0.163653 0.730922
0.591913 0.174945 0.742199
0.755154 0.187884 0.755154
0.903609 0.201236 0.768505
1 0.214588 0.781842
1 0.227787 0.795041
1 0.240757 0.808026
0 0.43389 0.759991
0.151614 0.392782 0.718883
0.382712 0.382712 0.708812
0.560281 0.384466 0.710567
0.716045 0.389944 0.716045
0.858396 0.397177 0.723278
0.991226 0.405402 0.731502
1 0.414206 0.740307
1 0.423362 0.749462
0 0.621897 0.772183
0.156893 0.573861 0.724147
0.382269 0.558083 0.70837
0.555001 0.555001 0.705303
0.7066 0.556298 0.7066
0.845289 0.559884 0.710185
0.974884 0.564874 0.715175
1 0.570779 0.72108
1 0.577325 0.727611
0 0.783566 0.783566
0.164309 0.731563 0.731563
0.386191 0.712306 0.712306
0.555825 0.706111 0.706111
0.704631 0.704631 0.704631
0.840803 0.705684 0.705684
0.968078 0.70837 0.70837
1 0.712169 0.712169
1 0.716747 0.716747
0 0.929305 0.794202
0.172259 0.874617 0.739513
0.391699 0.852918 0.7178
0.559091 0.844495 0.709392
0.705852 0.840955 0.705852
0.840131 0.840131 0.705013
0.965652 0.841047 0.705943
1 0.843198 0.708095
1 0.846265 0.711147
0 1 0.804227
0.180285 1 0.747539
0.397879 0.983703 0.723995
0.563561 0.973571 0.713863
0.708721 0.968429 0.708721
0.841505 0.96611 0.706401
0.965621 0.965621 0.705913
1 0.966461 0.706752
1 0.968261 0.708553
0 1 0.813733
0.188235 1 0.755505
0.404379 1 0.73048
0.568689 1 0.71899
0.712551 1 0.712551
0.844114 1 0.708995
0.967071 1 0.707362
1 1 0.707103
1 1 0.707851
0 1 0.822828
0.196063 1 0.763333
0.411017 1 0.737118
0.574182 1 0.724483
0.71696 1 0.71696
0.847501 1 0.712383
0.969482 1 0.709773
1 1 0.708568
1 1 0.708431
0 0 0.855329
0.140658 0 0.84303
0.474891 0 0.93611
0.700191 0 0.985595
0.881956 0 1
1 0 1
1 0 1
1 0 1
1 0.00198367 1
0 0.195727 0.8981
0.17023 0.17023 0.872602
0.412085 0.170932 0.873304
0.597757 0.180804 0.883162
0.75996 0.192706 0.895079
0.907607 0.205234 0.907607
1 0.217929 0.920302
1 0.230579 0.932937
1 0.243076 0.945449
0 0.439338 0.900542
0.156115 0.397269 0.858488
0.386465 0.386465 0.847669
0.563409 0.387594 0.848814
0.718654 0.392554 0.853758
0.860563 0.399344 0.860563
0.992996 0.407187 0.868391
1 0.415641 0.87686
1 0.424491 0.885695
0 0.624826 0.910231
0.159335 0.576303 0.861708
0.384283 0.560098 0.845502
0.556649 0.556649 0.842054
0.707912 0.55761 0.843015
0.846326 0.560922 0.846326
0.975647 0.565637 0.851041
1 0.571298 0.856703
1 0.577615 0.86302
0 0.785092 0.920195
0.165515 0.732784 0.867887
0.387121 0.713222 0.848341
0.556497 0.706783 0.841886
0.705058 0.705058 0.840162
0.841016 0.705913 0.841016
0.968109 0.7084 0.843503
1 0.712001 0.847105
1 0.716411 0.85153
0 0.929885 0.929885
0.17261 0.874983 0.874983
0.391852 0.853056 0.853056
0.559045 0.84445 0.84445
0.705623 0.840726 0.840726
0.839734 0.839734 0.839734
0.965103 0.840497 0.840497
1 0.842512 0.842512
1 0.845426 0.845426
0 1 0.939223
0.179995 1 0.882368
0.397436 0.983246 0.85864
0.562966 0.972976 0.848371
0.707973 0.967681 0.843091
0.84062 0.965225 0.84062
0.96463 0.96463 0.840024
1 0.965331 0.840726
1 0.967025 0.84242
0 1 0.948196
0.187442 1 0.889815
0.403464 1 0.864668
0.567636 1 0.85304
0.711376 1 0.846494
0.842832 1 0.842832
0.965698 1 0.841093
1 1 0.840711
1 1 0.841382
0 1 0.956847
0.194858 1 0.897231
0.409689 1 0.870909
0.572763 1 0.858167
0.715434 1 0.850553
0.845884 1 0.845884
0.967773 1 0.843168
1 1 0.841886
1 1 0.841672
0 0 0.993362
0.163806 0 0.990784
0.500633 0 1
0.714183 0 1
0.892149 0 1
1 0 1
1 0 1
1 0 1
1 0.00675975 1
0 0.208026 1
0.179538 0.179538 1
0.419577 0.178424 1
0.603998 0.18703 1
0.76524 0.197986 1
0.912139 0.209766 1
1 0.221836 1
1 0.233951 1
1 0.246021 1
0 0.445197 1
0.161105 0.402258 0.988067
0.390738 0.390738 0.976562
0.567117 0.391302 0.977111
0.721859 0.395758 0.981567
0.86334 0.402136 0.987945
0.995407 0.409598 0.995407
1 0.417731 1
1 0.426276 1
0 0.628336 1
0.162387 0.579355 0.989364
0.386938 0.562737 0.972747
0.558938 0.558938 0.968948
0.70988 0.559594 0.969604
0.848005 0.5626 0.97261
0.977081 0.567071 0.977081
1 0.572503 0.982498
1 0.578592 0.988602
0 0.787259 1
0.167376 0.734646 0.994354
0.388724 0.714824 0.974533
0.557839 0.708125 0.967834
0.706172 0.706172 0.965881
0.841932 0.706813 0.966522
0.968826 0.709117 0.968826
1 0.712535 0.972244
1 0.716793 0.976501
0 0.931151 1
0.173648 0.87602 1
0.392676 0.853895 0.9785
0.559701 0.845106 0.969696
0.706096 0.841199 0.965805
0.84004 0.84004 0.964645
0.96527 0.840665 0.96527
1 0.842527 0.967132
1 0.845304 0.969909
0 1 1
0.180407 1 1
0.397696 0.983505 0.983505
0.563073 0.973083 0.973083
0.707942 0.967651 0.967651
0.840467 0.965057 0.965057
0.96434 0.96434 0.96434
1 0.964935 0.964935
1 0.966506 0.966506
0 1 1
0.187366 1 1
0.40325 1 0.989059
0.5673 1 0.97731
0.710933 1 0.970642
0.842268 1 0.966873
0.965026 1 0.965026
1 1 0.964553
1 1 0.965133
0 1 1
0.194369 1 1
0.409094 1 0.994904
0.572061 1 0.982071
0.714641 1 0.97435
0.844984 1 0.969589
0.966796 1 0.966796
1 1 0.965423
1 1 0.965118
0 0 1
0.202579 0 1
0.520592 0 1
0.727138 0 1
0.902083 0 1
1 0 1
1 0 1
1 0 1
1 0.0118715 1
0 0.219654 1
0.188708 0.188708 1
0.427176 0.186007 1
0.610437 0.193469 1
0.770809 0.203555 1
0.917006 0.214633 1
1 0.226123 1
1 0.237751 1
1 0.249378 1
0 0.451301 1
0.1664 0.407553 1
0.395392 0.395392 1
0.571206 0.395407 1
0.72549 0.39939 1
0.866575 0.405356 1
0.998276 0.412467 1
1 0.420279 1
1 0.42855 1
0 0.632258 1
0.165866 0.582834 1
0.390021 0.565835 1
0.561685 0.561685 1
0.712337 0.562036 1
0.850172 0.564782 1
0.978988 0.568994 1
1 0.574182 1
1 0.580072 1
0 0.789899 1
0.169726 0.73698 1
0.390799 0.716899 1
0.55967 0.709972 1
0.70779 0.70779 1
0.843336 0.708232 1
0.970047 0.710338 1
1 0.713588 1
1 0.717678 1
0 0.932906 1
0.175189 0.877562 1
0.394018 0.855238 1
0.560861 0.84625 1
0.707088 0.842191 1
0.840879 0.840879 1
0.965942 0.841337 1
1 0.843061 1
1 0.845716 1
0 1 1
0.181338 1 1
0.398459 0.984283 1
0.563699 0.973709 1
0.708431 0.968139 1
0.840818 0.965423 1
0.964569 0.964569 1
1 0.965057 1
1 0.966522 1
0 1 1
0.187808 1 1
0.403571 1 1
0.567498 1 1
0.711025 1 1
0.842252 1 1
0.964904 1 1
1 1 1
1 1 1
0 1 1
0.194415 1 1
0.409033 1 1
0.571893 1 1
0.714382 1 1
0.844633 1 1
0.966354 1 1
1 1 1
1 1 1
0 0 1
0.261814 0 1
0.537682 0 1
0.7393 0 1
0.911757 0 1
1 0 1
1 0 1
1 0.000839246 1
1 0.0171969 1
0 0.230762 1
0.197726 0.197726 1
0.434791 0.193622 1
0.617014 0.200046 1
0.776577 0.209323 1
0.922103 0.219745 1
1 0.230671 1
1 0.24184 1
1 0.253071 1
0 0.457557 1
0.171908 0.413062 1
0.40029 0.40029 1
0.575586 0.399786 1
0.729427 0.403326 1
0.870115 0.408911 1
1 0.415671 1
1 0.423178 1
1 0.431174 1
0 0.636469 1
0.16965 0.586618 1
0.393439 0.569253 1
0.564782 0.564782 1
0.715129 0.564828 1
0.852705 0.5673 1
0.981292 0.571283 1
1 0.576257 1
1 0.581949 1
0 0.792874 1
0.172427 0.739681 1
0.39324 0.719341 1
0.561883 0.712169 1
0.709789 0.709789 1
0.845136 0.710018 1
0.971649 0.71194 1
1 0.715023 1
1 0.718959 1
0 0.935027 1
0.177096 0.879469 1
0.395758 0.856962 1
0.562402 0.847807 1
0.708461 0.843565 1
0.8421 0.8421 1
0.967025 0.84242 1
1 0.844007 1
1 0.84654 1
0 1 1
0.182666 1 1
0.399634 0.985458 1
0.564736 0.974731 1
0.709331 0.969039 1
0.841596 0.966201 1
0.965225 0.965225 1
1 0.965591 1
1 0.966949 1
0 1 1
0.188647 1 1
0.404288 1 1
0.568109 1 1
0.711513 1 1
0.842634 1 1
0.965194 1 1
1 1 1
1 1 1
0 1 1
0.194873 1 1
0.409384 1 1
0.572152 1 1
0.714549 1 1
0.844709 1 1
0.966339 1 1
1 1 1
1 1 1
