LUTs/12.cube
TITLE "Generate by Resolve"
LUT_3D_SIZE 5
0 0 0
0.357351 0 0
0.842496 0 0
1 0 0
1 0.00833143 0.00833143
0 0.43859 0
0.395926 0.395926 0
0.7346 0.408484 0
1 0.427741 0
1 0.448569 0
0 0.807034 0
0.412299 0.738399 0
0.73286 0.73286 0
0.998093 0.738384 0
1 0.748272 0
0 1 0
0.429908 1 0
0.741985 1 0
0.999985 0.999985 0
1 1 0
0 1 0
0.446677 1 0
0.753475 1 0
1 1 0
1 1 0
0 0 0.367773
0.362249 0 0.362249
0.850492 0 0.524392
1 0 0.587213
1 0 0.632792
0 0.425849 0.425849
0.378515 0.378515 0.378515
0.714336 0.388235 0.388235
0.991318 0.405493 0.405493
1 0.424826 0.424826
0 0.784207 0.458106
0.388098 0.714199 0.388098
0.707561 0.707561 0.38146
0.971878 0.712169 0.386069
1 0.721279 0.395178
0 1 0.4822
0.402655 0.988464 0.402655
0.714107 0.973816 0.387991
0.971542 0.971542 0.385733
1 0.97467 0.388846
0 1 0.502831
0.417578 1 0.417578
0.723934 1 0.397833
0.976837 1 0.391028
1 1 0.390036
0 0 0.70901
0.415686 0 0.741787
0.871504 0 0.871504
1 0 0.92343
1 0 0.964279
0 0.43389 0.759991
0.382712 0.382712 0.708812
0.716045 0.389944 0.716045
0.991226 0.405402 0.731502
1 0.423362 0.749462
0 0.783566 0.783566
0.386191 0.712306 0.712306
0.704631 0.704631 0.704631
0.968078 0.70837 0.70837
1 0.716747 0.716747
0 1 0.804227
0.397879 0.983703 0.723995
0.708721 0.968429 0.708721
0.965621 0.965621 0.705913
1 0.968261 0.708553
0 1 0.822828
0.411017 1 0.737118
0.71696 1 0.71696
0.969482 1 0.709773
1 1 0.708431
0 0 0.993362
0.500633 0 1
0.892149 0 1
1 0 1
1 0.00675975 1
0 0.445197 1
0.390738 0.390738 0.976562
0.721859 0.395758 0.981567
0.995407 0.409598 0.995407
1 0.426276 1
0 0.787259 1
0.388724 0.714824 0.974533
0.706172 0.706172 0.965881
0.968826 0.709117 0.968826
1 0.716793 0.976501
0 1 1
0.397696 0.983505 0.983505
0.707942 0.967651 0.967651
0.96434 0.96434 0.96434
1 0.966506 0.966506
0 1 1
0.409094 1 0.994904
0.714641 1 0.97435
0.966796 1 0.966796
1 1 0.965118
0 0 1
0.537682 0 1
0.911757 0 1
1 0 1
1 0.0171969 1
0 0.457557 1
0.40029 0.40029 1
0.729427 0.403326 1
1 0.415671 1
1 0.431174 1
0 0.792874 1
0.39324 0.719341 1
0.709789 0.709789 1
0.971649 0.71194 1
1 0.718959 1
0 1 1
0.399634 0.985458 1
0.709331 0.969039 1
0.965225 0.965225 1
1 0.966949 1
0 1 1
0.409384 1 1
0.714549 1 1
0.966339 1 1
1 1 1
