LUTs/14.cube
TITLE "Generate by Resolve"
LUT_3D_SIZE 5
0 0 0
0.232715 0 0
0.72987 0 0
1 0 0
1 0 0
0 0.297169 0
0.269322 0.269322 0
0.725856 0.254002 0
1 0.27422 0
1 0.3178 0
0 0.742397 0
0.191455 0.68632 0
0.652964 0.652964 0
0.956573 0.657786 0
1 0.686061 0
0 1 0
0.237171 0.981598 0
0.656855 0.929458 0
0.912032 0.912032 0
1 0.91487 0
0 1 0
0.348974 1 0
0.699733 1 0
0.913985 1 0
1 1 0
0 0 0.246967
0.234394 0 0.234394
0.742626 0 0.365972
1 0 0.454917
1 0 0.547341
0 0.287755 0.287755
0.260075 0.260075 0.260075
0.718288 0.242145 0.242145
1 0.256382 0.256382
1 0.296056 0.296056
0 0.722942 0.230213
0.176745 0.668742 0.176745
0.635416 0.635416 0.147326
0.948348 0.635721 0.155489
1 0.662379 0.196185
0 1 0.298543
0.212863 0.961486 0.212863
0.626062 0.910246 0.187579
0.889723 0.889723 0.195804
1 0.891859 0.223239
0 1 0.417121
0.318898 1 0.318898
0.666041 1 0.274601
0.890517 1 0.263798
1 1 0.276066
0 0 0.612818
0.268589 0 0.635889
0.76109 0 0.76109
1 0 0.850385
1 0 0.948882
0 0.285985 0.72134
0.254841 0.254841 0.71548
0.716228 0.234485 0.716228
1 0.246937 0.739361
1 0.284733 0.780346
0 0.713771 0.713771
0.166339 0.657679 0.657679
0.623652 0.623652 0.623652
0.9346 0.62266 0.62266
1 0.648173 0.648173
0 1 0.757092
0.204089 0.943969 0.657008
0.61033 0.893248 0.61033
0.872129 0.872129 0.598779
1 0.873854 0.610773
0 1 0.80798
0.303868 1 0.703532
0.646983 1 0.646983
0.872633 1 0.625574
1 1 0.62974
0 0 0.861265
0.357778 0 0.924269
0.791638 0 0.975189
1 0 1
1 0 1
0 0.297749 0.997696
0.26067 0.26067 1
0.725292 0.238697 1
1 0.250889 1
1 0.288624 1
0 0.719844 0.99295
0.168124 0.658976 0.976562
0.623529 0.623529 0.942107
0.929915 0.621866 0.929915
1 0.646326 0.937743
0 1 1
0.208759 0.937636 0.937636
0.606958 0.886275 0.886275
0.864485 0.864485 0.864485
1 0.865782 0.865782
0 1 1
0.301366 1 0.941604
0.639887 1 0.88835
0.864515 1 0.864515
1 1 0.8645
0 0 1
0.403479 0 1
0.824582 0 1
1 0 1
1 0 1
0 0.317128 1
0.276066 0.276066 1
0.742748 0.252384 1
1 0.263752 1
1 0.301549 1
0 0.732815 1
0.180011 0.670024 1
0.633234 0.633234 1
0.933227 0.630732 1
1 0.653452 1
0 1 1
0.222278 0.939376 1
0.612696 0.887556 1
0.865156 0.865156 1
1 0.865827 1
0 1 1
0.306584 1 1
0.641382 1 1
0.864378 1 1
1 1 1
