LUTs/14.cube
TITLE "Generate by Resolve"
LUT_3D_SIZE 33
0 0 0
0 0 0
0 0 0
0.00251774 0 0
0.060914 0 0
0.103487 0 0
0.144259 0 0
0.186877 0 0
0.232715 0 0
0.282399 0 0
0.335439 0 0
0.390768 0 0
0.447776 0 0
0.508766 0 0
0.603754 0 0
0.674495 0 0
0.72987 0 0
0.776791 0 0
0.817914 0 0
0.854749 0 0
0.888777 0 0
0.921065 0 0
0.952468 0 0
0.983673 0 0
1 0 0
1 0 0
1 0 0
1 0 0
1 0 0
1 0 0
1 0 0
1 0 0
1 0 0
0 0 0
0 0 0
0 0 0
0.00469978 0 0
0.0642252 0 0
0.108507 0 0
0.151904 0 0
0.19852 0 0
0.250324 0 0
0.309224 0 0
0.379049 0 0
0.479026 0 0
0.548516 0 0
0.610788 0 0
0.667628 0 0
0.719127 0 0
0.765347 0 0
0.807095 0 0
0.845151 0 0
0.880308 0 0
0.913573 0 0
0.945693 0 0
0.977462 0 0
1 0 0
1 0 0
1 0 0
1 0 0
1 0 0
1 0 0
1 0 0
1 0 0
1 0 0
1 0 0
0 0 0
0 0 0
0 0 0
0.00643931 0 0
0.0683452 0 0
0.116594 0 0
0.167742 0 0
0.244007 0 0
0.327001 0 0
0.396597 0 0
0.460609 0 0
0.520119 0 0
0.578317 0 0
0.634012 0 0
0.686763 0 0
0.735836 0 0
0.78085 0 0
0.822248 0 0
0.860563 0 0
0.89633 0 0
0.930434 0 0
0.963546 0 0
0.996185 0 0
1 0 0
1 0 0
1 0 0
1 0 0
1 0 0
1 0 0
1 0 0
1 0 0
1 0 0
1 0 0
0 0 0
0 0 0
0 0 0
0 0 0
0.0778515 0.0135042 0
0.135073 0.0222934 0
0.189105 0.0258946 0
0.244907 0.0265507 0
0.303181 0.0251469 0
0.362585 0.0225376 0
0.421347 0.0195163 0
0.478187 0.0166018 0
0.532891 0.0139925 0
0.587427 0.0112612 0
0.641001 0.00868238 0
0.69279 0.00653086 0
0.742031 0.00508125 0
0.788159 0.00454719 0
0.831189 0.00494392 0
0.871473 0.0061799 0
0.909316 0.00817884 0
0.945144 0.0108186 0
0.979736 0.013901 0
1 0.0173342 0
1 0.0209964 0
1 0.0247959 0
1 0.0286412 0
1 0.0326085 0
1 0.0367132 0
1 0.0409552 0
1 0.0453193 0
1 0.0498665 0
1 0.0545205 0
0 0.0554055 0
0 0.0816815 0
0 0.0892653 0
0.0179446 0.0841077 0
0.082002 0.082002 0
0.131121 0.0827497 0
0.17966 0.0829023 0
0.230579 0.0818952 0
0.284474 0.0797284 0
0.340703 0.0767071 0
0.397604 0.0733501 0
0.453849 0.0700999 0
0.508385 0.067277 0
0.562066 0.0647288 0
0.615885 0.0622263 0
0.668971 0.060029 0
0.720516 0.0583352 0
0.769787 0.0573739 0
0.816114 0.0572976 0
0.859617 0.0581064 0
0.900481 0.0597391 0
0.938918 0.06215 0
0.975311 0.0652323 0
1 0.0688334 0
1 0.0728466 0
1 0.0771649 0
1 0.0816968 0
1 0.0863355 0
1 0.0909895 0
1 0.0959487 0
1 0.100938 0
1 0.106065 0
1 0.111284 0
0 0.139651 0
0 0.143832 0
0 0.145205 0
0.0178531 0.135851 0
0.0816663 0.131182 0
0.130343 0.130343 0
0.178408 0.129503 0
0.228779 0.127916 0
0.282078 0.12549 0
0.337865 0.122393 0
0.394675 0.119097 0
0.451225 0.115938 0
0.506477 0.113252 0
0.56051 0.110994 0
0.614862 0.108751 0
0.668742 0.106752 0
0.721401 0.105196 0
0.772045 0.104311 0
0.819989 0.104265 0
0.864927 0.10515 0
0.907057 0.10692 0
0.946563 0.109514 0
0.983673 0.112871 0
1 0.116823 0
1 0.121263 0
1 0.12607 0
1 0.131106 0
1 0.136278 0
1 0.141482 0
1 0.146807 0
1 0.152224 0
1 0.157717 0
1 0.163272 0
0 0.193088 0
0 0.195346 0
0 0.195209 0
0.0110781 0.183841 0
0.0767071 0.17792 0
0.12636 0.176425 0
0.175219 0.175219 0
0.226261 0.173526 0
0.280156 0.171176 0
0.336553 0.168246 0
0.394018 0.165148 0
0.451301 0.162203 0
0.507393 0.159701 0
0.562097 0.157702 0
0.61709 0.155734 0
0.671702 0.153994 0
0.725124 0.152697 0
0.776593 0.152041 0
0.825391 0.152224 0
0.871061 0.153368 0
0.91368 0.155413 0
0.953384 0.158282 0
0.990417 0.161929 0
1 0.166186 0
1 0.170947 0
1 0.176059 0
1 0.181415 0
1 0.186923 0
1 0.192447 0
1 0.197925 0
1 0.203632 0
1 0.209293 0
1 0.214984 0
0 0.244526 0
0 0.246143 0
0 0.245365 0
0 0.232624 0
0.0672313 0.225925 0
0.118593 0.224186 0
0.168902 0.222889 0
0.22121 0.22121 0
0.276234 0.218936 0
0.333654 0.216129 0
0.392081 0.213199 0
0.450309 0.210437 0
0.507286 0.208133 0
0.562707 0.206378 0
0.618311 0.2047 0
0.673472 0.20325 0
0.727382 0.202243 0
0.779217 0.201862 0
0.828244 0.202289 0
0.87393 0.203647 0
0.91635 0.205875 0
0.955718 0.208927 0
0.992218 0.212726 0
1 0.217166 0
1 0.22208 0
1 0.227344 0
1 0.232853 0
1 0.238468 0
1 0.244129 0
1 0.249699 0
1 0.255375 0
1 0.261021 0
1 0.266667 0
0 0.297169 0
0 0.298665 0
0 0.297734 0
0 0.28394 0
0.0536965 0.276616 0
0.107042 0.274647 0
0.159075 0.273259 0
0.212909 0.271565 0
0.269322 0.269322 0
0.327977 0.266606 0
0.387488 0.263798 0
0.446677 0.261204 0
0.504494 0.259098 0
0.560555 0.257557 0
0.616526 0.256107 0
0.671916 0.254856 0
0.725856 0.254002 0
0.777584 0.253758 0
0.826413 0.254276 0
0.871778 0.255695 0
0.913741 0.258 0
0.952544 0.261082 0
0.988388 0.264881 0
1 0.269322 0
1 0.27422 0
1 0.279438 0
1 0.284871 0
1 0.290425 0
1 0.295979 0
1 0.301457 0
1 0.306935 0
1 0.312398 0
1 0.3178 0
0 0.351797 0
0 0.353338 0
0 0.352331 0
0 0.337789 0
0.0368963 0.329946 0
0.0922866 0.327794 0
0.146181 0.326284 0
0.201678 0.324529 0
0.259602 0.322255 0
0.319585 0.319585 0
0.380194 0.316823 0
0.440223 0.314275 0
0.49865 0.3122 0
0.555077 0.310689 0
0.611215 0.309239 0
0.66659 0.307988 0
0.720363 0.307118 0
0.771817 0.306828 0
0.820279 0.307286 0
0.865232 0.308614 0
0.906706 0.310796 0
0.944976 0.313756 0
0.980255 0.317403 0
1 0.32166 0
1 0.326345 0
1 0.331365 0
1 0.336568 0
1 0.341863 0
1 0.347173 0
1 0.352361 0
1 0.357519 0
1 0.362631 0
1 0.367727 0
0 0.407996 0
0 0.409628 0
0 0.408591 0
0 0.393484 0
0.0187686 0.385245 0
0.0761883 0.382895 0
0.131945 0.381231 0
0.189105 0.379324 0
0.248478 0.376883 0
0.309621 0.374029 0
0.371115 0.371115 0
0.431754 0.368414 0
0.490578 0.366186 0
0.547173 0.364523 0
0.603326 0.362921 0
0.658564 0.361517 0
0.712093 0.360479 0
0.76321 0.360006 0
0.811307 0.36025 0
0.855848 0.361349 0
0.896864 0.363272 0
0.93463 0.365942 0
0.969436 0.369299 0
1 0.373236 0
1 0.377584 0
1 0.382239 0
1 0.387091 0
1 0.39202 0
1 0.396933 0
1 0.401831 0
1 0.40679 0
1 0.41181 0
1 0.416907 0
0 0.46511 0
0 0.466773 0
0 0.46569 0
0 0.450217 0
0.00123598 0.441596 0
0.0605325 0.438911 0
0.117952 0.436896 0
0.176562 0.434623 0
0.237156 0.431846 0
0.299214 0.428656 0
0.361364 0.425406 0
0.422415 0.422415 0
0.481422 0.419913 0
0.538064 0.417975 0
0.594156 0.416098 0
0.64918 0.414389 0
0.702419 0.413062 0
0.753185 0.412284 0
0.800885 0.412207 0
0.845014 0.41297 0
0.885603 0.414527 0
0.922927 0.416815 0
0.957259 0.41976 0
0.988876 0.42327 0
1 0.427192 0
1 0.431418 0
1 0.435935 0
1 0.440681 0
1 0.445518 0
1 0.450385 0
1 0.455192 0
1 0.460212 0
1 0.465202 0
0 0.522911 0
0 0.5243 0
0 0.52282 0
0 0.506645 0
0 0.497551 0
0.0467384 0.494408 0
0.105531 0.49192 0
0.165286 0.489174 0
0.226825 0.485924 0
0.289555 0.482307 0
0.352117 0.478676 0
0.413382 0.475288 0
0.472419 0.472419 0
0.529 0.470115 0
0.584909 0.467857 0
0.639673 0.465782 0
0.692561 0.464088 0
0.742931 0.462913 0
0.790219 0.462425 0
0.833921 0.462745 0
0.874067 0.463844 0
0.910964 0.465675 0
0.944915 0.468193 0
0.976303 0.471397 0
1 0.475135 0
1 0.479271 0
1 0.483711 0
1 0.48835 0
1 0.49308 0
1 0.49781 0
1 0.50248 0
1 0.507332 0
1 0.512139 0
0 0.580713 0
0 0.581628 0
0 0.579568 0
0 0.562448 0
0 0.552499 0
0.0348363 0.548714 0
0.0948806 0.545602 0
0.155612 0.542275 0
0.217868 0.538476 0
0.281071 0.534371 0
0.343847 0.530251 0
0.405127 0.526452 0
0.464042 0.523156 0
0.520409 0.520409 0
0.576028 0.517723 0
0.630426 0.515221 0
0.682872 0.513085 0
0.732754 0.511467 0
0.779538 0.510536 0
0.822812 0.510491 0
0.862699 0.511376 0
0.899443 0.513085 0
0.933303 0.515541 0
0.964553 0.518669 0
0.993683 0.522301 0
1 0.526329 0
1 0.530648 0
1 0.535134 0
1 0.539712 0
1 0.544289 0
1 0.548791 0
1 0.553429 0
1 0.558038 0
0 0.637156 0
0 0.637507 0
0 0.634852 0
0 0.616999 0
0 0.606332 0
0.0234379 0.601846 0
0.0844129 0.598077 0
0.145861 0.594141 0
0.208637 0.589761 0
0.272099 0.585092 0
0.334905 0.580468 0
0.396063 0.576165 0
0.454704 0.572396 0
0.51075 0.569177 0
0.566003 0.566003 0
0.619974 0.563058 0
0.672084 0.560601 0
0.721721 0.558816 0
0.768353 0.557809 0
0.81149 0.557702 0
0.851194 0.558495 0
0.887739 0.560098 0
0.92137 0.562402 0
0.952346 0.565377 0
0.981186 0.568841 0
1 0.572671 0
1 0.576776 0
1 0.581033 0
1 0.585382 0
1 0.589715 0
1 0.593973 0
1 0.598321 0
1 0.60264 0
0 0.691264 0
0 0.69102 0
0 0.687831 0
0 0.669535 0
0 0.658274 0
0.0131838 0.653162 0
0.0747234 0.648753 0
0.136599 0.64419 0
0.199634 0.6392 0
0.263111 0.633982 0
0.325795 0.628824 0
0.386664 0.624002 0
0.444999 0.619806 0
0.500862 0.616281 0
0.556008 0.61294 0
0.609918 0.609918 0
0.661875 0.60737 0
0.71133 0.605478 0
0.757733 0.604349 0
0.800626 0.604105 0
0.84004 0.60473 0
0.87628 0.606119 0
0.909575 0.608225 0
0.9402 0.610956 0
0.968658 0.61416 0
0.995377 0.617731 0
1 0.621546 0
1 0.625513 0
1 0.629557 0
1 0.63357 0
1 0.637491 0
1 0.641505 0
1 0.645472 0
0 0.742397 0
0 0.741619 0
0 0.737957 0
0 0.719463 0
0 0.707759 0
0.00463874 0.702068 0
0.0664073 0.697047 0
0.128405 0.69189 0
0.191455 0.68632 0
0.254902 0.680644 0
0.317525 0.675212 0
0.378378 0.670253 0
0.436667 0.665965 0
0.49247 0.662318 0
0.547524 0.658854 0
0.601251 0.655665 0
0.652964 0.652964 0
0.702113 0.650889 0
0.748165 0.649577 0
0.790677 0.649119 0
0.829694 0.6495 0
0.865522 0.650645 0
0.898405 0.652461 0
0.928588 0.654887 0
0.956573 0.657786 0
0.982803 0.661006 0
1 0.664485 0
1 0.668086 0
1 0.671748 0
1 0.67538 0
1 0.67892 0
1 0.682521 0
1 0.686061 0
0 0.790127 0
0 0.788876 0
0 0.784817 0
0 0.766339 0
0 0.754345 0
0 0.74818 0
0.06009 0.742763 0
0.122286 0.737331 0
0.185565 0.731609 0
0.249119 0.725795 0
0.311757 0.720226 0
0.372503 0.715129 0
0.430594 0.710689 0
0.486229 0.706844 0
0.541054 0.703166 0
0.594476 0.699779 0
0.645823 0.696849 0
0.69453 0.69453 0
0.740108 0.692958 0
0.782132 0.692226 0
0.820661 0.692317 0
0.85597 0.693141 0
0.888334 0.694621 0
0.917998 0.696696 0
0.945449 0.699214 0
0.97113 0.702052 0
0.995407 0.705119 0
1 0.708309 0
1 0.711543 0
1 0.714748 0
1 0.71783 0
1 0.720974 0
1 0.724041 0
0 0.83444 0
0 0.8327 0
0 0.828336 0
0 0.810178 0
0 0.798352 0
0 0.792157 0
0.0573281 0.786633 0
0.119661 0.781033 0
0.183032 0.775113 0
0.24654 0.769131 0
0.30901 0.763363 0
0.369512 0.758053 0
0.427268 0.753399 0
0.482597 0.74931 0
0.537057 0.745357 0
0.590036 0.741711 0
0.640879 0.738506 0
0.689036 0.735897 0
0.73402 0.73402 0
0.775433 0.732967 0
0.813352 0.732723 0
0.848066 0.733181 0
0.87982 0.734279 0
0.908888 0.735958 0
0.935744 0.738048 0
0.96083 0.740459 0
0.984497 0.743069 0
1 0.745785 0
1 0.748562 0
1 0.751278 0
1 0.753887 0
1 0.756512 0
1 0.759091 0
0 0.875822 0
0 0.874006 0
0 0.869673 0
0 0.851987 0
0 0.84033 0
0 0.834043 0
0.0585946 0.828336 0
0.120928 0.822492 0
0.184222 0.816342 0
0.247532 0.810101 0
0.309697 0.804089 0
0.369787 0.798535 0
0.427085 0.793622 0
0.481971 0.789242 0
0.535927 0.784985 0
0.588312 0.781018 0
0.638529 0.777508 0
0.686 0.774578 0
0.730266 0.772351 0
0.770962 0.770962 0
0.808164 0.770321 0
0.842161 0.770382 0
0.873228 0.771069 0
0.901625 0.772305 0
0.92784 0.773953 0
0.9523 0.775891 0
0.975357 0.778027 0
0.997314 0.78027 0
1 0.782528 0
1 0.784756 0
1 0.786877 0
1 0.789029 0
1 0.791135 0
0 0.915297 0
0 0.913344 0
0 0.908949 0
0 0.89163 0
0 0.880034 0
0.00173953 0.873564 0
0.0636606 0.867597 0
0.125887 0.861479 0
0.188998 0.855024 0
0.251972 0.848478 0
0.313695 0.842176 0
0.373251 0.836316 0
0.429938 0.831113 0
0.48423 0.826398 0
0.53756 0.821805 0
0.589242 0.817487 0
0.638651 0.813626 0
0.685313 0.810361 0
0.72874 0.807782 0
0.768597 0.805997 0
0.804974 0.804974 0
0.838193 0.804639 0
0.868513 0.804883 0
0.896193 0.805676 0
0.921706 0.806836 0
0.945495 0.808301 0
0.967926 0.809964 0
0.989319 0.811734 0
1 0.813535 0
1 0.81532 0
1 0.817014 0
1 0.818738 0
1 0.820432 0
0 0.952712 0
0 0.95053 0
0 0.945937 0
0 0.928847 0
0 0.91725 0
0.0105287 0.910521 0
0.0722515 0.90425 0
0.134264 0.89778 0
0.19704 0.890959 0
0.259571 0.884092 0
0.320699 0.877455 0
0.379568 0.871275 0
0.435492 0.865736 0
0.489097 0.860655 0
0.541634 0.855695 0
0.592447 0.851041 0
0.640955 0.84683 0
0.686671 0.843198 0
0.729137 0.840253 0
0.768048 0.838102 0
0.80354 0.836667 0
0.835889 0.835889 0
0.865415 0.835721 0
0.892332 0.836072 0
0.917174 0.83682 0
0.940352 0.837842 0
0.962203 0.839078 0
0.983063 0.840436 0
1 0.84184 0
1 0.843229 0
1 0.844541 0
1 0.845869 0
1 0.847196 0
0 0.987991 0
0 0.985443 0
0 0.98056 0
0 0.9635 0
0 0.951782 0
0.0227359 0.944732 0
0.0841688 0.938079 0
0.145815 0.931228 0
0.208133 0.924041 0
0.270008 0.916808 0
0.330404 0.909819 0
0.388434 0.903304 0
0.443442 0.897414 0
0.496193 0.891981 0
0.547784 0.886656 0
0.597589 0.881651 0
0.64506 0.877089 0
0.689693 0.873091 0
0.731121 0.869795 0
0.769009 0.867262 0
0.803571 0.865461 0
0.835065 0.864332 0
0.863783 0.863783 0
0.889998 0.863767 0
0.914199 0.864134 0
0.936797 0.864805 0
0.958114 0.865675 0
0.978454 0.866667 0
0.998123 0.867704 0
1 0.868742 0
1 0.869703 0
1 0.870695 0
1 0.871687 0
0 1 0
0 1 0
0 1 0
0 0.995544 0
0 0.983581 0
0.0378271 0.97615 0
0.0988785 0.96907 0
0.160052 0.961791 0
0.221759 0.954208 0
0.282872 0.946593 0
0.342336 0.939254 0
0.399374 0.932403 0
0.4533 0.926192 0
0.505013 0.920394 0
0.555535 0.914733 0
0.604212 0.909377 0
0.650538 0.904494 0
0.694057 0.900206 0
0.734386 0.896605 0
0.771282 0.893767 0
0.804898 0.891676 0
0.835554 0.890242 0
0.863508 0.889372 0
0.889036 0.889036 0
0.912627 0.889097 0
0.934646 0.889433 0
0.955444 0.889982 0
0.975326 0.890654 0
0.994568 0.891386 0
1 0.892119 0
1 0.892775 0
1 0.893462 0
1 0.894148 0
0 1 0
0 1 0
0 1 0
0 1 0
0 1 0
0.0552071 1 0
0.115724 0.997284 0
0.176272 0.989578 0
0.237171 0.981598 0
0.297276 0.973648 0
0.355657 0.965957 0
0.411521 0.95877 0
0.46424 0.952255 0
0.514839 0.946136 0
0.564202 0.9402 0
0.611704 0.934585 0
0.656855 0.929458 0
0.699245 0.924926 0
0.738521 0.92108 0
0.774411 0.918029 0
0.807126 0.915679 0
0.836957 0.913985 0
0.864179 0.912871 0
0.889036 0.912261 0
0.912032 0.912032 0
0.933532 0.912093 0
0.953841 0.912367 0
0.973281 0.912764 0
0.992096 0.913207 0
1 0.913649 0
1 0.914031 0
1 0.914458 0
1 0.91487 0
0 1 0
0 1 0
0 1 0
0 1 0
0.0122683 1 0
0.0741283 1 0
0.133883 1 0
0.193606 1 0
0.253513 1 0
0.312505 0.998093 0
0.36965 0.990143 0
0.424231 0.982727 0
0.47567 0.975982 0
0.525109 0.969635 0
0.573281 0.96347 0
0.619593 0.957671 0
0.6636 0.952361 0
0.704875 0.947646 0
0.743084 0.943618 0
0.778012 0.940368 0
0.809857 0.937804 0
0.838911 0.935897 0
0.865415 0.934554 0
0.889647 0.933715 0
0.912077 0.933242 0
0.933059 0.933059 0
0.952911 0.933074 0
0.971908 0.933211 0
0.990326 0.93341 0
1 0.933623 0
1 0.933776 0
1 0.933989 0
1 0.934218 0
0 1 0
0 1 0
0 1 0
0 1 0
0.0326696 1 0
0.0936904 1 0
0.15259 1 0
0.211322 1 0
0.270069 1 0
0.32784 1 0
0.383658 1 0
0.436927 1 0
0.487068 0.997772 0
0.535332 0.991257 0
0.582315 0.984939 0
0.627482 0.978988 0
0.670344 0.973526 0
0.710552 0.968658 0
0.747768 0.964492 0
0.781765 0.961089 0
0.812772 0.958358 0
0.841077 0.956268 0
0.866911 0.954711 0
0.890562 0.953658 0
0.912444 0.952972 0
0.932952 0.95256 0
0.952361 0.952361 0
0.970993 0.9523 0
0.989059 0.952316 0
1 0.952331 0
1 0.952316 0
1 0.952361 0
1 0.952438 0
0 1 0
0 1 0
0 1 0
0 1 0
0.0530556 1 0
0.113115 1 0
0.171008 1 0
0.228641 1 0
0.286213 1 0
