LUTs/14.cube
TITLE "Generate by Resolve"
LUT_3D_SIZE 9
0 0 0
0.060914 0 0
0.232715 0 0
0.447776 0 0
0.72987 0 0
0.888777 0 0
1 0 0
1 0 0
1 0 0
0 0.0554055 0
0.082002 0.082002 0
0.284474 0.0797284 0
0.508385 0.067277 0
0.720516 0.0583352 0
0.900481 0.0597391 0
1 0.0728466 0
1 0.0909895 0
1 0.111284 0
0 0.297169 0
0.0536965 0.276616 0
0.269322 0.269322 0
0.504494 0.259098 0
0.725856 0.254002 0
0.913741 0.258 0
1 0.27422 0
1 0.295979 0
1 0.3178 0
0 0.522911 0
0 0.497551 0
0.226825 0.485924 0
0.472419 0.472419 0
0.692561 0.464088 0
0.874067 0.463844 0
1 0.475135 0
1 0.49308 0
1 0.512139 0
0 0.742397 0
0 0.707759 0
0.191455 0.68632 0
0.436667 0.665965 0
0.652964 0.652964 0
0.829694 0.6495 0
0.956573 0.657786 0
1 0.671748 0
1 0.686061 0
0 0.915297 0
0 0.880034 0
0.188998 0.855024 0
0.429938 0.831113 0
0.638651 0.813626 0
0.804974 0.804974 0
0.921706 0.806836 0
1 0.813535 0
1 0.820432 0
0 1 0
0 1 0
0.237171 0.981598 0
0.46424 0.952255 0
0.656855 0.929458 0
0.807126 0.915679 0
0.912032 0.912032 0
0.992096 0.913207 0
1 0.91487 0
0 1 0
0.0726024 1 0
0.301366 1 0
0.508064 1 0
0.682628 1 0
0.818097 0.995621 0
0.913375 0.989059 0
0.987259 0.987259 0
1 0.986404 0
0 1 0
0.137819 1 0
0.348974 1 0
0.538476 1 0
0.699733 1 0
0.825025 1 0
0.913985 1 0
0.984146 1 0
1 1 0
0 0 0.0725414
0.0557259 0 0.0557259
0.228748 0 0.0574655
0.462577 0 0.0688487
0.73666 0 0.111452
0.890745 0 0.138247
1 0 0.168734
1 0 0.20032
1 0 0.233783
0 0.079408 0.079408
0.0792096 0.0792096 0.0792096
0.277852 0.0748455 0.0748455
0.501213 0.0614786 0.0614786
0.714992 0.051667 0.051667
0.899901 0.0513313 0.0513313
1 0.0632029 0.0632029
1 0.0809796 0.0809796
1 0.100771 0.100771
0 0.290425 0.0603494
0.0500801 0.269123 0.0500801
0.262409 0.262409 0.0393072
0.497475 0.251865 0.0196689
0.719539 0.245914 0.00404364
0.911208 0.248035 0
1 0.262516 0.00318914
1 0.283314 0.016434
1 0.304356 0.0305638
0 0.514641 0
0 0.48806 0
0.219211 0.476997 0
0.46305 0.46305 0
0.682826 0.453834 0
0.867994 0.451606 0
1 0.461585 0
1 0.479057 0
1 0.498024 0
0 0.730999 0
0 0.695155 0
0.181903 0.674922 0
0.425437 0.654841 0
0.641566 0.641566 0
0.822324 0.636606 0
0.952819 0.643473 0
1 0.65687 0
1 0.671107 0
0 0.903395 0
0 0.867689 0
0.175265 0.844221 0
0.414435 0.820294 0
0.622477 0.802518 0
0.792401 0.792401 0
0.912413 0.792935 0
1 0.799176 0
1 0.806104 0
0 1 0.0125277
0 0.999573 0
0.220417 0.970413 0
0.445289 0.941253 0
0.63679 0.918471 0
0.790555 0.903548 0
0.898848 0.898848 0
0.979706 0.899657 0.00444038
1 0.901381 0.0214847
0 1 0.0918898
0.0641642 1 0.0641642
0.283421 1 0.0510414
0.487846 1 0.0391089
0.661357 1 0.0319829
0.800473 0.98349 0.0308385
0.899138 0.976013 0.0378729
0.973983 0.973983 0.049012
1 0.973281 0.0603799
0 1 0.160754
0.127398 1 0.127398
0.329915 1 0.107515
0.517922 1 0.0899519
0.678721 1 0.0777752
0.807904 1 0.0724498
0.900282 1 0.0757153
0.971466 1 0.083711
1 1 0.0927443
0 0 0.246967
0.0556802 0 0.223117
0.234394 0 0.234394
0.519051 0 0.316106
0.742626 0 0.365972
0.891981 0 0.40972
1 0 0.454917
1 0 0.500359
1 0 0.547341
0 0.0859693 0.279622
0.0787213 0.0787213 0.274678
0.277928 0.0719005 0.277928
0.501839 0.0572366 0.277256
0.716533 0.0462654 0.282017
0.902632 0.0446937 0.297078
1 0.0556649 0.324514
1 0.0728008 0.356786
1 0.0919356 0.389075
0 0.287755 0.287755
0.0463111 0.266911 0.266911
0.260075 0.260075 0.260075
0.496117 0.24892 0.24892
0.718288 0.242145 0.242145
0.910231 0.243107 0.243107
1 0.256382 0.256382
1 0.276081 0.276081
1 0.296056 0.296056
0 0.510414 0.254887
0 0.484321 0.227359
0.215518 0.473289 0.215518
0.458762 0.458762 0.19942
0.677958 0.448692 0.187869
0.863798 0.445335 0.183322
1 0.454566 0.19173
1 0.471489 0.208469
1 0.490059 0.22771
0 0.722942 0.230213
0 0.68806 0.193912
0.176745 0.668742 0.176745
0.419608 0.64889 0.158602
0.635416 0.635416 0.147326
0.81706 0.629725 0.144854
0.948348 0.635721 0.155489
1 0.648539 0.174563
1 0.662379 0.196185
0 0.89337 0.243091
0 0.859327 0.190372
0.168841 0.837018 0.168841
0.406912 0.81326 0.151965
0.614084 0.7953 0.144076
0.784527 0.784527 0.145571
0.905226 0.784283 0.159014
0.993729 0.790097 0.178851
1 0.796765 0.199222
0 1 0.298543
0 0.989166 0.237781
0.212863 0.961486 0.212863
0.435859 0.93283 0.195956
0.626062 0.910246 0.187579
0.780453 0.894942 0.186954
0.889723 0.889723 0.195804
0.970657 0.890242 0.209461
1 0.891859 0.223239
0 1 0.364477
0.0591135 1 0.303426
0.274159 1 0.274159
0.476707 1 0.252476
0.649134 0.991852 0.238315
0.789242 0.974395 0.231464
0.889204 0.966537 0.233967
0.964401 0.964401 0.24181
1 0.963745 0.250782
0 1 0.417121
0.120043 1 0.353384
0.318898 1 0.318898
0.505776 1 0.292775
0.666041 1 0.274601
0.796613 1 0.264378
0.890517 1 0.263798
0.962219 1 0.269017
1 1 0.276066
0 0 0.438697
0.0547646 0 0.413397
0.244068 0 0.437751
0.541039 0 0.541039
0.7505 0 0.58584
0.897032 0 0.63267
1 0 0.682811
1 0 0.733913
1 0 0.785565
0 0.0873579 0.496574
0.0761273 0.0761273 0.48925
0.278157 0.0672313 0.49688
0.503777 0.0517128 0.503777
0.719905 0.0401312 0.516655
0.906279 0.0383307 0.539956
1 0.0493477 0.574655
1 0.0665141 0.612299
1 0.0856641 0.648081
0 0.285679 0.517235
0.0397955 0.264103 0.500114
0.256535 0.256535 0.498787
0.494072 0.244663 0.494072
0.716258 0.237278 0.49279
0.907454 0.237705 0.497856
1 0.25037 0.513756
1 0.269444 0.534859
1 0.288899 0.555398
0 0.507576 0.507576
0 0.480415 0.480415
0.210147 0.46862 0.46862
0.453346 0.453346 0.453346
0.671946 0.442481 0.442481
0.857664 0.438651 0.438651
0.994446 0.447623 0.447623
1 0.464317 0.464317
1 0.482689 0.482689
0 0.716915 0.490944
0 0.681208 0.451896
0.170443 0.662028 0.432502
0.413062 0.642115 0.413062
0.628443 0.628443 0.400534
0.809842 0.62237 0.396384
0.940841 0.627955 0.4047
1 0.640436 0.420706
1 0.653986 0.438453
0 0.885603 0.502617
0 0.85127 0.446448
0.162844 0.828992 0.420859
0.399954 0.805142 0.399954
0.606073 0.78703 0.387747
0.775891 0.775891 0.38436
0.8963 0.775265 0.392493
0.984344 0.780804 0.40708
1 0.787335 0.422461
0 1 0.548943
0 0.97908 0.482429
0.206973 0.951705 0.451301
0.428061 0.923262 0.428061
0.616785 0.900816 0.413687
0.770687 0.88542 0.40734
0.879957 0.879957 0.410971
0.960678 0.880293 0.420157
1 0.881865 0.430182
0 1 0.597345
0.0550088 1 0.529931
0.266789 1 0.494697
0.467445 1 0.467445
0.638666 0.981918 0.448356
0.778729 0.964401 0.43711
0.879011 0.956436 0.435813
0.954269 0.954269 0.440482
1 0.953719 0.446815
0 1 0.632746
0.113893 1 0.564294
0.309987 1 0.525704
0.495598 1 0.495598
0.655131 1 0.473869
0.786068 1 0.460334
0.880583 1 0.45684
0.952529 1 0.459632
1 1 0.464683
0 0 0.612818
0.0559548 0 0.592584
0.268589 0 0.635889
0.558999 0 0.726421
0.76109 0 0.76109
0.906294 0 0.803128
1 0 0.850385
1 0 0.899428
1 0 0.948882
0 0.0887617 0.690074
0.0747234 0.0747387 0.683742
0.280644 0.0640879 0.694743
0.5084 0.0479133 0.707149
0.726055 0.035935 0.726055
0.912261 0.0343481 0.75491
1 0.0457465 0.793225
1 0.0632334 0.83212
1 0.0826123 0.867262
0 0.285985 0.72134
0.0345769 0.263355 0.711345
0.254841 0.254841 0.71548
0.494026 0.242298 0.714794
0.716228 0.234485 0.716228
0.90631 0.234638 0.722881
1 0.246937 0.739361
1 0.265476 0.76022
1 0.284733 0.780346
0 0.507362 0.727916
0 0.478859 0.704463
0.206638 0.465995 0.693858
0.449897 0.449897 0.67895
0.667872 0.438315 0.667872
0.853346 0.434424 0.663981
0.989731 0.443305 0.672312
1 0.459876 0.687678
1 0.478141 0.70399
0 0.713771 0.713771
0 0.677089 0.677089
0.166339 0.657679 0.657679
0.408804 0.637552 0.637552
0.623652 0.623652 0.623652
0.804364 0.61735 0.61735
0.9346 0.62266 0.62266
1 0.634882 0.634882
1 0.648173 0.648173
0 0.880858 0.721874
0 0.845762 0.668132
0.15964 0.823163 0.640513
0.395743 0.799054 0.616617
0.600626 0.780743 0.600626
0.76936 0.76936 0.592721
0.889052 0.76846 0.595941
0.976486 0.77377 0.605585
1 0.780102 0.616236
0 1 0.757092
0 0.971389 0.692164
0.204089 0.943969 0.657008
0.423224 0.915618 0.629282
0.61033 0.893248 0.61033
0.763287 0.877775 0.59942
0.872129 0.872129 0.598779
0.952483 0.872312 0.604105
1 0.873854 0.610773
0 1 0.7879
0.0532235 1 0.723125
0.262303 1 0.684398
0.461051 0.997971 0.653468
0.630991 0.973724 0.630991
0.770596 0.956207 0.616541
0.870848 0.948165 0.612284
0.946014 0.946014 0.614328
1 0.945541 0.618341
0 1 0.80798
0.110002 1 0.744015
0.303868 1 0.703532
0.488243 1 0.671016
0.646983 1 0.646983
0.777874 1 0.631189
0.872633 1 0.625574
0.944686 1 0.626444
1 1 0.62974
0 0 0.758862
0.0608682 0 0.748074
0.327901 0 0.819348
0.578241 0 0.853452
0.775509 0 0.880537
0.920043 0 0.920043
1 0 0.966751
1 0 1
1 0 1
0 0.0923476 0.842893
0.075761 0.075761 0.844724
0.286259 0.0636149 0.858579
0.516518 0.0471046 0.872816
0.735988 0.0351568 0.892851
0.921843 0.0343023 0.921843
1 0.0465248 0.958312
1 0.0646067 0.99382
1 0.0844282 1
0 0.289967 0.882185
0.0317845 0.265476 0.889479
0.255756 0.255756 0.899931
0.49659 0.242618 0.901167
0.718822 0.234531 0.902449
0.907713 0.234638 0.907713
1 0.246845 0.921736
1 0.26508 0.9393
1 0.28455 0.956161
0 0.511223 0.895552
0 0.480339 0.88864
0.205722 0.466041 0.882689
0.449027 0.449027 0.868406
0.66656 0.436942 0.856626
0.851591 0.433173 0.851591
0.98732 0.44213 0.857771
1 0.458717 0.870039
1 0.476982 0.882338
0 0.714977 0.878202
0 0.676463 0.858717
0.165133 0.656245 0.844465
0.40737 0.635706 0.825055
0.621576 0.621576 0.810025
0.801282 0.615091 0.801282
0.930495 0.620233 0.803021
1 0.632258 0.810742
1 0.645304 0.818891
0 0.880629 0.880629
0 0.843656 0.843656
0.159655 0.820142 0.820142
0.394598 0.79556 0.79556
0.598001 0.776959 0.776959
0.765332 0.765332 0.765332
0.884047 0.764218 0.764218
0.970825 0.769299 0.769299
1 0.775448 0.775448
0 1 0.904326
0 0.967025 0.854673
0.204456 0.938994 0.822705
0.421424 0.910475 0.793866
0.606744 0.888029 0.772442
0.758465 0.87245 0.758465
0.866606 0.866606 0.754559
0.946532 0.866667 0.756695
1 0.868147 0.760296
0 1 0.920607
0.0547189 1 0.870542
0.260899 1 0.835737
0.457618 0.99205 0.804822
0.626184 0.967788 0.781201
0.765057 0.950225 0.765057
0.865019 0.942123 0.758846
0.939971 0.939971 0.758877
1 0.939574 0.760876
0 1 0.928679
0.109331 1 0.879652
0.300877 1 0.844205
0.483833 1 0.812879
0.641672 1 0.788769
0.772229 1 0.772229
0.866972 1 0.765484
0.93901 1 0.765087
1 1 0.76704
0 0 0.861265
0.0725567 0 0.859556
0.357778 0 0.924269
0.598184 0 0.947707
0.791638 0 0.975189
0.935683 0 1
1 0 1
1 0 1
1 0 1
0 0.0988632 0.950469
0.0802472 0.0802472 0.960204
0.295811 0.0667582 0.976867
0.528664 0.049958 0.992554
0.749767 0.0381781 1
0.934707 0.0381933 1
1 0.0511788 1
1 0.0697032 1
1 0.0897536 1
0 0.297749 0.997696
0.0328069 0.271641 1
0.26067 0.26067 1
0.503105 0.246998 1
0.725292 0.238697 1
0.912779 0.238804 1
1 0.250889 1
1 0.268925 1
1 0.288624 1
0 0.518822 1
0 0.485924 1
0.208865 0.470115 1
0.452171 0.452171 1
0.669413 0.439826 0.99089
0.853758 0.436179 0.984573
0.988586 0.445228 0.988586
1 0.461814 0.997848
1 0.480018 1
0 0.719844 0.99295
0 0.680095 0.985946
0.168124 0.658976 0.976562
0.410117 0.637964 0.958038
0.623529 0.623529 0.942107
0.801984 0.616892 0.931243
0.929915 0.621866 0.929915
1 0.6336 0.933822
1 0.646326 0.937743
0 0.883894 0.991562
0 0.845502 0.96553
0.163943 0.820996 0.945861
0.397589 0.795895 0.921294
0.599359 0.776913 0.901015
0.765042 0.765042 0.886793
0.882551 0.763668 0.882551
0.968536 0.768475 0.884291
1 0.774334 0.887053
0 1 1
0 0.966323 0.966323
0.208759 0.937636 0.937636
0.423514 0.908873 0.908873
0.606958 0.886275 0.886275
0.757259 0.870527 0.870527
0.864485 0.864485 0.864485
0.943877 0.864408 0.864408
1 0.865782 0.865782
0 1 1
0.0593576 1 0.971633
0.263081 1 0.94052
0.457847 0.989456 0.910491
0.625025 0.965133 0.886717
0.763012 0.947494 0.869825
0.862486 0.93933 0.862486
0.937148 0.937148 0.861204
1 0.936797 0.861799
0 1 1
0.111742 1 0.972854
0.301366 1 0.941604
0.482994 1 0.911879
0.639887 1 0.88835
0.769955 1 0.871717
0.864515 1 0.864515
0.936477 1 0.863432
1 1 0.8645
0 0 0.939666
0.0962539 0 0.95079
0.382086 0 1
0.617472 0 1
0.80795 0 1
0.951965 0 1
1 0 1
1 0 1
1 0 1
0 0.106477 1
0.0865644 0.0865644 1
0.307485 0.0717632 1
0.542855 0.0546426 1
0.765209 0.0430152 1
0.948623 0.0437934 1
1 0.0573892 1
1 0.076112 1
1 0.0961624 1
0 0.307225 1
0.0360266 0.280156 1
0.268055 0.268055 1
0.511894 0.253849 1
0.733883 0.245258 1
0.919722 0.245274 1
1 0.257115 1
1 0.275059 1
1 0.294835 1
0 0.52784 1
0 0.49369 1
0.21445 0.4766 1
0.457771 0.457771 1
0.674891 0.44535 1
0.858259 0.44181 1
0.991913 0.450889 1
1 0.467369 1
1 0.485405 1
0 0.726162 1
0 0.686 1
0.173693 0.664195 1
0.415503 0.642771 1
0.628046 0.628046 1
0.805005 0.621241 1
0.931395 0.625971 1
1 0.637324 1
1 0.649607 1
0 0.888289 1
0 0.849317 1
0.170779 0.824063 1
0.403143 0.79852 1
0.603189 0.779187 0.99144
0.767056 0.767056 0.975219
0.883223 0.765408 0.968811
0.968307 0.769879 0.968307
1 0.775387 0.968933
0 1 1
0 0.967376 1
0.215259 0.938293 1
0.427924 0.909377 0.993393
0.609476 0.886656 0.969573
0.758282 0.870756 0.952422
0.864515 0.864515 0.944884
0.943297 0.864256 0.943297
1 0.865492 0.943236
0 1 1
0.0654765 1 1
0.267201 1 1
0.460243 0.9888 0.9888
0.626108 0.964446 0.964446
0.763165 0.946807 0.946807
0.862074 0.938598 0.938598
0.9364 0.9364 0.9364
1 0.93608 0.93608
0 1 1
0.115496 1 1
0.303731 1 1
0.484215 1 0.985885
0.640269 1 0.962203
0.769818 1 0.945251
0.864118 1 0.937591
0.935958 1 0.935958
1 1 0.936461
0 0 1
0.137926 0 1
0.403479 0 1
0.636286 0 1
0.824582 0 1
0.968765 0 1
1 0 1
1 0 1
1 0 1
0 0.114153 1
0.0932174 0.0932174 1
0.319707 0.0771344 1
0.557519 0.0597086 1
0.780789 0.0483253 1
0.962249 0.0498817 1
1 0.0640421 1
1 0.0829175 1
1 0.102876 1
0 0.317128 1
0.0398413 0.28925 1
0.276066 0.276066 1
0.521126 0.261311 1
0.742748 0.252384 1
0.926772 0.252247 1
1 0.263752 1
1 0.281773 1
1 0.301549 1
0 0.537041 1
0 0.501869 1
0.220615 0.483589 1
0.464103 0.464103 1
0.681025 0.451637 1
0.863249 0.448157 1
0.995499 0.457252 1
1 0.473564 1
1 0.491356 1
0 0.732815 1
0 0.692424 1
0.180011 0.670024 1
0.421622 0.648219 1
0.633234 0.633234 1
0.80853 0.626261 1
0.933227 0.630732 1
1 0.641657 1
1 0.653452 1
0 0.892805 1
0 0.853407 1
0.178393 0.827573 1
0.409415 0.801648 1
0.607691 0.782025 1
0.769696 0.769696 1
0.884413 0.767773 1
0.968597 0.771878 1
1 0.776989 1
0 1 1
0.00205997 0.968673 1
0.222278 0.939376 1
0.432944 0.910353 1
0.612696 0.887556 1
0.759945 0.871534 1
0.865156 0.865156 1
0.943313 0.864729 1
1 0.865827 1
0 1 1
0.0716869 1 1
0.271748 1 1
0.463249 0.988617 1
0.627909 0.964294 1
0.764004 0.94667 1
0.862318 0.938476 1
0.936278 0.936278 1
1 0.935973 1
0 1 1
0.119402 1 1
0.306584 1 1
0.486076 1 1
0.641382 1 1
0.770382 1 1
0.864378 1 1
0.93608 1 1
1 1 1
