LUTs/15.cube
TITLE "Generate by Resolve"
LUT_3D_SIZE 5
0 0 0
0.219821 0 0
0.762982 0 0
1 0 0
1 0 0
0 0.305226 0
0.264698 0.265614 0
0.762066 0.238605 0
1 0.250568 0
1 0.288838 0
0 0.750546 0
0.183627 0.680934 0
0.686458 0.636133 0
1 0.633616 0
1 0.65771 0
0 1 0
0.237949 0.974258 0
0.695216 0.912093 0
0.973739 0.888838 0
1 0.888411 0
0 1 0
0.363653 1 0
0.745373 1 0
0.978897 1 0
1 1 0
0 0 0.23946
0.225742 0 0.218677
0.781842 0 0.320989
1 0 0.391836
1 0 0.466102
0 0.301106 0.281971
0.259541 0.261662 0.245914
0.759045 0.23238 0.218814
1 0.238483 0.223178
1 0.273121 0.252979
0 0.737438 0.241413
0.173007 0.669459 0.180667
0.672709 0.624735 0.143359
1 0.617426 0.142779
1 0.639872 0.17406
0 1 0.303059
0.216526 0.960189 0.214954
0.666423 0.898787 0.182147
0.953902 0.871977 0.182559
1 0.870649 0.202731
0 1 0.40383
0.335225 1 0.306569
0.712795 1 0.258778
0.957259 1 0.243519
1 1 0.250797
0 0 0.5579
0.267247 0 0.567407
0.805875 0 0.664302
1 0 0.735454
1 0 0.814878
0 0.304173 0.659754
0.25835 0.261189 0.642313
0.761486 0.229603 0.631357
1 0.234119 0.643549
1 0.266987 0.674571
0 0.733471 0.662409
0.166369 0.663554 0.599329
0.66453 0.618128 0.558053
1 0.609491 0.549523
1 0.630747 0.567681
0 1 0.701961
0.2112 0.947463 0.601495
0.6533 0.886549 0.550225
0.938552 0.858976 0.533471
1 0.857114 0.54023
0 1 0.743862
0.322469 1 0.641443
0.695537 1 0.583093
0.941161 0.998886 0.558572
1 0.992309 0.558801
0 0 0.774029
0.367819 0 0.816541
0.841428 0 0.849943
1 0 0.92401
1 0 1
0 0.318853 0.900603
0.267994 0.270054 0.919112
0.774639 0.236789 0.90869
1 0.241093 0.913603
1 0.273838 0.934081
0 0.742275 0.905394
0.171557 0.668025 0.876844
0.667613 0.621225 0.835203
1 0.611917 0.817029
1 0.632044 0.819883
0 1 0.918807
0.219059 0.943877 0.845533
0.652323 0.882475 0.790387
0.932799 0.854246 0.764813
1 0.851881 0.762295
0 1 0.922621
0.322026 1 0.848585
0.690105 1 0.79321
0.934615 0.99266 0.766613
1 0.986587 0.76321
0 0 0.907347
0.419608 0 0.968551
0.879286 0 1
1 0 1
1 0 1
0 0.340093 1
0.286976 0.286976 1
0.795819 0.251926 1
1 0.255543 1
1 0.28838 1
0 0.756832 1
0.186542 0.680613 1
0.680156 0.632471 0.994141
1 0.622415 0.96939
1 0.640833 0.963867
0 1 1
0.235477 0.946899 0.986404
0.660182 0.885191 0.926711
0.935058 0.856413 0.896391
1 0.853437 0.889418
0 1 1
0.329107 1 0.971649
0.693141 1 0.915007
0.935851 0.992966 0.886717
1 0.987106 0.881148
