LUTs/15.cube
TITLE "Generate by Resolve"
LUT_3D_SIZE 33
0 0 0
0 0 0
0 0 0
0 0 0
0.0324102 0 0
0.0788281 0 0
0.123323 0 0
0.169818 0 0
0.219821 0 0
0.274022 0 0
0.331884 0 0
0.392233 0 0
0.45449 0 0
0.521157 0 0
0.625177 0 0
0.702495 0 0
0.762982 0 0
0.814252 0 0
0.85919 0 0
0.899458 0 0
0.93666 0 0
0.971984 0 0
1 0 0
1 0 0
1 0 0
1 0 0
1 0 0
1 0 0
1 0 0
1 0 0
1 0 0
1 0 0
1 0 0
0 0 0
0 0 0
0 0 0
0 0 0
0.0365606 0 0
0.0848859 0 0
0.132265 0 0
0.183169 0 0
0.239734 0 0
0.304051 0 0
0.380377 0 0
0.489815 0 0
0.565698 0 0
0.633631 0 0
0.695644 0 0
0.751827 0 0
0.802258 0 0
0.847837 0 0
0.889418 0 0
0.927825 0 0
0.964172 0 0
0.999283 0 0
1 0 0
1 0 0
1 0 0
1 0 0
1 0 0
1 0 0
1 0 0
1 0 0
1 0 0
1 0 0
1 0 0
0 0 0
0 0 0
0 0 0
0 0 0
0.0417334 0 0
0.0944533 0 0
0.150393 0 0
0.233982 0 0
0.324727 0 0
0.400671 0 0
0.470466 0 0
0.535363 0 0
0.59881 0 0
0.659525 0 0
0.717021 0 0
0.770535 0 0
0.819623 0 0
0.864805 0 0
0.90663 0 0
0.945693 0 0
0.982971 0 0
1 0 0
1 0 0
1 0 0
1 0 0
1 0 0
1 0 0
1 0 0
1 0 0
1 0 0
1 0 0
1 0 0
1 0 0
0 0 0
0 0 0
0 0.000762951 0
0 0 0
0.0533761 0.0166476 0
0.115984 0.0240482 0
0.175006 0.0263218 0
0.235874 0.0255894 0
0.299413 0.0227207 0
0.364157 0.0186313 0
0.428183 0.0141451 0
0.490105 0.00981155 0
0.549722 0.00582895 0
0.60914 0.00172427 0
0.667521 0 0
0.723949 0 0
0.77763 0 0
0.827939 0 0
0.874876 0 0
0.918837 0 0
0.960159 0 0
0.999283 0 0
1 0 0
1 0 0
1 3.0518e-05 0
1 0.00302129 0
1 0.00604257 0
1 0.00917067 0
1 0.0124514 0
1 0.0158846 0
1 0.0194553 0
1 0.0231785 0
1 0.0270542 0
0 0.064332 0
0 0.0892348 0
0 0.0955978 0
0 0.088365 0
0.058732 0.0846418 0
0.112322 0.0841688 0
0.165255 0.0831159 0
0.220783 0.080827 0
0.2795 0.0773022 0
0.340764 0.0728618 0
0.402747 0.0680705 0
0.464012 0.0634012 0
0.52343 0.059205 0
0.581903 0.0552987 0
0.640543 0.0514382 0
0.69839 0.0478828 0
0.754559 0.044892 0
0.808255 0.0426795 0
0.858778 0.0414435 0
0.906233 0.0411688 0
0.95082 0.0417792 0
0.992782 0.0432136 0
1 0.0453956 0
1 0.048127 0
1 0.0513008 0
1 0.0547951 0
1 0.0585184 0
1 0.0623484 0
1 0.0661936 0
1 0.0703746 0
1 0.0745861 0
1 0.0789502 0
1 0.0834211 0
0 0.147784 0
0 0.150988 0
0 0.151217 0
0 0.139788 0
0.0589151 0.133501 0
0.112001 0.131456 0
0.164401 0.129396 0
0.219287 0.126543 0
0.277348 0.122774 0
0.338109 0.118257 0
0.399985 0.113497 0
0.461585 0.108919 0
0.521767 0.104814 0
0.580636 0.101183 0
0.639857 0.0975662 0
0.698558 0.0941939 0
0.755932 0.09131 0
0.811139 0.089128 0
0.863401 0.0878767 0
0.912413 0.0876173 0
0.958389 0.0883192 0
1 0.0899214 0
1 0.0923476 0
1 0.0954299 0
1 0.0990311 0
1 0.103014 0
1 0.107256 0
1 0.111666 0
1 0.116106 0
1 0.120668 0
1 0.125353 0
1 0.130114 0
1 0.134966 0
0 0.201083 0
0 0.20238 0
0 0.201083 0
0 0.187594 0
0.0540017 0.180011 0
0.10811 0.177279 0
0.161364 0.174823 0
0.216983 0.171832 0
0.275685 0.168109 0
0.337118 0.163745 0
0.39971 0.159182 0
0.462089 0.154772 0
0.523201 0.150835 0
0.582788 0.147433 0
0.642695 0.144076 0
0.70219 0.140932 0
0.760403 0.138277 0
0.816495 0.136309 0
0.869703 0.135256 0
0.919509 0.135225 0
0.966018 0.136187 0
1 0.138064 0
1 0.140764 0
1 0.144167 0
1 0.148104 0
1 0.152422 0
1 0.157031 0
1 0.161791 0
1 0.166598 0
1 0.171359 0
1 0.176364 0
1 0.181338 0
1 0.186343 0
0 0.252506 0
0 0.253147 0
0 0.251194 0
0 0.23624 0
0.0440986 0.227832 0
0.100069 0.224796 0
0.15491 0.222232 0
0.211902 0.219226 0
0.271839 0.215534 0
0.334371 0.211261 0
0.398016 0.206836 0
0.461418 0.202579 0
0.523491 0.198825 0
0.583871 0.195651 0
0.644434 0.192538 0
0.70454 0.189685 0
0.763287 0.187304 0
0.819791 0.185595 0
0.873228 0.184771 0
0.923079 0.18497 0
0.969375 0.18613 0
1 0.18819 0
1 0.191073 0
1 0.194659 0
1 0.198779 0
1 0.203281 0
1 0.208057 0
1 0.21297 0
1 0.217929 0
1 0.222827 0
1 0.227832 0
1 0.232822 0
1 0.237812 0
0 0.305226 0
0 0.305715 0
0 0.303563 0
0 0.28748 0
0.0297704 0.278386 0
0.0879072 0.275074 0
0.14461 0.272374 0
0.203265 0.269291 0
0.264698 0.265614 0
0.328588 0.261402 0
0.393408 0.257053 0
0.457877 0.252949 0
0.520867 0.249363 0
0.581933 0.246387 0
0.642924 0.243503 0
0.703288 0.240833 0
0.762066 0.238605 0
0.818448 0.237049 0
0.871687 0.236316 0
0.921172 0.236591 0
0.966964 0.237827 0
1 0.239933 0
1 0.242847 0
1 0.246448 0
1 0.250568 0
1 0.255055 0
1 0.2598 0
1 0.264668 0
1 0.269566 0
1 0.274388 0
1 0.279225 0
1 0.284047 0
1 0.288838 0
0 0.359945 0
0 0.360449 0
0 0.358206 0
0 0.341283 0
0.0118715 0.331609 0
0.0722362 0.328054 0
0.130968 0.325185 0
0.191424 0.322011 0
0.254536 0.318273 0
0.31986 0.314061 0
0.385885 0.309743 0
0.45127 0.305669 0
0.514931 0.302098 0
0.576394 0.299138 0
0.637583 0.296269 0
0.697917 0.293599 0
0.756527 0.291371 0
0.812619 0.289769 0
0.865461 0.289006 0
0.914519 0.289189 0
0.959777 0.290333 0
1 0.292332 0
1 0.295094 0
1 0.298543 0
1 0.30248 0
1 0.306783 0
1 0.311315 0
1 0.315969 0
1 0.320623 0
1 0.325185 0
1 0.329717 0
1 0.334218 0
1 0.33872 0
0 0.416236 0
0 0.416815 0
0 0.414481 0
0 0.396948 0
0 0.386801 0
0.0551156 0.383017 0
0.115877 0.379934 0
0.178164 0.376577 0
0.242847 0.372641 0
0.309438 0.368231 0
0.376425 0.363745 0
0.442496 0.359487 0
0.506569 0.355779 0
0.568246 0.352667 0
0.629435 0.349645 0
0.689632 0.346838 0
0.747982 0.344442 0
0.803708 0.342687 0
0.856153 0.341711 0
0.904738 0.341695 0
0.949508 0.342596 0
0.990768 0.344335 0
1 0.346822 0
1 0.34995 0
1 0.353582 0
1 0.357549 0
1 0.36173 0
1 0.366018 0
1 0.370306 0
1 0.374594 0
1 0.378943 0
1 0.383368 0
1 0.387869 0
0 0.473442 0
0 0.474006 0
0 0.471595 0
0 0.45362 0
0 0.443046 0
0.0384985 0.438895 0
0.101091 0.435416 0
0.16495 0.431678 0
0.230961 0.427359 0
0.298573 0.422599 0
0.366262 0.417777 0
0.432776 0.413245 0
0.497078 0.409247 0
0.558801 0.405875 0
0.619913 0.402579 0
0.679896 0.399496 0
0.737911 0.396826 0
0.793271 0.394781 0
0.845273 0.3935 0
0.893416 0.393149 0
0.937713 0.393698 0
0.978469 0.395056 0
1 0.397162 0
1 0.399878 0
1 0.403082 0
1 0.406638 0
1 0.410513 0
1 0.414633 0
1 0.41886 0
1 0.423117 0
1 0.427314 0
1 0.431754 0
1 0.436164 0
0 0.531289 0
0 0.531548 0
0 0.52871 0
0 0.509957 0
0 0.498863 0
0.0239414 0.494224 0
0.0880293 0.490257 0
0.15314 0.48603 0
0.220188 0.481224 0
0.288533 0.476036 0
0.35668 0.470817 0
0.423423 0.465888 0
0.487755 0.46154 0
0.549401 0.457801 0
0.61033 0.454139 0
0.670008 0.450706 0
0.727657 0.447669 0
0.782574 0.445243 0
0.834134 0.443565 0
0.881804 0.442802 0
0.925612 0.442908 0
0.965896 0.443824 0
1 0.445502 0
1 0.447944 0
1 0.450965 0
1 0.454429 0
1 0.458228 0
1 0.462257 0
1 0.466377 0
1 0.470527 0
1 0.474617 0
1 0.478889 0
1 0.483146 0
0 0.589105 0
0 0.588861 0
0 0.585412 0
0 0.565667 0
0 0.553689 0
0.01149 0.548363 0
0.0769207 0.543755 0
0.143099 0.538933 0
0.210941 0.533578 0
0.279774 0.527871 0
0.348165 0.522194 0
0.414939 0.516838 0
0.479118 0.512062 0
0.540536 0.507912 0
0.601144 0.503838 0
0.660426 0.499977 0
0.717586 0.496529 0
0.771969 0.49366 0
0.822965 0.491569 0
0.870176 0.490455 0
0.91371 0.490364 0
0.953826 0.491157 0
0.990814 0.49279 0
1 0.495155 0
1 0.498085 0
1 0.501457 0
1 0.505135 0
1 0.509026 0
1 0.513024 0
1 0.517021 0
1 0.520958 0
1 0.525048 0
1 0.529122 0
0 0.645518 0
0 0.644694 0
0 0.64062 0
0 0.620127 0
0 0.607385 0
0 0.601358 0
0.0660105 0.596078 0
0.132982 0.590616 0
0.201373 0.584665 0
0.270497 0.578424 0
0.338918 0.572229 0
0.405539 0.5664 0
0.469429 0.561166 0
0.530495 0.556558 0
0.590707 0.551995 0
0.649516 0.547707 0
0.706294 0.543954 0
0.760403 0.540917 0
0.811246 0.538766 0
0.85832 0.537591 0
0.901656 0.537408 0
0.941558 0.538109 0
0.978302 0.539605 0
1 0.541817 0
1 0.544594 0
1 0.547784 0
1 0.551278 0
1 0.554955 0
1 0.55874 0
1 0.562524 0
1 0.566217 0
1 0.570047 0
1 0.573861 0
0 0.69955 0
0 0.698116 0
0 0.693492 0
0 0.672526 0
0 0.659205 0
0 0.652522 0
0.0559701 0.646616 0
0.123384 0.640513 0
0.19205 0.633967 0
0.261204 0.627161 0
0.329473 0.620432 0
0.395773 0.614099 0
0.459312 0.608454 0
0.52018 0.60354 0
0.580285 0.59881 0
0.639017 0.594461 0
0.695659 0.590631 0
0.749569 0.587503 0
0.800168 0.585229 0
0.846967 0.583932 0
0.889982 0.583597 0
0.929564 0.584115 0
0.965942 0.585412 0
0.999435 0.587411 0
1 0.589944 0
1 0.592889 0
1 0.596109 0
1 0.599512 0
1 0.603006 0
1 0.6065 0
1 0.609903 0
1 0.613397 0
1 0.616876 0
0 0.750546 0
0 0.748577 0
0 0.743481 0
0 0.722316 0
0 0.708553 0
0 0.701289 0
0.0474098 0.694759 0
0.114961 0.68806 0
0.183627 0.680934 0
0.252735 0.673686 0
0.320943 0.666697 0
0.387228 0.660212 0
0.450736 0.65449 0
0.511543 0.64947 0
0.571527 0.644617 0
0.630076 0.640116 0
0.686458 0.636133 0
0.740032 0.632853 0
0.790249 0.630396 0
0.836637 0.628916 0
0.879225 0.628351 0
0.918364 0.628626 0
0.954284 0.629664 0
0.987289 0.631373 0
1 0.633616 0
1 0.63624 0
1 0.639139 0
1 0.642206 0
1 0.64535 0
1 0.648478 0
1 0.651514 0
1 0.654627 0
1 0.65771 0
0 0.798108 0
0 0.795651 0
0 0.790158 0
0 0.769039 0
0 0.754986 0
0 0.74725 0
0.0410315 0.740322 0
0.108782 0.733349 0
0.177707 0.726055 0
0.246937 0.718685 0
0.31516 0.711559 0
0.381338 0.704952 0
0.444617 0.699077 0
0.505241 0.693858 0
0.564996 0.688823 0
0.623209 0.684123 0
0.679179 0.679927 0
0.732296 0.676432 0
0.78201 0.673747 0
0.827848 0.671992 0
0.869917 0.671153 0
0.908476 0.671138 0
0.943847 0.67187 0
0.976287 0.673243 0
1 0.675135 0
1 0.677378 0
1 0.679896 0
1 0.682567 0
1 0.685313 0
1 0.688029 0
1 0.690654 0
1 0.693339 0
1 0.695979 0
0 0.842176 0
0 0.839246 0
0 0.833463 0
0 0.81268 0
0 0.798795 0
0 0.791043 0
0.0385443 0.783993 0
0.106447 0.776852 0
0.175463 0.769375 0
0.244648 0.761822 0
0.312688 0.754513 0
0.378592 0.747707 0
0.44152 0.741634 0
0.501823 0.736187 0
0.561166 0.730907 0
0.618906 0.725948 0
0.674327 0.721508 0
0.726848 0.717739 0
0.775906 0.714778 0
0.821103 0.712734 0
0.862486 0.711574 0
0.90042 0.711223 0
0.935119 0.711589 0
0.966903 0.712581 0
0.996292 0.714076 0
1 0.715923 0
1 0.717998 0
1 0.720241 0
1 0.72253 0
1 0.724804 0
1 0.726955 0
1 0.729152 0
1 0.731304 0
0 0.883299 0
0 0.880278 0
0 0.87454 0
0 0.854246 0
0 0.840543 0
0 0.8327 0
0.0404669 0.825467 0
0.108385 0.818097 0
0.17731 0.810376 0
0.246281 0.802579 0
0.313985 0.795041 0
0.379446 0.788006 0
0.441871 0.781689 0
0.501686 0.775967 0
0.560494 0.770397 0
0.617594 0.765164 0
0.672328 0.760433 0
0.724086 0.756359 0
0.772381 0.753079 0
0.816785 0.750713 0
0.857404 0.749218 0
0.894545 0.748486 0
0.928512 0.748455 0
0.959564 0.74905 0
0.988251 0.750118 0
1 0.751522 0
1 0.75314 0
1 0.75491 0
1 0.756725 0
1 0.758511 0
1 0.760189 0
1 0.761929 0
1 0.763638 0
0 0.922454 0
0 0.919326 0
0 0.913512 0
0 0.893599 0
0 0.879988 0
0 0.871946 0
0.0465553 0.864469 0
0.114336 0.856809 0
0.183078 0.848814 0
0.251667 0.840726 0
0.318898 0.832898 0
0.38378 0.825589 0
0.445548 0.818998 0
0.504723 0.81297 0
0.562844 0.80708 0
0.619165 0.801526 0
0.673045 0.796475 0
0.723918 0.792096 0
0.771298 0.788495 0
0.814786 0.785779 0
0.85452 0.783902 0
0.890806 0.782803 0
0.923949 0.782361 0
0.954223 0.782528 0
0.982147 0.783139 0
1 0.784085 0
1 0.78526 0
1 0.786572 0
1 0.787945 0
1 0.789303 0
1 0.79057 0
1 0.791897 0
1 0.793194 0
0 0.959533 0
0 0.956146 0
0 0.950149 0
0 0.930495 0
0 0.916884 0
0 0.908614 0
0.0565042 0.900816 0
0.124056 0.892836 0
0.192432 0.884489 0
0.260533 0.876081 0
0.327123 0.867964 0
0.391257 0.860334 0
0.452201 0.853452 0
0.510613 0.847074 0
0.567864 0.840864 0
0.623255 0.834989 0
0.676143 0.829618 0
0.725994 0.824903 0
0.77232 0.820966 0
0.814786 0.817899 0
0.853529 0.815656 0
0.888884 0.814145 0
0.921141 0.813306 0
0.950591 0.813062 0
0.977783 0.81326 0
1 0.813794 0
1 0.814557 0
1 0.815488 0
1 0.816464 0
1 0.817426 0
1 0.818326 0
1 0.819272 0
1 0.820188 0
0 0.994415 0
0 0.990677 0
0 0.984375 0
0 0.964797 0
0 0.95108 0
0.00317388 0.942489 0
0.0700847 0.93434 0
0.13724 0.925978 0
0.205112 0.917281 0
0.272511 0.908537 0
0.338293 0.900084 0
0.401511 0.892164 0
0.461448 0.884962 0
0.518929 0.878248 0
0.575158 0.871702 0
0.629465 0.865507 0
0.681193 0.859831 0
0.729885 0.85478 0
0.775067 0.850507 0
0.816419 0.847089 0
0.854139 0.844511 0
0.888548 0.842664 0
0.919936 0.841474 0
0.948608 0.840879 0
0.975082 0.840726 0
0.999802 0.840894 0
1 0.841321 0
1 0.841871 0
1 0.842512 0
1 0.843137 0
1 0.843687 0
1 0.844297 0
1 0.844907 0
0 1 0
0 1 0
0 1 0
0 0.99646 0
0 0.982528 0
0.0202335 0.973556 0
0.086717 0.964996 0
0.153353 0.956237 0
0.220569 0.947158 0
0.287114 0.938064 0
0.351888 0.92929 0
0.414038 0.921065 0
0.472786 0.913558 0
0.529152 0.906523 0
0.584207 0.899657 0
0.637263 0.893156 0
0.687755 0.887175 0
0.73521 0.881865 0
0.779202 0.877317 0
0.819455 0.87364 0
0.856153 0.870787 0
0.889632 0.86865 0
0.92018 0.86717 0
0.948089 0.86627 0
0.973892 0.865797 0
0.998001 0.865675 0
1 0.865782 0
1 0.866026 0
1 0.866346 0
1 0.866667 0
1 0.866926 0
1 0.867231 0
1 0.867536 0
0 1 0
0 1 0
0 1 0
0 1 0
0 1 0
0.039765 1 0
0.105684 0.992874 0
0.171633 0.983703 0
0.237949 0.974258 0
0.30341 0.964858 0
0.36701 0.955764 0
0.427863 0.947234 0
0.485298 0.939467 0
0.540444 0.932143 0
0.594217 0.925017 0
0.646006 0.918288 0
0.695216 0.912093 0
0.741436 0.906569 0
0.784253 0.901823 0
0.823407 0.897932 0
0.859113 0.894835 0
0.891691 0.89247 0
0.921431 0.89073 0
0.948608 0.88957 0
0.973739 0.888838 0
0.997269 0.888441 0
1 0.888273 0
1 0.888258 0
1 0.888289 0
1 0.888334 0
1 0.888319 0
1 0.888365 0
1 0.888411 0
0 1 0
0 1 0
0 1 0
0 1 0
0 1 0
0.0609903 1 0
0.12607 1 0
0.191119 1 0
0.256352 0.998764 0
0.320607 0.989059 0
0.382834 0.979736 0
0.442283 0.970993 0
0.498314 0.963043 0
0.552193 0.955505 0
0.604669 0.948211 0
0.655146 0.941314 0
0.703105 0.934951 0
0.748089 0.929274 0
0.789761 0.924361 0
0.827863 0.920287 0
0.862608 0.917006 0
0.894316 0.914427 0
0.923278 0.912505 0
0.949752 0.911116 0
0.974273 0.910155 0
0.997208 0.909499 0
1 0.909087 0
1 0.908812 0
1 0.908614 0
1 0.908431 0
1 0.908186 0
1 0.908034 0
1 0.907881 0
0 1 0
0 1 0
0 1 0
0 1 0
0.0164492 1 0
0.082887 1 0
0.147036 1 0
0.210986 1 0
0.274968 1 0
0.337865 1 0
0.398657 1 0
0.456672 0.992782 0
0.511284 0.98468 0
0.563867 0.977005 0
0.615061 0.969573 0
0.664256 0.962554 0
0.710964 0.956085 0
0.754788 0.950271 0
0.795361 0.945235 0
0.832425 0.941039 0
0.86627 0.937591 0
0.897154 0.934844 0
0.925368 0.932708 0
0.951186 0.931121 0
0.975113 0.929946 0
0.997513 0.929091 0
1 0.928466 0
1 0.927993 0
1 0.927611 0
1 0.927245 0
1 0.926833 0
1 0.926513 0
1 0.926207 0
0 1 0
0 1 0
0 1 0
0 1 0
0.0392157 1 0
0.104616 1 0
0.167651 1 0
0.230396 1 0
0.29308 1 0
