LUTs/15.cube
TITLE "Generate by Resolve"
LUT_3D_SIZE 9
0 0 0
0.0324102 0 0
0.219821 0 0
0.45449 0 0
0.762982 0 0
0.93666 0 0
1 0 0
1 0 0
1 0 0
0 0.064332 0
0.058732 0.0846418 0
0.2795 0.0773022 0
0.52343 0.059205 0
0.754559 0.044892 0
0.95082 0.0417792 0
1 0.0513008 0
1 0.0661936 0
1 0.0834211 0
0 0.305226 0
0.0297704 0.278386 0
0.264698 0.265614 0
0.520867 0.249363 0
0.762066 0.238605 0
0.966964 0.237827 0
1 0.250568 0
1 0.269566 0
1 0.288838 0
0 0.531289 0
0 0.498863 0
0.220188 0.481224 0
0.487755 0.46154 0
0.727657 0.447669 0
0.925612 0.442908 0
1 0.450965 0
1 0.466377 0
1 0.483146 0
0 0.750546 0
0 0.708553 0
0.183627 0.680934 0
0.450736 0.65449 0
0.686458 0.636133 0
0.879225 0.628351 0
1 0.633616 0
1 0.64535 0
1 0.65771 0
0 0.922454 0
0 0.879988 0
0.183078 0.848814 0
0.445548 0.818998 0
0.673045 0.796475 0
0.85452 0.783902 0
0.982147 0.783139 0
1 0.787945 0
1 0.793194 0
0 1 0
0 1 0
0.237949 0.974258 0
0.485298 0.939467 0
0.695216 0.912093 0
0.859113 0.894835 0
0.973739 0.888838 0
1 0.888289 0
1 0.888411 0
0 1 0
0.0610513 1 0
0.310109 1 0
0.535149 1 0
0.725261 0.994278 0
0.872923 0.974899 0
0.976913 0.966155 0
1 0.962707 0
1 0.960357 0
0 1 0
0.133913 1 0
0.363653 1 0
0.569863 1 0
0.745373 1 0
0.881865 1 0
0.978897 1 0
1 1 0
1 1 0
0 0 0.0876326
0.0289464 0 0.0675212
0.217762 0 0.0648051
0.473136 0 0.0690929
0.772854 0 0.0997177
0.94136 0 0.119356
1 0 0.142947
1 0 0.167437
1 0 0.193454
0 0.0903182 0.0965744
0.0580606 0.0843366 0.0906233
0.274678 0.0750744 0.0818952
0.518074 0.0561532 0.0646067
0.75108 0.0410315 0.0506905
0.952819 0.0361486 0.0458381
1 0.0444953 0.0527352
1 0.059144 0.0652171
1 0.0760052 0.0796674
0 0.301259 0.0838941
0.0284276 0.273701 0.0684367
0.259876 0.261707 0.0537575
0.516014 0.245228 0.0307469
0.758053 0.233707 0.0116121
0.967132 0.231037 0.000823987
1 0.242008 0.00288396
1 0.26006 0.011902
1 0.278614 0.0219272
0 0.526131 0.0297551
0 0.4925 0.0149996
0.214847 0.475608 0.00157168
0.480537 0.455573 0
0.720043 0.440864 0
0.921981 0.434028 0
1 0.440681 0
1 0.455604 0
1 0.472282 0
0 0.742443 0
0 0.699199 0
0.176226 0.672984 0
0.441505 0.64686 0
0.677028 0.628229 0
0.874159 0.618845 0
1 0.622583 0
1 0.633707 0
1 0.645975 0
0 0.913939 0.00357061
0 0.870939 0
0.171054 0.841489 0
0.431571 0.811704 0
0.658305 0.788861 0
0.843626 0.774701 0
0.974746 0.772457 0
1 0.77673 0
1 0.781964 0
0 1 0.0541543
0 1 0.0223392
0.222477 0.966476 0.00766003
0.467353 0.931853 0
0.67599 0.904479 0
0.843626 0.885908 0
0.961852 0.878721 0.000213626
1 0.877729 0.0139315
1 0.877852 0.027039
0 1 0.122072
0.0544289 1 0.0908522
0.293095 1 0.0736248
0.515602 1 0.0578012
0.704524 0.986358 0.047013
0.856062 0.965805 0.0423896
0.963684 0.956008 0.0459754
1 0.952255 0.0538186
1 0.950027 0.0620432
0 1 0.180743
0.124941 1 0.145205
0.345251 1 0.122469
0.549783 1 0.102159
0.724773 1 0.0872816
0.865415 1 0.0792554
0.96614 1 0.0797131
1 1 0.0848859
1 1 0.0911421
0 0 0.23946
0.0305943 0 0.213199
0.225742 0 0.218677
0.537423 0 0.283101
0.781842 0 0.320989
0.945312 0 0.355459
1 0 0.391836
1 0 0.428336
1 0 0.466102
0 0.0988022 0.270848
0.0594949 0.085832 0.260746
0.276768 0.0742046 0.258595
0.520867 0.0540932 0.252323
0.755032 0.0379492 0.251057
0.95819 0.0319677 0.259556
1 0.0395514 0.279988
1 0.0537728 0.305135
1 0.070161 0.33051
0 0.301106 0.281971
0.0264591 0.273793 0.257206
0.259541 0.261662 0.245914
0.516793 0.244663 0.230259
0.759045 0.23238 0.218814
0.968475 0.228641 0.214954
1 0.238483 0.223178
1 0.255543 0.237827
1 0.273121 0.252979
0 0.524788 0.258701
0 0.491325 0.227192
0.213184 0.474434 0.210956
0.478233 0.453849 0.190784
0.717144 0.438315 0.175219
0.919799 0.430365 0.166644
1 0.436271 0.170718
1 0.45069 0.182925
1 0.467033 0.197559
0 0.737438 0.241413
0 0.694804 0.201801
0.173007 0.669459 0.180667
0.437537 0.643565 0.158648
0.672709 0.624735 0.143359
0.870787 0.614572 0.136675
1 0.617426 0.142779
1 0.62797 0.157153
1 0.639872 0.17406
0 0.907042 0.254734
0 0.865339 0.201099
0.166461 0.836988 0.176135
0.425727 0.807324 0.155291
0.651453 0.784298 0.143099
0.837278 0.769406 0.140078
0.9691 0.766339 0.148806
1 0.770123 0.163973
1 0.775113 0.179904
0 1 0.303059
0 0.993698 0.24271
0.216526 0.960189 0.214954
0.459281 0.926024 0.1944
0.666423 0.898787 0.182147
0.834669 0.879774 0.177615
0.953902 0.871977 0.182559
1 0.870634 0.192462
1 0.870649 0.202731
0 1 0.359228
0.0511788 1 0.299062
0.285115 1 0.267903
0.505486 1 0.243656
0.693156 0.979934 0.22678
0.845731 0.959045 0.217136
0.954696 0.948806 0.21677
1 0.9449 0.221714
1 0.942702 0.227878
0 1 0.40383
0.119036 1 0.341894
0.335225 1 0.306569
0.53846 1 0.278843
0.712795 1 0.258778
0.854932 1 0.246433
0.957259 1 0.243519
1 1 0.246265
1 1 0.250797
0 0 0.406363
0.0315099 0 0.37882
0.238376 0 0.395453
0.563668 0 0.478294
0.792599 0 0.512078
0.952987 0 0.549294
1 0 0.589929
1 0 0.631327
1 0 0.673121
0 0.102419 0.459724
0.058793 0.085481 0.447532
0.279179 0.0717479 0.449088
0.5252 0.0508278 0.449348
0.760983 0.0341192 0.455085
0.964553 0.0280003 0.470756
1 0.0357214 0.497536
1 0.0500801 0.527398
1 0.0665599 0.555856
0 0.301595 0.48191
0.0216678 0.273503 0.460273
0.25803 0.260639 0.453696
0.516991 0.242954 0.44361
0.759304 0.230121 0.436942
0.967956 0.225895 0.436652
1 0.235203 0.447196
1 0.251667 0.463096
1 0.268772 0.478737
0 0.524742 0.478813
0 0.49015 0.447532
0.209842 0.47248 0.431296
0.474815 0.451148 0.411826
0.713054 0.434867 0.396872
0.915602 0.426444 0.388922
1 0.432105 0.393484
1 0.446296 0.405646
1 0.46247 0.419577
0 0.734234 0.468421
0 0.690745 0.426398
0.168627 0.665507 0.403326
0.432883 0.639536 0.380179
0.667552 0.620508 0.363821
0.865354 0.609979 0.355657
1 0.61239 0.359747
1 0.622599 0.371466
1 0.634211 0.385031
0 0.902083 0.480629
0 0.860029 0.423987
0.162356 0.831693 0.395514
0.420539 0.801923 0.371191
0.645045 0.778714 0.355261
0.830167 0.763439 0.347997
0.961593 0.75993 0.352102
1 0.763424 0.362707
1 0.768215 0.374319
0 1 0.520928
0 0.986206 0.455589
0.212375 0.953002 0.422492
0.452995 0.919036 0.39646
0.658473 0.891936 0.379034
0.826123 0.872755 0.369528
0.945296 0.864668 0.36994
1 0.863111 0.375952
1 0.863066 0.382971
0 1 0.561791
0.0488441 1 0.496132
0.279164 1 0.459876
0.497414 1 0.430838
0.683711 0.972427 0.409705
0.836194 0.951446 0.396262
0.945495 0.941039 0.392554
1 0.937087 0.394751
1 0.934951 0.398611
0 1 0.59144
0.114321 1 0.52546
0.327443 1 0.486641
0.529259 1 0.455497
0.702785 1 0.432334
0.845273 1 0.417105
0.948241 1 0.411643
1 1 0.412268
1 0.998306 0.415061
0 0 0.5579
0.0346227 0 0.534752
0.267247 0 0.567407
0.585138 0 0.639185
0.805875 0 0.664302
0.964782 0 0.697383
1 0 0.735454
1 0 0.775006
1 0 0.814878
0 0.105806 0.628199
0.0592203 0.0860914 0.616815
0.283848 0.0705577 0.621195
0.532265 0.0489967 0.626169
0.769772 0.0319066 0.63714
0.97319 0.0260471 0.657649
1 0.034226 0.687572
1 0.0489509 0.718578
1 0.0656901 0.746548
0 0.304173 0.659754
0.0180972 0.275029 0.644236
0.25835 0.261189 0.642313
0.519127 0.242832 0.635676
0.761486 0.229603 0.631357
0.968933 0.225147 0.632471
1 0.234119 0.643549
1 0.250095 0.659251
1 0.266987 0.674571
0 0.52694 0.670756
0 0.490974 0.642603
0.20824 0.472236 0.62739
0.473289 0.45008 0.608225
0.710842 0.433097 0.593072
0.913115 0.424628 0.585077
1 0.430198 0.58909
1 0.444266 0.600107
1 0.460319 0.612253
0 0.733471 0.662409
0 0.689036 0.622446
0.166369 0.663554 0.599329
0.430442 0.637369 0.575601
0.66453 0.618128 0.558053
0.86154 0.607355 0.548043
1 0.609491 0.549523
1 0.61941 0.557961
1 0.630747 0.567681
0 0.899641 0.671443
0 0.856855 0.616922
0.160998 0.828199 0.586679
0.418051 0.798154 0.559777
0.641184 0.774746 0.540581
0.82504 0.759197 0.529412
0.955657 0.755398 0.529259
1 0.758618 0.535576
1 0.76318 0.543084
0 1 0.701961
0 0.980697 0.638056
0.2112 0.947463 0.601495
0.449653 0.913588 0.571603
0.6533 0.886549 0.550225
0.819883 0.867277 0.536782
0.938552 0.858976 0.533471
1 0.857252 0.536141
1 0.857114 0.54023
0 1 0.727504
0.0487526 1 0.66421
0.276066 1 0.624964
0.49221 0.994842 0.592782
0.677089 0.966308 0.568734
0.829038 0.945296 0.552514
0.938262 0.934798 0.546227
1 0.930816 0.546136
1 0.928756 0.547982
0 1 0.743862
0.111757 1 0.681849
0.322469 1 0.641443
0.522896 1 0.608225
0.695537 1 0.583093
0.837949 1 0.565896
0.941161 0.998886 0.558572
1 0.994507 0.557534
1 0.992309 0.558801
0 0 0.684977
0.0416114 0 0.670024
0.334066 0 0.725872
0.607431 0 0.749294
0.822843 0 0.76791
0.980987 0 0.79881
1 0 0.836362
1 0 0.876204
1 0 0.916548
0 0.110903 0.761227
0.0619821 0.088716 0.756893
0.29163 0.0716106 0.763638
0.542779 0.0496681 0.770153
0.782269 0.032578 0.78204
0.985336 0.0274662 0.802701
1 0.0364691 0.831067
1 0.0517891 0.859174
1 0.0689555 0.883482
0 0.309895 0.799924
0.0168765 0.278996 0.799359
0.261219 0.263935 0.802838
0.523827 0.244953 0.797818
0.766186 0.231464 0.793378
0.972335 0.226978 0.793301
1 0.235859 0.802274
1 0.251514 0.815122
1 0.268605 0.827588
0 0.53254 0.81677
0 0.494362 0.802976
0.209155 0.474205 0.791745
0.47425 0.451164 0.773114
0.711299 0.433661 0.757366
0.913069 0.425315 0.748379
1 0.430961 0.750546
1 0.445029 0.758877
1 0.461067 0.767559
0 0.736355 0.805554
0 0.690272 0.780529
0.166918 0.664057 0.761913
0.430747 0.637476 0.738796
0.664103 0.61799 0.720272
0.860014 0.607034 0.708156
1 0.609003 0.706569
1 0.618692 0.711116
1 0.629755 0.716365
0 0.900954 0.809552
0 0.856519 0.769619
0.162799 0.826993 0.742962
0.418555 0.796521 0.715496
0.640055 0.772839 0.694072
0.822354 0.757031 0.679683
0.951843 0.752987 0.675776
1 0.755978 0.678141
1 0.760311 0.681727
0 1 0.829938
0 0.977935 0.779355
0.213214 0.944167 0.745617
0.449287 0.91017 0.714824
0.650965 0.88307 0.691341
0.816159 0.863691 0.675258
0.93402 0.855192 0.669108
1 0.853315 0.669001
1 0.853101 0.670451
0 1 0.842802
0.0517891 1 0.792401
0.27599 1 0.756649
0.489921 0.990555 0.724514
0.673289 0.962036 0.699504
0.824414 0.940993 0.681819
0.933303 0.930404 0.673854
1 0.926421 0.672007
1 0.924407 0.672114
0 1 0.848798
0.112322 1 0.799832
0.320546 1 0.763867
0.519448 1 0.731731
0.691081 1 0.706554
0.833127 1 0.688701
0.936324 0.994446 0.680415
1 0.990158 0.678264
1 0.988144 0.678355
0 0 0.774029
0.0556344 0 0.766888
0.367819 0 0.816541
0.630182 0 0.830869
0.841428 0 0.849943
0.999084 0 0.883543
1 0 0.92401
1 0 0.966491
1 0 1
0 0.11841 0.854856
0.068101 0.094255 0.857343
0.303288 0.0757 0.866392
0.557275 0.0534218 0.874098
0.79855 0.0364691 0.886351
1 0.0322271 0.906645
1 0.0420081 0.933532
1 0.0577859 0.959396
1 0.0751965 0.981338
0 0.318853 0.900603
0.019379 0.286412 0.911833
0.267994 0.270054 0.919112
0.532326 0.250507 0.914275
0.774639 0.236789 0.90869
0.979232 0.232319 0.906874
1 0.241093 0.913603
1 0.25655 0.923949
1 0.273838 0.934081
0 0.541268 0.919646
0 0.501183 0.916442
0.213977 0.47953 0.908736
0.479072 0.455558 0.89044
0.715816 0.437812 0.874174
0.916808 0.429587 0.864103
1 0.435325 0.864393
1 0.449393 0.870146
1 0.46537 0.875685
0 0.742275 0.905394
0 0.695109 0.891249
0.171557 0.668025 0.876844
0.435111 0.640986 0.854505
0.667613 0.621225 0.835203
0.862104 0.610132 0.821271
1 0.611917 0.817029
1 0.621317 0.81828
1 0.632044 0.819883
0 0.905165 0.905989
0 0.859464 0.875593
0.16875 0.829007 0.852293
0.423087 0.798047 0.824857
0.642771 0.774014 0.801999
0.823255 0.757977 0.785397
0.9514 0.753674 0.778805
1 0.756359 0.778256
1 0.760403 0.778927
0 1 0.918807
0 0.97821 0.876356
0.219059 0.943877 0.845533
0.452705 0.909682 0.814847
0.652323 0.882475 0.790387
0.815946 0.862959 0.772778
0.932799 0.854246 0.764813
1 0.852201 0.762783
1 0.851881 0.762295
0 1 0.923079
0.057847 1 0.880232
0.279408 1 0.847761
0.491203 0.989029 0.816449
0.673045 0.960479 0.791333
0.823194 0.939376 0.773007
0.931548 0.92874 0.76408
1 0.924712 0.761105
1 0.922744 0.759991
0 1 0.922621
0.115862 1 0.880858
0.322026 1 0.848585
0.519478 1 0.817868
0.690105 1 0.79321
0.831617 1 0.775311
0.934615 0.99266 0.766613
1 0.988464 0.763867
1 0.986587 0.76321
0 0 0.842161
0.0826886 0 0.845991
0.395331 0 0.894209
0.652171 0 0.907362
0.860197 0 0.929
1 0 0.96585
1 0 1
1 0 1
1 0 1
0 0.126802 0.932876
0.0760052 0.101305 0.938369
0.317037 0.0813458 0.949416
0.5738 0.0587167 0.959152
0.81648 0.0419013 0.972808
1 0.038468 0.993774
1 0.0489052 1
1 0.0649119 1
1 0.0823682 1
0 0.329274 0.984817
0.024033 0.295827 0.999969
0.27718 0.278248 1
0.543053 0.258122 1
0.785107 0.244129 0.996231
0.9879 0.239597 0.993484
1 0.248142 0.9991
1 0.263523 1
1 0.280888 1
0 0.551186 1
0 0.509819 1
0.22118 0.48687 0.996155
0.486259 0.462013 0.977462
0.72285 0.44419 0.960967
0.922805 0.436088 0.950256
1 0.441871 0.949416
1 0.455833 0.953506
1 0.471626 0.956985
0 0.749416 0.988525
0 0.701854 0.976028
0.178683 0.674067 0.962463
0.442039 0.646616 0.939849
0.673564 0.626581 0.919554
0.866423 0.615335 0.904158
1 0.616892 0.897948
1 0.625925 0.89688
1 0.63621 0.896086
0 0.910292 0.987015
0 0.864012 0.956786
0.177203 0.832837 0.933394
0.430121 0.80145 0.904967
0.647898 0.777081 0.880629
0.826368 0.76083 0.862318
0.953017 0.756268 0.85388
1 0.758618 0.851408
1 0.762295 0.850202
0 1 0.993896
0 0.979904 0.95079
0.227024 0.945235 0.919738
0.458366 0.910933 0.888304
0.655924 0.883619 0.862821
0.817884 0.863966 0.844022
0.933639 0.855085 0.834775
1 0.852872 0.831464
1 0.852415 0.829725
0 1 0.991867
0.0653086 1 0.948425
0.284688 1 0.916075
0.494591 0.98912 0.88452
0.675013 0.960571 0.858946
0.824125 0.939452 0.839994
0.931868 0.928786 0.83032
1 0.924758 0.826551
1 0.922805 0.824643
0 1 0.986618
0.120668 1 0.944656
0.325338 1 0.912825
0.521553 1 0.882216
0.691264 1 0.857466
0.832197 1 0.839307
0.934905 0.992554 0.830213
1 0.988464 0.826993
1 0.98674 0.825849
0 0 0.907347
0.129732 0 0.947951
0.419608 0 0.968551
0.673609 0 0.981826
0.879286 0 1
1 0 1
1 0 1
1 0 1
1 0 1
0 0.135225 1
0.0842603 0.108675 1
0.33138 0.0873274 1
0.590829 0.0643473 1
0.834516 0.047776 1
1 0.0451667 1
1 0.0562142 1
1 0.0723888 1
1 0.0897841 1
0 0.340093 1
0.0292515 0.305745 1
0.286976 0.286976 1
0.554162 0.26627 1
0.795819 0.251926 1
0.996597 0.247272 1
1 0.255543 1
1 0.271 1
1 0.28838 1
0 0.561196 1
0 0.518791 1
0.228916 0.494591 1
0.494163 0.469062 1
0.730541 0.451194 1
0.929213 0.443183 1
1 0.448997 1
1 0.462821 1
1 0.478386 1
0 0.756832 1
0 0.709026 1
0.186542 0.680613 1
0.449668 0.652781 1
0.680156 0.632471 0.994141
0.871168 0.621088 0.977279
1 0.622415 0.96939
1 0.631037 0.966461
1 0.640833 0.963867
0 0.91548 1
0 0.868772 1
0.186389 0.836988 1
0.437812 0.805234 0.975769
0.653651 0.780591 0.949645
0.83006 0.764157 0.929763
0.955108 0.75935 0.919799
1 0.761349 0.915877
1 0.76463 0.913298
0 1 1
0 0.981781 1
0.235477 0.946899 0.986404
0.464622 0.912551 0.953506
0.660182 0.885191 0.926711
0.820447 0.865431 0.906737
0.935058 0.856413 0.896391
1 0.854047 0.892073
1 0.853437 0.889418
0 1 1
0.0728008 1 1
0.290364 1 0.978058
0.498589 0.989563 0.94551
0.677668 0.961059 0.919051
0.825742 0.940002 0.899321
0.932799 0.929335 0.888899
1 0.925307 0.884443
1 0.923384 0.88191
0 1 1
0.125628 1 1
0.329107 1 0.971649
0.524254 1 0.940368
0.693141 1 0.915007
0.833463 1 0.896315
0.935851 0.992966 0.886717
1 0.989013 0.883009
1 0.987106 0.881148
