LUTs/17.cube
LUT_3D_SIZE 6
0.000069 0.004353 0.000048
0.003924 0.043700 0.004367
0.242572 0.191062 0.092203
0.629470 0.428960 0.354663
0.866226 0.565198 0.507621
1.001213 0.589085 0.534523
0.004738 0.036315 0.004061
0.000051 0.003774 0.001249
0.251827 0.238265 0.108374
0.636000 0.460080 0.365262
0.870319 0.584708 0.514184
1.003389 0.604295 0.539605
0.146350 0.367011 0.148277
0.178096 0.369368 0.152257
0.263304 0.354935 0.139638
0.665225 0.580366 0.411035
0.889156 0.666521 0.543629
1.013334 0.669219 0.562585
0.442600 0.740534 0.455371
0.465405 0.742089 0.457977
0.560551 0.749139 0.469726
0.704788 0.748842 0.472526
0.926608 0.805311 0.599657
1.033205 0.783406 0.607083
0.623490 0.959111 0.635237
0.638143 0.960127 0.636932
0.702023 0.964438 0.644261
0.819046 0.973376 0.659123
1.001272 1.001272 0.688540
1.063982 0.934327 0.672677
0.792546 1.185492 0.800460
0.803730 1.185805 0.800972
0.838917 1.185493 0.800151
0.890543 1.180156 0.789158
1.001066 1.179573 0.788064
1.134956 1.191690 0.812830
-0.427582 -0.604224 -0.427252
-0.434532 -0.605439 -0.430055
-0.182490 -0.567290 -0.332895
0.565957 -0.363729 0.243984
0.833775 0.261310 0.454189
0.962634 0.311777 0.479134
0.003036 0.025819 0.002916
-0.047279 -0.029579 0.000762
0.273172 0.213088 0.120813
0.645297 0.438008 0.367364
0.880177 0.573285 0.518121
1.002085 0.601077 0.548988
0.147729 0.367865 0.182422
0.148844 0.368363 0.154909
0.263898 0.355748 0.150204
0.665543 0.569979 0.414315
0.893235 0.658920 0.547242
1.012298 0.667013 0.572355
0.443683 0.741132 0.478515
0.443464 0.741464 0.458270
0.550172 0.748685 0.474116
0.705593 0.749628 0.478119
0.927619 0.801252 0.602472
1.032217 0.781595 0.616282
0.624041 0.959500 0.649904
0.625062 0.960466 0.638156
0.693587 0.964827 0.647485
0.814577 0.973701 0.662294
1.001721 1.001725 0.691274
1.063036 0.932897 0.680949
0.791223 1.184940 0.809052
0.799525 1.184195 0.807031
0.836325 1.184384 0.804394
0.888088 1.179055 0.791385
0.999960 1.178504 0.791362
1.133927 1.190785 0.817220
-0.371230 -0.571469 -0.154725
-0.345111 -0.569165 -0.143449
-0.228333 -0.564219 -0.195346
0.565024 -0.347028 0.383793
0.835867 0.279820 0.532698
0.967582 0.327318 0.538272
0.100420 0.229750 0.260638
0.140765 0.237987 0.343969
0.248323 0.204963 0.261145
0.639699 0.444696 0.483222
0.879413 0.574556 0.591039
1.003220 0.600796 0.602155
0.138041 0.357205 0.279775
0.149047 0.359538 0.281646
0.309639 0.397813 0.323401
0.797015 0.630044 0.583832
0.918959 0.757876 0.725827
1.012707 0.772694 0.742360
0.447727 0.743571 0.567554
0.453324 0.743797 0.559575
0.485305 0.755798 0.502743
0.683520 0.731782 0.485258
0.945773 0.846022 0.748492
1.027399 0.838524 0.754654
0.626727 0.961006 0.708436
0.629696 0.961636 0.701123
0.749582 0.978275 0.759726
0.825153 0.984851 0.732893
1.003079 1.002260 0.665244
1.051718 0.951073 0.797332
0.783122 1.181132 0.829335
0.787875 1.180526 0.826342
0.910765 1.164618 0.908933
0.936207 1.160977 0.890829
1.007841 1.158316 0.889548
1.109488 1.167531 0.909505
0.139419 -0.403500 0.567352
0.188316 -0.398230 0.570002
0.318672 -0.364628 0.561945
0.525668 -0.307059 0.545570
0.833255 0.333781 0.644774
0.984864 0.377683 0.622969
0.323293 0.433401 0.629166
0.342715 0.428473 0.675835
0.453462 0.427902 0.642369
0.632558 0.438417 0.646368
0.882063 0.579672 0.719506
1.005298 0.605018 0.702922
0.370368 0.558457 0.658323
0.372704 0.548526 0.656467
0.605325 0.662950 0.793230
0.763157 0.567118 0.772401
0.917321 0.744941 0.794849
1.013553 0.758789 0.791515
0.441501 0.737621 0.704511
0.447505 0.738671 0.705573
0.463295 0.737413 0.703298
0.702492 0.743704 0.710108
0.991543 0.972473 0.967691
1.015174 0.974947 0.970622
0.631870 0.964038 0.815265
0.634909 0.964657 0.811460
0.733052 0.979163 0.836347
0.972965 1.000247 0.972836
0.997577 0.997460 0.890356
1.022827 0.994550 0.969654
0.762589 1.171524 0.866940
0.766734 1.170861 0.864389
0.879876 1.155271 0.915189
1.033863 1.108563 1.025276
1.028337 1.105966 1.022777
1.045130 1.106586 1.029448
0.365535 0.144369 0.821009
0.388850 0.155081 0.822682
0.458358 0.211958 0.822189
0.595175 0.305072 0.820688
0.844716 0.385323 0.850666
1.002764 0.427281 0.791742
0.456261 0.545658 0.844269
0.466158 0.539795 0.854165
0.547410 0.546277 0.858382
0.690511 0.560291 0.869587
0.893933 0.584447 0.897163
1.008609 0.611698 0.840447
0.487737 0.632591 0.862916
0.491372 0.626449 0.871464
0.701402 0.745805 0.907693
0.773730 0.731397 0.908985
0.931474 0.743915 0.933108
1.016127 0.762875 0.891118
0.547382 0.777373 0.899883
0.549677 0.773795 0.901202
0.705720 0.825583 0.928399
0.968151 0.973116 0.988300
0.989433 0.963557 0.989274
1.017092 0.970827 0.987987
0.640663 0.975566 0.971565
0.643899 0.976504 0.972230
0.700558 0.988112 0.984435
0.945405 0.996497 0.995050
0.980514 0.983531 0.981075
0.999121 1.000239 1.000015
0.757271 1.169012 0.983541
0.762712 1.168430 0.981916
0.879686 1.152342 0.998870
1.035583 1.105752 1.027293
1.030519 1.069074 1.021918
1.002611 1.066933 1.020782
0.383662 0.190612 0.932360
0.401147 0.197540 0.933716
0.449840 0.241656 0.940588
0.555149 0.321542 0.956585
0.761219 0.391210 0.978854
1.010171 0.449208 1.002069
0.469446 0.554475 0.960370
0.478262 0.550589 0.958952
0.541679 0.555710 0.963381
0.658292 0.569151 0.971587
0.815406 0.590011 0.984624
1.013409 0.621121 1.002878
0.494705 0.625260 0.973743
0.501541 0.620785 0.972834
0.711104 0.754343 0.986395
0.759255 0.737337 0.990398
0.872580 0.749745 0.999961
1.019720 0.768657 1.011659
0.543248 0.747025 0.999961
0.549965 0.744092 0.999941
0.712008 0.812103 1.003026
0.972533 0.976902 1.008457
0.983391 0.967966 1.011633
1.017515 0.972001 1.014972
0.614423 0.904847 1.031974
0.620901 0.903432 1.031638
0.758229 0.929763 1.028506
0.968270 0.991343 1.016096
1.000265 1.000265 0.998419
0.999268 1.000163 0.999278
0.714205 1.089378 1.079806
0.720501 1.089277 1.079745
0.826037 1.074211 1.066719
0.984089 1.029703 1.027194
0.999960 0.998875 0.998727
0.997755 0.998074 0.998054
