LUTs/17.cube
LUT_3D_SIZE 16
0.000069 0.004353 0.000048
-0.009587 0.001010 0.000000
-0.047410 -0.036493 -0.036315
0.003924 0.043700 0.004367
0.030876 0.087232 0.016727
0.111076 0.085622 0.016316
0.242572 0.191062 0.092203
0.372612 0.274577 0.183098
0.501887 0.353420 0.270397
0.629470 0.428960 0.354663
0.743515 0.495092 0.428811
0.825570 0.542062 0.481621
0.866226 0.565198 0.507621
0.859021 0.566786 0.509380
0.916632 0.574775 0.518360
1.001213 0.589085 0.534523
0.000000 -0.011694 0.000000
-0.022594 -0.022594 -0.020021
-0.048665 -0.039589 -0.038070
0.003898 0.043272 0.004344
0.030958 0.087852 0.016799
0.111495 0.088684 0.016655
0.242874 0.192786 0.092748
0.372895 0.275990 0.183568
0.502145 0.354638 0.270758
0.629743 0.430016 0.355009
0.743741 0.496005 0.429119
0.825677 0.542842 0.481866
0.866327 0.565823 0.507815
0.859133 0.567238 0.509513
0.916762 0.575238 0.518509
1.001281 0.589562 0.534681
-0.040150 -0.050023 -0.039996
-0.042548 -0.050925 -0.041182
-0.070150 -0.070150 -0.063102
0.003490 0.041854 0.004006
0.032259 0.097054 0.017872
0.114982 0.112070 0.019608
0.245724 0.208399 0.097856
0.375422 0.289118 0.187915
0.504423 0.365947 0.274573
0.631680 0.439891 0.358321
0.745485 0.504588 0.432009
0.827218 0.550170 0.484305
0.867588 0.571951 0.509840
0.860111 0.572146 0.511164
0.917682 0.580095 0.520126
1.001956 0.594306 0.536253
0.004738 0.036315 0.004061
0.004667 0.036270 0.004053
0.004330 0.033843 0.003689
0.000051 0.003774 0.001249
0.033035 0.110106 0.019037
0.122216 0.151278 0.026220
0.251827 0.238265 0.108374
0.380822 0.315129 0.196986
0.509192 0.388838 0.282455
0.636000 0.460080 0.365262
0.749224 0.522278 0.438041
0.830491 0.565350 0.489504
0.870319 0.584708 0.514184
0.862354 0.582447 0.514664
0.919747 0.590183 0.523565
1.003389 0.604295 0.539605
0.022079 0.119340 0.019939
0.022282 0.119384 0.019957
0.025564 0.120038 0.020292
0.030487 0.118299 0.019944
0.022736 0.096760 0.015364
0.129885 0.194156 0.035878
0.261397 0.279804 0.124515
0.389453 0.352993 0.211110
0.516908 0.423045 0.294906
0.642920 0.490839 0.376237
0.755295 0.549565 0.447614
0.835705 0.588971 0.497736
0.874727 0.604755 0.521121
0.865892 0.598691 0.520218
0.923057 0.606162 0.529086
1.005702 0.619987 0.544997
0.043256 0.232136 0.040032
0.044446 0.232259 0.040167
0.054919 0.233170 0.041233
0.078246 0.235172 0.043534
0.107726 0.235239 0.045647
0.119263 0.215901 0.033637
0.270524 0.324875 0.141190
0.401498 0.400578 0.230318
0.527699 0.467283 0.312023
0.652601 0.531390 0.391507
0.763861 0.586092 0.461072
0.843124 0.621013 0.509313
0.880937 0.632177 0.530887
0.870979 0.621058 0.528135
0.927846 0.628217 0.536805
1.008993 0.641627 0.552638
0.146350 0.367011 0.148277
0.147424 0.367102 0.148417
0.157571 0.367809 0.149655
0.178096 0.369368 0.152257
0.208695 0.371866 0.156414
0.243310 0.371786 0.158043
0.263304 0.354935 0.139638
0.412975 0.451041 0.249702
0.541807 0.519598 0.333730
0.665225 0.580366 0.411035
0.775137 0.630859 0.478407
0.852849 0.660909 0.524345
0.889156 0.666521 0.543629
0.877714 0.649525 0.538424
0.934254 0.656130 0.546904
1.013334 0.669219 0.562585
0.246123 0.495743 0.254090
0.247092 0.495788 0.254216
0.256085 0.496421 0.255277
0.274604 0.497765 0.257520
0.302900 0.499906 0.261085
0.340417 0.502993 0.266156
0.381357 0.503571 0.268689
0.410334 0.489722 0.253461
0.555494 0.574553 0.355485
0.681005 0.636389 0.434673
0.789211 0.682900 0.499608
0.865109 0.707629 0.542858
0.899489 0.707293 0.559282
0.886079 0.683544 0.551239
0.942135 0.689678 0.559498
1.018796 0.702433 0.574962
0.345062 0.620132 0.356331
0.345897 0.620195 0.356463
0.353907 0.620723 0.357377
0.370526 0.621927 0.359303
0.396308 0.623786 0.362457
0.431085 0.626478 0.366867
0.474188 0.629970 0.372681
0.520470 0.631180 0.376044
0.557231 0.620406 0.363775
0.696629 0.694901 0.458395
0.806059 0.740913 0.524502
0.879763 0.760439 0.564707
0.912012 0.753790 0.577997
0.896277 0.722655 0.566563
0.951718 0.728278 0.574560
1.025403 0.740526 0.589858
0.442600 0.740534 0.455371
0.443343 0.740593 0.455482
0.450496 0.741073 0.456276
0.465405 0.742089 0.457977
0.488742 0.743747 0.460714
0.520608 0.746029 0.464617
0.560551 0.749139 0.469726
0.608189 0.752979 0.476137
0.658708 0.754951 0.480247
0.704788 0.748842 0.472526
0.823631 0.801993 0.549893
0.897044 0.818340 0.589783
0.926608 0.805311 0.599657
0.908275 0.766355 0.584306
0.963068 0.771431 0.592088
1.033205 0.783406 0.607083
0.529707 0.846516 0.542582
0.530402 0.846573 0.542700
0.536731 0.846967 0.543359
0.549880 0.847848 0.544876
0.570673 0.849253 0.547243
0.599326 0.851336 0.550653
0.635595 0.853976 0.555136
0.679307 0.857369 0.560710
0.729535 0.861475 0.567501
0.783689 0.864615 0.572688
0.841462 0.865972 0.571958
0.916764 0.880761 0.616742
0.943551 0.861054 0.623964
0.922128 0.814052 0.604490
0.976265 0.818726 0.611954
1.042252 0.830305 0.626633
0.592389 0.921965 0.604758
0.593009 0.922036 0.604859
0.598423 0.922355 0.605390
0.609827 0.923093 0.606673
0.627895 0.924374 0.608732
0.652838 0.926089 0.611639
0.684901 0.928416 0.615461
0.723734 0.931282 0.620291
0.768845 0.934770 0.626089
0.819848 0.938920 0.632941
0.876231 0.943712 0.639635
0.945462 0.954094 0.647140
0.964875 0.922964 0.651720
0.937815 0.865328 0.626957
0.991156 0.869483 0.634099
1.052495 0.880761 0.648542
0.623490 0.959111 0.635237
0.623888 0.959173 0.635317
0.628515 0.959483 0.635899
0.638143 0.960127 0.636932
0.653312 0.961118 0.638653
0.674596 0.962548 0.641097
0.702023 0.964438 0.644261
0.735458 0.966908 0.648424
0.774459 0.969877 0.653265
0.819046 0.973376 0.659123
0.868730 0.977458 0.665810
0.925494 0.983955 0.673917
1.001272 1.001272 0.688540
0.959771 0.923976 0.653766
1.005017 0.923328 0.658494
1.063982 0.934327 0.672677
0.621722 0.951674 0.633613
0.622074 0.951690 0.633675
0.625701 0.951977 0.634102
0.633465 0.952480 0.634935
0.645786 0.953311 0.636310
0.663212 0.954429 0.638296
0.685614 0.956028 0.640893
0.713140 0.957988 0.644103
0.745607 0.960386 0.648144
0.782798 0.963256 0.652866
0.824529 0.966604 0.658379
0.870326 0.970407 0.664610
0.924770 0.978109 0.673442
0.990468 0.991968 0.686326
1.019302 0.980595 0.685239
1.076651 0.990546 0.698628
0.649611 1.006346 0.660994
0.649929 1.006365 0.661036
0.653489 1.006562 0.661425
0.660898 1.006981 0.662273
0.672900 1.007661 0.663608
0.689561 1.008629 0.665445
0.711162 1.009908 0.667965
0.737855 1.011527 0.671127
0.769292 1.013509 0.674935
0.805456 1.015854 0.679436
0.846028 1.018585 0.684734
0.890671 1.021719 0.690729
0.939134 1.025259 0.697532
0.992028 1.029880 0.705467
1.035592 1.035592 0.714653
1.090594 1.042455 0.726840
0.792546 1.185492 0.800460
0.793100 1.185520 0.800443
0.796706 1.185641 0.800705
0.803730 1.185805 0.800972
0.813727 1.186026 0.801412
0.825708 1.186136 0.801525
0.838917 1.185493 0.800151
0.853450 1.184022 0.797219
0.870199 1.182248 0.793468
0.890543 1.180156 0.789158
0.917266 1.178477 0.785753
0.953897 1.178086 0.784910
1.001066 1.179573 0.788064
1.042131 1.182721 0.794483
1.083261 1.186517 0.802315
1.134956 1.191690 0.812830
-0.434507 -0.608548 -0.434456
-0.435268 -0.608645 -0.434646
-0.437366 -0.608841 -0.434912
-0.433596 -0.604865 -0.428372
-0.416274 -0.598526 -0.417443
-0.367084 -0.596940 -0.413869
-0.185971 -0.567947 -0.362137
0.202819 -0.525265 -0.269727
0.398785 -0.462174 0.023630
0.564953 -0.365434 0.199451
0.702025 -0.192725 0.320875
0.794178 0.188802 0.397095
0.833184 0.259564 0.432206
0.817898 0.264306 0.434521
0.873385 0.281065 0.444209
0.962193 0.310615 0.462417
0.000000 -0.011895 -0.011221
-0.022682 -0.022682 -0.022508
-0.048885 -0.040429 -0.039809
0.003969 0.044316 0.004594
0.031437 0.090984 0.018655
0.111960 0.091381 0.019447
0.242907 0.192698 0.095730
0.372801 0.275232 0.185369
0.502005 0.353687 0.272025
0.629540 0.429053 0.355928
0.743587 0.495164 0.429884
0.825616 0.542228 0.482597
0.866261 0.565507 0.508648
0.859126 0.567256 0.510549
0.916783 0.575308 0.519535
1.001299 0.589588 0.535651
-0.040411 -0.050070 -0.040975
-0.043166 -0.051019 -0.042601
-0.070531 -0.070531 -0.064799
0.003511 0.042252 0.004155
0.032627 0.099202 0.019543
0.115352 0.113877 0.022347
0.245769 0.208354 0.100806
0.375353 0.288590 0.189868
0.504288 0.365250 0.276016
0.631571 0.439162 0.359443
0.745369 0.503931 0.432924
0.827149 0.549678 0.485214
0.867577 0.571698 0.510765
0.860140 0.572170 0.512197
0.917703 0.580133 0.521158
1.001973 0.594331 0.537243
0.004687 0.036288 0.004073
0.004847 0.036415 0.004261
0.004395 0.033866 0.003819
0.000017 0.002107 0.001198
0.033252 0.111348 0.020564
0.122554 0.152480 0.029115
0.251851 0.238272 0.111224
0.380784 0.314715 0.198894
0.509074 0.388223 0.283874
0.635924 0.459420 0.366384
0.749100 0.521651 0.438950
0.830444 0.564912 0.490384
0.870261 0.584493 0.515105
0.862382 0.582480 0.515694
0.919768 0.590228 0.524586
1.003406 0.604332 0.540571
0.021960 0.119353 0.020512
0.023376 0.119718 0.021644
0.026399 0.120302 0.021826
0.031022 0.118460 0.021364
0.022639 0.096547 0.016334
0.130107 0.194828 0.038838
0.261468 0.279878 0.127182
0.389411 0.352684 0.212964
0.516824 0.422573 0.296311
0.642765 0.490284 0.377345
0.755186 0.548984 0.448583
0.835639 0.588578 0.498651
0.874694 0.604501 0.522071
0.865903 0.598721 0.521240
0.923075 0.606204 0.530054
1.005719 0.620009 0.545984
0.043216 0.232199 0.042146
0.045551 0.232446 0.043362
0.055869 0.233353 0.044319
0.079071 0.235352 0.046628
0.108229 0.235364 0.048687
0.119326 0.215958 0.036273
0.270577 0.324964 0.143719
0.401469 0.400388 0.232110
0.527613 0.466903 0.313428
0.652475 0.530916 0.392610
0.763765 0.585658 0.462016
0.843043 0.620676 0.510200
0.880941 0.631931 0.531857
0.871004 0.621092 0.529135
0.927900 0.628265 0.537780
1.009010 0.641643 0.553589
0.146467 0.367080 0.150884
0.147387 0.367132 0.150869
0.157570 0.367850 0.152087
0.178109 0.369444 0.154693
0.208762 0.371920 0.158794
0.243405 0.371871 0.160447
0.263417 0.355041 0.142225
0.413005 0.450966 0.251491
0.541744 0.519386 0.335077
0.665165 0.580030 0.412103
0.775067 0.630508 0.479340
0.852802 0.660541 0.525225
0.889112 0.666343 0.544532
0.877709 0.649542 0.539454
0.934261 0.656216 0.547913
1.013351 0.669242 0.563548
0.246321 0.495804 0.256426
0.246613 0.495792 0.255838
0.255741 0.496409 0.257003
0.274308 0.497758 0.259230
0.302670 0.499929 0.262802
0.340277 0.503002 0.267875
0.381304 0.503592 0.270365
0.410401 0.489814 0.255269
0.555477 0.574470 0.356841
0.680975 0.636222 0.435745
0.789127 0.682661 0.500529
0.865028 0.707438 0.543705
0.899454 0.707157 0.560214
0.886103 0.683537 0.552223
0.942188 0.689728 0.560445
1.018813 0.702435 0.575920
0.345271 0.620197 0.358437
0.345244 0.620177 0.357633
0.353423 0.620719 0.358695
0.370075 0.621925 0.360635
0.395936 0.623772 0.363761
0.430801 0.626487 0.368183
0.473999 0.630029 0.373993
0.520402 0.631215 0.377339
0.557397 0.620561 0.365182
0.696630 0.694764 0.459502
0.806008 0.740728 0.525357
0.879704 0.760241 0.565529
0.911985 0.753669 0.578923
0.896297 0.722611 0.567494
0.951770 0.728299 0.575444
1.025419 0.740585 0.590724
0.442827 0.740598 0.457192
0.442678 0.740542 0.456385
0.449981 0.741052 0.457340
0.464911 0.742071 0.459045
0.488278 0.743734 0.461775
0.520238 0.746025 0.465659
0.560285 0.749145 0.470762
0.608040 0.752992 0.477174
0.658643 0.754985 0.481351
0.704883 0.748918 0.473644
0.823632 0.801882 0.550823
0.897011 0.818225 0.590650
0.926594 0.805183 0.600451
0.908322 0.766320 0.585220
0.963111 0.771467 0.592985
1.033222 0.783434 0.607957
0.529954 0.846576 0.544222
0.529751 0.846537 0.543479
0.536205 0.846949 0.544301
0.549427 0.847832 0.545755
0.570222 0.849241 0.548180
0.598976 0.851328 0.551554
0.635272 0.853974 0.556012
0.679125 0.857374 0.561612
0.729348 0.861489 0.568407
0.783673 0.864650 0.573632
0.841462 0.865992 0.572812
0.916774 0.880754 0.617530
0.943552 0.861052 0.624740
0.922174 0.814084 0.605389
0.976225 0.818759 0.612846
1.042269 0.830314 0.627522
0.592613 0.922038 0.606127
0.592581 0.922013 0.605551
0.598079 0.922381 0.606250
0.609501 0.923087 0.607520
0.627536 0.924370 0.609637
0.652630 0.926087 0.612467
0.684620 0.928419 0.616334
0.723478 0.931289 0.621131
0.768663 0.934783 0.626925
0.819715 0.938940 0.633804
0.876186 0.943670 0.640455
0.945550 0.954168 0.648046
0.964848 0.922926 0.652414
0.937860 0.865359 0.627793
0.991208 0.869526 0.634914
1.052512 0.880753 0.649391
0.623564 0.959172 0.636400
0.623617 0.959177 0.636127
0.628358 0.959496 0.636744
0.637868 0.960140 0.637753
0.653159 0.961090 0.639536
0.674398 0.962565 0.641938
0.701924 0.964456 0.645142
0.735345 0.966928 0.649210
0.774469 0.969875 0.654105
0.818985 0.973402 0.659933
0.868655 0.977488 0.666655
0.925469 0.983938 0.674681
1.001294 1.001294 0.689344
0.959819 0.923979 0.654536
1.005034 0.923372 0.659199
1.063999 0.934344 0.673416
0.621796 0.951691 0.634555
0.622102 0.951688 0.634562
0.625720 0.951950 0.634926
0.633481 0.952480 0.635719
0.645796 0.953214 0.637098
0.663172 0.954471 0.639106
0.685660 0.956053 0.641648
0.713204 0.958029 0.644970
0.745672 0.960428 0.648945
0.782829 0.963267 0.653669
0.824544 0.966650 0.659193
0.870342 0.970401 0.665430
0.924790 0.978151 0.674180
0.990467 0.992012 0.687096
1.019319 0.980639 0.686096
1.076668 0.990585 0.699523
0.649616 1.006363 0.661834
0.650022 1.006382 0.661914
0.653491 1.006580 0.662267
0.660909 1.007000 0.663097
0.672899 1.007678 0.664367
0.689593 1.008647 0.666314
0.711237 1.009926 0.668714
0.737884 1.011544 0.672000
0.769343 1.013523 0.675710
0.805489 1.015871 0.680203
0.846078 1.018602 0.685520
0.890683 1.021736 0.691460
0.939104 1.025279 0.698251
0.991970 1.029896 0.706210
1.035608 1.035608 0.715374
1.090610 1.042472 0.727514
0.792497 1.185529 0.801272
0.793066 1.185508 0.801307
0.796729 1.185650 0.801511
0.803780 1.185823 0.801715
0.813733 1.186039 0.801966
0.825727 1.186143 0.801790
0.838923 1.185495 0.800265
0.853446 1.184021 0.797119
0.870187 1.182244 0.793261
0.890553 1.180151 0.788973
0.917250 1.178471 0.785488
0.953884 1.178082 0.784720
1.001064 1.179572 0.787990
1.042132 1.182722 0.794535
1.083263 1.186519 0.802407
1.134958 1.191693 0.812957
-0.433845 -0.608109 -0.434087
-0.434415 -0.608139 -0.434157
-0.437493 -0.608917 -0.435497
-0.433592 -0.604863 -0.428292
-0.416178 -0.598472 -0.415236
-0.366791 -0.596782 -0.407820
-0.185013 -0.567748 -0.352579
0.203351 -0.525019 -0.252003
0.399164 -0.461792 0.041803
0.565275 -0.364871 0.215079
0.702259 -0.191383 0.332409
0.794372 0.189659 0.406295
0.833373 0.260118 0.439701
0.818002 0.264749 0.440607
0.873557 0.281477 0.450101
0.962354 0.310953 0.468161
0.000421 0.011550 0.000321
0.000420 0.011537 0.000319
-0.053672 -0.046360 -0.048762
0.003541 0.042429 0.004426
0.030693 0.089935 0.021006
0.111600 0.092022 0.027651
0.242950 0.194064 0.109829
0.372966 0.276863 0.198064
0.502220 0.355345 0.283328
0.629809 0.430544 0.365943
0.743769 0.496421 0.438576
0.825747 0.543224 0.489989
0.866380 0.566159 0.514675
0.859294 0.567677 0.515202
0.916867 0.575626 0.524029
1.001408 0.589890 0.540046
-0.044461 -0.053239 -0.048123
-0.046784 -0.053672 -0.049160
-0.074800 -0.074354 -0.072434
0.007355 0.058470 0.007843
0.038291 0.107363 0.026161
0.119881 0.117096 0.032335
0.247609 0.204510 0.109299
0.376057 0.282977 0.194664
0.504452 0.359338 0.278970
0.631524 0.433562 0.361588
0.745220 0.499054 0.434786
0.827151 0.545962 0.487274
0.867914 0.569301 0.513305
0.859990 0.571605 0.515717
0.917632 0.579591 0.524665
1.001851 0.593804 0.540601
0.004700 0.036347 0.004340
0.004709 0.036174 0.004332
0.005155 0.035657 0.004605
-0.038271 -0.034188 0.000878
0.034424 0.115599 0.025658
0.124107 0.154260 0.038773
0.252423 0.235849 0.119774
0.380879 0.310922 0.204623
0.508966 0.384120 0.288102
0.635679 0.455400 0.369692
0.748896 0.518078 0.441917
0.830373 0.562134 0.493255
0.870515 0.582687 0.518150
0.862253 0.582156 0.519451
0.919720 0.589873 0.528254
1.003322 0.603865 0.544163
0.022094 0.119596 0.023639
0.023283 0.119820 0.024432
0.029066 0.121611 0.027158
0.032621 0.118990 0.026058
0.022244 0.095886 0.019461
0.130682 0.195822 0.048471
0.261577 0.278306 0.135145
0.389217 0.349828 0.218443
0.516546 0.419157 0.300381
0.642404 0.486793 0.380614
0.754904 0.545805 0.451457
0.835474 0.586084 0.501485
0.874884 0.602846 0.525090
0.865882 0.598416 0.525020
0.923071 0.605880 0.533690
1.005637 0.619623 0.549460
0.043619 0.232546 0.052062
0.046156 0.232809 0.053444
0.056067 0.233654 0.054038
0.079567 0.235560 0.056642
0.108629 0.235461 0.058482
0.119424 0.216109 0.044915
0.270554 0.324275 0.151324
0.401145 0.398439 0.237420
0.527206 0.464291 0.317421
0.652094 0.528057 0.395850
0.763418 0.582923 0.464903
0.842862 0.618430 0.513029
0.880987 0.630429 0.534778
0.870926 0.620796 0.532839
0.927828 0.627993 0.541399
1.008929 0.641299 0.557068
0.146884 0.367336 0.161656
0.148585 0.367496 0.162434
0.153990 0.367661 0.158630
0.175861 0.369295 0.161981
0.207262 0.371807 0.166052
0.242632 0.371785 0.167719
0.263629 0.355274 0.150184
0.412758 0.450031 0.256744
0.541325 0.517598 0.339075
0.664723 0.577848 0.415364
0.774640 0.628354 0.482222
0.852563 0.658678 0.528062
0.889127 0.665077 0.547452
0.877707 0.649260 0.543126
0.934243 0.655945 0.551469
1.013273 0.668902 0.566974
0.246676 0.496009 0.265730
0.247961 0.496136 0.266184
0.251129 0.496044 0.261179
0.271094 0.497551 0.264417
0.300137 0.499710 0.268017
0.338487 0.502770 0.273038
0.380375 0.503451 0.275594
0.410570 0.489986 0.260935
0.555179 0.573597 0.360900
0.680603 0.634758 0.439093
0.788785 0.680993 0.503439
0.864784 0.705966 0.546517
0.899428 0.706112 0.563162
0.886091 0.683361 0.555826
0.942133 0.689530 0.563944
1.018736 0.702131 0.579256
0.345597 0.620415 0.366549
0.346573 0.620559 0.366807
0.348687 0.620292 0.361733
0.366687 0.621626 0.364675
0.393014 0.623494 0.367816
0.428446 0.626171 0.372240
0.472336 0.629760 0.378068
0.519526 0.631096 0.381457
0.557457 0.620631 0.369620
0.696254 0.694042 0.462910
0.805734 0.739625 0.528381
0.879514 0.759167 0.568489
0.911874 0.752755 0.581806
0.896326 0.722454 0.570971
0.951727 0.728066 0.578931
1.025352 0.740289 0.593971
0.443110 0.740763 0.464324
0.443890 0.740818 0.464450
0.445607 0.740714 0.459806
0.461685 0.741817 0.462436
0.485394 0.743447 0.465171
0.517825 0.745815 0.469056
0.558391 0.748835 0.474220
0.606602 0.752768 0.480606
0.657900 0.754925 0.484858
0.704966 0.748988 0.477365
0.823454 0.801362 0.553960
0.896794 0.817499 0.593550
0.926476 0.804541 0.603519
0.908357 0.766204 0.588644
0.963091 0.771329 0.596271
1.033160 0.783128 0.611170
0.530188 0.846736 0.550382
0.530790 0.846755 0.550428
0.532524 0.846679 0.546583
0.546623 0.847625 0.548832
0.567746 0.849101 0.551223
0.596718 0.851152 0.554659
0.633440 0.853802 0.559106
0.677681 0.857246 0.564774
0.728462 0.861393 0.571540
0.783148 0.864528 0.576880
0.841564 0.866079 0.576212
0.916655 0.880343 0.620598
0.943455 0.860624 0.627855
0.922203 0.813955 0.608693
0.976255 0.818663 0.616078
1.042203 0.830127 0.630602
0.592818 0.922181 0.611490
0.593361 0.922200 0.611481
0.595347 0.922228 0.608727
0.607500 0.923014 0.610543
0.625611 0.924222 0.612644
0.650936 0.926011 0.615560
0.683209 0.928302 0.619364
0.722283 0.931232 0.624150
0.767727 0.934787 0.629948
0.819047 0.939014 0.636867
0.875841 0.943703 0.643549
0.945620 0.954269 0.651119
0.964878 0.922822 0.655444
0.937940 0.865330 0.631040
0.991215 0.869443 0.638091
1.052450 0.880600 0.652400
0.623651 0.959264 0.640944
0.624210 0.959298 0.640920
0.626726 0.959407 0.639449
0.636749 0.960114 0.640863
0.652091 0.961112 0.642572
0.673423 0.962552 0.644978
0.701017 0.964456 0.648235
0.734509 0.966943 0.652230
0.773804 0.969903 0.657113
0.818505 0.973458 0.662904
0.868334 0.977569 0.669694
0.925346 0.983985 0.677777
1.001386 1.001386 0.692341
0.959861 0.924007 0.657735
1.005044 0.923272 0.662284
1.063943 0.934204 0.676416
0.621890 0.951785 0.638085
0.622481 0.951794 0.638286
0.625335 0.952002 0.637893
0.633296 0.952574 0.638955
0.645643 0.953310 0.640317
0.662990 0.954491 0.642312
0.685475 0.956081 0.644856
0.712968 0.958102 0.648207
0.745536 0.960444 0.652073
0.782752 0.963378 0.656788
0.824479 0.966688 0.662318
0.870335 0.970493 0.668491
0.924795 0.978204 0.677339
0.990606 0.992122 0.690171
1.019343 0.980625 0.688988
1.076628 0.990407 0.702318
0.649751 1.006435 0.665232
0.650244 1.006473 0.665407
0.653078 1.006575 0.665183
0.660679 1.007013 0.666077
0.672598 1.007690 0.667416
0.689387 1.008661 0.669319
0.710952 1.009941 0.671826
0.737707 1.011561 0.674937
0.769151 1.013540 0.678730
0.805336 1.015890 0.683239
0.845923 1.018622 0.688467
0.890645 1.021758 0.694406
0.939109 1.025304 0.701205
0.991979 1.029921 0.709062
1.035669 1.035669 0.718337
1.090572 1.042409 0.730285
0.791893 1.185274 0.804020
0.792575 1.185326 0.804162
0.795758 1.185386 0.803925
0.803223 1.185655 0.804454
0.813391 1.186000 0.804467
0.825409 1.186063 0.803860
0.838583 1.185406 0.801833
0.853046 1.183984 0.798509
0.869863 1.182130 0.794461
0.890166 1.180007 0.789900
0.916942 1.178400 0.786470
0.953637 1.177987 0.785856
1.000899 1.179469 0.789309
1.041997 1.182641 0.796060
1.083172 1.186477 0.804022
1.134897 1.191635 0.814590
-0.427582 -0.604224 -0.427252
-0.428046 -0.604252 -0.427266
-0.429052 -0.604329 -0.427292
-0.434532 -0.605439 -0.430055
-0.415810 -0.598339 -0.411325
-0.366001 -0.596450 -0.395826
-0.182490 -0.567290 -0.332895
0.204585 -0.524412 -0.210902
0.400029 -0.461010 0.083826
0.565957 -0.363729 0.243984
0.702718 -0.188448 0.354265
0.794819 0.191511 0.423954
0.833775 0.261310 0.454189
0.818362 0.265729 0.452307
0.873845 0.282339 0.461372
0.962634 0.311777 0.479134
0.005892 0.047536 0.007027
0.006047 0.047915 0.006833
0.006200 0.046242 0.006447
0.001702 0.032351 0.002683
0.031108 0.090686 0.027191
0.112440 0.093668 0.046330
0.243613 0.195129 0.134531
0.373549 0.277752 0.219920
0.502739 0.356064 0.302661
0.630235 0.431198 0.383075
0.744149 0.497001 0.453611
0.826134 0.543701 0.502900
0.866701 0.566579 0.525556
0.859505 0.567984 0.523996
0.917074 0.575927 0.532636
1.001557 0.590194 0.548506
0.006137 0.051122 0.007269
0.005899 0.049655 0.006694
0.016168 0.081072 0.017466
0.003855 0.047545 0.005281
0.035774 0.110980 0.034699
0.116058 0.123887 0.055982
0.244504 0.210492 0.139835
0.373771 0.288485 0.222174
0.502729 0.364303 0.303446
0.630104 0.437864 0.383145
0.743992 0.502723 0.453516
0.825870 0.548944 0.503133
0.867035 0.571472 0.526266
0.859965 0.572925 0.525635
0.918055 0.580593 0.534006
1.002245 0.594771 0.549782
0.003036 0.025819 0.002916
0.002718 0.023807 0.002575
0.003412 0.023804 0.002699
-0.047279 -0.029579 0.000762
0.045098 0.097250 0.023461
0.151622 0.131161 0.043072
0.273172 0.213088 0.120813
0.396116 0.289309 0.203182
0.520764 0.364439 0.285760
0.645297 0.438008 0.367364
0.757455 0.503274 0.440110
0.838564 0.550194 0.492514
0.880177 0.573285 0.518121
0.860501 0.579753 0.525137
0.918833 0.587182 0.533379
1.002085 0.601077 0.548988
0.022365 0.120105 0.030313
0.023554 0.120330 0.030900
0.031541 0.122479 0.035253
0.022298 0.116970 0.023298
0.018624 0.092260 0.017867
0.130620 0.184989 0.047088
0.264563 0.264872 0.133967
0.393336 0.335846 0.217781
0.520952 0.405802 0.300157
0.646948 0.474519 0.380696
0.759501 0.535041 0.452009
0.840404 0.577202 0.502668
0.881894 0.595515 0.526195
0.864068 0.597138 0.531931
0.922419 0.603931 0.539588
1.004648 0.617503 0.555024
0.044450 0.233231 0.073687
0.047008 0.233500 0.075009
0.062237 0.234791 0.081365
0.050187 0.233995 0.050415
0.095928 0.233772 0.057253
0.118053 0.215527 0.043969
0.270129 0.317081 0.149597
0.401905 0.388677 0.235767
0.528932 0.453852 0.316163
0.654431 0.517840 0.395068
0.766332 0.573498 0.464719
0.846256 0.610449 0.513600
0.886436 0.623568 0.535182
0.869491 0.619714 0.539856
0.927271 0.626113 0.547188
1.007945 0.639348 0.562575
0.147729 0.367865 0.182422
0.149448 0.368042 0.183094
0.160269 0.368515 0.185490
0.148844 0.368363 0.154909
0.192604 0.370974 0.165038
0.234735 0.370958 0.166976
0.263898 0.355748 0.150204
0.412233 0.444884 0.255477
0.541428 0.510427 0.337698
0.665543 0.569979 0.414315
0.776160 0.620622 0.481662
0.854820 0.651773 0.528130
0.893235 0.658920 0.547242
0.876531 0.648334 0.550138
0.933617 0.654246 0.557208
1.012298 0.667013 0.572355
0.247438 0.496467 0.283954
0.248700 0.496607 0.284364
0.256754 0.496737 0.284862
