LUTs/18.cube
LUT_3D_SIZE 6
-0.138154 -0.138147 -0.138154
0.060837 -0.132313 -0.132317
0.366588 0.021463 0.013290
0.694879 0.145421 0.128800
0.886006 0.202871 0.184890
1.029040 0.247191 0.228653
-0.116845 0.064328 -0.116845
0.086196 0.069507 -0.109350
0.375149 0.152961 0.058816
0.700637 0.234918 0.150614
0.889679 0.265313 0.199148
1.031278 0.292054 0.238633
0.166533 0.348655 0.118871
0.236118 0.350981 0.124005
0.409405 0.360661 0.144293
0.724729 0.459225 0.224564
0.905140 0.449185 0.252760
1.040795 0.438662 0.277973
0.352172 0.716918 0.285945
0.400231 0.718655 0.289598
0.555757 0.726127 0.304833
0.770968 0.740755 0.334050
0.935602 0.695970 0.340544
1.059750 0.648755 0.346650
0.455747 0.947822 0.388699
0.486854 0.948954 0.391089
0.599622 0.953863 0.401334
0.773649 0.963781 0.421464
0.982144 0.979369 0.452139
1.089133 0.896186 0.438312
0.535157 1.100626 0.471072
0.556535 1.101221 0.472785
0.638625 1.103819 0.479960
0.775431 1.109053 0.494314
0.948689 1.117385 0.516626
1.129031 1.129031 0.546996
-0.136210 -0.136203 0.034212
0.063843 -0.130242 0.040634
0.367460 0.030863 0.121297
0.695471 0.147830 0.202268
0.886384 0.204373 0.235932
1.029272 0.248240 0.265253
-0.114375 0.066135 0.053336
0.088351 0.071182 0.058032
0.390505 0.094075 0.079568
0.706839 0.172761 0.155391
0.894983 0.223918 0.205621
1.030294 0.271440 0.252726
0.168677 0.349465 0.175899
0.193809 0.352178 0.141694
0.410202 0.361438 0.162233
0.725614 0.440304 0.231267
0.907488 0.429785 0.259250
1.039931 0.425855 0.290877
0.353430 0.717484 0.330725
0.364766 0.718767 0.298129
0.540496 0.726164 0.313760
0.771345 0.741171 0.343845
0.936185 0.688516 0.347552
1.059110 0.641629 0.358222
0.456554 0.948241 0.419151
0.465340 0.949290 0.398483
0.585833 0.954119 0.408756
0.767612 0.964004 0.429053
0.982377 0.979652 0.460001
1.088812 0.893051 0.448824
0.535747 1.100831 0.492592
0.546461 1.101042 0.483013
0.630877 1.103656 0.490184
0.770582 1.108951 0.504466
0.946553 1.117363 0.526582
1.129174 1.129174 0.556877
-0.114945 -0.114936 0.291106
0.150789 -0.098498 0.293629
0.371133 0.054656 0.304345
0.697904 0.157727 0.398497
0.887973 0.210721 0.394673
1.030235 0.252582 0.390371
0.016539 0.135188 0.299585
0.086471 0.069722 0.350285
0.388629 0.105433 0.321451
0.708199 0.181871 0.387568
0.896216 0.229882 0.381331
1.031274 0.275498 0.382407
0.177480 0.352752 0.334091
0.202282 0.355247 0.336612
0.413469 0.364640 0.346081
0.816293 0.342094 0.323379
0.910938 0.418178 0.400120
1.042390 0.447189 0.429525
0.358878 0.720057 0.484495
0.370312 0.721241 0.469474
0.420185 0.747348 0.352808
0.776844 0.747342 0.378670
0.942371 0.683742 0.457638
1.061234 0.654137 0.480271
0.459993 0.949843 0.533392
0.468772 0.950912 0.519484
0.550992 0.962403 0.487805
0.748657 0.972414 0.487214
0.986860 0.984790 0.481563
1.090446 0.899262 0.553660
0.538074 1.101710 0.577323
0.548817 1.101928 0.569827
0.644246 1.105070 0.588583
0.779347 1.110233 0.600723
0.951158 1.118513 0.619902
1.130120 1.130120 0.646232
0.060316 0.049665 0.626518
0.211342 0.066626 0.628529
0.449170 0.114139 0.636813
0.702981 0.176320 0.653672
0.891175 0.223049 0.616175
1.032200 0.261254 0.576971
0.119171 0.187966 0.633051
0.132091 0.106250 0.667083
0.441307 0.142980 0.656153
0.711504 0.199204 0.663213
0.898580 0.241573 0.614917
1.033252 0.283608 0.572926
0.237843 0.435047 0.660828
0.248053 0.417293 0.665294
0.407298 0.358530 0.781003
0.811995 0.334930 0.777664
0.914121 0.424551 0.632059
1.044319 0.452472 0.605608
0.369686 0.725091 0.714214
0.381262 0.726419 0.715677
0.428823 0.746555 0.736496
0.778133 0.748683 0.738733
0.957141 0.761866 0.752340
1.077728 0.779460 0.770520
0.466873 0.953232 0.719911
0.475649 0.954283 0.713827
0.552006 0.965744 0.702578
0.804877 0.980407 0.769456
0.992285 0.991154 0.716095
1.101081 0.959749 0.813069
0.542756 1.103483 0.724541
0.553439 1.103724 0.719727
0.648034 1.106817 0.733358
0.867193 1.117040 0.841837
0.994861 1.123662 0.853714
1.133086 1.133086 0.870622
0.117251 0.094132 0.840031
0.218469 0.102748 0.841364
0.424958 0.133811 0.846933
0.655200 0.182218 0.858244
0.896323 0.241587 0.876101
1.035338 0.274546 0.802131
0.149624 0.191811 0.844481
0.174257 0.141761 0.851239
0.412098 0.165184 0.856890
0.654933 0.204985 0.868287
0.902605 0.259363 0.883536
1.036424 0.296149 0.801072
0.240222 0.406947 0.863157
0.252156 0.388288 0.870227
0.432737 0.383801 0.873850
0.670275 0.404237 0.885261
0.919294 0.434440 0.903319
1.047375 0.460755 0.823506
0.354090 0.667852 0.900077
0.363028 0.661441 0.902436
0.496049 0.662611 0.911876
0.782327 0.753393 0.939469
0.960944 0.765996 0.952990
1.080132 0.783677 0.924863
0.477654 0.958615 0.956827
0.486420 0.959605 0.957836
0.551121 0.971252 0.969993
0.800737 0.984401 0.983694
0.991265 0.989833 0.989433
1.109096 0.999961 0.999961
0.550182 1.106314 0.920239
0.560749 1.106613 0.917980
0.653995 1.109651 0.926609
0.870564 1.119269 0.986826
1.021688 1.127927 1.021688
1.135805 1.135805 1.030684
0.152591 0.123321 1.007749
0.224937 0.128906 1.008438
0.399162 0.150639 1.011368
0.603614 0.187736 1.017293
0.820533 0.236138 1.026651
1.039757 0.292563 1.039757
0.173735 0.195299 1.010059
0.202092 0.165960 1.009280
0.389254 0.183863 1.012241
0.599301 0.216098 1.018216
0.819418 0.260159 1.027671
1.040877 0.313242 1.040877
0.242411 0.377434 1.019858
0.263258 0.363454 1.019191
0.443302 0.394393 1.023916
0.631165 0.411443 1.029708
0.839238 0.437499 1.038881
1.051710 0.472292 1.051710
0.337903 0.606811 1.039356
0.353239 0.599737 1.038906
0.497741 0.617354 1.043238
0.787753 0.759409 1.066420
0.928604 0.772000 1.073518
1.083511 0.789654 1.083511
0.445811 0.864916 1.069503
0.458024 0.862024 1.069396
0.572559 0.871711 1.073113
0.825326 0.943068 1.090084
0.994825 0.993997 1.103746
1.111827 1.003127 1.111827
0.560475 1.110366 1.110366
0.570919 1.110683 1.110683
0.662477 1.113663 1.113663
0.875575 1.122513 1.122513
1.024758 1.130630 1.130630
1.138445 1.138445 1.138445
