LUTs/18.cube
LUT_3D_SIZE 16
-0.138154 -0.138147 -0.138154
-0.126684 -0.137349 -0.137356
-0.065363 -0.134553 -0.134560
0.060837 -0.132313 -0.132317
0.148484 -0.124515 -0.124522
0.251985 -0.102163 -0.102169
0.366588 0.021463 0.013290
0.479756 0.076283 0.062804
0.589837 0.112977 0.097565
0.694879 0.145421 0.128800
0.785949 0.172913 0.155534
0.851497 0.192547 0.174751
0.886006 0.202871 0.184890
0.895350 0.205678 0.187648
0.957323 0.224225 0.205914
1.029040 0.247191 0.228653
-0.135441 -0.124518 -0.135441
-0.123605 -0.123598 -0.134622
-0.058443 -0.122756 -0.132197
0.062986 -0.125162 -0.130859
0.149433 -0.115661 -0.122735
0.252702 -0.085009 -0.098903
0.367169 0.045614 0.019296
0.480324 0.087984 0.065245
0.590333 0.122287 0.099476
0.695232 0.153395 0.130461
0.786360 0.179828 0.156985
0.851863 0.198504 0.176003
0.886275 0.207883 0.185922
0.895581 0.209866 0.188509
0.957551 0.227997 0.206703
1.029204 0.250653 0.229358
-0.125481 -0.027559 -0.125481
-0.114391 -0.019646 -0.124713
0.020469 0.019538 -0.121350
0.071442 -0.084536 -0.124333
0.153484 -0.055446 -0.114622
0.255769 0.055929 -0.082786
0.369810 0.094676 0.036247
0.482589 0.126897 0.074953
0.592353 0.156423 0.107456
0.697069 0.183904 0.137359
0.787861 0.207037 0.163026
0.853178 0.222311 0.181234
0.887379 0.228253 0.190367
0.896583 0.227040 0.192230
0.958364 0.243471 0.210017
1.029892 0.264947 0.232488
-0.116845 0.064328 -0.116845
-0.109549 0.064713 -0.116332
-0.064881 0.066335 -0.114089
0.086196 0.069507 -0.109350
0.161327 0.084114 -0.095021
0.261883 0.117689 0.008712
0.375149 0.152961 0.058816
0.487214 0.183301 0.092138
0.596420 0.210432 0.122335
0.700637 0.234918 0.150614
0.790970 0.254246 0.174806
0.855835 0.264773 0.191516
0.889679 0.265313 0.199148
0.898390 0.258754 0.199599
0.960012 0.272500 0.216689
1.031278 0.292054 0.238633
-0.078545 0.134831 -0.078545
-0.062694 0.135041 -0.077532
0.058198 0.135960 -0.072968
0.117694 0.137823 -0.062193
0.173053 0.140720 -0.035084
0.271314 0.177837 0.049505
0.383433 0.217490 0.084839
0.494551 0.249963 0.115266
0.602846 0.277295 0.143547
0.706231 0.300407 0.170077
0.795915 0.316640 0.192436
0.860115 0.322220 0.207103
0.893320 0.316495 0.212604
0.901436 0.303313 0.210953
0.962718 0.313962 0.227006
1.033504 0.331172 0.248180
0.090222 0.231830 0.059397
0.098945 0.232011 0.059882
0.129370 0.232773 0.061944
0.174472 0.234329 0.065972
0.227202 0.236802 0.072034
0.284134 0.240278 0.080008
0.394865 0.286957 0.113483
0.504750 0.323725 0.142923
0.611896 0.352933 0.169970
0.714179 0.376049 0.194984
0.802960 0.390085 0.215459
0.866241 0.390983 0.227774
0.898415 0.378657 0.230563
0.905758 0.358090 0.226304
0.966556 0.365624 0.241064
1.036656 0.380741 0.261347
0.166533 0.348655 0.118871
0.172601 0.348819 0.119239
0.196165 0.349534 0.120825
0.236118 0.350981 0.124005
0.287494 0.353231 0.128948
0.346101 0.356421 0.135713
0.409405 0.360661 0.144293
0.517828 0.402905 0.174044
0.623625 0.435158 0.200612
0.724729 0.459225 0.224564
0.812230 0.471723 0.243282
0.874130 0.468212 0.253011
0.905140 0.449185 0.252760
0.911339 0.420900 0.245431
0.971585 0.425429 0.258711
1.040795 0.438662 0.277973
0.232774 0.470822 0.175461
0.237750 0.470971 0.175794
0.257782 0.471580 0.177166
0.293797 0.472849 0.179946
0.342687 0.474998 0.184371
0.400674 0.477971 0.190497
0.464999 0.481818 0.198344
0.533840 0.486688 0.207928
0.638050 0.522690 0.234725
0.737684 0.548399 0.258017
0.823605 0.559823 0.275112
0.884015 0.552206 0.282380
0.913543 0.526341 0.278836
0.918456 0.490053 0.268055
0.977964 0.491865 0.279728
1.046003 0.503457 0.297852
0.294482 0.594711 0.231362
0.298733 0.594953 0.231649
0.316180 0.595534 0.232924
0.348632 0.596730 0.235445
0.394159 0.598553 0.239410
0.449992 0.601336 0.244972
0.513320 0.604849 0.252171
0.582278 0.609385 0.261076
0.655193 0.614708 0.271597
0.753069 0.642389 0.294623
0.837320 0.653239 0.310453
0.896001 0.641536 0.315146
0.923693 0.608854 0.308228
0.926844 0.564335 0.293699
0.985594 0.563518 0.303830
1.052310 0.573730 0.320830
0.352172 0.716918 0.285945
0.355847 0.717079 0.286163
0.371128 0.717536 0.287321
0.400231 0.718655 0.289598
0.442127 0.720398 0.293204
0.494740 0.722760 0.298210
0.555757 0.726127 0.304833
0.622984 0.730012 0.313007
0.695139 0.734985 0.322723
0.770968 0.740755 0.334050
0.853337 0.751226 0.348771
0.909968 0.735622 0.351033
0.935602 0.695970 0.340544
0.936898 0.642943 0.322149
0.994682 0.639738 0.330657
1.059750 0.648755 0.346650
0.401733 0.825716 0.334384
0.404904 0.825874 0.334618
0.418301 0.826377 0.335628
0.444037 0.827336 0.337636
0.481954 0.828818 0.340870
0.530474 0.830993 0.345396
0.587603 0.833933 0.351320
0.651701 0.837537 0.358692
0.721079 0.841972 0.367558
0.794696 0.847194 0.377894
0.871647 0.853271 0.389667
0.925989 0.833895 0.389601
0.949380 0.787029 0.375549
0.948552 0.725434 0.353100
1.003082 0.719331 0.360000
1.068373 0.727790 0.375003
0.437169 0.905482 0.369864
0.439895 0.905644 0.370065
0.451395 0.906027 0.370927
0.473829 0.906844 0.372721
0.507258 0.908188 0.375496
0.550766 0.910098 0.379474
0.602763 0.912525 0.384652
0.661841 0.915778 0.391170
0.726449 0.919576 0.398975
0.795538 0.924172 0.408143
0.868357 0.929479 0.418615
0.944008 0.935567 0.430438
0.964856 0.881650 0.412813
0.961666 0.811208 0.386183
1.013763 0.802646 0.391572
1.078156 0.810470 0.405620
0.455747 0.947822 0.388699
0.458065 0.947896 0.388879
0.467778 0.948291 0.389623
0.486854 0.948954 0.391089
0.515685 0.950092 0.393494
0.553631 0.951686 0.396921
0.599622 0.953863 0.401334
0.652388 0.956578 0.406875
0.710692 0.959797 0.413586
0.773649 0.963781 0.421464
0.840267 0.968242 0.430496
0.909964 0.973465 0.440736
0.982144 0.979369 0.452139
0.976265 0.899924 0.421247
1.025699 0.888976 0.425127
1.089133 0.896186 0.438312
0.460776 0.959346 0.393835
0.462710 0.959422 0.393972
0.470837 0.959731 0.394589
0.486858 0.960319 0.395853
0.511281 0.961325 0.397862
0.543874 0.962658 0.400675
0.583748 0.964423 0.404420
0.629997 0.966644 0.409036
0.681447 0.969480 0.414722
0.737410 0.972644 0.421321
0.797084 0.976484 0.428986
0.859789 0.980863 0.437669
0.925021 0.985710 0.447415
0.992491 0.991348 0.458062
1.038888 0.978026 0.460470
1.101254 0.984644 0.472848
0.494096 1.026800 0.428133
0.495823 1.026849 0.428255
0.503066 1.027051 0.428815
0.517483 1.027469 0.429973
0.539470 1.028137 0.431791
0.569053 1.029079 0.434329
0.605706 1.030319 0.437705
0.648562 1.031893 0.441951
0.696802 1.033808 0.447053
0.749461 1.036099 0.453103
0.806147 1.038753 0.460077
0.865923 1.041789 0.468025
0.928462 1.045223 0.476923
0.993133 1.049055 0.486778
1.053322 1.053322 0.497552
1.114584 1.058001 0.509199
0.535157 1.100626 0.471072
0.536757 1.100645 0.471201
0.543374 1.100856 0.471727
0.556535 1.101221 0.472785
0.576841 1.101853 0.474462
0.604325 1.102689 0.476853
0.638625 1.103819 0.479960
0.679049 1.105265 0.483893
0.724950 1.106977 0.488689
0.775431 1.109053 0.494314
0.829970 1.111496 0.500871
0.887921 1.114230 0.508267
0.948689 1.117385 0.516626
1.010007 1.120860 0.525810
1.068931 1.124736 0.535990
1.129031 1.129031 0.546996
-0.137883 -0.137876 -0.127268
-0.126374 -0.137078 -0.126374
-0.064710 -0.134317 -0.125122
0.061061 -0.132169 -0.126569
0.148581 -0.124340 -0.117419
0.252048 -0.101833 -0.088631
0.366660 0.022289 0.031407
0.479830 0.076546 0.071825
0.589869 0.113172 0.104841
0.694935 0.145600 0.135089
0.785996 0.173063 0.161025
0.851527 0.192685 0.179494
0.886070 0.202967 0.188873
0.895347 0.205755 0.190985
0.957384 0.224306 0.208914
1.029057 0.247250 0.231398
-0.135164 -0.124215 -0.124222
-0.123296 -0.123285 -0.123296
-0.056060 -0.120014 -0.120026
0.065379 -0.117376 -0.117385
0.150324 -0.108022 -0.108033
0.252991 -0.078746 -0.078761
0.367228 0.045436 0.034344
0.480257 0.086124 0.072050
0.590197 0.119982 0.104275
0.695144 0.151033 0.134240
0.786269 0.177732 0.160244
0.851741 0.196944 0.179066
0.886210 0.207056 0.188999
0.895615 0.209806 0.191710
0.957565 0.228054 0.209716
1.029221 0.250732 0.232159
-0.125217 -0.025256 -0.114967
-0.111761 -0.011160 -0.111761
0.021654 0.020430 -0.107994
0.072996 -0.074965 -0.110298
0.154220 -0.031159 -0.098441
0.256036 0.058860 -0.053956
0.369872 0.094598 0.046904
0.482526 0.125641 0.081118
0.592263 0.154636 0.111972
0.696972 0.181958 0.141018
0.787803 0.205232 0.166213
0.853146 0.220938 0.184243
0.887397 0.227519 0.193397
0.896544 0.226964 0.195353
0.958332 0.243566 0.213015
1.029901 0.265006 0.235200
-0.116672 0.064465 -0.109923
-0.101432 0.065333 -0.101432
-0.052184 0.066823 -0.098911
0.086510 0.069746 -0.093496
0.161811 0.086336 -0.073283
0.262111 0.118882 0.029464
0.375212 0.152950 0.066544
0.487183 0.182480 0.097448
0.596373 0.209142 0.126459
0.700546 0.233444 0.154028
0.790883 0.252808 0.177837
0.855778 0.263620 0.194389
0.889619 0.264717 0.202072
0.898425 0.258727 0.202677
0.960070 0.272568 0.219577
1.031295 0.292102 0.241288
-0.078205 0.134902 -0.063594
-0.044321 0.135329 -0.044321
0.064744 0.136218 -0.033086
0.119840 0.138028 0.010715
0.173205 0.140847 0.023620
0.271480 0.178370 0.058459
0.383485 0.217501 0.090775
0.494523 0.249452 0.119790
0.602784 0.276429 0.147211
0.706089 0.299326 0.173208
0.795836 0.315530 0.195264
0.860070 0.321302 0.209823
0.893263 0.315946 0.215340
0.901427 0.303249 0.213863
0.962759 0.314018 0.229802
1.033521 0.331245 0.250772
0.090465 0.231892 0.065509
0.101464 0.232115 0.067679
0.131098 0.232872 0.069546
0.175506 0.234441 0.073215
0.227677 0.236894 0.078802
0.284188 0.240338 0.086217
0.394901 0.286996 0.118247
0.504724 0.323431 0.146799
0.611853 0.352350 0.173253
0.714232 0.375290 0.197856
0.802915 0.389220 0.218076
0.866170 0.390285 0.230348
0.898364 0.378209 0.233178
0.905731 0.358049 0.229059
0.966597 0.365680 0.243730
1.036673 0.380805 0.263825
0.166690 0.348725 0.123625
0.172558 0.348864 0.123839
0.196131 0.349586 0.125384
0.236109 0.351023 0.128461
0.287496 0.353264 0.133262
0.346119 0.356460 0.139871
0.409459 0.360712 0.148263
0.517857 0.402821 0.177408
0.623531 0.434778 0.203547
0.724666 0.458704 0.227175
0.812193 0.471106 0.245696
0.874109 0.467701 0.255414
0.905096 0.448828 0.255223
0.911379 0.420873 0.248024
0.971598 0.425495 0.261215
1.040811 0.438716 0.280324
0.232891 0.470840 0.179650
0.236927 0.470962 0.179133
0.257087 0.471578 0.180496
0.293276 0.472888 0.183278
0.342273 0.475029 0.187622
0.400454 0.477978 0.193667
0.464931 0.481862 0.201449
0.533888 0.486743 0.210958
0.638050 0.522579 0.237368
0.737662 0.548101 0.260379
0.823600 0.559405 0.277344
0.884038 0.551819 0.284566
0.913540 0.526107 0.281138
0.918444 0.490048 0.270477
0.978014 0.491900 0.282096
1.046019 0.503475 0.300128
0.294579 0.594780 0.235130
0.297660 0.594950 0.234307
0.315202 0.595476 0.235581
0.347792 0.596731 0.238058
0.393518 0.598557 0.242020
0.449553 0.601342 0.247509
0.513054 0.604867 0.254682
0.582166 0.609391 0.263540
0.655210 0.614718 0.274047
0.753073 0.642300 0.296848
0.837289 0.652930 0.312501
0.896004 0.641233 0.317208
0.923671 0.608633 0.310331
0.926873 0.564336 0.295994
0.985598 0.563583 0.305997
1.052326 0.573775 0.322970
0.352246 0.716924 0.289307
0.354769 0.717055 0.288457
0.370153 0.717514 0.289565
0.399306 0.718638 0.291777
0.441410 0.720403 0.295404
0.494185 0.722785 0.300414
0.555350 0.726056 0.307011
0.622802 0.730039 0.315118
0.695033 0.735020 0.324836
0.770973 0.740762 0.336132
0.853335 0.751089 0.350710
0.909943 0.735453 0.352925
0.935595 0.695799 0.342557
0.936906 0.642959 0.324282
0.994744 0.639780 0.332738
1.059767 0.648797 0.348657
0.401781 0.825733 0.337409
0.403936 0.825866 0.336616
0.417359 0.826358 0.337599
0.443231 0.827346 0.339623
0.481237 0.828853 0.342868
0.529909 0.830986 0.347345
0.587216 0.833934 0.353261
0.651389 0.837525 0.360607
0.720937 0.841996 0.369453
0.794570 0.847162 0.379730
0.871629 0.853252 0.391542
0.925980 0.833764 0.391355
0.949392 0.786966 0.377410
0.948599 0.725459 0.355056
1.003099 0.719360 0.361972
1.068389 0.727847 0.376864
0.437232 0.905508 0.372486
0.439194 0.905634 0.371884
0.450732 0.906019 0.372763
0.473182 0.906838 0.374536
0.506714 0.908185 0.377317
0.550287 0.910101 0.381299
0.602425 0.912533 0.386475
0.661604 0.915762 0.392957
0.726211 0.919601 0.400742
0.795423 0.924207 0.409861
0.868305 0.929460 0.420338
0.944025 0.935556 0.432172
0.964891 0.881616 0.414547
0.961716 0.811219 0.388037
1.013780 0.802669 0.393384
1.078173 0.810515 0.407433
0.455800 0.947850 0.390939
0.457678 0.947917 0.390686
0.467410 0.948275 0.391387
0.486543 0.948977 0.392916
0.515374 0.950116 0.395272
0.553387 0.951704 0.398638
0.599387 0.953894 0.403076
0.652201 0.956611 0.408608
0.710560 0.959836 0.415298
0.773561 0.963780 0.423142
0.840200 0.968247 0.432199
0.909949 0.973433 0.442381
0.982121 0.979393 0.453740
0.976325 0.899950 0.422972
1.025716 0.889002 0.426841
1.089149 0.896180 0.439968
0.460816 0.959371 0.395726
0.462671 0.959468 0.395780
0.470850 0.959791 0.396413
0.486851 0.960297 0.397610
0.511286 0.961340 0.399648
0.543880 0.962713 0.402514
0.583752 0.964470 0.406164
0.629994 0.966692 0.410815
0.681449 0.969498 0.416455
0.737374 0.972640 0.423059
0.797106 0.976556 0.430691
0.859825 0.980834 0.439351
0.925034 0.985726 0.448987
0.992560 0.991370 0.459644
1.038905 0.978075 0.462037
1.101282 0.984691 0.474441
0.494128 1.026817 0.429799
0.495885 1.026865 0.429967
0.503127 1.027068 0.430504
0.517506 1.027485 0.431665
0.539518 1.028154 0.433471
0.569129 1.029099 0.436023
0.605716 1.030336 0.439374
0.648593 1.031909 0.443643
0.696821 1.033825 0.448711
0.749493 1.036115 0.454711
0.806142 1.038770 0.461661
0.865967 1.041806 0.469605
0.928482 1.045239 0.478465
0.993174 1.049071 0.488270
1.053318 1.053318 0.499009
1.114600 1.058017 0.510697
0.535213 1.100642 0.472653
0.536810 1.100661 0.472782
0.543400 1.100872 0.473299
0.556550 1.101237 0.474368
0.576876 1.101869 0.476008
0.604350 1.102705 0.478391
0.638666 1.103835 0.481530
0.679090 1.105267 0.485431
0.724938 1.106992 0.490189
0.775473 1.109069 0.495857
0.829998 1.111512 0.502337
0.887927 1.114246 0.509760
0.948727 1.117384 0.518042
1.010023 1.120875 0.527265
1.068947 1.124751 0.537469
1.129047 1.129047 0.548382
-0.136950 -0.136943 -0.071587
-0.127266 -0.136261 -0.069878
-0.061812 -0.133301 -0.061812
0.061989 -0.131533 -0.096267
0.149005 -0.123565 -0.076007
0.252368 -0.100434 0.032851
0.366891 0.025482 0.071631
0.480069 0.077684 0.103207
0.590101 0.114028 0.132332
0.695040 0.146327 0.159726
0.786150 0.173714 0.183037
0.851666 0.193239 0.198750
0.886196 0.203441 0.205347
0.895509 0.206141 0.204840
0.957417 0.224662 0.221467
1.029128 0.247585 0.243002
-0.134644 -0.125468 -0.065594
-0.122199 -0.122188 -0.061996
-0.052633 -0.118883 -0.052633
0.066190 -0.116688 -0.085384
0.150712 -0.107107 -0.058622
0.253303 -0.076730 0.038381
0.367505 0.047009 0.073218
0.480472 0.087133 0.103426
0.590425 0.120806 0.131919
0.695280 0.151752 0.159014
0.786373 0.178365 0.182346
0.851881 0.197486 0.198380
0.886333 0.207528 0.205453
0.895676 0.210192 0.205522
0.957641 0.228383 0.222183
1.029292 0.251070 0.243713
-0.124099 -0.002476 -0.003907
-0.110501 0.012963 0.006363
0.025327 0.023192 0.014752
0.087324 0.023871 0.015329
0.161122 0.037549 0.027269
0.259178 0.058945 0.046686
0.371272 0.085222 0.071198
0.483151 0.112785 0.097380
0.592508 0.140786 0.124315
0.696997 0.168354 0.151088
0.787781 0.192920 0.175130
0.853096 0.210911 0.192794
0.887484 0.220467 0.202209
0.896412 0.223521 0.205224
0.958264 0.240856 0.222367
1.029828 0.262525 0.243865
-0.115917 0.065015 -0.068787
-0.100588 0.065843 -0.056121
0.039907 0.069431 0.024279
0.087739 0.070702 0.027487
0.164631 0.092373 0.041626
0.263745 0.119462 0.061983
0.375945 0.148190 0.086541
0.487488 0.174576 0.112005
0.596403 0.199602 0.137917
0.700556 0.223319 0.163615
0.790768 0.243132 0.186414
0.855770 0.255395 0.202700
0.889709 0.258731 0.210650
0.898321 0.255731 0.212280
0.959954 0.270153 0.228719
1.031224 0.289847 0.249771
-0.076711 0.135222 0.034850
-0.040990 0.135647 0.039936
0.078600 0.137454 0.051033
0.125129 0.138936 0.054103
0.173783 0.141340 0.058737
0.272294 0.178856 0.081594
0.383817 0.215031 0.107394
0.494595 0.244582 0.132669
0.602696 0.269924 0.157720
0.705982 0.292013 0.182173
0.795734 0.308157 0.203376
0.859966 0.314852 0.217750
0.893329 0.311142 0.223571
0.901286 0.300732 0.223101
0.962667 0.311981 0.238657
1.033445 0.329312 0.259045
0.091428 0.232133 0.087760
0.102319 0.232379 0.089371
0.131089 0.233428 0.090360
0.175665 0.234916 0.093360
0.227955 0.237290 0.098008
0.284531 0.240653 0.104312
0.395088 0.286091 0.132417
0.504707 0.320623 0.158286
0.611649 0.348089 0.182885
0.713942 0.370057 0.206235
0.802667 0.383758 0.225772
0.865993 0.385255 0.237844
0.898370 0.374354 0.240991
0.905628 0.355974 0.237864
0.966585 0.363918 0.252177
1.036602 0.379153 0.271824
0.167350 0.348954 0.142554
0.173179 0.349113 0.142732
0.190728 0.349772 0.139075
0.232410 0.351175 0.141960
0.285309 0.353449 0.146480
0.345264 0.356660 0.152716
0.409686 0.360916 0.160682
0.517868 0.401650 0.187819
0.623439 0.432261 0.212483
0.724472 0.455170 0.235032
0.811859 0.467117 0.252905
0.873904 0.463907 0.262516
0.905108 0.445828 0.262636
0.911290 0.419198 0.256359
0.971559 0.424080 0.269284
1.040745 0.437285 0.287903
0.233436 0.471061 0.196753
0.237460 0.471227 0.196297
0.250066 0.471626 0.190828
0.287815 0.472923 0.193519
0.338482 0.475049 0.197767
0.398114 0.478069 0.203643
0.463932 0.481959 0.211264
0.534043 0.486876 0.220564
0.638007 0.521481 0.245754
0.737436 0.545912 0.267792
0.823392 0.556708 0.284223
0.883916 0.549003 0.291275
0.913430 0.523778 0.288138
0.918296 0.488695 0.278275
0.977872 0.490727 0.289716
1.045948 0.502312 0.307382
0.295043 0.595023 0.250678
0.298136 0.595152 0.249959
0.308019 0.595432 0.243980
0.341794 0.596643 0.246464
0.388904 0.598527 0.250316
0.446294 0.601336 0.255802
0.511065 0.604854 0.262880
0.581276 0.609471 0.271622
0.655384 0.614899 0.281966
0.753012 0.641287 0.303970
0.837147 0.651211 0.319080
0.895792 0.639356 0.323628
0.923631 0.606961 0.316983
0.926832 0.563274 0.303296
0.985608 0.562689 0.313255
1.052276 0.572773 0.329840
0.352655 0.717172 0.303478
0.355154 0.717208 0.302661
0.363330 0.717428 0.296719
0.393331 0.718544 0.298974
0.436554 0.720302 0.302538
0.490505 0.722706 0.307567
0.552721 0.726065 0.314036
0.621194 0.730049 0.322110
0.694303 0.735052 0.331772
0.771082 0.740898 0.343054
0.853315 0.750307 0.357062
0.909833 0.734212 0.359093
0.935562 0.694608 0.348896
0.936894 0.642241 0.331157
0.994696 0.639052 0.339525
1.059742 0.648050 0.355151
0.402154 0.825952 0.350137
0.404277 0.826035 0.349371
0.411426 0.826212 0.344040
0.437881 0.827214 0.346057
0.476679 0.828743 0.349251
0.526227 0.830965 0.353739
0.584388 0.833919 0.359602
0.649408 0.837482 0.366933
0.719714 0.841998 0.375743
0.794022 0.847228 0.385990
0.871705 0.853325 0.397717
0.925964 0.833241 0.397379
0.949317 0.786264 0.383471
0.948529 0.724951 0.361566
1.003078 0.718789 0.368348
1.068360 0.727307 0.383053
0.437514 0.905647 0.383628
0.439480 0.905739 0.383047
0.446050 0.905877 0.378827
0.468901 0.906739 0.380572
0.502918 0.908082 0.383366
0.547128 0.910097 0.387279
0.599848 0.912542 0.392469
0.659619 0.915701 0.398916
0.724917 0.919595 0.406647
0.794589 0.924177 0.415748
0.867909 0.929484 0.426157
0.944067 0.935603 0.437910
0.964893 0.881315 0.420325
0.961726 0.810912 0.394144
1.013776 0.802317 0.399426
1.078157 0.810073 0.413248
0.456044 0.947963 0.400403
0.457925 0.948103 0.400162
0.464237 0.948191 0.397390
0.483587 0.948909 0.398871
0.512717 0.950126 0.401235
0.551066 0.951733 0.404572
0.597478 0.953874 0.408964
0.650731 0.956580 0.414435
0.709388 0.959841 0.421065
0.772735 0.963830 0.428875
0.839654 0.968262 0.437843
0.909739 0.973465 0.447995
0.982157 0.979443 0.459309
0.976311 0.899802 0.428729
1.025730 0.888809 0.432571
1.089149 0.895888 0.445514
0.461016 0.959447 0.403641
0.462887 0.959517 0.403699
0.469203 0.959706 0.402462
0.485321 0.960313 0.403668
0.509904 0.961345 0.405638
0.542604 0.962723 0.408457
0.582667 0.964534 0.412099
0.629098 0.966689 0.416725
0.680743 0.969498 0.422299
0.736890 0.972691 0.428808
0.796717 0.976653 0.436415
0.859608 0.980954 0.444986
0.925000 0.985827 0.454580
0.992584 0.991408 0.465098
1.038939 0.978026 0.467470
1.101298 0.984508 0.479692
0.494345 1.026888 0.437007
0.496052 1.026936 0.437122
0.501911 1.027084 0.436217
0.516297 1.027502 0.437298
0.538427 1.028171 0.439130
0.568102 1.029115 0.441621
0.604892 1.030357 0.444988
0.647867 1.031933 0.449129
0.696216 1.033851 0.454191
0.749030 1.036136 0.460203
0.805800 1.038804 0.467114
0.865699 1.041844 0.474956
0.928353 1.045283 0.483727
0.993142 1.049121 0.493445
1.053388 1.053388 0.504169
1.114634 1.057974 0.515691
0.535390 1.100682 0.479322
0.536973 1.100729 0.479439
0.542248 1.100888 0.478552
0.555466 1.101253 0.479606
0.575853 1.101886 0.481237
0.603411 1.102723 0.483591
0.637791 1.103840 0.486756
0.678402 1.105288 0.490604
0.724287 1.107001 0.495344
0.774869 1.109095 0.500927
0.829613 1.111542 0.507375
0.887635 1.114280 0.514787
0.948512 1.117422 0.523049
1.009916 1.120918 0.532163
1.068920 1.124830 0.542218
1.129101 1.129101 0.553151
-0.136210 -0.136203 0.034212
-0.130412 -0.135790 0.034699
-0.100017 -0.133996 0.036738
0.063843 -0.130242 0.040634
0.149834 -0.121981 0.055638
0.252985 -0.097505 0.087748
0.367460 0.030863 0.121297
0.480521 0.079931 0.150719
0.590541 0.115795 0.177551
0.695471 0.147830 0.202268
0.786476 0.175001 0.222259
0.851953 0.194334 0.233927
0.886384 0.204373 0.235932
0.895657 0.206912 0.230899
0.957572 0.225348 0.245337
1.029272 0.248240 0.265253
-0.134810 -0.129360 0.035840
-0.121334 -0.121322 0.038244
-0.089475 -0.119377 0.039999
0.067803 -0.115270 0.043407
0.151525 -0.105217 0.059630
0.253925 -0.072395 0.090197
0.368087 0.050042 0.122369
0.480961 0.089152 0.150946
0.590865 0.122481 0.177296
0.695649 0.153214 0.201762
0.786698 0.179632 0.221720
0.852176 0.198572 0.233606
0.886608 0.208431 0.236055
0.895881 0.210961 0.231545
0.957779 0.229111 0.246022
1.029428 0.251664 0.265887
-0.128572 -0.091558 0.042241
-0.114588 -0.082060 0.043935
0.023315 0.021679 0.063280
0.085885 0.025489 0.056247
0.161163 0.039442 0.072111
0.259582 0.060806 0.095652
0.371713 0.086984 0.122140
0.483608 0.114392 0.147435
0.592885 0.142254 0.172037
0.697312 0.169690 0.195759
0.788119 0.194094 0.215945
0.853332 0.211942 0.228978
0.887748 0.221328 0.233290
0.896602 0.224257 0.231306
0.958411 0.241500 0.246198
1.029964 0.263129 0.266076
-0.114375 0.066135 0.053336
-0.098839 0.066865 0.054017
0.041589 0.069828 0.056773
0.088351 0.071182 0.058032
0.186307 0.065936 0.053153
0.284512 0.073210 0.059925
0.390505 0.094075 0.079568
0.497980 0.119316 0.103633
0.604374 0.146013 0.129365
0.706839 0.172761 0.155391
0.796348 0.196805 0.178921
0.861012 0.214467 0.196306
0.894983 0.223918 0.205621
0.897099 0.233740 0.215326
0.958841 0.250442 0.231868
1.030294 0.271440 0.252726
-0.073555 0.135852 0.077304
-0.032669 0.136246 0.079239
0.080093 0.137955 0.084364
0.090668 0.142294 0.059715
0.174996 0.142390 0.064253
0.277400 0.166051 0.081071
0.389290 0.191996 0.103207
0.499678 0.215436 0.126716
0.607314 0.237579 0.151020
0.710153 0.258462 0.175347
0.799754 0.275243 0.196924
0.864011 0.284175 0.212073
0.897686 0.283941 0.218991
0.900066 0.282501 0.226204
0.961604 0.295146 0.241761
1.032555 0.313313 0.261974
0.093368 0.232678 0.122902
0.104030 0.232908 0.123962
0.132400 0.233942 0.124896
0.136185 0.236813 0.094369
0.213316 0.238558 0.099586
0.285294 0.241345 0.106715
0.396733 0.277080 0.131173
0.506749 0.304927 0.154778
0.613943 0.328063 0.178127
0.716383 0.347473 0.200948
0.805313 0.360221 0.220425
0.868919 0.362406 0.232985
0.901800 0.353425 0.236981
0.904448 0.341101 0.240980
0.965430 0.349947 0.255307
1.035732 0.365519 0.274708
0.168677 0.349465 0.175899
0.174458 0.349598 0.176075
0.191884 0.350260 0.173520
0.193809 0.352178 0.141694
0.263710 0.354224 0.146670
0.336146 0.357312 0.153525
0.410202 0.361438 0.162233
0.518513 0.394949 0.186730
0.624332 0.420682 0.209688
0.725614 0.440304 0.231267
0.813348 0.450543 0.248840
0.875858 0.446992 0.258561
0.907488 0.429785 0.259250
0.910163 0.407160 0.259501
0.970588 0.412519 0.272424
1.039931 0.425855 0.290877
0.234529 0.471515 0.228301
