LUTs/19.cube
LUT_3D_SIZE 16
-0.138154 -0.138154 -0.138154
-0.126684 -0.137356 -0.137356
-0.065363 -0.134560 -0.134560
0.002241 -0.132317 -0.132317
0.028939 -0.124522 -0.124522
0.128259 -0.102169 -0.102169
0.269006 0.000133 0.009048
0.418736 0.007108 0.068693
0.571226 0.022004 0.122216
0.721503 0.044910 0.175815
0.855074 0.070910 0.223551
0.939922 0.090599 0.254315
0.968548 0.101208 0.269419
0.974469 0.104121 0.273410
0.997174 0.123631 0.298755
1.029040 0.148354 0.328023
-0.135441 -0.124530 -0.135441
-0.123605 -0.123605 -0.134622
-0.058443 -0.122768 -0.132197
0.002471 -0.125168 -0.130859
0.029493 -0.115667 -0.122735
0.129091 -0.085019 -0.098903
0.269752 0.001533 0.014718
0.419483 0.010753 0.072204
0.571929 0.027548 0.125369
0.722032 0.052147 0.178788
0.855612 0.077766 0.225975
0.940209 0.096697 0.256231
0.968754 0.106413 0.270946
0.974599 0.108484 0.274665
0.997173 0.127651 0.299836
1.029204 0.152123 0.328907
-0.125481 -0.027630 -0.125481
-0.114391 -0.019758 -0.124713
0.000106 0.000097 -0.121350
0.003524 -0.084550 -0.124333
0.031918 -0.055471 -0.114622
0.132652 0.002842 -0.082786
0.273153 0.013280 0.033517
0.422575 0.030592 0.086565
0.574775 0.054993 0.138684
0.724735 0.081847 0.191270
0.857845 0.105539 0.235914
0.941569 0.121610 0.264067
0.969459 0.127933 0.277320
0.975163 0.126628 0.279947
0.997321 0.144313 0.304222
1.029892 0.167830 0.332770
-0.116845 0.004309 -0.116845
-0.109549 0.004386 -0.116332
-0.064881 0.004718 -0.114089
0.005983 0.005413 -0.109350
0.037008 0.009439 -0.095021
0.139805 0.024712 0.005214
0.280001 0.051741 0.063051
0.428863 0.081236 0.113392
0.580526 0.109075 0.164350
0.729843 0.135075 0.215132
0.862519 0.156057 0.254411
0.944127 0.167626 0.278945
0.970930 0.168238 0.289597
0.976250 0.160996 0.290200
0.997590 0.176174 0.312901
1.031278 0.198039 0.340202
-0.078545 0.036299 -0.078545
-0.062694 0.036463 -0.077532
0.001978 0.037165 -0.072968
0.014640 0.038618 -0.062193
0.045591 0.040949 -0.035084
0.150955 0.075788 0.050343
0.290705 0.116501 0.101784
0.438873 0.151373 0.152027
0.589607 0.181525 0.202600
0.738089 0.207474 0.247103
0.869833 0.225909 0.280264
0.948078 0.232299 0.300349
0.973222 0.225748 0.307607
0.977906 0.210753 0.305452
0.997989 0.222849 0.325984
1.033504 0.242568 0.351501
0.006813 0.131758 0.063867
0.008867 0.131942 0.064549
0.019294 0.132760 0.067465
0.046710 0.134444 0.073262
0.099985 0.137102 0.082182
0.166274 0.140852 0.094284
0.305580 0.192322 0.148950
0.452817 0.234003 0.201460
0.602458 0.267703 0.246949
0.749716 0.294650 0.283832
0.880218 0.311156 0.311326
0.953410 0.312225 0.326952
0.976265 0.297691 0.330397
0.980188 0.273701 0.325105
0.998423 0.282470 0.343144
1.036656 0.300177 0.366629
0.040672 0.262732 0.158275
0.045227 0.262923 0.158923
0.066320 0.263732 0.161693
0.110043 0.265408 0.167293
0.170321 0.268044 0.176084
0.242874 0.271772 0.188270
0.324682 0.276690 0.203939
0.470799 0.326300 0.253234
0.619093 0.364629 0.291596
0.765021 0.393455 0.322921
0.893518 0.408515 0.345763
0.959936 0.404276 0.357105
0.979881 0.381377 0.356834
0.983008 0.347621 0.348314
0.998905 0.353018 0.363626
1.040795 0.368816 0.384966
0.106263 0.407433 0.255394
0.111899 0.407627 0.255905
0.135008 0.408348 0.257992
0.177949 0.409878 0.262168
0.238525 0.412472 0.268684
0.313220 0.416062 0.277494
0.398724 0.420700 0.288492
0.492925 0.426597 0.301466
0.639726 0.470362 0.335491
0.783962 0.501813 0.362874
0.908579 0.515819 0.381861
0.967181 0.506486 0.389677
0.983981 0.474802 0.385880
0.986150 0.430682 0.374121
0.999414 0.432876 0.386874
1.046003 0.446923 0.405944
0.178786 0.558854 0.331375
0.183967 0.559099 0.331723
0.205417 0.559867 0.333296
0.246073 0.561351 0.336360
0.304693 0.563586 0.341148
0.378558 0.567016 0.347756
0.464613 0.571362 0.356138
0.560565 0.576984 0.366320
0.664286 0.583614 0.378024
0.806535 0.617992 0.402626
0.924960 0.631546 0.418749
0.974837 0.616958 0.423432
0.988216 0.576307 0.416507
0.989346 0.521366 0.401655
0.999736 0.520392 0.412070
1.052310 0.532954 0.429054
0.250591 0.711231 0.393496
0.255266 0.711463 0.393727
0.274866 0.712101 0.394935
0.312596 0.713403 0.397358
0.368019 0.715615 0.401108
0.439119 0.718606 0.406286
0.523377 0.722790 0.413073
0.618208 0.727807 0.421286
0.721868 0.734004 0.430913
0.832903 0.741332 0.441849
0.941760 0.754500 0.455732
0.982289 0.734842 0.457826
0.992193 0.684931 0.448044
0.992605 0.618677 0.430357
0.999953 0.614698 0.438598
1.059750 0.625957 0.453767
0.314560 0.848925 0.442182
0.318737 0.849106 0.442393
0.336375 0.849725 0.443339
0.370568 0.850923 0.445270
0.421692 0.852861 0.448331
0.488244 0.855594 0.452590
0.568063 0.859347 0.458112
0.659264 0.863917 0.464892
0.759633 0.869587 0.472912
0.867930 0.876180 0.482130
0.957945 0.883648 0.492447
0.988986 0.859297 0.492346
0.995649 0.799798 0.480039
0.995508 0.721928 0.459742
1.003082 0.714278 0.466092
1.068373 0.725039 0.479564
0.361413 0.941023 0.474987
0.365040 0.941137 0.475162
0.380432 0.941520 0.475936
0.410663 0.942343 0.477538
0.456260 0.943609 0.480012
0.516431 0.945414 0.483510
0.589459 0.947648 0.488066
0.673800 0.950638 0.493733
0.767539 0.954056 0.500455
0.869268 0.958057 0.508208
0.955280 0.962511 0.516954
0.994517 0.967342 0.526657
0.998234 0.916551 0.512128
0.997828 0.830433 0.489402
1.013763 0.819565 0.494090
1.078156 0.829512 0.506097
0.386275 0.976464 0.491597
0.389385 0.976545 0.491754
0.402522 0.976772 0.492382
0.428355 0.977211 0.493690
0.467830 0.978017 0.495750
0.520448 0.979055 0.498667
0.585045 0.980500 0.502470
0.660256 0.982226 0.507148
0.744617 0.984313 0.512780
0.836819 0.986569 0.519329
0.928206 0.988991 0.526704
0.982286 0.991748 0.534994
0.999642 0.994433 0.544091
0.999301 0.935608 0.519137
1.025699 0.924413 0.522331
1.089133 0.931810 0.533061
0.393030 0.983943 0.496032
0.395633 0.984019 0.496135
0.406600 0.984248 0.496684
0.428383 0.984593 0.497778
0.461792 0.985149 0.499501
0.506824 0.985947 0.501910
0.562608 0.986977 0.505079
0.628201 0.988198 0.508975
0.702134 0.989649 0.513708
0.783513 0.991310 0.519213
0.871504 0.993093 0.525499
0.947758 0.995004 0.532527
0.988691 0.996830 0.540331
0.999919 0.998487 0.548742
1.038888 0.993800 0.550650
1.101254 0.996431 0.560221
0.438250 1.026800 0.524785
0.440598 1.026849 0.524887
0.450524 1.027051 0.525342
0.470303 1.027469 0.526310
0.500721 1.028137 0.527747
0.542002 1.029079 0.529828
0.593684 1.030319 0.532562
0.654781 1.031893 0.535976
0.724400 1.033808 0.540063
0.801242 1.036099 0.544842
0.884868 1.038753 0.550314
0.953202 1.041789 0.556518
0.989907 1.045223 0.563339
0.999931 1.049055 0.570828
1.053322 1.053322 0.578913
1.114584 1.058001 0.587548
0.494773 1.100626 0.558861
0.496945 1.100645 0.558953
0.506140 1.100856 0.559328
0.524471 1.101221 0.560169
0.552915 1.101853 0.561455
0.591685 1.102689 0.563292
0.640503 1.103819 0.565659
0.698630 1.105265 0.568649
0.765329 1.106977 0.572278
0.839461 1.109053 0.576505
0.916411 1.111496 0.581383
0.969829 1.114230 0.586839
0.995493 1.117385 0.592984
1.010007 1.120860 0.599664
1.068931 1.124736 0.606937
1.129031 1.129031 0.614718
-0.137883 -0.137883 -0.127268
-0.126374 -0.137086 -0.126374
-0.064710 -0.134324 -0.125122
0.002265 -0.132173 -0.126569
0.028999 -0.124347 -0.117419
0.128333 -0.101845 -0.088631
0.269075 0.000153 0.027798
0.418810 0.007178 0.081869
0.571268 0.022111 0.134280
0.721583 0.045060 0.187125
0.855121 0.071062 0.232683
0.939958 0.090740 0.261475
0.968596 0.101315 0.275190
0.974467 0.104202 0.278188
0.997128 0.123711 0.302770
1.029057 0.148416 0.331424
-0.135164 -0.124222 -0.124222
-0.123296 -0.123296 -0.123296
-0.056060 -0.120026 -0.120026
0.002745 -0.117385 -0.117385
0.030013 -0.108033 -0.108033
0.129416 -0.078761 -0.078761
0.269818 0.001515 0.031236
0.419435 0.010109 0.082204
0.571746 0.026106 0.133337
0.721879 0.049945 0.185594
0.855506 0.075682 0.231393
0.940097 0.095093 0.260838
0.968705 0.105549 0.275351
0.974621 0.108427 0.279217
0.997183 0.127720 0.303812
1.029221 0.152215 0.332342
-0.125217 -0.025337 -0.114967
-0.111761 -0.011406 -0.111761
0.000122 0.000111 -0.107994
0.003744 -0.074981 -0.110298
0.032375 -0.031217 -0.098441
0.132969 0.003311 -0.053956
0.273224 0.013248 0.046915
0.422485 0.029742 0.095995
0.574645 0.053315 0.146358
0.724558 0.079904 0.197969
0.857780 0.103660 0.241029
0.941536 0.120139 0.268488
0.969454 0.127137 0.281610
0.975138 0.126558 0.284334
0.997314 0.144411 0.308156
1.029901 0.167892 0.336072
-0.116672 0.004336 -0.109923
-0.101432 0.004511 -0.101432
-0.052184 0.004821 -0.098911
0.006044 0.005468 -0.093496
0.037334 0.010179 -0.073283
0.140079 0.025431 0.025573
0.280085 0.051730 0.074090
0.428812 0.080428 0.122030
0.580453 0.107736 0.171655
0.729684 0.133487 0.221002
0.862293 0.154477 0.259001
0.944030 0.166359 0.282996
0.970935 0.167555 0.293589
0.976271 0.160963 0.294406
0.997599 0.176258 0.316629
1.031295 0.198089 0.343395
-0.078205 0.036356 -0.063594
-0.044321 0.036681 -0.044321
0.002671 0.037365 -0.033086
0.015432 0.038779 0.006830
0.045709 0.041052 0.019163
0.151152 0.076313 0.062552
0.290781 0.116513 0.111213
0.438838 0.150818 0.159880
0.589524 0.180551 0.209172
0.737862 0.206227 0.251949
0.869693 0.224649 0.284211
0.948054 0.231238 0.303966
0.973184 0.225115 0.311168
0.977900 0.210685 0.309249
0.997995 0.222908 0.329468
1.033521 0.242659 0.354508
0.006863 0.131815 0.072589
0.009531 0.132068 0.075744
0.020062 0.132879 0.078490
0.047537 0.134553 0.083947
0.100531 0.137203 0.092418
0.166353 0.140915 0.103962
0.305665 0.192356 0.157203
0.452794 0.233669 0.208428
0.602390 0.267024 0.252018
0.749771 0.293763 0.287804
0.880180 0.310137 0.314708
0.953386 0.311354 0.330112
0.976240 0.297198 0.333612
0.980173 0.273652 0.328531
0.998429 0.282538 0.346293
1.036673 0.300232 0.369413
0.040778 0.262793 0.166625
0.045199 0.262982 0.166990
0.066293 0.263805 0.169724
0.110034 0.265464 0.175209
0.170317 0.268094 0.183835
0.242897 0.271837 0.195866
0.324756 0.276736 0.211031
0.470820 0.326182 0.258375
0.618974 0.364167 0.295589
0.764919 0.392855 0.326182
0.893449 0.407788 0.348618
0.959852 0.403665 0.359899
0.979907 0.380974 0.359663
0.983028 0.347592 0.351330
0.998911 0.353097 0.366481
1.040811 0.368876 0.387478
0.106398 0.407452 0.261699
0.110964 0.407599 0.260938
0.134192 0.408345 0.262970
0.177309 0.409918 0.267081
0.238045 0.412503 0.273377
0.312892 0.416049 0.281982
0.398642 0.420748 0.292758
0.493001 0.426667 0.305459
0.639725 0.470207 0.338685
0.783893 0.501415 0.365526
0.908569 0.515333 0.384294
0.967198 0.506014 0.392039
0.983965 0.474521 0.388364
0.986145 0.430664 0.376792
0.999417 0.432914 0.389397
1.046019 0.446959 0.408285
0.178891 0.558937 0.336001
0.182643 0.559122 0.334968
0.204191 0.559817 0.336528
0.245021 0.561351 0.339522
0.303853 0.563591 0.344249
0.377950 0.567045 0.350750
0.464230 0.571383 0.359033
0.560400 0.576992 0.369071
0.664311 0.583635 0.380680
0.806541 0.617879 0.404900
0.924905 0.631147 0.420812
0.974838 0.616595 0.425472
0.988208 0.576036 0.418611
0.989356 0.521368 0.404014
0.999738 0.520484 0.414253
1.052326 0.533032 0.431148
0.250687 0.711294 0.397058
0.253878 0.711433 0.396109
0.273586 0.712110 0.397331
0.311405 0.713382 0.399630
0.367083 0.715621 0.403409
0.438372 0.718601 0.408578
0.522836 0.722804 0.415268
0.617909 0.727798 0.423421
0.721712 0.734003 0.432964
0.832896 0.741342 0.443838
0.941758 0.754327 0.457524
0.982276 0.734546 0.459582
0.992191 0.684756 0.449939
0.992619 0.618696 0.432435
0.999954 0.614742 0.440603
1.059767 0.626005 0.455633
0.314656 0.848979 0.445052
0.317484 0.849096 0.444304
0.335139 0.849738 0.445237
0.369487 0.851001 0.447160
0.420735 0.852906 0.450197
0.487458 0.855585 0.454405
0.567507 0.859349 0.459892
0.658850 0.863931 0.466640
0.759402 0.869596 0.474602
0.867760 0.876138 0.483759
0.957930 0.883648 0.494034
0.988982 0.859167 0.493907
0.995652 0.799713 0.481690
0.995519 0.721961 0.461553
1.003099 0.714327 0.467866
1.068389 0.725070 0.481233
0.361489 0.941011 0.477333
0.364093 0.941127 0.476817
0.379563 0.941512 0.477590
0.409800 0.942336 0.479153
0.455503 0.943607 0.481632
0.515805 0.945416 0.485127
0.588999 0.947655 0.489650
0.673491 0.950652 0.495269
0.767203 0.954066 0.501955
0.869076 0.958088 0.509650
0.955214 0.962494 0.518397
0.994531 0.967393 0.528059
0.998238 0.916513 0.513541
0.997836 0.830474 0.491004
1.013780 0.819583 0.495653
1.078173 0.829570 0.507612
0.386336 0.976513 0.493540
0.388855 0.976560 0.493297
0.402025 0.976791 0.493917
0.427943 0.977228 0.495241
0.467383 0.977988 0.497291
0.520068 0.979067 0.500179
0.584723 0.980520 0.503930
0.660019 0.982248 0.508599
0.744356 0.984286 0.514221
0.836692 0.986595 0.520705
0.928162 0.989019 0.528085
0.982279 0.991732 0.536327
0.999641 0.994422 0.545344
0.999305 0.935588 0.520571
1.025716 0.924423 0.523728
1.089149 0.931803 0.534384
0.393105 0.983987 0.497655
0.395622 0.984046 0.497706
0.406622 0.984282 0.498227
0.428377 0.984579 0.499306
0.461790 0.985185 0.501013
0.506832 0.985983 0.503438
0.562614 0.986950 0.506543
0.628197 0.988225 0.510456
0.702165 0.989685 0.515165
0.783475 0.991338 0.520620
0.871540 0.993128 0.526877
0.947794 0.994992 0.533870
0.988696 0.996853 0.541576
0.999920 0.998506 0.549990
1.038905 0.993821 0.551854
1.101282 0.996447 0.561437
0.438290 1.026817 0.526154
0.440693 1.026865 0.526304
0.450577 1.027068 0.526711
0.470347 1.027485 0.527653
0.500787 1.028154 0.529129
0.542106 1.029099 0.531208
0.593698 1.030336 0.533897
0.654832 1.031909 0.537352
0.724400 1.033825 0.541358
0.801291 1.036115 0.546111
0.884918 1.038770 0.551580
0.953206 1.041806 0.557730
0.989921 1.045239 0.564516
0.999932 1.049071 0.571966
1.053318 1.053318 0.579989
1.114600 1.058017 0.588647
0.494836 1.100642 0.560088
0.497016 1.100661 0.560167
0.506192 1.100872 0.560542
0.524510 1.101237 0.561383
0.552959 1.101869 0.562630
0.591728 1.102705 0.564466
0.640594 1.103835 0.566859
0.698668 1.105267 0.569828
0.765275 1.106992 0.573413
0.839527 1.109069 0.577643
0.916416 1.111512 0.582478
0.969832 1.114246 0.587966
0.995501 1.117384 0.594023
1.010023 1.120875 0.600697
1.068947 1.124751 0.607992
1.129047 1.129047 0.615719
-0.136950 -0.136950 -0.071587
-0.127266 -0.136268 -0.069878
-0.061812 -0.133308 -0.061812
0.002363 -0.131537 -0.096267
0.029245 -0.123571 -0.076007
0.128703 -0.100447 0.029476
0.269397 0.000239 0.081576
0.419152 0.007494 0.131550
0.571603 0.022593 0.182152
0.721775 0.045698 0.230519
0.855337 0.071693 0.266712
0.940093 0.091306 0.289049
0.968659 0.101799 0.298002
0.974536 0.104603 0.297308
0.997141 0.124093 0.319015
1.029128 0.148781 0.345419
-0.134644 -0.125474 -0.065594
-0.122199 -0.122199 -0.061996
-0.052633 -0.118887 -0.052633
0.002842 -0.116694 -0.085384
0.030248 -0.107120 -0.058622
0.129783 -0.076749 0.036111
0.270175 0.001681 0.083952
0.419685 0.010453 0.131914
0.572076 0.026616 0.181419
0.722101 0.050608 0.229370
0.855683 0.076309 0.265711
0.940272 0.095649 0.288515
0.968782 0.106043 0.298150
0.974647 0.108830 0.298234
0.997196 0.128060 0.319929
1.029292 0.152577 0.346272
-0.124099 -0.003907 -0.003907
-0.110501 0.000023 0.003461
0.000189 0.000173 0.010367
0.006207 0.000193 0.010901
0.036870 0.000839 0.023115
0.136641 0.003324 0.046631
0.275012 0.009805 0.080935
0.423318 0.021900 0.121915
0.574983 0.041002 0.167843
0.724618 0.066449 0.215939
0.857746 0.090978 0.254882
0.941481 0.109578 0.280747
0.969546 0.119643 0.293777
0.975085 0.122889 0.297837
0.997296 0.141479 0.320164
1.029828 0.165151 0.346449
-0.115917 0.004447 -0.068787
-0.100588 0.004615 -0.056121
0.000683 0.005396 0.019865
0.006291 0.005691 0.023357
0.039299 0.012370 0.040146
0.141999 0.025784 0.067521
0.281052 0.047348 0.104469
0.429221 0.072551 0.146423
0.580495 0.097826 0.192297
0.729706 0.122682 0.236852
0.862169 0.143946 0.271639
0.944022 0.157325 0.294424
0.970964 0.160967 0.305071
0.976228 0.157678 0.307187
0.997574 0.173582 0.328109
1.031224 0.195553 0.353350
-0.076711 0.036602 0.031839
-0.040990 0.036924 0.038035
0.004610 0.038328 0.052378
0.017505 0.039500 0.056531
0.046157 0.041454 0.062940
0.152108 0.076800 0.096729
0.291253 0.113910 0.138573
0.438937 0.145518 0.182756
0.589373 0.173315 0.227224
0.737709 0.197977 0.265441
0.869541 0.216254 0.295352
0.947950 0.223864 0.314288
0.973228 0.219635 0.321689
0.977849 0.207836 0.321073
0.997975 0.220579 0.340247
1.033445 0.240410 0.364012
0.007074 0.132079 0.106395
0.009764 0.132346 0.108962
0.020060 0.133465 0.110536
0.047675 0.135074 0.115376
0.100836 0.137628 0.122941
0.166757 0.141261 0.133398
0.305915 0.191351 0.182303
0.452754 0.230474 0.228160
0.602104 0.262082 0.266482
0.749311 0.287666 0.299220
0.879792 0.303705 0.324431
0.953244 0.305457 0.339279
0.976226 0.292678 0.343048
0.980150 0.271234 0.339301
0.998422 0.280510 0.356154
1.036602 0.298271 0.378254
0.041265 0.263067 0.200786
0.045697 0.263256 0.201125
0.060965 0.263992 0.194405
0.105839 0.265669 0.199699
0.167688 0.268305 0.207863
0.241823 0.272049 0.218775
0.325046 0.276998 0.232109
0.470856 0.324781 0.273678
0.618840 0.361172 0.307468
0.764635 0.388599 0.335857
0.893022 0.402957 0.357006
0.959682 0.399097 0.367946
0.979864 0.377384 0.368072
0.982951 0.345588 0.360953
0.998907 0.351411 0.375476
1.040745 0.367168 0.395569
0.107006 0.407740 0.286295
0.111571 0.407924 0.285650
0.126032 0.408401 0.277983
0.170711 0.409953 0.281761
0.233246 0.412536 0.287674
0.309854 0.416167 0.295729
0.397309 0.420875 0.305868
0.493195 0.426840 0.317867
0.639663 0.468871 0.348677
0.783529 0.498769 0.373825
0.908286 0.511990 0.391676
0.967073 0.502569 0.399085
0.983963 0.471695 0.395827
0.986065 0.429036 0.385271
0.999403 0.431485 0.397455
1.045948 0.445549 0.415641
0.179468 0.559208 0.354399
0.183240 0.559360 0.353574
0.195334 0.559740 0.346576
0.237433 0.561240 0.349527
0.297829 0.563544 0.353988
0.373616 0.567016 0.360317
0.461479 0.571368 0.368344
0.559164 0.577109 0.378059
0.664513 0.583826 0.389249
0.806456 0.616646 0.412184
0.924769 0.629039 0.427321
0.974756 0.614220 0.431792
0.988192 0.573982 0.425250
0.989374 0.520081 0.411487
0.999737 0.519360 0.421530
1.052276 0.531778 0.437812
0.251201 0.711547 0.411717
0.254388 0.711554 0.410868
0.264816 0.711938 0.404760
0.303639 0.713253 0.407076
0.360614 0.715467 0.410714
0.433347 0.718577 0.415816
0.519158 0.722752 0.422333
0.615653 0.727812 0.430320
0.720700 0.734044 0.439694
0.833045 0.741498 0.450375
0.941695 0.753340 0.463390
0.982270 0.733071 0.465250
0.992181 0.683252 0.455840
0.992604 0.617789 0.439094
0.999954 0.613901 0.447049
1.059742 0.625005 0.461633
0.315114 0.849208 0.456990
0.317938 0.849348 0.456288
0.327324 0.849518 0.451326
0.362363 0.850802 0.453194
0.414550 0.852732 0.456178
0.482367 0.855558 0.460347
0.563522 0.859329 0.465716
0.655985 0.863885 0.472349
0.757653 0.869599 0.480210
0.866996 0.876250 0.489224
0.958016 0.883760 0.499392
0.988976 0.858492 0.499046
0.995631 0.798815 0.487018
0.995503 0.721357 0.467492
1.003078 0.713619 0.473625
1.068360 0.724404 0.486668
0.361883 0.941140 0.487150
0.364466 0.941262 0.486664
0.373240 0.941380 0.482956
0.403999 0.942208 0.484504
0.450297 0.943514 0.486943
0.511346 0.945412 0.490385
0.585349 0.947663 0.494853
0.670664 0.950606 0.500388
0.765295 0.954061 0.506971
0.867790 0.958061 0.514576
0.954884 0.962514 0.523173
0.994543 0.967431 0.532727
0.998238 0.916197 0.518389
0.997837 0.830090 0.496276
1.013776 0.819132 0.500829
1.078157 0.829016 0.512484
0.386676 0.976573 0.501676
0.389197 0.976652 0.501455
0.397698 0.976751 0.499067
0.423927 0.977146 0.500348
0.463776 0.977994 0.502356
0.516865 0.979086 0.505199
0.582049 0.980479 0.508895
0.657828 0.982228 0.513483
0.742676 0.984289 0.518996
0.835471 0.986624 0.525402
0.927571 0.989028 0.532682
0.982176 0.991748 0.540798
0.999645 0.994410 0.549721
0.999304 0.935470 0.525275
1.025730 0.924202 0.528390
1.089149 0.931511 0.538813
0.393342 0.984034 0.504402
0.395893 0.984052 0.504456
0.404409 0.984233 0.503404
0.426277 0.984590 0.504435
0.459891 0.985161 0.506123
0.505088 0.986018 0.508476
0.561095 0.986988 0.511539
0.626909 0.988223 0.515393
0.701159 0.989684 0.520014
0.782759 0.991333 0.525335
0.870999 0.993139 0.531525
0.947607 0.995007 0.538387
0.988670 0.996889 0.546000
0.999920 0.998529 0.554245
1.038939 0.993800 0.556096
1.101298 0.996342 0.565469
0.438578 1.026888 0.531985
0.440899 1.026936 0.532079
0.448920 1.027084 0.531352
0.468674 1.027502 0.532223
0.499271 1.028171 0.533723
0.540682 1.029115 0.535702
0.592504 1.030357 0.538389
0.653757 1.031933 0.541701
0.723488 1.033851 0.545692
0.800613 1.036136 0.550411
0.884361 1.038804 0.555799
0.952991 1.041844 0.561830
0.989841 1.045283 0.568521
0.999931 1.049121 0.575855
1.053388 1.053388 0.583841
1.114634 1.057974 0.592294
0.495058 1.100682 0.565190
0.497237 1.100729 0.565266
0.504605 1.100888 0.564601
0.522995 1.101253 0.565383
0.551544 1.101886 0.566641
0.590372 1.102723 0.568424
0.639361 1.103840 0.570818
0.697654 1.105288 0.573721
0.764319 1.107001 0.577270
0.838698 1.109095 0.581434
0.915975 1.111542 0.586222
0.969626 1.114280 0.591649
0.995497 1.117422 0.597642
1.009916 1.120918 0.604206
1.068920 1.124830 0.611367
1.129101 1.129101 0.619066
-0.136210 -0.136210 0.031081
-0.130412 -0.135796 0.031659
-0.100017 -0.134003 0.034107
0.002568 -0.130254 0.038903
0.029729 -0.121984 0.058640
0.129411 -0.097519 0.106376
0.270129 0.000451 0.162524
0.419768 0.008142 0.215328
0.572208 0.023601 0.258578
0.722340 0.047027 0.293839
0.855844 0.072971 0.320022
0.940331 0.092428 0.334503
0.968819 0.102767 0.336979
0.974666 0.105399 0.330805
0.997184 0.124834 0.348198
1.029272 0.149493 0.370979
-0.134810 -0.129371 0.033023
-0.121334 -0.121334 0.035945
-0.089475 -0.119381 0.038113
0.003042 -0.115279 0.042404
0.030730 -0.105224 0.064194
0.130513 -0.072418 0.110284
0.270925 0.002033 0.164417
0.420324 0.011171 0.215702
0.572675 0.027675 0.258186
0.722663 0.051972 0.293161
0.856217 0.077566 0.319343
0.940572 0.096771 0.334123
0.968945 0.106993 0.337090
0.974782 0.109633 0.331587
0.997235 0.128847 0.349011
1.029428 0.153233 0.371708
-0.128572 -0.091570 0.040926
-0.114588 -0.082072 0.043081
0.000150 0.000139 0.069375
0.005922 0.000239 0.059478
0.036892 0.000979 0.082292
0.137109 0.003646 0.119083
0.275584 0.010403 0.164007
0.423951 0.022797 0.209563
0.575505 0.042213 0.250162
0.725051 0.067748 0.284908
0.858246 0.092186 0.311974
0.941755 0.110660 0.328433
0.969692 0.120557 0.333745
0.975177 0.123663 0.331300
0.997336 0.142176 0.349209
1.029964 0.165810 0.371894
-0.114375 0.004676 0.055488
-0.098839 0.004830 0.056414
0.000768 0.005487 0.060204
0.006417 0.005805 0.061956
0.056832 0.004635 0.055242
0.166726 0.006302 0.064608
0.299935 0.013040 0.093597
0.443553 0.025693 0.132256
0.591761 0.045418 0.176830
0.738953 0.070768 0.223305
0.870450 0.094951 0.260625
0.948879 0.113325 0.285670
0.974248 0.123316 0.298375
0.975484 0.133803 0.311157
0.997428 0.151898 0.331992
1.030294 0.175006 0.356777
-0.073555 0.037083 0.090130
-0.032669 0.037386 0.093093
0.004862 0.038720 0.101041
0.006907 0.042246 0.064316
0.047134 0.042329 0.070773
0.158196 0.064226 0.095913
0.298349 0.090029 0.131551
0.445876 0.114327 0.172089
0.595954 0.137941 0.215826
0.743747 0.160670 0.255216
0.875463 0.179225 0.286524
0.951564 0.189205 0.306928
0.975869 0.188927 0.315857
0.977132 0.187327 0.324986
0.997813 0.201530 0.343943
1.032555 0.222108 0.367319
0.007510 0.132664 0.165341
0.010243 0.132914 0.167208
0.020656 0.134014 0.168871
0.022433 0.137118 0.116996
0.084639 0.138999 0.125540
0.167662 0.142007 0.137431
0.308032 0.181273 0.180069
0.455568 0.212604 0.222274
0.605334 0.238964 0.259437
0.752777 0.261366 0.292050
0.883651 0.276179 0.317690
0.955709 0.278715 0.333389
0.978119 0.268277 0.338220
0.979565 0.254007 0.343035
0.998280 0.264208 0.359751
1.035732 0.282343 0.381413
0.042246 0.263643 0.256069
0.046701 0.263827 0.256333
0.062076 0.264570 0.252431
0.063967 0.266822 0.199204
0.141950 0.269245 0.208202
0.230327 0.272781 0.220137
0.325708 0.277581 0.234661
0.471713 0.316883 0.272108
0.620106 0.347369 0.303777
0.766259 0.370788 0.331245
0.895100 0.383041 0.352272
0.961217 0.378799 0.363492
0.981134 0.358228 0.364242
0.982372 0.331311 0.364511
0.998825 0.337660 0.378936
1.039931 0.353534 0.398675
0.108236 0.408276 0.327594
