LUTs/19.cube
LUT_3D_SIZE 6
-0.138154 -0.138154 -0.138154
0.002241 -0.132317 -0.132317
0.269006 0.000133 0.009048
0.721503 0.044910 0.175815
0.968548 0.101208 0.269419
1.029040 0.148354 0.328023
-0.116845 0.004309 -0.116845
0.005983 0.005413 -0.109350
0.280001 0.051741 0.063051
0.729843 0.135075 0.215132
0.970930 0.168238 0.289597
1.031278 0.198039 0.340202
0.040672 0.262732 0.158275
0.110043 0.265408 0.167293
0.324682 0.276690 0.203939
0.765021 0.393455 0.322921
0.979881 0.381377 0.356834
1.040795 0.368816 0.384966
0.250591 0.711231 0.393496
0.312596 0.713403 0.397358
0.523377 0.722790 0.413073
0.832903 0.741332 0.441849
0.992193 0.684931 0.448044
1.059750 0.625957 0.453767
0.386275 0.976464 0.491597
0.428355 0.977211 0.493690
0.585045 0.980500 0.502470
0.836819 0.986569 0.519329
0.999642 0.994433 0.544091
1.089133 0.931810 0.533061
0.494773 1.100626 0.558861
0.524471 1.101221 0.560169
0.640503 1.103819 0.565659
0.839461 1.109053 0.576505
0.995493 1.117385 0.592984
1.129031 1.129031 0.614718
-0.136210 -0.136210 0.031081
0.002568 -0.130254 0.038903
0.270129 0.000451 0.162524
0.722340 0.047027 0.293839
0.968819 0.102767 0.336979
1.029272 0.149493 0.370979
-0.114375 0.004676 0.055488
0.006417 0.005805 0.061956
0.299935 0.013040 0.093597
0.738953 0.070768 0.223305
0.974248 0.123316 0.298375
1.030294 0.175006 0.356777
0.042246 0.263643 0.256069
0.063967 0.266822 0.199204
0.325708 0.277581 0.234661
0.766259 0.370788 0.331245
0.981134 0.358228 0.364242
1.039931 0.353534 0.398675
0.252194 0.712026 0.438677
0.266669 0.713591 0.406223
0.502129 0.722921 0.422065
0.833374 0.741878 0.451133
0.992354 0.675689 0.454582
1.059110 0.617095 0.464444
0.387354 0.976736 0.517405
0.399198 0.977407 0.500026
0.565578 0.980679 0.508748
0.827966 0.986705 0.525556
0.999658 0.994542 0.550259
1.088812 0.928606 0.541442
0.495550 1.100831 0.575225
0.510451 1.101042 0.567969
0.629482 1.103656 0.573397
0.832354 1.108951 0.584059
0.995065 1.117363 0.600199
1.129174 1.129174 0.621683
-0.114945 -0.114945 0.398916
0.030289 -0.098508 0.401569
0.274870 0.002652 0.412582
0.725983 0.056235 0.500037
0.969868 0.109377 0.496740
1.030235 0.154235 0.493045
0.000060 0.036577 0.407751
0.006037 0.005462 0.457130
0.297482 0.018070 0.429651
0.741024 0.079808 0.490609
0.974937 0.129660 0.485173
1.031274 0.179514 0.486116
0.049168 0.267484 0.441896
0.072712 0.270401 0.444305
0.329983 0.281340 0.453225
0.899035 0.255138 0.431546
0.982826 0.344383 0.501412
1.042390 0.379024 0.525948
0.259136 0.715171 0.569107
0.273785 0.716714 0.557648
0.338898 0.749608 0.459480
0.841587 0.749562 0.482798
0.994078 0.669649 0.548388
1.061234 0.632592 0.565896
0.391988 0.977837 0.605094
0.403815 0.978496 0.595064
0.516751 0.985766 0.571614
0.800159 0.991230 0.571157
0.999796 0.996467 0.566881
1.090446 0.934917 0.619387
0.498792 1.101710 0.635753
0.513707 1.101928 0.630588
0.648601 1.105070 0.643411
0.845288 1.110233 0.651503
0.996011 1.118513 0.664162
1.130120 1.130120 0.681200
0.002188 0.001987 0.668483
0.082489 0.004780 0.669785
0.377429 0.022657 0.675185
0.733307 0.074273 0.685953
0.971862 0.122385 0.661778
1.032200 0.163752 0.635538
0.015182 0.085940 0.672769
0.020510 0.018473 0.694382
0.366948 0.042824 0.687496
0.745711 0.097423 0.691969
0.976353 0.142255 0.660928
1.033252 0.188578 0.632724
0.112005 0.364479 0.690474
0.123710 0.343345 0.693277
0.321855 0.274208 0.762527
0.893199 0.246877 0.760591
0.984310 0.351982 0.672147
1.044319 0.385345 0.654797
0.273006 0.721514 0.723380
0.287923 0.723203 0.724248
0.350309 0.748570 0.736648
0.843478 0.751331 0.737978
0.997136 0.767947 0.745931
1.077728 0.790192 0.756503
0.401259 0.980100 0.726796
0.413146 0.980767 0.723137
0.518134 0.987688 0.716308
0.883069 0.994841 0.755873
0.999915 0.998460 0.724437
1.101081 0.984255 0.780631
0.505291 1.103483 0.729508
0.520159 1.103724 0.726688
0.653975 1.106817 0.734771
0.954249 1.117040 0.796551
0.999955 1.123662 0.803077
1.133086 1.133086 0.812213
0.014482 0.013061 0.795552
0.090295 0.016789 0.796270
0.345165 0.035532 0.799371
0.664296 0.080158 0.805524
0.975025 0.142269 0.815128
1.035338 0.178456 0.774477
0.029606 0.089851 0.798017
0.046544 0.041800 0.801717
0.328240 0.063371 0.804795
0.663861 0.103403 0.810948
0.978558 0.161662 0.819096
1.036424 0.202668 0.773917
0.114720 0.331070 0.808155
0.128459 0.309047 0.811991
0.355488 0.303782 0.813895
0.685970 0.327893 0.820031
0.986472 0.363781 0.829603
1.047375 0.395297 0.786450
0.253029 0.649734 0.827872
0.264485 0.641757 0.829113
0.440895 0.643241 0.834060
0.849678 0.757210 0.848434
0.997734 0.773151 0.855335
1.080132 0.795499 0.840878
0.415841 0.983518 0.857321
0.427770 0.984107 0.857800
0.516959 0.990604 0.864001
0.876980 0.996304 0.870891
0.999891 0.998124 0.873760
1.109096 0.999979 0.879041
0.515627 1.106314 0.838428
0.530362 1.106613 0.837253
0.662500 1.109651 0.841779
0.957107 1.119269 0.872469
1.021688 1.127927 0.904902
1.135805 1.135805 0.915510
0.031374 0.028217 0.888289
0.097462 0.031978 0.889106
0.311232 0.049579 0.892612
0.590695 0.085720 0.899664
0.904668 0.136388 0.910771
1.039757 0.198636 0.926207
0.046126 0.093408 0.891063
0.072513 0.064131 0.890142
0.298303 0.081810 0.893648
0.584595 0.115020 0.900766
0.903238 0.162540 0.911938
1.040877 0.222013 0.927543
0.117220 0.296262 0.902706
0.141432 0.279963 0.901920
0.369597 0.316230 0.907524
0.629908 0.336412 0.914338
0.927071 0.367421 0.925185
1.051710 0.409184 0.940204
0.232523 0.573830 0.925749
0.251939 0.565031 0.925214
0.443205 0.586842 0.930277
0.857741 0.764809 0.957390
0.989939 0.780749 0.965616
1.083511 0.803146 0.977147
0.372930 0.897636 0.960967
0.389330 0.894225 0.960822
0.546925 0.905472 0.965162
0.910728 0.973016 0.984804
0.999955 0.999163 1.000501
1.111827 1.003127 1.009759
0.530006 1.110366 1.008093
0.544644 1.110683 1.008446
0.674832 1.113663 1.011829
0.961011 1.122513 1.021946
1.024758 1.130630 1.031200
1.138445 1.138445 1.040080
