LUTs/2.cube
LUT_3D_SIZE 6
-0.025922 -0.025850 -0.009482
0.220078 0.042313 0.049473
0.560935 0.063041 0.070115
0.837320 0.100801 0.104596
0.972635 0.117712 0.119954
1.002734 0.199743 0.200447
0.026475 0.214966 0.037675
0.209622 0.211017 0.035101
0.555962 0.279593 0.063288
0.833957 0.284004 0.099971
0.970406 0.256130 0.117991
1.002737 0.263811 0.200757
0.048635 0.554312 0.057830
0.274890 0.554014 0.057554
0.547592 0.550704 0.054485
0.826216 0.553503 0.089687
0.963892 0.486595 0.109994
1.002748 0.425716 0.202152
0.081540 0.827475 0.086330
0.276157 0.827337 0.086169
0.547509 0.826672 0.085564
0.824417 0.829044 0.083374
0.957675 0.721217 0.101946
1.002966 0.611924 0.204323
0.097488 0.960886 0.100244
0.246162 0.960805 0.100152
0.478622 0.960464 0.099770
0.714804 0.959775 0.099126
0.960998 0.966304 0.097770
1.003477 0.804824 0.204578
0.212481 1.054804 0.212466
0.268379 1.054792 0.211900
0.404589 1.054768 0.210758
0.576539 1.054702 0.209699
0.779342 1.054672 0.209205
1.006205 1.058091 0.199128
-0.063348 -0.404866 0.250994
0.213266 -0.405354 0.244172
0.572613 -0.403581 0.315852
0.856357 -0.399067 0.319069
0.987907 -0.396010 0.283676
1.004338 -0.370072 0.280832
0.035161 0.214033 0.237767
0.208010 0.213125 0.250126
0.629491 0.105215 0.179118
0.887304 0.100910 0.166186
1.000029 0.181519 0.213218
1.002458 0.289266 0.303694
0.057514 0.554142 0.303667
-0.084717 0.563633 0.126429
0.548993 0.553520 0.089042
0.846890 0.534341 0.118475
0.994992 0.462250 0.120334
1.002455 0.437969 0.304148
0.086066 0.827360 0.304178
-0.041816 0.833203 0.131950
0.516580 0.831355 0.104843
0.825549 0.830544 0.100538
0.968745 0.717085 0.119816
1.002451 0.618005 0.307342
0.100007 0.960844 0.269816
0.080450 0.965683 0.146245
0.442840 0.965178 0.115917
0.704120 0.962937 0.114498
0.961839 0.967442 0.111937
1.002872 0.807240 0.312931
0.212153 1.054762 0.266368
0.298101 1.054446 0.301748
0.422798 1.054318 0.297422
0.585682 1.054280 0.298537
0.782638 1.054425 0.305762
1.006136 1.057996 0.300351
0.067104 -0.400664 0.642757
0.287582 -0.401304 0.636855
0.562879 -0.403133 0.617630
0.850834 -0.399408 0.615035
0.984906 -0.396242 0.532971
1.004188 -0.369955 0.449130
0.077975 0.284473 0.612188
0.181764 0.188022 0.734473
0.604493 0.110271 0.662468
0.873195 0.124417 0.607474
0.998821 0.165599 0.522165
1.002461 0.283073 0.464611
0.061852 0.552972 0.599543
0.072314 0.559160 0.609071
0.546520 0.551719 0.620505
0.921515 0.520821 0.598476
0.997479 0.563674 0.615126
1.002396 0.594596 0.634352
0.085799 0.827095 0.596594
0.098232 0.831410 0.573922
0.354311 0.857830 0.477472
0.825120 0.832841 0.403255
0.996984 0.745183 0.557821
1.002383 0.704104 0.630901
0.099841 0.960664 0.521048
0.110984 0.964533 0.495983
0.282281 0.995249 0.422047
0.652029 0.987922 0.334554
0.965990 0.972733 0.304976
1.002397 0.844933 0.635171
0.210182 1.054577 0.405907
0.288601 1.054263 0.422128
0.593804 1.054015 0.622524
0.686552 1.053943 0.625020
0.826488 1.053866 0.638670
1.005403 1.056846 0.643242
0.133449 -0.390856 0.953928
0.300411 -0.391675 0.950649
0.562426 -0.394964 0.934355
0.840450 -0.397832 0.915622
0.976802 -0.396533 0.784336
1.003678 -0.369706 0.636275
0.129532 0.296483 0.918430
0.216188 0.218245 0.996035
0.576244 0.162679 0.982279
0.866678 0.126744 0.942725
0.997335 0.142187 0.803153
1.002465 0.283335 0.661922
0.105396 0.558009 0.901584
0.117913 0.547947 0.932915
0.567176 0.570482 0.981708
0.891326 0.525085 0.980294
0.997486 0.552049 0.834057
1.002397 0.586776 0.750601
0.093376 0.829943 0.895832
0.105266 0.833378 0.901471
0.336602 0.852142 0.945872
0.823277 0.830076 0.926569
0.992974 0.825156 0.913042
1.002318 0.845344 0.903635
0.099522 0.960374 0.777170
0.110508 0.963715 0.771551
0.256409 0.990048 0.773008
0.753947 0.978986 0.873621
0.955472 0.963032 0.848853
1.002356 0.913898 0.901303
0.207088 1.054275 0.606855
0.289745 1.053945 0.613633
0.591436 1.053755 0.720752
0.844862 1.053601 0.895129
0.904467 1.053594 0.905258
1.004254 1.054991 0.916863
0.196645 -0.371125 1.054273
0.287708 -0.370992 1.053935
0.481874 -0.370936 1.049757
0.706291 -0.370820 1.041311
0.957167 -0.368631 1.039611
1.003182 -0.369486 0.852025
0.196836 0.288971 1.032516
0.282860 0.283639 1.032400
0.490465 0.280665 1.032418
0.719182 0.280661 1.032418
0.956613 0.286638 1.036174
1.002472 0.283785 0.867713
0.196828 0.496068 1.032516
0.279777 0.492812 1.032419
0.591057 0.593772 1.031596
0.756058 0.585849 1.031648
0.957896 0.587029 1.035182
1.002396 0.586963 0.905186
0.196813 0.724087 1.032514
0.279774 0.723000 1.032417
0.582967 0.759716 1.031649
0.840470 0.844587 1.030539
0.958407 0.841331 1.032777
1.002804 0.841754 0.978017
0.204169 0.963911 1.038375
0.293237 0.963600 1.037879
0.592958 0.962980 1.035253
0.837142 0.963259 1.032797
0.957799 0.962499 1.030362
1.003456 0.963266 1.031522
0.204034 1.053984 0.842593
0.292769 1.053652 0.844577
0.599541 1.053273 0.887372
0.853918 1.053143 0.968989
0.963751 1.053454 1.028070
1.003524 1.053701 1.037606
0.196816 -0.371020 1.093369
0.258184 -0.370992 1.093299
0.401143 -0.370936 1.092324
0.579789 -0.370819 1.090230
0.786547 -0.370769 1.088464
1.007816 -0.370748 1.088103
0.196836 0.262834 1.085766
0.286420 0.287243 1.085471
0.433662 0.280665 1.085520
0.616291 0.280662 1.085520
0.807286 0.280659 1.085519
1.009084 0.280651 1.085519
0.196831 0.427231 1.085765
0.279779 0.435578 1.085523
0.594331 0.597043 1.083421
0.698810 0.585849 1.083557
0.842577 0.585848 1.083557
1.007912 0.585847 1.083556
0.196819 0.615417 1.085764
0.279772 0.619394 1.085522
0.582968 0.702141 1.083562
0.843166 0.847228 1.080728
0.909752 0.841331 1.080794
1.005631 0.841331 1.080794
0.196803 0.809963 1.085763
0.279768 0.811579 1.085521
0.582965 0.846847 1.083561
0.837143 0.914231 1.080834
0.959271 0.964031 1.079494
1.003835 0.962519 1.079461
0.196782 1.014648 1.085761
0.279751 1.014530 1.085519
0.582961 1.013232 1.083559
0.837141 1.010754 1.080833
0.957777 1.008863 1.079531
1.003441 1.008436 1.079114
