LUTs/2.cube
LUT_3D_SIZE 16
-0.025922 -0.025850 -0.009482
0.049168 -0.019650 0.018339
0.126139 0.034241 0.041498
0.220078 0.042313 0.049473
0.325705 0.023252 0.038745
0.443328 0.046187 0.055440
0.560935 0.063041 0.070115
0.668680 0.077894 0.083550
0.761507 0.090529 0.095138
0.837320 0.100801 0.104596
0.895943 0.108752 0.111907
0.939668 0.114732 0.117360
0.972635 0.117712 0.119954
0.993943 0.131897 0.133559
0.997156 0.166038 0.167081
1.002734 0.199743 0.200447
-0.022421 0.048156 0.014035
0.044972 0.045919 -0.006692
0.125021 0.062227 0.037285
0.219048 0.074471 0.047290
0.325060 0.075583 0.038002
0.442819 0.087825 0.054727
0.560525 0.099002 0.069547
0.668331 0.108718 0.083093
0.761270 0.116763 0.094775
0.837112 0.123001 0.104293
0.895784 0.127485 0.111657
0.939498 0.130533 0.117154
0.972517 0.131427 0.119884
0.993973 0.141775 0.132924
0.997156 0.172380 0.166913
1.002734 0.203954 0.200478
0.020952 0.123494 0.032298
0.058020 0.123173 0.031456
0.119372 0.120511 0.027514
0.215101 0.145081 0.040690
0.322717 0.160964 0.035038
0.440651 0.176145 0.051767
0.558656 0.187660 0.066970
0.666750 0.194534 0.080900
0.759890 0.197502 0.092920
0.836000 0.197315 0.102742
0.894828 0.194742 0.110356
0.938720 0.190760 0.116063
0.971793 0.185708 0.119258
0.993975 0.185047 0.129654
0.997150 0.203077 0.165952
1.002735 0.225903 0.200578
0.026475 0.214966 0.037675
0.067986 0.214892 0.037568
0.142117 0.214221 0.036711
0.209622 0.211017 0.035101
0.320095 0.242195 0.032430
0.437991 0.264568 0.048207
0.555962 0.279593 0.063288
0.664137 0.287003 0.077408
0.757605 0.288043 0.089762
0.833957 0.284004 0.099971
0.893042 0.276329 0.107956
0.937253 0.266636 0.114006
0.970406 0.256130 0.117991
0.994114 0.245895 0.122151
0.997164 0.251695 0.163837
1.002737 0.263811 0.200757
-0.008824 0.321922 0.032236
0.072058 0.321905 0.032232
0.158224 0.321783 0.032152
0.239978 0.321108 0.031980
0.315831 0.317725 0.030059
0.435335 0.351114 0.045276
0.553359 0.371426 0.059877
0.661347 0.380180 0.073690
0.754846 0.380202 0.086058
0.831367 0.373372 0.096482
0.890713 0.361545 0.104783
0.935143 0.346999 0.111173
0.968502 0.331558 0.115931
0.993375 0.314850 0.113729
0.997215 0.309766 0.159925
1.002739 0.312335 0.201064
0.033160 0.438054 0.045704
0.082006 0.438033 0.045682
0.172102 0.437931 0.045574
0.261116 0.437734 0.045372
0.348299 0.436901 0.044790
0.431163 0.433672 0.042381
0.550833 0.462108 0.057132
0.658912 0.473356 0.070541
0.752154 0.472714 0.082555
0.828673 0.463386 0.092895
0.888134 0.447838 0.101316
0.932717 0.428845 0.107938
0.966254 0.408758 0.113123
0.991235 0.387836 0.111907
0.997382 0.372673 0.153391
1.002743 0.367176 0.201518
0.048635 0.554312 0.057830
0.090905 0.554291 0.057812
0.182287 0.554202 0.057725
0.274890 0.554014 0.057554
0.367338 0.553810 0.057311
0.458663 0.552966 0.056703
0.547592 0.550704 0.054485
0.656678 0.565960 0.067980
0.749870 0.565181 0.079687
0.826216 0.553503 0.089687
0.885606 0.534430 0.098001
0.930251 0.511146 0.104662
0.963892 0.486595 0.109994
0.988779 0.461466 0.109988
0.997589 0.438188 0.143132
1.002748 0.425716 0.202152
0.061705 0.660728 0.068936
0.098258 0.660744 0.068920
0.187818 0.660633 0.068849
0.281150 0.660513 0.068706
0.374910 0.660293 0.068493
0.468737 0.660053 0.068226
0.561951 0.659419 0.067624
0.654938 0.658617 0.065665
0.748032 0.657777 0.077328
0.824114 0.643759 0.087109
0.883317 0.621113 0.095110
0.927945 0.593707 0.101648
0.961634 0.564768 0.106979
0.986372 0.535426 0.108728
0.997710 0.505320 0.126736
1.002756 0.486587 0.203049
0.072670 0.752507 0.078511
0.104057 0.752495 0.078501
0.189437 0.752430 0.078440
0.281145 0.752371 0.078322
0.373905 0.752167 0.078142
0.467005 0.751928 0.077904
0.560119 0.751627 0.077626
0.653278 0.751348 0.077060
0.747996 0.752204 0.075380
0.822769 0.734474 0.084957
0.881394 0.707749 0.092786
0.925904 0.676271 0.099064
0.959489 0.642943 0.104256
0.984084 0.609370 0.107704
0.997901 0.573326 0.094972
1.002814 0.548766 0.203902
0.081540 0.827475 0.086330
0.108313 0.827465 0.086316
0.187903 0.827406 0.086266
0.276157 0.827337 0.086169
0.366181 0.827165 0.086015
0.456760 0.826962 0.085814
0.547509 0.826672 0.085564
0.638331 0.826389 0.085287
0.729563 0.826448 0.084768
0.824417 0.829044 0.083374
0.880494 0.795593 0.090833
0.924112 0.758872 0.096969
0.957675 0.721217 0.101946
0.982107 0.683393 0.105985
0.995817 0.642941 0.090776
1.002966 0.611924 0.204323
0.088411 0.885390 0.092369
0.111138 0.885381 0.092362
0.184091 0.885354 0.092316
0.267647 0.885249 0.092236
0.353628 0.885141 0.092114
0.440472 0.884963 0.091928
0.527591 0.884741 0.091715
0.614913 0.884473 0.091465
0.702189 0.884173 0.091188
0.790483 0.884586 0.090724
0.883704 0.888599 0.089594
0.923633 0.843008 0.095212
0.956044 0.799632 0.100061
0.980377 0.757370 0.103948
0.993861 0.712587 0.087695
1.003156 0.675824 0.204434
0.093579 0.928586 0.096876
0.112866 0.928578 0.096871
0.178978 0.928533 0.096832
0.257185 0.928477 0.096770
0.338480 0.928421 0.096656
0.420877 0.928256 0.096505
0.503710 0.928070 0.096322
0.586784 0.927816 0.096107
0.669894 0.927610 0.095858
0.753036 0.927283 0.095597
0.837653 0.927983 0.095178
0.927962 0.933091 0.094269
0.955834 0.879696 0.098472
0.978916 0.831448 0.102252
0.992114 0.782207 0.084914
1.003327 0.740116 0.204506
0.097488 0.960886 0.100244
0.113905 0.960879 0.100239
0.173449 0.960884 0.100209
0.246162 0.960805 0.100152
0.322534 0.960722 0.100056
0.400297 0.960590 0.099934
0.478622 0.960464 0.099770
0.557287 0.960231 0.099575
0.636002 0.960048 0.099360
0.714804 0.959775 0.099126
0.793719 0.959478 0.098873
0.874155 0.960390 0.098509
0.960998 0.966304 0.097770
0.978922 0.907345 0.100807
0.990562 0.851865 0.082580
1.003477 0.804824 0.204578
0.100350 0.984160 0.102670
0.114384 0.984154 0.102664
0.167802 0.984121 0.102636
0.235074 0.984049 0.102591
0.306537 0.983991 0.102510
0.379635 0.983888 0.102407
0.453431 0.983743 0.102262
0.527643 0.983603 0.102099
0.601939 0.983419 0.101907
0.676387 0.983202 0.101693
0.750936 0.982945 0.101468
0.825450 0.982714 0.101230
0.901769 0.983739 0.100908
0.984971 0.990400 0.100337
0.990754 0.923420 0.080568
1.003604 0.869710 0.204607
0.080602 0.995939 0.083317
0.096438 0.995933 0.083311
0.151549 0.995958 0.083279
0.217195 0.995891 0.083215
0.285593 0.995843 0.083114
0.354993 0.995697 0.082977
0.424807 0.995563 0.082793
0.494865 0.995386 0.082579
0.564953 0.995220 0.082325
0.635106 0.995017 0.082046
0.705306 0.994828 0.081723
0.775435 0.994556 0.081396
0.845609 0.994308 0.081056
0.917661 0.995457 0.080641
0.996596 1.002112 0.055464
1.005057 0.936828 0.202849
0.212481 1.054804 0.212466
0.216257 1.054802 0.212406
0.235567 1.054795 0.212176
0.268379 1.054792 0.211900
0.309513 1.054795 0.211609
0.355312 1.054787 0.211216
0.404589 1.054768 0.210758
0.457711 1.054744 0.210326
0.514985 1.054721 0.209967
0.576539 1.054702 0.209699
0.641743 1.054690 0.209511
0.709562 1.054686 0.209418
0.779342 1.054672 0.209205
0.850601 1.054594 0.208317
0.924786 1.055702 0.204677
1.006205 1.058091 0.199128
-0.079359 -0.406223 -0.041002
-0.068788 -0.406284 -0.041907
0.106580 -0.405624 0.034768
0.214935 -0.405160 0.064908
0.328028 -0.405591 0.073646
0.451305 -0.404686 0.092042
0.573455 -0.403503 0.106367
0.684685 -0.402052 0.117201
0.779901 -0.400458 0.125067
0.856888 -0.398953 0.130341
0.915392 -0.397607 0.133425
0.957793 -0.396596 0.134912
0.988208 -0.395977 0.134348
1.005582 -0.392841 0.144613
1.003423 -0.383160 0.175503
1.004339 -0.370093 0.207493
-0.018802 0.048089 0.067338
0.042992 0.047058 0.071336
0.145593 0.039521 0.068088
0.235402 -0.020436 0.058366
0.335857 -0.048654 0.045124
0.450009 -0.037141 0.057532
0.565765 0.029583 0.070802
0.672431 0.057304 0.083893
0.764617 0.075479 0.095579
0.840028 0.089283 0.105323
0.898376 0.099788 0.112984
0.941866 0.107703 0.118792
0.974872 0.111589 0.121281
0.994692 0.134154 0.141029
0.997703 0.168875 0.173349
1.002693 0.203698 0.206849
0.029274 0.123091 0.076828
-0.041678 0.127225 0.046273
0.118769 0.122046 0.034553
0.221218 0.140097 0.045358
0.329186 0.150984 0.039185
0.446114 0.163414 0.054946
0.563168 0.173453 0.069588
0.670528 0.179868 0.083191
0.763237 0.183050 0.095000
0.838963 0.183490 0.104686
0.897558 0.181809 0.112209
0.941249 0.178861 0.117852
0.974356 0.174334 0.120192
0.994771 0.180215 0.138453
0.997732 0.200418 0.172573
1.002677 0.225906 0.207228
0.037050 0.214743 0.087922
-0.043118 0.216774 0.044190
0.132620 0.215769 0.039564
0.209756 0.211746 0.038858
0.322312 0.239766 0.035959
0.440787 0.260003 0.051110
0.558747 0.273612 0.065828
0.666863 0.280228 0.079725
0.760121 0.280918 0.091933
0.836354 0.276858 0.102039
0.895350 0.269384 0.109960
0.939420 0.260010 0.115947
0.972660 0.249634 0.119157
0.994755 0.242894 0.131881
0.997714 0.249840 0.170631
1.002679 0.263804 0.207396
0.031830 0.321799 0.095188
-0.053335 0.322948 0.035431
0.144969 0.322788 0.033742
0.235910 0.321775 0.034860
0.316032 0.318141 0.032878
0.436440 0.349651 0.047609
0.554837 0.368696 0.062008
0.663040 0.376676 0.075711
0.756653 0.376301 0.088020
0.833221 0.369236 0.098407
0.892542 0.357418 0.106678
0.936997 0.342963 0.113043
0.970401 0.327592 0.117362
0.994812 0.311758 0.119009
0.997682 0.308523 0.167094
1.002687 0.312323 0.207693
0.045459 0.437977 0.105588
-0.049257 0.438713 0.046002
0.157105 0.438624 0.046874
0.254966 0.438276 0.047531
0.346006 0.437277 0.046901
0.431341 0.433920 0.044459
0.551493 0.461109 0.059035
0.659849 0.471599 0.072380
0.753367 0.470509 0.084374
0.829975 0.460927 0.094710
0.889542 0.445280 0.103121
0.934241 0.426284 0.109739
0.967808 0.406237 0.114808
0.992947 0.385242 0.112501
0.997722 0.371802 0.161099
1.002696 0.367159 0.208132
0.057624 0.554258 0.114182
-0.038389 0.554763 0.057294
0.166413 0.554726 0.058946
0.267589 0.554487 0.059415
0.363727 0.554133 0.059155
0.457224 0.553199 0.058529
0.547720 0.550876 0.056313
0.657124 0.565282 0.069747
0.750575 0.563983 0.081435
0.827069 0.552057 0.091448
0.886596 0.532824 0.099752
0.931386 0.509507 0.106419
0.965148 0.484951 0.111751
0.990269 0.459754 0.110719
0.997849 0.437561 0.151572
1.002708 0.425701 0.208743
0.068742 0.660707 0.120504
0.022780 0.661081 0.068465
0.171758 0.661062 0.070098
0.273276 0.660908 0.070460
0.370540 0.660607 0.070249
0.466400 0.660267 0.069981
0.560977 0.659592 0.069380
0.655029 0.658715 0.067428
0.748382 0.657323 0.079072
0.824573 0.642958 0.088837
0.883993 0.620159 0.096852
0.928760 0.592667 0.103385
0.962567 0.563662 0.108713
0.987538 0.534294 0.109390
0.997963 0.504863 0.136522
1.002722 0.486574 0.209609
0.078322 0.752462 0.124728
0.049942 0.752815 0.078482
0.173685 0.752792 0.079753
0.273088 0.752662 0.080061
0.369181 0.752492 0.079881
0.464182 0.752165 0.079651
0.558535 0.751836 0.079386
0.652607 0.751496 0.078827
0.748075 0.752319 0.077174
0.822982 0.734189 0.086726
0.881802 0.707241 0.094553
0.926470 0.675586 0.100815
0.960194 0.642268 0.106008
0.984999 0.608623 0.108602
0.998054 0.572969 0.109394
1.002771 0.548756 0.210556
0.086134 0.827434 0.127083
0.065262 0.827714 0.086864
0.172847 0.827700 0.087661
0.268194 0.827629 0.087934
0.361323 0.827428 0.087785
0.453679 0.827199 0.087591
0.545580 0.826899 0.087355
0.637221 0.826560 0.087090
0.729135 0.826567 0.086587
0.824492 0.829081 0.085225
0.880716 0.795388 0.092653
0.924461 0.758494 0.098769
0.958080 0.720852 0.103721
0.982755 0.682875 0.107457
0.996631 0.642389 0.090302
1.002904 0.611927 0.211173
0.092171 0.885375 0.127909
0.076159 0.885617 0.093477
0.169937 0.885610 0.093779
0.259947 0.885525 0.094036
0.348824 0.885387 0.093913
0.437293 0.885181 0.093745
0.525493 0.884938 0.093535
0.613542 0.884618 0.093304
0.701396 0.884294 0.093050
0.790131 0.884659 0.092610
0.883772 0.888688 0.091513
0.923802 0.842875 0.097080
0.956326 0.799398 0.101898
0.980830 0.757117 0.105754
0.994484 0.712280 0.087935
1.003095 0.675825 0.211395
0.096674 0.928548 0.127679
0.084179 0.928828 0.098535
0.165837 0.928829 0.098351
0.249856 0.928718 0.098601
0.333793 0.928592 0.098497
0.417706 0.928459 0.098353
0.501538 0.928279 0.098176
0.585305 0.928025 0.097971
0.668885 0.927699 0.097741
0.752486 0.927409 0.097497
0.837416 0.928064 0.097112
0.928026 0.933138 0.096236
0.955967 0.879638 0.100381
0.979205 0.831306 0.104118
0.992588 0.782026 0.085183
1.003283 0.740185 0.211473
0.100042 0.960893 0.126895
0.090217 0.961098 0.102376
0.161332 0.961106 0.101768
0.239240 0.961054 0.102016
0.318049 0.960959 0.101932
0.397233 0.960818 0.101809
0.476448 0.960657 0.101655
0.555759 0.960452 0.101478
0.634916 0.960186 0.101271
0.714097 0.959925 0.101055
0.793287 0.959587 0.100823
0.874032 0.960460 0.100488
0.961016 0.966337 0.099780
0.979078 0.907292 0.102750
0.990926 0.851771 0.082892
1.003450 0.804812 0.211531
0.102466 0.984124 0.125728
0.094749 0.984413 0.105218
0.156681 0.984375 0.104235
0.228581 0.984343 0.104477
0.302283 0.984274 0.104407
0.376677 0.984107 0.104303
0.451284 0.983940 0.104168
0.526105 0.983779 0.104021
0.600816 0.983570 0.103835
0.675602 0.983320 0.103636
0.750403 0.983080 0.103430
0.825133 0.982811 0.103210
0.901636 0.983800 0.102921
0.984979 0.990478 0.102385
0.990934 0.923405 0.080956
1.003589 0.869694 0.211560
0.082570 0.995911 0.108276
0.072692 0.996164 0.085830
0.139308 0.996191 0.083344
0.210270 0.996114 0.083563
0.281084 0.996053 0.083470
0.351821 0.995950 0.083336
0.422512 0.995855 0.083161
0.493174 0.995599 0.082957
0.563673 0.995410 0.082716
0.634184 0.995230 0.082444
0.704677 0.994955 0.082147
0.775040 0.994701 0.081841
0.845382 0.994417 0.081524
0.917560 0.995527 0.081139
0.996612 1.002170 0.053321
1.005051 0.936815 0.209727
0.212406 1.054775 0.216283
0.216092 1.054765 0.215907
0.235873 1.054762 0.215970
0.268730 1.054766 0.215001
0.309799 1.054770 0.213647
0.355519 1.054763 0.212251
0.404766 1.054744 0.211054
0.457857 1.054723 0.210272
0.515099 1.054701 0.209983
0.576615 1.054684 0.210098
0.641804 1.054674 0.210517
0.709623 1.054672 0.211097
0.779363 1.054661 0.211580
0.850601 1.054586 0.211413
0.924777 1.055697 0.208337
1.006203 1.058089 0.203095
-0.069842 -0.405367 0.138389
-0.047127 -0.405366 0.137745
0.107526 -0.405610 0.136149
0.214432 -0.405227 0.161247
0.327694 -0.405593 0.179604
0.451001 -0.404730 0.198226
0.573195 -0.403533 0.211700
0.684439 -0.402072 0.219239
0.779693 -0.400513 0.221785
0.856712 -0.398986 0.220353
0.915220 -0.397655 0.215974
0.957685 -0.396605 0.209871
0.988121 -0.395989 0.202542
1.005586 -0.392948 0.201355
1.003423 -0.383157 0.215647
1.004339 -0.370087 0.235906
0.040318 0.068003 0.147487
0.057405 0.059779 0.178211
0.140355 0.037451 0.163398
0.229704 0.034984 0.170181
0.330997 0.030427 0.179334
0.446162 0.054290 0.192648
0.562817 0.070193 0.202991
0.670086 0.083979 0.209024
0.762652 0.095725 0.211201
0.838342 0.105284 0.210166
0.896836 0.112667 0.206731
0.940507 0.118188 0.201874
0.973750 0.119418 0.195101
0.994169 0.137212 0.197375
0.997507 0.169540 0.211711
1.002641 0.203602 0.233012
0.029379 0.123451 0.141529
-0.032430 0.126059 0.146641
0.118234 0.122749 0.150823
0.247465 0.101068 0.138135
0.369325 0.005547 0.103889
0.478356 -0.052555 0.091366
0.588027 -0.047550 0.091464
0.690414 0.015431 0.098023
0.779887 0.057479 0.106798
0.853504 0.077763 0.115487
0.910649 0.092117 0.123009
0.953417 0.102724 0.129110
0.986482 0.104989 0.129542
0.998050 0.161855 0.175430
0.999746 0.193938 0.203891
1.002519 0.229434 0.236850
0.036558 0.214561 0.162193
0.024201 0.215751 0.158662
-0.050330 0.223131 0.097207
0.208784 0.214146 0.077019
0.337057 0.226304 0.061755
0.458788 0.235631 0.068683
0.576356 0.242190 0.078890
0.683117 0.244953 0.090217
0.775125 0.244081 0.100856
0.850360 0.240046 0.109957
0.908572 0.233622 0.117191
0.952106 0.225884 0.122709
0.985723 0.215448 0.121229
0.998150 0.232166 0.171363
0.999539 0.246129 0.203382
1.002464 0.267164 0.237680
0.031804 0.321762 0.179510
0.030393 0.322340 0.172981
-0.076559 0.327857 0.069353
0.210929 0.325709 0.048333
0.316361 0.319895 0.050381
0.442769 0.342924 0.060940
0.563725 0.356314 0.072954
0.673033 0.360748 0.085224
0.766963 0.358285 0.096609
0.843589 0.350268 0.106372
0.902960 0.338282 0.114222
0.947396 0.324157 0.120285
0.981529 0.308412 0.120026
0.997882 0.304809 0.162465
0.999553 0.305494 0.199564
1.002468 0.314886 0.237933
0.045416 0.437931 0.194945
0.046423 0.438286 0.186537
-0.075962 0.442026 0.066332
0.220328 0.441498 0.054054
0.334560 0.439379 0.057229
0.432004 0.435170 0.054140
0.555051 0.456949 0.067105
0.665345 0.464071 0.079677
0.759926 0.460922 0.091226
0.837314 0.450178 0.101312
0.897441 0.434007 0.109579
0.942518 0.414894 0.116098
0.976834 0.394587 0.117923
0.997573 0.378610 0.147386
0.999451 0.369614 0.194657
1.002485 0.369169 0.238371
0.057587 0.554211 0.205998
0.058853 0.554460 0.196469
-0.072087 0.557229 0.069531
0.227882 0.557075 0.063176
0.346075 0.556134 0.066235
0.450493 0.554557 0.065249
0.548293 0.551766 0.062639
0.659527 0.562542 0.075516
0.754339 0.559138 0.086997
0.831910 0.545965 0.096921
0.892243 0.526058 0.105240
0.937712 0.502463 0.111950
0.972152 0.477707 0.115959
0.997270 0.452910 0.120106
0.999297 0.436028 0.187502
1.002513 0.427257 0.238952
0.068711 0.660640 0.211671
0.070106 0.660876 0.201717
-0.062996 0.662994 0.076795
0.231196 0.662982 0.073094
0.349530 0.662380 0.075678
0.455552 0.661645 0.075221
0.556642 0.660548 0.074392
0.655534 0.659393 0.072174
0.750127 0.655520 0.083669
0.827461 0.639750 0.093455
0.887761 0.616175 0.101536
0.933315 0.588297 0.108187
0.967807 0.559126 0.113399
0.993960 0.529372 0.108034
0.999177 0.503717 0.176124
1.002547 0.487774 0.239738
0.078294 0.752436 0.212790
0.079800 0.752618 0.202923
-0.045854 0.754492 0.085451
0.230367 0.754552 0.082163
0.346443 0.754074 0.084405
0.451021 0.753532 0.084059
0.551341 0.752888 0.083653
0.649668 0.752226 0.082928
0.748545 0.752829 0.081068
0.824335 0.732986 0.090667
0.884078 0.705116 0.098598
0.929526 0.673028 0.105014
0.964000 0.639433 0.110363
0.989846 0.605523 0.107781
0.999180 0.572123 0.157864
1.002585 0.549738 0.240802
0.086108 0.827410 0.210303
0.087729 0.827568 0.200869
0.027927 0.829159 0.093793
0.226007 0.829241 0.089750
0.337952 0.828921 0.091763
0.439316 0.828521 0.091490
0.536762 0.828033 0.091155
0.632263 0.827440 0.090787
0.727107 0.827203 0.090161
0.824840 0.829543 0.088628
0.881824 0.794697 0.096192
0.926387 0.757145 0.102464
0.960752 0.719150 0.107595
0.986282 0.680992 0.108279
0.999102 0.641157 0.124864
1.002651 0.612707 0.242082
0.092151 0.885354 0.205188
0.093853 0.885496 0.196414
0.055888 0.886909 0.100978
0.219037 0.887003 0.095690
0.325538 0.886775 0.097558
0.422420 0.886449 0.097337
0.515797 0.886079 0.097061
0.607398 0.885600 0.096753
0.697862 0.885063 0.096409
0.788676 0.885239 0.095866
0.884029 0.889046 0.094625
0.924793 0.842447 0.100366
0.958013 0.798550 0.105361
0.983201 0.756109 0.108520
0.997877 0.710985 0.078500
1.002805 0.676419 0.243069
0.096660 0.928529 0.198623
0.098435 0.928660 0.190593
0.070459 0.930085 0.106843
0.210633 0.930215 0.100158
0.311015 0.929993 0.101932
0.402799 0.929715 0.101745
0.491413 0.929430 0.101526
0.578479 0.929020 0.101261
0.664516 0.928553 0.100963
0.749912 0.928064 0.100645
0.836386 0.928533 0.100171
0.928294 0.933509 0.099157
0.956838 0.879422 0.103500
0.980648 0.830849 0.107416
0.994917 0.781401 0.077297
1.003045 0.740533 0.243430
0.100029 0.960877 0.191570
0.101860 0.960990 0.184352
0.080435 0.962296 0.111530
0.201863 0.962449 0.103517
0.295989 0.962278 0.105224
0.382484 0.962082 0.105073
0.466191 0.961800 0.104885
0.548547 0.961472 0.104654
0.630008 0.961120 0.104397
0.710858 0.960659 0.104122
0.791428 0.960229 0.103820
0.873330 0.960922 0.103408
0.961264 0.966669 0.102591
0.979866 0.907249 0.105756
0.992431 0.851524 0.073960
1.003292 0.805126 0.243489
0.102453 0.984107 0.184397
0.104330 0.984273 0.177983
0.087671 0.985489 0.115188
0.193073 0.985652 0.105942
0.281023 0.985531 0.107613
0.362253 0.985331 0.107485
0.441075 0.985111 0.107319
0.518741 0.984867 0.107126
0.595575 0.984560 0.106904
0.672002 0.984191 0.106658
0.747970 0.983760 0.106392
0.823775 0.983338 0.106112
0.901116 0.984265 0.105748
0.985192 0.990724 0.105115
0.991794 0.923477 0.071054
1.003501 0.869846 0.243527
0.082557 0.995953 0.167786
0.081602 0.996071 0.160330
0.049659 0.997453 0.092652
0.170384 0.997639 0.072544
0.257676 0.997489 0.074529
0.336028 0.997310 0.074328
0.411192 0.997117 0.074068
0.484903 0.996852 0.073754
0.557642 0.996519 0.073389
0.629789 0.996235 0.072980
0.701584 0.995836 0.072528
0.773010 0.995385 0.072050
0.844228 0.994998 0.071548
0.917097 0.996053 0.070940
0.996934 1.002480 -0.042435
1.005014 0.936888 0.241306
0.212220 1.054761 0.234833
0.216092 1.054724 0.235016
0.240317 1.054654 0.240177
0.273977 1.054629 0.241207
0.314321 1.054633 0.239123
0.359160 1.054631 0.236177
0.407648 1.054619 0.233836
0.460118 1.054605 0.232543
0.516860 1.054593 0.232405
0.577932 1.054587 0.233179
0.642766 1.054589 0.234594
0.710318 1.054600 0.236264
0.779790 1.054603 0.237876
0.850824 1.054537 0.238926
0.924854 1.055664 0.236738
1.006191 1.058069 0.231638
-0.063348 -0.404866 0.250994
0.031780 -0.404800 0.249807
0.138555 -0.405036 0.248826
0.213266 -0.405354 0.244172
0.326795 -0.405619 0.273552
0.450274 -0.404754 0.298612
0.572613 -0.403581 0.315852
0.683927 -0.402156 0.324017
0.779286 -0.400564 0.324541
0.856357 -0.399067 0.319069
0.914940 -0.397728 0.309261
0.957477 -0.396669 0.297027
0.987907 -0.396010 0.283676
1.005578 -0.393129 0.273496
1.003415 -0.383264 0.273478
1.004338 -0.370072 0.280832
0.050462 0.079793 0.248187
0.033795 0.037746 0.285298
0.155065 0.034960 0.269167
0.225899 0.032197 0.252301
0.329317 0.031187 0.272114
0.445277 0.053700 0.291724
0.562194 0.069545 0.305938
0.669572 0.083416 0.312547
0.762305 0.095245 0.312599
0.838006 0.104885 0.307375
0.896607 0.112341 0.298346
0.940277 0.117907 0.287251
0.973559 0.119246 0.274763
0.994181 0.136442 0.267149
0.997502 0.169315 0.267859
1.002642 0.203627 0.276400
0.041349 0.148620 0.243892
-0.015620 0.146584 0.252835
0.112998 0.117802 0.287504
0.243623 0.089016 0.277593
0.360405 0.042901 0.279175
0.470031 0.054111 0.280606
0.580656 0.073326 0.284589
0.684189 0.088318 0.285889
0.774601 0.100126 0.283590
0.848972 0.109515 0.277999
0.906574 0.116730 0.269898
0.950169 0.120095 0.259796
0.984508 0.113432 0.246446
0.997541 0.160782 0.253881
0.999692 0.191081 0.260682
1.002520 0.226691 0.276978
0.035161 0.214033 0.237767
0.023834 0.215313 0.238913
-0.043306 0.220105 0.250239
0.208010 0.213125 0.250126
0.358330 0.190040 0.235337
0.508355 0.145244 0.205165
0.629491 0.105215 0.179118
0.730647 0.089201 0.167407
0.816703 0.091311 0.164585
0.887304 0.100910 0.166186
0.942225 0.111527 0.169542
0.984601 0.114648 0.169394
1.000029 0.181519 0.213218
0.999790 0.240729 0.261171
0.999346 0.265344 0.282344
1.002458 0.289266 0.303694
0.031727 0.321627 0.266666
0.030698 0.322134 0.264567
-0.040787 0.326011 0.250646
0.089333 0.333752 0.179871
0.313794 0.320290 0.153539
0.466064 0.325032 0.133566
0.596166 0.324258 0.126417
0.707894 0.319367 0.127356
0.801858 0.311655 0.131654
0.877804 0.301389 0.136917
0.936329 0.289210 0.141891
0.981435 0.274014 0.139897
0.999556 0.284960 0.197248
0.999319 0.311405 0.257299
0.999295 0.320044 0.280367
1.002456 0.332254 0.303450
0.045327 0.437843 0.288623
0.046360 0.438189 0.284966
0.044647 0.440784 0.260959
-0.078705 0.449975 0.138150
0.296777 0.445811 0.100768
0.431827 0.437192 0.099055
0.566843 0.448320 0.104120
0.683234 0.448290 0.111940
0.781184 0.440566 0.120378
0.860496 0.427203 0.128430
0.921770 0.409851 0.135397
0.968526 0.389783 0.137111
0.997708 0.375576 0.169876
0.999498 0.382347 0.247628
0.999305 0.380209 0.276987
1.002456 0.382703 0.303638
0.057514 0.554142 0.303667
0.058785 0.554403 0.299010
0.061582 0.556305 0.269180
-0.084717 0.563633 0.126429
0.292710 0.562484 0.089376
0.432820 0.558475 0.093857
0.548993 0.553520 0.089042
0.666954 0.557594 0.099237
0.766262 0.550019 0.109285
0.846890 0.534341 0.118475
0.909523 0.513035 0.126472
0.957001 0.488741 0.131987
0.994992 0.462250 0.120334
1.000011 0.454644 0.231576
0.999261 0.443816 0.272329
1.002455 0.437969 0.304148
0.068652 0.660593 0.310355
0.070048 0.660784 0.305200
0.072932 0.662315 0.272339
-0.079067 0.668331 0.124432
0.288714 0.668124 0.089920
