LUTs/21.cube
LUT_3D_SIZE 6
-0.195927 -0.195927 0.322663
0.025559 -0.195927 0.322663
0.566683 -0.195929 0.322662
0.854710 -0.195936 0.322660
0.963082 -0.195943 0.322658
1.000005 -0.195946 0.322657
-0.195928 0.006049 0.322662
0.025535 0.006046 0.322662
0.566682 0.043388 0.322661
0.854709 0.155031 0.322659
0.963082 0.115725 0.322657
1.000005 0.029156 0.322656
-0.195934 0.402430 0.322661
0.107511 0.402429 0.322661
0.566679 0.402428 0.322660
0.854707 0.510680 0.322656
0.963081 0.470903 0.322654
1.000005 0.391490 0.322654
-0.195949 0.769295 0.322652
0.272200 0.769295 0.322652
0.662588 0.769294 0.322651
0.854704 0.769293 0.322648
0.963080 0.718236 0.322648
1.000004 0.618400 0.322650
-0.195971 0.938577 0.322644
0.219882 0.938577 0.322644
0.628835 0.938577 0.322643
0.819726 0.938576 0.322641
0.963077 0.938575 0.322638
1.000002 0.816759 0.322643
-0.195975 1.000002 0.322640
0.080222 1.000002 0.322640
0.556248 1.000001 0.322640
0.747626 1.000001 0.322638
0.886214 1.000001 0.322636
1.000000 1.000000 0.322634
-0.195927 -0.195927 0.379052
0.025556 -0.195927 0.379046
0.566683 -0.195929 0.422180
0.854710 -0.195937 0.492190
0.963082 -0.195943 0.471324
1.000005 -0.195946 0.408994
-0.195928 0.006048 0.379032
0.025532 0.006046 0.379024
0.567468 0.001464 0.368118
0.854824 0.004018 0.374855
0.963097 0.005721 0.378404
1.000005 0.005938 0.378828
-0.195934 0.402430 0.422170
0.015721 0.402510 0.372753
0.566693 0.402431 0.374117
0.854708 0.496967 0.378817
0.963081 0.458140 0.378766
1.000005 0.389296 0.378774
-0.195949 0.769295 0.492182
0.024980 0.769295 0.378682
0.651099 0.769294 0.378683
0.854704 0.769293 0.378595
0.963080 0.714536 0.378576
1.000004 0.617568 0.378644
-0.195971 0.938577 0.471300
0.024593 0.938577 0.378455
0.617640 0.938577 0.378409
0.817179 0.938576 0.378370
0.963077 0.938575 0.378248
1.000002 0.816500 0.378415
-0.195975 1.000002 0.408892
0.024409 1.000002 0.378328
0.554093 1.000002 0.378311
0.746978 1.000001 0.378256
0.885998 1.000001 0.378231
1.000000 1.000000 0.378124
-0.195927 -0.195927 0.626666
0.107538 -0.195928 0.626666
0.566683 -0.195930 0.626665
0.854709 -0.195938 0.691023
0.963082 -0.195944 0.667156
1.000005 -0.195939 0.620312
-0.195929 0.043393 0.626665
0.006034 0.000839 0.628496
0.567205 0.001739 0.626981
0.854792 0.004312 0.682728
0.963085 0.005899 0.659525
1.000005 0.005935 0.619019
-0.195935 0.402429 0.626663
0.016470 0.402477 0.626690
0.566679 0.402427 0.626663
0.933015 0.246253 0.538954
0.998318 0.315451 0.576891
1.000005 0.402414 0.626657
-0.195950 0.769295 0.691019
0.024961 0.769295 0.682746
0.184499 0.790283 0.456556
0.857552 0.773551 0.446388
0.986483 0.685835 0.446716
1.000004 0.622495 0.626654
-0.195972 0.938577 0.667149
0.024574 0.938577 0.659531
0.138404 0.953855 0.436435
0.781008 0.948459 0.434406
0.964924 0.941615 0.432147
1.000002 0.818251 0.626648
-0.195976 1.000002 0.620298
0.024397 1.000002 0.619012
0.566655 1.000001 0.626645
0.750642 1.000001 0.626644
0.887104 1.000001 0.626642
1.000000 1.000000 0.626649
-0.195930 -0.195930 0.851680
0.272250 -0.195931 0.851680
0.662595 -0.195934 0.851680
0.854709 -0.195940 0.851679
0.963082 -0.195946 0.819385
1.000005 -0.195940 0.756998
-0.195932 0.155042 0.851680
0.011408 0.002003 0.852260
0.651221 0.003089 0.851886
0.854789 0.004880 0.851754
0.963082 0.005941 0.817058
1.000005 0.005927 0.756448
-0.195942 0.510682 0.851678
0.022681 0.496973 0.851730
0.523416 0.358340 0.944682
0.918756 0.201651 0.914297
0.998294 0.296692 0.820109
1.000005 0.402413 0.759483
-0.195952 0.769294 0.851675
0.024921 0.769294 0.851675
0.174907 0.783772 0.860882
0.854704 0.769292 0.851674
0.995212 0.746855 0.837462
1.000003 0.769290 0.851672
-0.195974 0.938577 0.819380
0.024543 0.938577 0.817054
0.136728 0.951909 0.786796
0.753876 0.970786 0.762186
0.968121 0.946862 0.729258
1.000001 0.878672 0.851670
-0.195977 1.000001 0.756992
0.024376 1.000002 0.756442
0.566654 1.000001 0.759478
0.854698 1.000001 0.851669
0.925907 1.000000 0.851668
0.999972 0.999967 0.851667
-0.195932 -0.195932 0.960198
0.219969 -0.195933 0.960198
0.628848 -0.195935 0.960198
0.819706 -0.195940 0.960198
0.963082 -0.195941 0.960197
1.000005 -0.195939 0.881922
-0.195934 0.115750 0.960198
0.014609 0.002812 0.960510
0.617686 0.003617 0.960364
0.817221 0.005029 0.960259
0.963082 0.005924 0.960197
1.000005 0.005917 0.881711
-0.195943 0.470907 0.960197
0.023020 0.458137 0.960237
0.545331 0.380273 0.998481
0.826414 0.347293 0.998314
0.998090 0.258976 0.997929
1.000004 0.402411 0.882849
-0.195949 0.718239 0.960196
0.024982 0.714538 0.960195
0.296373 0.705731 0.997703
0.850243 0.762673 0.995927
0.994521 0.736603 0.993970
1.000002 0.769290 0.921546
-0.195977 0.938576 0.960193
0.024496 0.938576 0.960193
0.134391 0.949026 0.966937
0.739150 0.963043 0.976021
0.963077 0.938574 0.960191
1.000000 0.938572 0.960190
-0.195979 1.000001 0.881917
0.024343 1.000001 0.881706
0.566653 1.000001 0.882845
0.854698 1.000001 0.921543
0.963075 0.999967 0.960190
0.999972 0.999967 0.960189
-0.195933 -0.195933 1.000006
0.080530 -0.195934 1.000006
0.556260 -0.195935 1.000006
0.747638 -0.195939 1.000006
0.886221 -0.195945 1.000005
1.000005 -0.195942 1.000005
-0.195935 0.029190 1.000006
0.025423 0.006010 1.000006
0.554118 0.006001 1.000006
0.746990 0.005980 1.000006
0.886004 0.005948 1.000005
1.000005 0.005901 1.000005
-0.195941 0.391500 1.000006
0.025319 0.389306 1.000006
0.566676 0.402423 1.000006
0.750649 0.402420 1.000005
0.887109 0.402415 1.000005
1.000004 0.402409 1.000004
-0.195942 0.618402 1.000005
0.025109 0.617570 1.000005
0.566671 0.622497 1.000005
0.854703 0.769291 1.000003
0.925910 0.769291 1.000003
1.000002 0.769289 1.000002
-0.195961 0.816761 1.000003
0.024774 0.816502 1.000003
0.566665 0.818252 1.000003
0.854701 0.878673 1.000002
0.963076 0.938573 1.000001
1.000000 0.938572 1.000000
-0.195982 1.000001 1.000001
0.024294 1.000001 1.000001
0.566652 1.000001 1.000001
0.854698 1.000000 1.000000
0.963075 0.999967 0.999972
0.999972 0.999967 0.999972
