LUTs/21.cube
LUT_3D_SIZE 16
-0.195927 -0.195927 0.322663
-0.189520 -0.195927 0.322663
-0.157813 -0.195927 0.322663
0.025559 -0.195927 0.322663
0.215282 -0.195927 0.322663
0.415088 -0.195928 0.322662
0.566683 -0.195929 0.322662
0.685215 -0.195931 0.322661
0.782499 -0.195933 0.322661
0.854710 -0.195936 0.322660
0.906137 -0.195939 0.322659
0.940658 -0.195942 0.322658
0.963082 -0.195943 0.322658
0.979175 -0.195944 0.322657
0.992726 -0.195946 0.322657
1.000005 -0.195946 0.322657
-0.195927 -0.189521 0.322663
-0.189521 -0.189521 0.322663
-0.157813 -0.189521 0.322663
0.025557 -0.189905 0.322663
0.215282 -0.191402 0.322663
0.415088 -0.190667 0.322662
0.566683 -0.189176 0.322662
0.685215 -0.187361 0.322661
0.782499 -0.185629 0.322661
0.854710 -0.184771 0.322660
0.906137 -0.184816 0.322659
0.940658 -0.185551 0.322658
0.963082 -0.186612 0.322658
0.979175 -0.187679 0.322657
0.992726 -0.188622 0.322657
1.000005 -0.189541 0.322657
-0.195927 -0.157813 0.322663
-0.189521 -0.157813 0.322663
-0.157813 -0.157813 0.322662
0.025549 -0.160487 0.322662
0.215281 -0.170084 0.322662
0.415088 -0.165461 0.322662
0.566683 -0.155432 0.322662
0.685215 -0.142088 0.322662
0.782499 -0.127817 0.322661
0.854709 -0.119817 0.322660
0.906137 -0.120241 0.322659
0.940658 -0.127007 0.322658
0.963082 -0.136124 0.322658
0.979175 -0.144548 0.322657
0.992726 -0.151422 0.322657
1.000005 -0.157836 0.322657
-0.195928 0.006049 0.322662
-0.189906 0.006049 0.322662
-0.160488 0.006048 0.322662
0.025535 0.006046 0.322662
0.215279 -0.107756 0.322662
0.415086 -0.080270 0.322662
0.566682 0.043388 0.322661
0.685213 0.097625 0.322661
0.782499 0.137285 0.322660
0.854709 0.155031 0.322659
0.906137 0.154186 0.322658
0.940658 0.139216 0.322658
0.963082 0.115725 0.322657
0.979175 0.089400 0.322657
0.992726 0.062777 0.322656
1.000005 0.029156 0.322656
-0.195929 0.112381 0.322662
-0.191403 0.112381 0.322662
-0.170086 0.112381 0.322662
-0.107758 0.112381 0.322662
0.215276 0.112380 0.322662
0.415085 0.145614 0.322662
0.566682 0.201232 0.322662
0.685212 0.249845 0.322661
0.782498 0.285858 0.322660
0.854709 0.301586 0.322658
0.906136 0.300815 0.322657
0.940658 0.287597 0.322657
0.963082 0.266430 0.322656
0.979175 0.242300 0.322656
0.992726 0.218064 0.322656
1.000005 0.189984 0.322656
-0.195930 0.261774 0.322661
-0.190670 0.261774 0.322661
-0.165464 0.261774 0.322661
-0.080279 0.261773 0.322661
0.260063 0.261773 0.322661
0.415102 0.261783 0.322662
0.566681 0.311745 0.322661
0.685212 0.359258 0.322660
0.782498 0.396229 0.322659
0.854708 0.412685 0.322657
0.906136 0.411897 0.322656
0.940658 0.398044 0.322656
0.963082 0.376104 0.322655
0.979175 0.351649 0.322655
0.992725 0.327837 0.322655
1.000005 0.301282 0.322655
-0.195934 0.402430 0.322661
-0.189181 0.402430 0.322661
-0.155438 0.402430 0.322661
0.107511 0.402429 0.322661
0.332964 0.402429 0.322661
0.473938 0.402428 0.322660
0.566679 0.402428 0.322660
0.685211 0.452796 0.322659
0.782498 0.492702 0.322657
0.854707 0.510680 0.322656
0.906135 0.509789 0.322655
0.940657 0.494680 0.322654
0.963081 0.470903 0.322654
0.979174 0.444679 0.322654
0.992725 0.419363 0.322654
1.000005 0.391490 0.322654
-0.195941 0.538266 0.322659
-0.187362 0.538266 0.322659
-0.142097 0.538266 0.322659
0.194261 0.538266 0.322658
0.399908 0.538265 0.322658
0.524336 0.538265 0.322658
0.612915 0.538265 0.322658
0.685209 0.538264 0.322657
0.782497 0.581696 0.322655
0.854706 0.601337 0.322654
0.906135 0.600396 0.322653
0.940657 0.583899 0.322652
0.963081 0.557995 0.322652
0.979174 0.529495 0.322653
0.992725 0.502125 0.322653
1.000004 0.472241 0.322653
-0.195939 0.665720 0.322655
-0.185646 0.665720 0.322655
-0.127836 0.665720 0.322655
0.249108 0.665720 0.322655
0.444324 0.665720 0.322655
0.560758 0.665720 0.322655
0.647522 0.665720 0.322654
0.719583 0.665720 0.322654
0.782496 0.665719 0.322653
0.854705 0.687088 0.322651
0.906134 0.686112 0.322650
0.940656 0.668031 0.322650
0.963080 0.639921 0.322650
0.979172 0.609038 0.322651
0.992724 0.579430 0.322651
1.000004 0.547240 0.322652
-0.195949 0.769295 0.322652
-0.184793 0.769295 0.322652
-0.119855 0.769295 0.322652
0.272200 0.769295 0.322652
0.462488 0.769295 0.322651
0.576375 0.769295 0.322651
0.662588 0.769294 0.322651
0.734666 0.769294 0.322650
0.797797 0.769293 0.322649
0.854704 0.769293 0.322648
0.906133 0.768175 0.322647
0.940655 0.748671 0.322647
0.963080 0.718236 0.322648
0.979172 0.684937 0.322649
0.992724 0.653046 0.322649
1.000004 0.618400 0.322650
-0.195958 0.847566 0.322649
-0.184844 0.847566 0.322649
-0.120287 0.847566 0.322649
0.271080 0.847566 0.322648
0.461601 0.847566 0.322648
0.575625 0.847566 0.322648
0.661875 0.847566 0.322647
0.733941 0.847566 0.322647
0.797092 0.847565 0.322646
0.853945 0.847565 0.322645
0.906132 0.847565 0.322644
0.940655 0.826578 0.322644
0.963079 0.793859 0.322645
0.979171 0.758014 0.322646
0.992723 0.723809 0.322647
1.000003 0.686740 0.322648
-0.195966 0.902223 0.322646
-0.185575 0.902223 0.322646
-0.127052 0.902223 0.322646
0.251633 0.902223 0.322646
0.446360 0.902223 0.322646
0.562510 0.902223 0.322645
0.649209 0.902223 0.322645
0.721246 0.902222 0.322644
0.784160 0.902222 0.322644
0.840741 0.902222 0.322643
0.892545 0.902221 0.322642
0.940654 0.902221 0.322641
0.963078 0.867169 0.322642
0.979170 0.828823 0.322643
0.992723 0.792313 0.322644
1.000003 0.752729 0.322646
-0.195971 0.938577 0.322644
-0.186651 0.938577 0.322644
-0.136174 0.938577 0.322644
0.219882 0.938577 0.322644
0.420870 0.938577 0.322644
0.541197 0.938577 0.322643
0.628835 0.938577 0.322643
0.701015 0.938576 0.322642
0.763581 0.938576 0.322642
0.819726 0.938576 0.322641
0.871070 0.938575 0.322640
0.918606 0.938575 0.322639
0.963077 0.938575 0.322638
0.979169 0.897796 0.322640
0.992722 0.858895 0.322641
1.000002 0.816759 0.322643
-0.195975 0.965126 0.322643
-0.187720 0.965126 0.322643
-0.144599 0.965126 0.322642
0.182105 0.965125 0.322642
0.389967 0.965125 0.322642
0.516557 0.965125 0.322642
0.605666 0.965125 0.322642
0.678109 0.965125 0.322641
0.740484 0.965125 0.322641
0.796235 0.965124 0.322640
0.847071 0.965124 0.322639
0.894027 0.965124 0.322638
0.937927 0.965123 0.322637
0.979168 0.965123 0.322636
0.992721 0.923928 0.322638
1.000002 0.879360 0.322640
-0.195973 0.987711 0.322641
-0.188646 0.987711 0.322641
-0.151470 0.987711 0.322641
0.140652 0.987711 0.322641
0.356461 0.987710 0.322641
0.491467 0.987710 0.322641
0.582558 0.987710 0.322640
0.655488 0.987710 0.322640
0.717806 0.987710 0.322640
0.773221 0.987710 0.322639
0.823603 0.987709 0.322638
0.870080 0.987709 0.322637
0.913341 0.987709 0.322637
0.954076 0.987708 0.322636
0.992720 0.987708 0.322634
1.000001 0.940658 0.322637
-0.195975 1.000002 0.322640
-0.189566 1.000002 0.322640
-0.157891 1.000002 0.322640
0.080222 1.000002 0.322640
0.317578 1.000002 0.322640
0.462139 1.000002 0.322640
0.556248 1.000001 0.322640
0.629996 1.000001 0.322639
0.692463 1.000001 0.322639
0.747626 1.000001 0.322638
0.797520 1.000001 0.322638
0.843510 1.000001 0.322637
0.886214 1.000001 0.322636
0.926350 1.000001 0.322636
0.964314 1.000000 0.322634
1.000000 1.000000 0.322634
-0.195927 -0.195927 0.325753
-0.189521 -0.195927 0.325753
-0.157813 -0.195927 0.325753
0.025558 -0.195927 0.325572
0.215282 -0.195927 0.324866
0.415088 -0.195928 0.325223
0.566683 -0.195929 0.325931
0.685215 -0.195931 0.326777
0.782499 -0.195933 0.327553
0.854710 -0.195936 0.327946
0.906137 -0.195939 0.327928
0.940658 -0.195942 0.327587
0.963082 -0.195943 0.327110
0.979175 -0.195944 0.326609
0.992726 -0.195946 0.326177
1.000005 -0.195946 0.325747
-0.195927 -0.189521 0.325753
-0.189521 -0.189521 0.325753
-0.157813 -0.189521 0.325753
0.025556 -0.189521 0.325753
0.215282 -0.189521 0.325753
0.415088 -0.189522 0.325753
0.566683 -0.189523 0.325753
0.685215 -0.189525 0.325752
0.782499 -0.189528 0.325751
0.854710 -0.189531 0.325750
0.906137 -0.189534 0.325749
0.940658 -0.189536 0.325748
0.963082 -0.189538 0.325748
0.979175 -0.189539 0.325747
0.992726 -0.189540 0.325747
1.000005 -0.189541 0.325747
-0.195927 -0.157813 0.325753
-0.189521 -0.157813 0.325753
-0.157814 -0.157814 0.325753
0.025549 -0.160151 0.325753
0.215281 -0.168226 0.325753
0.415088 -0.164175 0.325753
0.566683 -0.155863 0.325752
0.685215 -0.145126 0.325752
0.782499 -0.134055 0.325751
0.854709 -0.128086 0.325750
0.906137 -0.128445 0.325749
0.940658 -0.133540 0.325748
0.963082 -0.140554 0.325747
0.979175 -0.147174 0.325747
0.992726 -0.152650 0.325747
1.000005 -0.157836 0.325746
-0.195928 0.006049 0.325571
-0.189522 0.006049 0.325753
-0.160152 0.006048 0.325753
0.025534 0.006046 0.325753
0.215279 -0.105561 0.325753
0.415087 -0.077417 0.325753
0.566682 0.042623 0.325752
0.685213 0.094133 0.325751
0.782499 0.131775 0.325750
0.854709 0.148545 0.325749
0.906137 0.147605 0.325748
0.940658 0.133309 0.325747
0.963082 0.110955 0.325747
0.979175 0.085953 0.325747
0.992726 0.060742 0.325746
1.000005 0.029156 0.325746
-0.195929 0.112381 0.324865
-0.189523 0.112381 0.325753
-0.168227 0.112381 0.325753
-0.105563 0.112381 0.325753
0.215276 0.112380 0.325753
0.415085 0.146380 0.325752
0.566682 0.200977 0.325752
0.685212 0.248484 0.325751
0.782498 0.283658 0.325750
0.854709 0.298939 0.325748
0.906136 0.298093 0.325747
0.940658 0.285095 0.325747
0.963082 0.264339 0.325746
0.979175 0.240767 0.325746
0.992726 0.217188 0.325746
1.000005 0.189984 0.325746
-0.195930 0.261774 0.325222
-0.189524 0.261774 0.325752
-0.164178 0.261774 0.325752
-0.077422 0.261774 0.325752
0.261054 0.261773 0.325752
0.415102 0.261783 0.325752
0.566681 0.311664 0.325751
0.685212 0.358611 0.325750
0.782498 0.395091 0.325748
0.854708 0.411249 0.325747
0.906136 0.410384 0.325746
0.940658 0.396609 0.325746
0.963082 0.374858 0.325745
0.979175 0.350830 0.325745
0.992725 0.327359 0.325745
1.000005 0.301282 0.325745
-0.195934 0.402430 0.325930
-0.189528 0.402430 0.325751
-0.155869 0.402430 0.325751
0.106119 0.402429 0.325751
0.332604 0.402429 0.325750
0.473843 0.402428 0.325750
0.566679 0.402428 0.325750
0.685211 0.452555 0.325749
0.782498 0.492111 0.325747
0.854707 0.509843 0.325746
0.906135 0.508832 0.325745
0.940657 0.493760 0.325744
0.963081 0.470152 0.325744
0.979174 0.444126 0.325744
0.992725 0.419037 0.325744
1.000005 0.391490 0.325744
-0.195941 0.538266 0.326757
-0.189535 0.538266 0.325749
-0.145138 0.538266 0.325748
0.189165 0.538266 0.325748
0.398113 0.538265 0.325748
0.523676 0.538265 0.325748
0.612693 0.538265 0.325748
0.685209 0.538264 0.325747
0.782497 0.581456 0.325745
0.854706 0.600882 0.325744
0.906135 0.599817 0.325743
0.940657 0.583278 0.325742
0.963081 0.557429 0.325742
0.979174 0.529122 0.325743
0.992725 0.501942 0.325743
1.000004 0.472241 0.325743
-0.195939 0.665720 0.327548
-0.189544 0.665720 0.325745
-0.134075 0.665720 0.325745
0.241758 0.665720 0.325745
0.441713 0.665720 0.325745
0.559708 0.665720 0.325745
0.647018 0.665720 0.325744
0.719395 0.665720 0.325744
0.782496 0.665719 0.325743
0.854705 0.686893 0.325741
0.906134 0.685773 0.325740
0.940656 0.667646 0.325740
0.963080 0.639540 0.325740
0.979172 0.608740 0.325741
0.992724 0.579272 0.325741
1.000004 0.547240 0.325742
-0.195949 0.769295 0.327939
-0.189550 0.769295 0.325742
-0.128119 0.769295 0.325742
0.263826 0.769295 0.325742
0.459500 0.769295 0.325741
0.575059 0.769295 0.325741
0.661914 0.769294 0.325741
0.734305 0.769294 0.325740
0.797679 0.769293 0.325739
0.854704 0.769293 0.325738
0.906133 0.767990 0.325738
0.940655 0.748503 0.325737
0.963080 0.718060 0.325738
0.979172 0.684756 0.325739
0.992724 0.652933 0.325739
1.000004 0.618400 0.325740
-0.195958 0.847566 0.327918
-0.189560 0.847566 0.325739
-0.128486 0.847566 0.325738
0.262592 0.847566 0.325738
0.458524 0.847566 0.325738
0.574199 0.847566 0.325738
0.661068 0.847566 0.325737
0.733494 0.847566 0.325737
0.796817 0.847565 0.325736
0.853806 0.847565 0.325738
0.906132 0.847565 0.325737
0.940654 0.826526 0.325737
0.963079 0.793757 0.325738
0.979171 0.757902 0.325736
0.992723 0.723774 0.325737
1.000003 0.686740 0.325738
-0.195966 0.902223 0.327575
-0.189568 0.902223 0.325736
-0.133585 0.902223 0.325736
0.243778 0.902223 0.325738
0.443414 0.902223 0.325738
0.561109 0.902223 0.325738
0.648407 0.902223 0.325737
0.720828 0.902222 0.325737
0.783863 0.902222 0.325736
0.840589 0.902222 0.325735
0.892553 0.902221 0.325734
0.940653 0.902221 0.325733
0.963078 0.867129 0.325734
0.979170 0.828736 0.325736
0.992723 0.792237 0.325737
1.000003 0.752729 0.325738
-0.195971 0.938577 0.327097
-0.189573 0.938577 0.325737
-0.140602 0.938577 0.325736
0.213206 0.938577 0.325736
0.418265 0.938577 0.325736
0.540016 0.938577 0.325736
0.628186 0.938577 0.325735
0.700579 0.938576 0.325735
0.763327 0.938576 0.325734
0.819595 0.938576 0.325734
0.871014 0.938575 0.325733
0.918598 0.938575 0.325732
0.963077 0.938575 0.325731
0.979169 0.897764 0.325732
0.992722 0.858861 0.325734
1.000002 0.816759 0.325736
-0.195975 0.965126 0.326594
-0.189578 0.965126 0.325735
-0.147214 0.965126 0.325735
0.176939 0.965125 0.325735
0.387922 0.965125 0.325735
0.515689 0.965125 0.325734
0.605170 0.965125 0.325734
0.677793 0.965125 0.325734
0.740318 0.965125 0.325733
0.796158 0.965124 0.325732
0.846977 0.965124 0.325732
0.893978 0.965124 0.325731
0.937889 0.965123 0.325730
0.979168 0.965123 0.325729
0.992721 0.923901 0.325731
1.000002 0.879360 0.325733
-0.195973 0.987711 0.326164
-0.189563 0.987711 0.325734
-0.152704 0.987711 0.325734
0.137306 0.987711 0.325733
0.355225 0.987710 0.325733
0.490946 0.987710 0.325733
0.582284 0.987710 0.325733
0.655303 0.987710 0.325732
0.717701 0.987710 0.325732
0.773203 0.987710 0.325731
0.823567 0.987709 0.325731
0.870026 0.987709 0.325730
0.913305 0.987709 0.325729
0.954059 0.987708 0.325728
0.992720 0.987708 0.325727
1.000001 0.940658 0.325730
-0.195975 1.000002 0.325733
-0.189566 1.000002 0.325733
-0.157891 1.000002 0.325733
0.080222 1.000002 0.325733
0.317578 1.000002 0.325733
0.462139 1.000002 0.325732
0.556248 1.000001 0.325732
0.629996 1.000001 0.325732
0.692463 1.000001 0.325731
0.747626 1.000001 0.325731
0.797520 1.000001 0.325730
0.843510 1.000001 0.325730
0.886214 1.000001 0.325729
0.926350 1.000001 0.325728
0.964314 1.000000 0.325727
1.000000 1.000000 0.325726
-0.195927 -0.195927 0.338575
-0.189521 -0.195927 0.338575
-0.157813 -0.195927 0.338575
0.025557 -0.195927 0.337631
0.215282 -0.195927 0.334075
0.415088 -0.195928 0.335835
0.566683 -0.195929 0.339377
0.685215 -0.195931 0.343548
0.782499 -0.195934 0.347369
0.854710 -0.195937 0.349254
0.906137 -0.195939 0.349178
0.940658 -0.195942 0.347581
0.963082 -0.195943 0.345226
0.979175 -0.195944 0.342822
0.992726 -0.195946 0.340695
1.000005 -0.195946 0.338568
-0.195927 -0.189521 0.338575
-0.189521 -0.189521 0.338575
-0.157813 -0.189521 0.338575
0.025555 -0.189521 0.337754
0.215282 -0.189521 0.334798
0.415088 -0.189522 0.336303
0.566683 -0.189523 0.339234
0.685215 -0.189525 0.342651
0.782499 -0.189528 0.345783
0.854710 -0.189531 0.347309
0.906137 -0.189534 0.347236
0.940658 -0.189536 0.345899
0.963082 -0.189538 0.343969
0.979175 -0.189539 0.342032
0.992726 -0.189540 0.340291
1.000005 -0.189541 0.338568
-0.195927 -0.157813 0.338574
-0.189521 -0.157813 0.338574
-0.157814 -0.157814 0.338574
0.025547 -0.157814 0.338574
0.215281 -0.157814 0.338574
0.415087 -0.157815 0.338574
0.566683 -0.157816 0.338574
0.685215 -0.157818 0.338573
0.782499 -0.157822 0.338572
0.854710 -0.157817 0.338571
0.906137 -0.157820 0.338570
0.940658 -0.157831 0.338569
0.963082 -0.157833 0.338569
0.979175 -0.157834 0.338568
0.992726 -0.157836 0.338568
1.000005 -0.157836 0.338568
-0.195928 0.006049 0.337631
-0.189522 0.006048 0.337754
-0.157814 0.006048 0.338574
0.025533 0.006046 0.338574
0.215279 -0.092744 0.338574
0.415086 -0.060948 0.338574
0.566682 0.038986 0.338573
0.685213 0.077561 0.338573
0.782499 0.105777 0.338572
0.854709 0.118102 0.338571
0.906137 0.117042 0.338570
0.940658 0.105971 0.338569
0.963082 0.088967 0.338568
0.979175 0.070183 0.338568
0.992726 0.051550 0.338568
1.000005 0.029156 0.338567
-0.195929 0.112381 0.334074
-0.189523 0.112381 0.334797
-0.157815 0.112381 0.338574
-0.092737 0.112381 0.338574
0.215276 0.112380 0.338574
0.415085 0.149929 0.338573
0.566682 0.199844 0.338573
0.685212 0.242228 0.338572
0.782499 0.273575 0.338571
0.854709 0.286974 0.338570
0.906136 0.285816 0.338569
0.940658 0.273790 0.338568
0.963082 0.254982 0.338568
0.979175 0.233980 0.338567
0.992726 0.213308 0.338567
1.000005 0.189984 0.338567
-0.195930 0.261774 0.335834
-0.189525 0.261774 0.336302
-0.157818 0.261774 0.338573
-0.060957 0.261773 0.338573
0.265661 0.261773 0.338573
0.415102 0.261783 0.338573
0.566681 0.311320 0.338572
0.685212 0.355919 0.338571
0.782498 0.390041 0.338570
0.854708 0.404922 0.338569
0.906136 0.403603 0.338568
0.940658 0.390284 0.338567
0.963082 0.369699 0.338567
0.979175 0.347077 0.338567
0.992725 0.325263 0.338566
1.000005 0.301282 0.338566
-0.195934 0.402430 0.339375
-0.189528 0.402430 0.339232
-0.157814 0.402429 0.338572
0.099432 0.402429 0.338572
0.331033 0.402429 0.338572
0.473444 0.402429 0.338572
0.566679 0.402428 0.338571
0.685211 0.451499 0.338570
0.782498 0.489542 0.338568
0.854708 0.506186 0.338567
0.906135 0.504738 0.338566
0.940657 0.489824 0.338566
0.963081 0.466841 0.338565
0.979174 0.441719 0.338565
0.992725 0.417689 0.338565
1.000005 0.391490 0.338565
-0.195941 0.538266 0.343544
-0.189535 0.538266 0.342648
-0.157822 0.538266 0.338570
0.164241 0.538266 0.338570
0.389912 0.538265 0.338569
0.520922 0.538265 0.338569
0.611768 0.538265 0.338569
0.685209 0.538264 0.338568
0.782497 0.580392 0.338567
0.854707 0.598861 0.338565
0.906135 0.597292 0.338564
0.940657 0.580687 0.338564
0.963081 0.555221 0.338564
0.979174 0.527456 0.338564
0.992725 0.500986 0.338564
1.000005 0.472241 0.338564
-0.195939 0.665720 0.347364
-0.189544 0.665720 0.345777
-0.157840 0.665721 0.338567
0.205959 0.665720 0.338567
0.429627 0.665720 0.338566
0.554838 0.665720 0.338566
0.644807 0.665720 0.338566
0.718575 0.665720 0.338565
0.782496 0.665719 0.338564
0.854706 0.686099 0.338563
0.906134 0.684319 0.338562
0.940656 0.666051 0.338562
0.963080 0.638029 0.338562
0.979172 0.607604 0.338562
0.992724 0.578631 0.338562
1.000004 0.547240 0.338563
-0.195949 0.769295 0.349254
-0.189550 0.769295 0.347309
-0.157848 0.769295 0.338563
0.223177 0.769295 0.338563
0.445643 0.769295 0.338563
0.569050 0.769295 0.338562
0.658861 0.769294 0.338562
0.732785 0.769294 0.338562
0.797083 0.769294 0.338561
0.854704 0.769293 0.338560
0.906133 0.767382 0.338559
0.940655 0.747608 0.338559
0.963080 0.717058 0.338560
0.979172 0.683944 0.338560
0.992724 0.652426 0.338561
1.000004 0.618400 0.338561
-0.195958 0.847566 0.349146
-0.189560 0.847566 0.347204
-0.157859 0.847566 0.338560
0.221703 0.847566 0.338560
0.444291 0.847566 0.338560
0.567811 0.847566 0.338559
0.657667 0.847566 0.338559
0.731652 0.847566 0.338558
0.795822 0.847565 0.338558
0.853406 0.847565 0.338557
0.906132 0.847565 0.338556
0.940655 0.826090 0.338556
0.963079 0.793131 0.338557
0.979171 0.757407 0.338558
0.992723 0.723401 0.338558
1.000003 0.686740 0.338559
-0.195966 0.902223 0.347569
-0.189568 0.902223 0.345887
-0.157864 0.902223 0.338557
0.206177 0.902223 0.338557
0.429893 0.902223 0.338557
0.555034 0.902223 0.338557
0.645050 0.902223 0.338556
0.718795 0.902222 0.338556
0.782710 0.902222 0.338555
0.839960 0.902222 0.338554
0.892263 0.902221 0.338553
0.940654 0.902221 0.338552
0.963078 0.866901 0.338554
0.979170 0.828408 0.338555
0.992723 0.791977 0.338556
1.000003 0.752729 0.338557
-0.195971 0.938577 0.345213
-0.189573 0.938577 0.343963
-0.157879 0.938577 0.338556
0.181458 0.938577 0.338555
0.406475 0.938577 0.338555
0.534844 0.938577 0.338555
0.625295 0.938577 0.338555
0.698823 0.938576 0.338554
0.762245 0.938576 0.338553
0.818899 0.938576 0.338553
0.870593 0.938575 0.338552
0.918444 0.938575 0.338551
0.963077 0.938575 0.338556
0.979169 0.897629 0.338552
0.992722 0.858743 0.338553
1.000002 0.816759 0.338555
-0.195975 0.965126 0.342807
-0.189578 0.965126 0.341997
-0.157884 0.965126 0.338554
0.152599 0.965125 0.338554
0.378780 0.965125 0.338554
0.511817 0.965125 0.338554
0.603004 0.965125 0.338553
0.676414 0.965125 0.338553
0.739439 0.965125 0.338552
0.795550 0.965125 0.338552
0.846673 0.965124 0.338551
0.893778 0.965124 0.338556
0.937803 0.965123 0.338555
0.979168 0.965123 0.338554
0.992721 0.923891 0.338556
1.000002 0.879360 0.338552
-0.195973 0.987711 0.340660
-0.189564 0.987711 0.340276
-0.157888 0.987711 0.338553
0.121790 0.987711 0.338553
0.349764 0.987710 0.338553
0.488732 0.987710 0.338552
0.581029 0.987710 0.338552
0.654505 0.987710 0.338552
0.717215 0.987710 0.338551
0.772805 0.987710 0.338556
0.823337 0.987709 0.338556
0.869866 0.987709 0.338555
0.913244 0.987709 0.338554
0.954044 0.987708 0.338553
0.992720 0.987708 0.338552
1.000001 0.940658 0.338555
-0.195975 1.000002 0.338552
-0.189566 1.000002 0.338552
-0.157891 1.000002 0.338552
0.080222 1.000002 0.338552
0.317578 1.000002 0.338552
0.462139 1.000002 0.338552
0.556248 1.000002 0.338551
0.629996 1.000001 0.338551
0.692463 1.000001 0.338556
0.747626 1.000001 0.338556
0.797520 1.000001 0.338555
0.843510 1.000001 0.338555
0.886214 1.000001 0.338554
0.926350 1.000001 0.338553
0.964314 1.000000 0.338552
1.000000 1.000000 0.338551
-0.195927 -0.195927 0.379052
-0.189904 -0.195927 0.379052
-0.160487 -0.195927 0.379049
0.025556 -0.195927 0.379046
0.215282 -0.195927 0.351743
0.415088 -0.195928 0.356065
0.566683 -0.195929 0.422180
0.685215 -0.195931 0.460692
0.782499 -0.195934 0.483085
0.854710 -0.195937 0.492190
0.906137 -0.195939 0.491769
0.940658 -0.195942 0.484112
0.963082 -0.195943 0.471324
0.979175 -0.195945 0.455581
0.992726 -0.195946 0.437493
1.000005 -0.195946 0.408994
-0.195927 -0.189905 0.379050
-0.189521 -0.189521 0.379050
-0.160150 -0.189521 0.379048
0.025553 -0.189521 0.379045
0.215282 -0.189521 0.352168
0.415088 -0.189522 0.356371
0.566683 -0.189523 0.421528
0.685215 -0.189525 0.458543
0.782499 -0.189528 0.480159
0.854710 -0.189531 0.488903
0.906137 -0.189534 0.488443
0.940658 -0.189536 0.480975
0.963082 -0.189538 0.468588
0.979175 -0.189539 0.453381
0.992726 -0.189540 0.435989
1.000005 -0.189541 0.408995
-0.195927 -0.160487 0.379044
-0.189521 -0.160151 0.379044
-0.157814 -0.157814 0.379041
0.025546 -0.157814 0.379037
0.215280 -0.157814 0.354307
0.415087 -0.157815 0.358050
0.566683 -0.157816 0.418340
0.685215 -0.157818 0.447865
0.782499 -0.157822 0.465575
0.854710 -0.157817 0.472661
0.906137 -0.157821 0.472055
0.940658 -0.157831 0.465680
0.963082 -0.157833 0.455309
0.979175 -0.157834 0.442810
0.992726 -0.157836 0.428911
1.000005 -0.157836 0.409015
-0.195928 0.006048 0.379032
-0.189522 0.006048 0.379031
-0.157815 0.006047 0.379028
0.025532 0.006046 0.379024
0.220443 0.000602 0.364767
0.417173 0.000901 0.366088
0.567468 0.001464 0.368118
0.685573 0.002226 0.370427
0.782627 0.003136 0.372817
0.854824 0.004018 0.374855
0.906165 0.004766 0.376494
0.940686 0.005335 0.377653
0.963097 0.005721 0.378404
0.979175 0.005948 0.378838
0.992726 0.005942 0.378838
1.000005 0.005938 0.378828
-0.195929 0.112381 0.351743
-0.189523 0.112381 0.352168
-0.157815 0.112381 0.354307
0.006082 0.112763 0.365826
0.215383 0.112454 0.366259
0.415604 0.154853 0.368008
0.567004 0.191815 0.370012
0.685412 0.222023 0.372195
0.782538 0.244524 0.374420
0.854780 0.253809 0.376297
0.906138 0.252278 0.377734
0.940652 0.242791 0.378663
0.963082 0.228644 0.378826
0.979175 0.213379 0.378829
0.992726 0.198921 0.378814
1.000005 0.183332 0.378833
-0.195931 0.261774 0.356064
-0.189525 0.261774 0.356370
-0.157818 0.261774 0.358048
0.010351 0.261936 0.369017
0.271744 0.261884 0.369451
0.415125 0.261806 0.369955
0.566792 0.308904 0.372007
0.685281 0.347608 0.374218
0.782479 0.376480 0.376360
0.854733 0.388429 0.378081
0.906136 0.386425 0.378828
0.940658 0.374093 0.378817
0.963082 0.355840 0.378824
0.979175 0.336257 0.378815
0.992725 0.317726 0.378803
1.000005 0.297831 0.378800
-0.195934 0.402430 0.422170
-0.189528 0.402430 0.421515
-0.157814 0.402429 0.418325
0.015721 0.402510 0.372753
0.320008 0.402472 0.373079
0.470681 0.402474 0.373547
0.566693 0.402431 0.374117
0.685239 0.448369 0.376372
0.782502 0.482763 0.378474
0.854708 0.496967 0.378817
