LUTs/25.cube
# (C) 2014 VisionColor & Patchflyer [www.vision-color.com]
# Generator: VC Patchmatch v.2.1.1 [64/53]
# All work and no play makes Jack a dull boy.
# LUT generated from: Fuji Pro 400_FC
LUT_3D_SIZE 17
0.025147 0.025147 0.025147
0.076570 0.025971 0.028229
0.165011 0.026429 0.030030
0.272953 0.032563 0.035370
0.381628 0.041901 0.044373
0.470649 0.049897 0.053101
0.523430 0.053864 0.058564
0.551293 0.056092 0.061738
0.569085 0.063722 0.065949
0.584283 0.071687 0.069856
0.597833 0.088167 0.076417
0.612757 0.105684 0.083345
0.630915 0.122408 0.090272
0.652369 0.135317 0.096315
0.674434 0.142916 0.103243
0.695979 0.149477 0.111208
0.714412 0.153689 0.122621
0.031159 0.082277 0.021149
0.083803 0.084047 0.026184
0.163607 0.092317 0.032624
0.253086 0.098695 0.042634
0.339879 0.112612 0.055604
0.416663 0.128481 0.069337
0.473304 0.138338 0.079683
0.513268 0.145327 0.087160
0.543359 0.153384 0.093263
0.572381 0.161685 0.099184
0.597040 0.175845 0.106081
0.621759 0.185306 0.111177
0.643793 0.198032 0.117220
0.666743 0.207492 0.121950
0.690700 0.216770 0.127840
0.713130 0.223239 0.134157
0.734340 0.227268 0.142641
0.054261 0.165530 0.030335
0.112367 0.170596 0.039307
0.188022 0.183780 0.054292
0.268437 0.199863 0.071077
0.347326 0.221225 0.088685
0.419898 0.247349 0.105409
0.479133 0.268650 0.119875
0.525475 0.287327 0.132021
0.558556 0.295445 0.138613
0.592950 0.307836 0.146120
0.621027 0.312200 0.149844
0.645258 0.305180 0.150149
0.668147 0.302525 0.150790
0.687739 0.295201 0.150088
0.708003 0.298161 0.153170
0.728420 0.299229 0.156344
0.749355 0.300328 0.161105
0.089845 0.261326 0.055634
0.158358 0.272038 0.068910
0.234470 0.294133 0.088472
0.304540 0.311498 0.102846
0.376959 0.337621 0.121553
0.448127 0.371481 0.142275
0.510369 0.404868 0.161349
0.563958 0.435950 0.177646
0.600427 0.447791 0.185763
0.638056 0.461952 0.194369
0.663325 0.454780 0.194827
0.684993 0.441657 0.193393
0.702571 0.419287 0.188693
0.717372 0.397772 0.183719
0.732540 0.383642 0.181033
0.748959 0.374975 0.179843
0.766537 0.370092 0.180301
0.128420 0.359106 0.085786
0.216983 0.375525 0.104341
0.300023 0.400854 0.124727
0.361273 0.422736 0.140322
0.411078 0.439887 0.152316
0.476143 0.472251 0.171206
0.538628 0.504356 0.190829
0.597131 0.534356 0.209018
0.639002 0.548669 0.218387
0.680049 0.562402 0.227604
0.703243 0.555810 0.228519
0.724178 0.544182 0.227146
0.737606 0.522820 0.222110
0.748806 0.497536 0.215793
0.759213 0.476448 0.210575
0.770779 0.458106 0.205600
0.785580 0.447578 0.202884
0.168795 0.447883 0.115419
0.274418 0.467597 0.136355
0.364996 0.495705 0.157900
0.422766 0.518212 0.172488
0.465766 0.538628 0.185428
0.505364 0.554406 0.196323
0.564538 0.579248 0.212497
0.623133 0.602411 0.228275
0.667964 0.613581 0.238895
0.711757 0.626001 0.248478
0.736690 0.619440 0.249790
0.756466 0.610346 0.248936
0.768643 0.592065 0.244480
0.777279 0.572198 0.238621
0.785519 0.553185 0.233555
0.794369 0.536492 0.229618
0.806119 0.522148 0.225101
0.213718 0.521508 0.140932
0.328923 0.546777 0.163943
0.420264 0.573999 0.184665
0.475776 0.594781 0.197696
0.515404 0.614191 0.209842
0.552850 0.629969 0.221225
0.590387 0.642023 0.231052
0.647486 0.657923 0.243626
0.690288 0.663813 0.252232
0.735103 0.674769 0.262821
0.762020 0.670558 0.265232
0.785824 0.665858 0.266545
0.798306 0.652827 0.263249
0.806973 0.638605 0.258518
0.811399 0.621454 0.253513
0.818631 0.606867 0.249851
0.827512 0.594385 0.246555
0.263401 0.584375 0.162539
0.380194 0.614862 0.186892
0.466560 0.638727 0.205509
0.517082 0.656214 0.216648
0.559503 0.673396 0.227481
0.596857 0.687343 0.238529
0.632349 0.698177 0.247929
0.672908 0.705165 0.257450
0.714702 0.710292 0.265568
0.757076 0.717311 0.274266
0.785214 0.716030 0.278172
0.809873 0.714687 0.280735
0.824338 0.706722 0.279667
0.832517 0.694301 0.275334
0.835782 0.676936 0.270054
0.839567 0.663417 0.266484
0.845853 0.651270 0.263645
0.307683 0.641596 0.180514
0.422156 0.671778 0.204440
0.505913 0.692805 0.221408
0.552453 0.706630 0.232151
0.593439 0.719905 0.242527
0.632288 0.732631 0.252384
0.664012 0.741787 0.260929
0.702068 0.748257 0.269749
0.738109 0.753872 0.276677
0.779385 0.760647 0.284855
0.805447 0.761654 0.289189
0.829709 0.761044 0.292943
0.843961 0.753872 0.292668
0.853880 0.745296 0.290593
0.857084 0.728267 0.285313
0.860807 0.715084 0.281590
0.862730 0.703273 0.278874
0.352209 0.696376 0.197330
0.462226 0.725673 0.220554
0.541375 0.742336 0.236027
0.587671 0.753170 0.246494
0.627802 0.763638 0.256718
0.667536 0.774411 0.266484
0.701442 0.782834 0.274235
0.733272 0.788113 0.281926
0.767025 0.793118 0.288243
0.798428 0.797208 0.293980
0.823240 0.799496 0.298405
0.844846 0.803342 0.303044
0.857267 0.799405 0.304540
0.865782 0.795773 0.304173
0.869657 0.781582 0.300603
0.871427 0.765408 0.295781
0.872221 0.749447 0.291691
0.376501 0.740749 0.207401
0.484993 0.767727 0.230350
0.568261 0.783536 0.247807
0.618860 0.792782 0.259495
0.659937 0.801083 0.269566
0.695369 0.807523 0.278080
0.728145 0.815030 0.285130
0.758450 0.820432 0.291691
0.789029 0.824521 0.297551
0.817044 0.828305 0.302647
0.836271 0.831327 0.305791
0.856901 0.837308 0.310948
0.867155 0.838376 0.313695
0.874388 0.836759 0.314824
0.877562 0.823911 0.312078
0.880827 0.813993 0.309850
0.880980 0.794705 0.304601
0.394995 0.783505 0.215671
0.504967 0.804379 0.239536
0.595422 0.819150 0.258854
0.650141 0.827115 0.271550
0.691890 0.833432 0.281651
0.724941 0.838529 0.289616
0.754543 0.842283 0.295903
0.784146 0.847562 0.301518
0.810880 0.850919 0.306310
0.835050 0.854063 0.311131
0.853849 0.856809 0.314427
0.862974 0.859495 0.316197
0.871733 0.860624 0.319066
0.878416 0.860807 0.320836
0.882780 0.858640 0.321019
0.886625 0.853178 0.320165
0.888487 0.841581 0.318090
0.408789 0.820005 0.222080
0.522972 0.833432 0.247532
0.615290 0.845365 0.268009
0.678401 0.852842 0.281865
0.721431 0.857298 0.292241
0.751827 0.860838 0.299565
0.779202 0.863584 0.304997
0.803403 0.866453 0.309606
0.827604 0.869322 0.313634
0.845060 0.871763 0.317418
0.862821 0.873869 0.321111
0.869871 0.876310 0.323033
0.875761 0.879698 0.323522
0.882628 0.881621 0.325750
0.886259 0.879728 0.326177
0.890105 0.878477 0.326970
0.892302 0.869841 0.326909
0.426276 0.854307 0.229862
0.549187 0.856931 0.257511
0.643671 0.864836 0.278233
0.708125 0.870542 0.292027
0.750851 0.873075 0.302251
0.779782 0.875364 0.309453
0.803159 0.877867 0.313787
0.824155 0.880858 0.317540
0.843931 0.883421 0.320195
0.856809 0.885679 0.323491
0.870359 0.888273 0.326360
0.875853 0.889860 0.329442
0.881590 0.893309 0.329900
0.886320 0.897917 0.329229
0.889342 0.895872 0.329809
0.892699 0.893858 0.330907
0.894621 0.889647 0.333165
0.450294 0.875547 0.240085
0.578454 0.872740 0.268803
0.674525 0.878874 0.289219
0.734127 0.884794 0.301640
0.772305 0.886320 0.310430
0.799588 0.887846 0.317082
0.821439 0.889097 0.321508
0.837888 0.891783 0.324376
0.855283 0.894255 0.326635
0.864805 0.896971 0.328557
0.875456 0.899474 0.331121
0.880583 0.900572 0.334447
0.885527 0.901884 0.337377
0.889677 0.904784 0.338659
0.893523 0.912993 0.333898
0.896086 0.909178 0.334630
0.896757 0.902434 0.336187
0.474006 0.893462 0.250675
0.606195 0.886656 0.279973
0.700984 0.890593 0.299962
0.754757 0.896239 0.310948
0.790707 0.898283 0.318914
0.816159 0.898924 0.324804
0.837003 0.899565 0.329137
0.851164 0.901305 0.331945
0.864378 0.903929 0.333349
0.872496 0.907073 0.334936
0.879911 0.909178 0.336553
0.885100 0.910369 0.339788
0.889799 0.911498 0.342809
0.893095 0.913176 0.345892
0.895933 0.919341 0.343877
0.899138 0.925689 0.339422
0.899321 0.917327 0.341009
0.495460 0.903685 0.261601
0.621515 0.896513 0.288243
0.712276 0.899290 0.308202
0.761257 0.904051 0.318242
0.793576 0.905974 0.325200
0.819120 0.906737 0.330907
0.840269 0.906859 0.335912
0.853758 0.907958 0.338872
0.864744 0.909728 0.341314
0.873106 0.913390 0.342779
0.880522 0.916106 0.344244
0.887236 0.917571 0.346288
0.891722 0.917876 0.348730
0.895964 0.918517 0.351781
0.897765 0.921050 0.354162
0.899626 0.926909 0.352911
0.902037 0.934508 0.347631
0.026001 0.026001 0.055482
0.057679 0.024903 0.064363
0.129274 0.025299 0.066102
0.216037 0.028748 0.067384
0.303563 0.035096 0.072694
0.389776 0.043122 0.079500
0.461433 0.049165 0.085267
0.517388 0.054688 0.087984
0.556909 0.060792 0.089754
0.597559 0.067506 0.091157
0.625025 0.077760 0.094331
0.651637 0.087098 0.097841
0.670100 0.098665 0.104067
0.684627 0.107210 0.111208
0.693996 0.111177 0.120363
0.704524 0.114412 0.130129
0.718593 0.115785 0.141512
0.023163 0.066194 0.057313
0.076112 0.072023 0.066346
0.197696 0.060060 0.055299
0.340551 0.058320 0.054963
0.461769 0.062837 0.061250
0.529137 0.063874 0.064881
0.561517 0.066468 0.068086
0.580957 0.071839 0.070588
0.595728 0.085237 0.075837
0.611658 0.101167 0.082124
0.627924 0.118379 0.089326
0.646906 0.129976 0.094881
0.666529 0.140749 0.101503
0.687404 0.146944 0.108705
0.705776 0.151858 0.118685
0.724208 0.157137 0.130800
0.745602 0.166964 0.147738
0.040925 0.148318 0.060365
0.096162 0.197177 0.061372
0.222629 0.214725 0.081575
0.331456 0.205966 0.088624
0.427710 0.203250 0.096132
0.495003 0.202670 0.103548
0.539361 0.202457 0.109377
0.571557 0.199039 0.111116
0.599084 0.205234 0.115694
0.621332 0.205814 0.117769
0.643488 0.211307 0.121401
0.664149 0.215152 0.124239
0.685481 0.222477 0.128817
0.706600 0.228672 0.133883
0.727443 0.233494 0.141085
0.748012 0.236820 0.149752
0.769192 0.242496 0.163943
0.071107 0.246281 0.071473
0.139223 0.340398 0.089815
0.269871 0.368170 0.115236
0.381720 0.403418 0.141329
0.467964 0.401129 0.153262
0.533989 0.406287 0.163912
0.583581 0.411841 0.173068
0.619196 0.407660 0.177035
0.642847 0.393561 0.176150
0.658106 0.368582 0.170718
0.675013 0.350713 0.166232
0.691066 0.333013 0.162020
0.710353 0.322362 0.160372
0.728145 0.317082 0.160494
0.744961 0.313817 0.162539
0.764065 0.313176 0.167788
0.784604 0.314885 0.179416
0.103365 0.347143 0.089906
0.188693 0.462562 0.122408
0.336706 0.497932 0.153811
0.436774 0.532036 0.176822
0.517876 0.563622 0.199100
0.583185 0.559777 0.209354
0.635584 0.562676 0.218967
0.676051 0.562676 0.225895
0.699123 0.548241 0.225681
0.713314 0.522347 0.220493
0.723018 0.491966 0.212253
0.732570 0.463264 0.204501
0.742000 0.434699 0.196384
0.754147 0.416602 0.192020
0.766629 0.399786 0.188266
0.782925 0.392889 0.188876
0.802823 0.392309 0.197696
0.136294 0.442451 0.111330
0.243748 0.554253 0.151827
0.393988 0.591852 0.183444
0.487282 0.621027 0.204654
0.560204 0.647547 0.222904
0.626154 0.664881 0.239628
0.676814 0.658320 0.247349
0.718624 0.653803 0.253574
0.743160 0.642115 0.255070
0.756893 0.619547 0.250980
0.765560 0.595254 0.244541
0.770779 0.563668 0.236088
0.776699 0.537026 0.228458
0.781613 0.510857 0.221347
0.790799 0.490761 0.215976
0.802945 0.475624 0.212619
0.821225 0.472419 0.218357
0.173495 0.523613 0.133028
0.295781 0.624109 0.175509
0.440009 0.661585 0.204990
0.527367 0.685512 0.224002
0.595666 0.707912 0.240757
0.656489 0.722347 0.255344
0.712459 0.732174 0.267765
0.754208 0.725521 0.273808
0.779629 0.715450 0.276097
0.794217 0.698161 0.274510
0.803922 0.678691 0.270237
0.807309 0.652811 0.262852
0.811337 0.628504 0.255558
0.812070 0.602533 0.248173
0.816953 0.580682 0.242161
0.826596 0.563745 0.238071
0.841245 0.556115 0.241794
0.206516 0.592676 0.152224
0.343725 0.687129 0.195712
0.481453 0.721767 0.222538
0.565209 0.739132 0.240208
0.626764 0.756008 0.256077
0.683101 0.771328 0.269749
0.735378 0.781186 0.281010
0.785000 0.786435 0.289647
0.810605 0.777249 0.292332
0.825040 0.761395 0.291478
0.833616 0.744183 0.289219
0.837095 0.721019 0.283177
0.840299 0.697520 0.276402
0.839200 0.672648 0.268681
0.841123 0.652262 0.263493
0.846128 0.638605 0.261753
0.857450 0.632471 0.266056
0.230259 0.653010 0.167941
0.374395 0.735195 0.207584
0.507225 0.766476 0.233677
0.594690 0.781369 0.252964
0.654108 0.794491 0.267826
0.703120 0.804288 0.279484
0.752041 0.815122 0.290013
0.799252 0.821164 0.298375
0.830900 0.824643 0.304387
0.844358 0.813107 0.304814
0.852720 0.803204 0.304723
0.858732 0.785260 0.300938
0.862974 0.766064 0.295903
0.862882 0.739025 0.287755
0.864042 0.719539 0.283238
0.866484 0.705898 0.282231
0.872892 0.703029 0.290410
0.249210 0.711055 0.183322
0.393866 0.775967 0.215152
0.525078 0.802396 0.242008
0.619410 0.815396 0.263554
0.676875 0.825223 0.277470
0.723598 0.832303 0.288304
0.765286 0.838682 0.297002
0.807034 0.846555 0.304936
0.836301 0.850156 0.310826
0.859403 0.853269 0.315312
0.866087 0.843320 0.315679
0.871031 0.835294 0.314122
0.875883 0.823301 0.311559
0.876493 0.803433 0.305425
0.875914 0.776669 0.299962
0.877134 0.760830 0.299382
0.882597 0.755764 0.308019
0.256291 0.760494 0.197269
0.405524 0.812436 0.219883
0.537682 0.831968 0.249088
0.638453 0.842863 0.272282
0.699397 0.851194 0.286473
0.742611 0.855100 0.296117
0.780880 0.859159 0.304021
0.814969 0.863493 0.310857
0.842924 0.867613 0.316747
0.863188 0.870970 0.320623
0.873869 0.873350 0.323156
0.878691 0.869505 0.322728
0.883116 0.865599 0.322179
0.885679 0.855253 0.319249
0.885893 0.832853 0.315709
0.886870 0.812955 0.315496
0.890440 0.803098 0.325689
0.265141 0.805692 0.209018
0.424872 0.842954 0.226780
0.563653 0.851926 0.259434
0.662531 0.861265 0.281529
0.723415 0.868101 0.295415
0.766354 0.871672 0.305028
0.798276 0.874083 0.311070
0.827207 0.877226 0.316655
0.850248 0.880766 0.320958
0.867369 0.884001 0.326207
0.877867 0.886564 0.329412
0.883146 0.891508 0.327520
0.886992 0.888487 0.327581
0.889158 0.881132 0.326482
0.891844 0.872862 0.328008
0.893645 0.857572 0.329686
0.897398 0.848142 0.341100
0.287175 0.840635 0.219333
0.443214 0.870237 0.234745
0.587884 0.871366 0.269169
0.682277 0.877379 0.290166
0.743343 0.881712 0.303685
0.786160 0.884581 0.313268
0.816770 0.886320 0.318853
0.839170 0.889158 0.322606
0.859037 0.892302 0.326116
0.871305 0.895018 0.329900
0.881651 0.898039 0.334447
0.886290 0.902190 0.334020
0.890959 0.907195 0.332128
0.892821 0.901946 0.331640
0.894255 0.893828 0.334051
0.897185 0.885557 0.340459
0.900359 0.873655 0.354345
0.322393 0.869566 0.231205
0.467170 0.887755 0.245884
0.616083 0.882811 0.279911
0.703151 0.888518 0.299107
0.760433 0.892912 0.311650
0.800900 0.895445 0.320684
0.830411 0.896178 0.326024
0.849943 0.898863 0.329137
0.865721 0.901976 0.331334
0.875731 0.904662 0.334081
0.883696 0.907012 0.337377
0.888548 0.908568 0.341558
0.892760 0.913359 0.340459
0.896452 0.920684 0.336004
0.897093 0.912566 0.339025
0.898741 0.903777 0.346166
0.902251 0.894804 0.365881
0.368536 0.885954 0.245792
0.485847 0.897704 0.256840
0.624598 0.891051 0.286564
0.709651 0.896147 0.305180
0.761685 0.900206 0.317021
0.800687 0.902464 0.325963
0.829648 0.902922 0.332097
0.849790 0.904967 0.335912
0.866331 0.907774 0.338628
0.875792 0.911711 0.341161
0.883207 0.913756 0.343816
0.888701 0.914641 0.346624
0.893553 0.915892 0.349950
0.897765 0.920592 0.348638
0.900298 0.929320 0.344121
0.900786 0.918822 0.351019
0.902953 0.907958 0.370398
0.411719 0.897826 0.261936
0.499489 0.903655 0.267460
0.622187 0.897398 0.291447
0.704738 0.901854 0.309667
0.755886 0.904784 0.321477
0.792538 0.907134 0.330480
0.821195 0.907591 0.337102
0.844419 0.909117 0.342992
0.861601 0.911650 0.346716
0.871946 0.916106 0.350530
0.880919 0.919707 0.353521
0.887236 0.920897 0.356146
0.893126 0.921172 0.357610
0.897917 0.922118 0.360723
0.901091 0.927153 0.359564
0.903380 0.935027 0.355993
0.904265 0.921721 0.375158
0.441291 0.904356 0.279026
0.505241 0.905577 0.280064
0.607477 0.901488 0.297581
0.686702 0.905119 0.315068
0.734890 0.906767 0.325689
0.772335 0.907866 0.334874
0.801114 0.908934 0.342473
0.827634 0.910857 0.350561
0.852018 0.913359 0.358862
0.863432 0.918303 0.363989
0.874144 0.922942 0.370550
0.882841 0.926146 0.374273
0.890013 0.926940 0.377020
0.896574 0.926818 0.377844
0.900633 0.927428 0.380713
0.903929 0.930877 0.380682
0.906523 0.936828 0.379126
0.026215 0.026215 0.089082
0.052827 0.025299 0.099794
0.108949 0.024720 0.100618
0.176150 0.027955 0.102052
0.246372 0.033173 0.104799
0.325109 0.040467 0.111879
0.397925 0.048432 0.118196
0.460853 0.056641 0.123659
0.509728 0.063294 0.125002
0.557824 0.069764 0.127169
0.591485 0.076204 0.128420
0.620813 0.081514 0.129427
0.641688 0.088014 0.132418
0.657710 0.092897 0.135866
0.670039 0.096345 0.143160
0.682918 0.099306 0.151308
0.701534 0.102113 0.162844
0.024445 0.060182 0.114046
0.045991 0.042878 0.127840
0.148989 0.045106 0.127871
0.251347 0.046143 0.110018
0.366644 0.052003 0.106386
0.459663 0.058167 0.105776
0.527276 0.064332 0.105959
0.578973 0.068666 0.103456
0.615991 0.076020 0.103914
0.644648 0.083894 0.104707
0.667262 0.093721 0.108217
0.680842 0.099702 0.112734
0.692683 0.105898 0.119600
0.701930 0.108827 0.128267
0.715755 0.111574 0.139162
0.734005 0.116579 0.151461
0.760189 0.129397 0.169162
0.034974 0.121248 0.125216
0.070710 0.147646 0.156008
0.148898 0.124514 0.128786
0.264134 0.114473 0.108217
0.393500 0.114748 0.102754
0.491829 0.114534 0.101015
0.554742 0.113527 0.098817
0.594690 0.113283 0.099184
0.621149 0.120729 0.101137
0.643427 0.129305 0.103212
0.663508 0.140169 0.106966
0.678828 0.145052 0.109926
0.696315 0.150759 0.115877
0.712459 0.154055 0.123110
0.732082 0.160525 0.136843
0.756649 0.173190 0.154421
0.785519 0.194064 0.179171
0.059419 0.216678 0.122805
0.101747 0.297490 0.135775
0.170230 0.269718 0.118593
0.302586 0.291936 0.137697
0.418067 0.281743 0.136446
0.504967 0.279728 0.140444
0.566400 0.275944 0.142611
0.608057 0.267338 0.143618
0.638148 0.254551 0.140536
0.663691 0.240452 0.136568
0.684291 0.237552 0.136141
0.699977 0.236027 0.137087
0.718379 0.239414 0.141054
0.735958 0.242222 0.146456
0.755398 0.242802 0.154757
0.778164 0.250950 0.171176
0.804623 0.268315 0.196445
0.087526 0.321172 0.131472
0.140993 0.444862 0.142947
0.217014 0.425971 0.135744
0.345556 0.452918 0.161654
0.469429 0.480903 0.182925
0.557427 0.475898 0.191135
0.621942 0.470375 0.195621
0.665522 0.461524 0.198947
0.688991 0.435554 0.193668
0.707393 0.408270 0.187320
0.719844 0.376242 0.179294
0.731197 0.357946 0.174441
0.743557 0.339330 0.170199
0.758877 0.334325 0.171572
0.775265 0.326635 0.174777
0.795224 0.330663 0.188510
0.819944 0.346014 0.213687
0.116243 0.423102 0.148135
0.178439 0.551171 0.161563
0.270665 0.544915 0.161624
0.406073 0.576501 0.189548
0.512901 0.602441 0.210208
0.604730 0.619410 0.229038
0.669703 0.608270 0.234195
0.713130 0.595422 0.237675
0.737606 0.572931 0.234379
0.753780 0.543923 0.228061
0.761929 0.512825 0.220737
0.769100 0.480644 0.211276
0.774166 0.451835 0.203769
0.783719 0.432105 0.199222
0.797330 0.419196 0.199252
0.814389 0.416297 0.208499
0.835294 0.428840 0.232486
0.143252 0.511620 0.166720
0.208438 0.632044 0.177157
0.320897 0.638361 0.185031
0.457618 0.669245 0.211704
0.552087 0.689998 0.231388
0.636561 0.706325 0.249119
0.711299 0.716854 0.263890
0.753445 0.701350 0.268132
0.778012 0.682277 0.266880
0.797147 0.662211 0.263371
0.806607 0.636576 0.257664
0.809171 0.605264 0.248447
0.810788 0.572213 0.239200
0.813321 0.542092 0.230472
0.822293 0.520546 0.226871
0.836851 0.512322 0.233738
0.854429 0.517205 0.253727
0.164920 0.586725 0.187869
0.228458 0.700038 0.191043
0.363043 0.712154 0.206577
0.500114 0.737789 0.231357
0.582910 0.749691 0.249516
0.661372 0.765988 0.266514
0.730526 0.777340 0.280308
0.790738 0.785183 0.291325
0.814664 0.766354 0.290654
0.831815 0.748333 0.288670
0.840909 0.725383 0.284459
0.843595 0.696971 0.275975
0.841398 0.665232 0.267216
0.840818 0.635508 0.258640
0.846036 0.616342 0.256382
0.854795 0.605966 0.262364
0.868406 0.607340 0.281346
0.178805 0.649287 0.203677
0.237888 0.752773 0.204288
0.386755 0.764797 0.217441
0.526146 0.786862 0.243778
0.613886 0.797147 0.263279
0.681117 0.805264 0.277409
0.742916 0.817807 0.290135
0.798795 0.826474 0.300694
0.837919 0.833219 0.309392
0.854246 0.819226 0.308904
0.862394 0.805707 0.307225
0.868009 0.782391 0.300237
0.868193 0.754437 0.293095
0.866514 0.723003 0.285283
0.869200 0.705303 0.284215
0.874540 0.695598 0.291997
0.882109 0.692454 0.310552
0.191135 0.709926 0.221592
0.248234 0.796658 0.212558
0.405829 0.808988 0.225681
0.548272 0.826291 0.254215
0.640833 0.834806 0.274876
0.706203 0.840848 0.288609
0.759670 0.847440 0.299748
0.807004 0.856809 0.309483
0.843992 0.862760 0.318090
0.869261 0.867796 0.324651
0.875944 0.856107 0.323766
0.879973 0.844083 0.318273
0.881682 0.822354 0.312993
0.880125 0.795895 0.306371
0.880766 0.770565 0.306523
0.885710 0.761227 0.316258
0.892821 0.758206 0.336553
0.196902 0.761257 0.232883
0.262852 0.834440 0.220890
0.420844 0.844327 0.231022
0.565576 0.855497 0.262333
0.663508 0.861723 0.283940
0.728511 0.865507 0.298070
0.778408 0.869017 0.308721
0.816953 0.873625 0.316991
0.849699 0.878965 0.325231
0.871427 0.884153 0.331395
0.883757 0.887907 0.334295
0.887785 0.882445 0.330053
0.889677 0.872587 0.327703
0.890623 0.855344 0.323888
0.891234 0.832029 0.326238
0.894133 0.815457 0.338018
0.899779 0.810025 0.360143
0.204044 0.809018 0.242252
0.297978 0.859892 0.231174
0.445930 0.868833 0.239902
0.592187 0.872190 0.272404
0.688594 0.877958 0.293675
0.752651 0.882628 0.307652
0.796994 0.885100 0.317479
0.830076 0.888579 0.324285
0.857389 0.892821 0.330602
0.873960 0.896391 0.336309
0.885344 0.899657 0.339391
0.892180 0.906035 0.339086
0.894072 0.899107 0.337560
0.895048 0.887785 0.335363
0.897398 0.875364 0.342535
0.900603 0.861295 0.356023
0.905577 0.853330 0.379187
0.222446 0.844663 0.253422
0.336645 0.882994 0.243320
0.469123 0.888060 0.249332
0.616022 0.884550 0.282353
0.704616 0.889708 0.301671
0.767391 0.893980 0.315312
0.810452 0.896056 0.324865
0.837949 0.898558 0.330602
0.862882 0.902464 0.335882
0.876158 0.906279 0.340307
0.886748 0.908995 0.345312
0.893706 0.913695 0.346288
0.897581 0.920592 0.343236
0.898314 0.911711 0.342535
0.899748 0.899168 0.352422
0.902861 0.887633 0.372961
0.906950 0.875731 0.398108
0.250156 0.873411 0.265690
0.385107 0.894713 0.258396
0.492500 0.900633 0.260533
0.635981 0.894713 0.291508
0.719295 0.899199 0.309850
0.775937 0.903532 0.322454
0.816648 0.904906 0.331426
0.843442 0.907073 0.337255
0.865599 0.909911 0.342107
0.877623 0.914244 0.346105
0.887358 0.917388 0.349767
0.894560 0.918608 0.353368
0.898497 0.924163 0.352422
0.901244 0.932342 0.348272
0.902007 0.919615 0.359747
0.904234 0.907469 0.383185
0.907805 0.897002 0.416144
0.293828 0.888975 0.284489
0.414191 0.901640 0.274937
0.501396 0.903960 0.271153
0.623835 0.900359 0.295079
0.703914 0.902464 0.313695
0.759976 0.906218 0.326726
0.800504 0.907622 0.336309
0.832395 0.909697 0.344182
0.857389 0.912535 0.350530
0.871366 0.917906 0.357061
0.882353 0.921569 0.361242
0.891325 0.923796 0.365148
0.897826 0.924529 0.367193
0.902037 0.929351 0.365667
0.904265 0.935302 0.364263
0.905699 0.922515 0.389654
0.908324 0.911254 0.424933
0.331823 0.899931 0.305119
0.431922 0.906584 0.294072
0.507164 0.905882 0.286076
0.614252 0.903777 0.305089
0.684901 0.905486 0.319646
0.738918 0.907744 0.332616
0.779141 0.909178 0.342473
0.814023 0.911467 0.352697
0.844541 0.914702 0.362432
0.862394 0.920531 0.371679
0.875700 0.925902 0.381415
0.885588 0.928954 0.386755
0.894255 0.929747 0.389929
0.900938 0.930053 0.391333
0.905089 0.933227 0.391608
0.907805 0.936980 0.391760
0.909636 0.924834 0.430671
0.360113 0.905791 0.329351
0.435981 0.909636 0.317357
0.511803 0.908049 0.308049
0.603052 0.907347 0.321843
0.665125 0.908629 0.332647
0.715389 0.909300 0.342809
0.755215 0.910765 0.353185
0.791806 0.912840 0.365423
0.827237 0.916167 0.378851
0.848661 0.922423 0.390661
0.867887 0.928344 0.405432
0.879149 0.933440 0.415747
0.888548 0.934630 0.423072
0.897063 0.934905 0.426581
0.903410 0.934966 0.428779
0.907927 0.936156 0.430060
0.911376 0.938079 0.431922
0.026490 0.026490 0.124910
0.048951 0.025788 0.129763
0.096956 0.024903 0.128084
0.160403 0.027832 0.127687
0.224155 0.034546 0.133486
0.291630 0.041627 0.139437
0.359350 0.049317 0.146304
0.419165 0.057130 0.153384
0.470344 0.064546 0.156374
0.517784 0.071595 0.160739
0.552209 0.076173 0.160403
0.581384 0.080415 0.160281
0.603937 0.084169 0.160525
0.622095 0.087739 0.161379
