LUTs/25.cube
# (C) 2014 VisionColor & Patchflyer [www.vision-color.com]
# Generator: VC Patchmatch v.2.1.1 [64/53]
# All work and no play makes Jack a dull boy.
# LUT generated from: Fuji Pro 400_FC
LUT_3D_SIZE 9
0.025147 0.025147 0.025147
0.165011 0.026429 0.030030
0.381628 0.041901 0.044373
0.523430 0.053864 0.058564
0.569085 0.063722 0.065949
0.597833 0.088167 0.076417
0.630915 0.122408 0.090272
0.674434 0.142916 0.103243
0.714412 0.153689 0.122621
0.054261 0.165530 0.030335
0.188022 0.183780 0.054292
0.347326 0.221225 0.088685
0.479133 0.268650 0.119875
0.558556 0.295445 0.138613
0.621027 0.312200 0.149844
0.668147 0.302525 0.150790
0.708003 0.298161 0.153170
0.749355 0.300328 0.161105
0.128420 0.359106 0.085786
0.300023 0.400854 0.124727
0.411078 0.439887 0.152316
0.538628 0.504356 0.190829
0.639002 0.548669 0.218387
0.703243 0.555810 0.228519
0.737606 0.522820 0.222110
0.759213 0.476448 0.210575
0.785580 0.447578 0.202884
0.213718 0.521508 0.140932
0.420264 0.573999 0.184665
0.515404 0.614191 0.209842
0.590387 0.642023 0.231052
0.690288 0.663813 0.252232
0.762020 0.670558 0.265232
0.798306 0.652827 0.263249
0.811399 0.621454 0.253513
0.827512 0.594385 0.246555
0.307683 0.641596 0.180514
0.505913 0.692805 0.221408
0.593439 0.719905 0.242527
0.664012 0.741787 0.260929
0.738109 0.753872 0.276677
0.805447 0.761654 0.289189
0.843961 0.753872 0.292668
0.857084 0.728267 0.285313
0.862730 0.703273 0.278874
0.376501 0.740749 0.207401
0.568261 0.783536 0.247807
0.659937 0.801083 0.269566
0.728145 0.815030 0.285130
0.789029 0.824521 0.297551
0.836271 0.831327 0.305791
0.867155 0.838376 0.313695
0.877562 0.823911 0.312078
0.880980 0.794705 0.304601
0.408789 0.820005 0.222080
0.615290 0.845365 0.268009
0.721431 0.857298 0.292241
0.779202 0.863584 0.304997
0.827604 0.869322 0.313634
0.862821 0.873869 0.321111
0.875761 0.879698 0.323522
0.886259 0.879728 0.326177
0.892302 0.869841 0.326909
0.450294 0.875547 0.240085
0.674525 0.878874 0.289219
0.772305 0.886320 0.310430
0.821439 0.889097 0.321508
0.855283 0.894255 0.326635
0.875456 0.899474 0.331121
0.885527 0.901884 0.337377
0.893523 0.912993 0.333898
0.896757 0.902434 0.336187
0.495460 0.903685 0.261601
0.712276 0.899290 0.308202
0.793576 0.905974 0.325200
0.840269 0.906859 0.335912
0.864744 0.909728 0.341314
0.880522 0.916106 0.344244
0.891722 0.917876 0.348730
0.897765 0.921050 0.354162
0.902037 0.934508 0.347631
0.026215 0.026215 0.089082
0.108949 0.024720 0.100618
0.246372 0.033173 0.104799
0.397925 0.048432 0.118196
0.509728 0.063294 0.125002
0.591485 0.076204 0.128420
0.641688 0.088014 0.132418
0.670039 0.096345 0.143160
0.701534 0.102113 0.162844
0.034974 0.121248 0.125216
0.148898 0.124514 0.128786
0.393500 0.114748 0.102754
0.554742 0.113527 0.098817
0.621149 0.120729 0.101137
0.663508 0.140169 0.106966
0.696315 0.150759 0.115877
0.732082 0.160525 0.136843
0.785519 0.194064 0.179171
0.087526 0.321172 0.131472
0.217014 0.425971 0.135744
0.469429 0.480903 0.182925
0.621942 0.470375 0.195621
0.688991 0.435554 0.193668
0.719844 0.376242 0.179294
0.743557 0.339330 0.170199
0.775265 0.326635 0.174777
0.819944 0.346014 0.213687
0.143252 0.511620 0.166720
0.320897 0.638361 0.185031
0.552087 0.689998 0.231388
0.711299 0.716854 0.263890
0.778012 0.682277 0.266880
0.806607 0.636576 0.257664
0.810788 0.572213 0.239200
0.822293 0.520546 0.226871
0.854429 0.517205 0.253727
0.178805 0.649287 0.203677
0.386755 0.764797 0.217441
0.613886 0.797147 0.263279
0.742916 0.817807 0.290135
0.837919 0.833219 0.309392
0.862394 0.805707 0.307225
0.868193 0.754437 0.293095
0.869200 0.705303 0.284215
0.882109 0.692454 0.310552
0.196902 0.761257 0.232883
0.420844 0.844327 0.231022
0.663508 0.861723 0.283940
0.778408 0.869017 0.308721
0.849699 0.878965 0.325231
0.883757 0.887907 0.334295
0.889677 0.872587 0.327703
0.891234 0.832029 0.326238
0.899779 0.810025 0.360143
0.222446 0.844663 0.253422
0.469123 0.888060 0.249332
0.704616 0.889708 0.301671
0.810452 0.896056 0.324865
0.862882 0.902464 0.335882
0.886748 0.908995 0.345312
0.897581 0.920592 0.343236
0.899748 0.899168 0.352422
0.906950 0.875731 0.398108
0.293828 0.888975 0.284489
0.501396 0.903960 0.271153
0.703914 0.902464 0.313695
0.800504 0.907622 0.336309
0.857389 0.912535 0.350530
0.882353 0.921569 0.361242
0.897826 0.924529 0.367193
0.904265 0.935302 0.364263
0.908324 0.911254 0.424933
0.360113 0.905791 0.329351
0.511803 0.908049 0.308049
0.665125 0.908629 0.332647
0.755215 0.910765 0.353185
0.827237 0.916167 0.378851
0.867887 0.928344 0.405432
0.888548 0.934630 0.423072
0.903410 0.934966 0.428779
0.911376 0.938079 0.431922
0.027131 0.027131 0.166629
0.089479 0.025360 0.150790
0.213169 0.034180 0.155520
0.341497 0.050111 0.170108
0.444190 0.064698 0.181491
0.522393 0.076173 0.186679
0.573541 0.083650 0.185672
0.614984 0.090272 0.187228
0.663996 0.100679 0.202182
0.042603 0.103883 0.243046
0.074800 0.061769 0.246403
0.286839 0.078645 0.225315
0.463966 0.085847 0.202304
0.573510 0.092256 0.187167
0.638880 0.096559 0.172946
0.678279 0.100618 0.168002
0.728054 0.113497 0.187686
0.795010 0.150423 0.235080
0.078706 0.230594 0.268864
0.139010 0.302983 0.333745
0.289616 0.263249 0.275151
0.505455 0.234562 0.238163
0.647913 0.204288 0.210086
0.723842 0.183108 0.181857
0.757809 0.181643 0.163485
0.793393 0.201389 0.186465
0.859251 0.273930 0.267094
0.121645 0.417914 0.303593
0.199405 0.587091 0.341100
0.358099 0.540978 0.285344
0.577630 0.565423 0.315160
0.704860 0.510399 0.287633
0.780850 0.452049 0.250767
0.809598 0.404990 0.217746
0.837156 0.391531 0.231571
0.881651 0.444373 0.315465
0.159091 0.589120 0.342687
0.238804 0.766140 0.335973
0.429297 0.730220 0.294560
0.615045 0.745052 0.327977
0.757595 0.758938 0.353979
0.836484 0.718303 0.328557
0.868925 0.678721 0.298131
0.879545 0.641093 0.300450
0.898283 0.637278 0.377478
0.188632 0.730098 0.361913
0.247807 0.859556 0.324376
0.467781 0.842283 0.293004
0.651331 0.848081 0.327062
0.777676 0.857237 0.357824
0.865965 0.873716 0.385168
0.892546 0.855344 0.368627
0.902556 0.819181 0.375952
0.911833 0.797879 0.444556
0.205539 0.827543 0.371344
0.283360 0.891478 0.337682
0.490669 0.887175 0.289128
0.682185 0.890227 0.325811
0.801846 0.896788 0.358373
0.871733 0.909300 0.390173
0.900725 0.917510 0.405493
0.908080 0.898314 0.429816
0.915434 0.872129 0.498909
0.218204 0.872862 0.389929
0.337530 0.901762 0.370764
0.512505 0.908232 0.314183
0.681941 0.909270 0.340154
0.793729 0.913085 0.374334
0.866667 0.927459 0.416938
0.898161 0.934478 0.440497
0.914244 0.937163 0.448157
0.914580 0.913573 0.540825
0.245701 0.890043 0.429541
0.368780 0.908995 0.416327
0.526055 0.916381 0.387274
0.640375 0.915770 0.390967
0.751003 0.917967 0.427283
0.841764 0.929259 0.476844
0.883879 0.938994 0.523949
0.906523 0.940703 0.544762
0.919676 0.940337 0.555840
0.027893 0.028016 0.260838
0.081697 0.027222 0.205570
0.188785 0.034913 0.191592
0.311925 0.049592 0.205081
0.403632 0.062043 0.222873
0.477668 0.072755 0.232029
0.535515 0.082307 0.230472
0.585901 0.089479 0.224765
0.637446 0.098848 0.232731
0.044984 0.093202 0.339696
0.046876 0.045655 0.352209
0.173373 0.052674 0.279301
0.367346 0.074861 0.281682
0.486763 0.083589 0.266514
0.565423 0.091096 0.244816
0.619989 0.096101 0.225864
0.682948 0.109133 0.235233
0.761593 0.144625 0.278202
0.082124 0.204349 0.376898
0.102144 0.210513 0.444709
0.182406 0.168948 0.372992
0.389075 0.181521 0.365270
0.550622 0.160861 0.320165
0.659998 0.145052 0.278874
0.734981 0.136507 0.245304
0.798917 0.154452 0.254459
0.862486 0.234012 0.323919
0.119234 0.354910 0.417426
0.181552 0.529152 0.531273
0.262638 0.474891 0.475441
0.443488 0.433570 0.443854
0.600122 0.373175 0.398138
0.736965 0.305196 0.337301
0.813657 0.261173 0.275715
0.854948 0.275578 0.267887
0.901396 0.393317 0.380194
0.160616 0.545388 0.454444
0.227420 0.729320 0.532982
0.317174 0.698955 0.476997
0.491585 0.657618 0.454658
0.666010 0.674479 0.479622
0.781216 0.616312 0.426657
0.857633 0.560037 0.362966
0.888457 0.531624 0.345266
0.906889 0.580148 0.456046
0.204471 0.710674 0.485176
0.256962 0.849332 0.524330
0.340764 0.842039 0.460685
0.514458 0.810117 0.429191
0.684901 0.819181 0.463432
0.817105 0.833585 0.498268
0.880491 0.803021 0.457771
0.907561 0.779065 0.440558
0.917815 0.764813 0.540948
0.241886 0.827390 0.506950
0.257115 0.885161 0.512856
0.334051 0.891936 0.441138
0.516899 0.883116 0.387869
0.692805 0.884672 0.422782
0.824216 0.896086 0.476112
0.892088 0.906340 0.519158
0.913756 0.891142 0.519615
0.922057 0.865934 0.604517
0.256779 0.877623 0.528191
0.263005 0.892821 0.508278
0.353307 0.908110 0.456062
0.523705 0.912840 0.390631
0.692134 0.914000 0.411200
0.828336 0.925872 0.476692
0.891356 0.937438 0.533471
0.918120 0.938628 0.556390
0.921355 0.913634 0.646052
0.261357 0.893736 0.550057
0.293462 0.898253 0.536248
0.410040 0.916075 0.521019
0.555962 0.920562 0.499916
0.684565 0.921294 0.508049
0.805508 0.930694 0.557610
0.880186 0.940887 0.618097
0.910185 0.945190 0.656947
0.924224 0.946014 0.672602
0.028260 0.028748 0.350622
0.068544 0.027405 0.266484
0.161257 0.034058 0.228061
0.263401 0.046601 0.233280
0.357458 0.059052 0.244419
0.427955 0.068360 0.260227
0.499123 0.078187 0.262699
0.564050 0.088319 0.258305
0.620508 0.098848 0.260136
0.044251 0.083650 0.417700
0.037263 0.040009 0.435187
0.101198 0.041993 0.348547
0.239445 0.056641 0.322057
0.405066 0.076539 0.312596
0.507042 0.084932 0.293706
0.585168 0.095064 0.273747
0.646601 0.107881 0.274784
0.724483 0.142397 0.311406
0.082277 0.190311 0.460883
0.079561 0.162966 0.520623
0.113619 0.125338 0.458747
0.245548 0.131441 0.441596
0.457679 0.144717 0.411963
0.586267 0.131899 0.351370
0.671839 0.128145 0.308171
0.749142 0.149508 0.310369
0.831083 0.228336 0.374426
0.126894 0.353902 0.502922
0.155367 0.428504 0.601648
0.185031 0.361578 0.551141
0.294224 0.317052 0.517296
0.512474 0.326421 0.516670
0.658259 0.266407 0.441855
0.769162 0.223072 0.370871
0.843870 0.232914 0.351751
0.895872 0.371984 0.455985
0.168582 0.530617 0.550103
0.226383 0.695796 0.678965
0.262455 0.653696 0.639902
0.386450 0.613108 0.608377
0.569848 0.588785 0.594125
0.700603 0.519875 0.535622
0.828519 0.449119 0.464744
0.891997 0.414847 0.410880
0.912779 0.541512 0.528725
0.212528 0.699794 0.588617
0.277287 0.833890 0.706325
0.296208 0.812421 0.647715
0.401190 0.787091 0.609018
0.583795 0.760845 0.594308
0.754559 0.786816 0.627588
0.855406 0.739666 0.574426
0.905882 0.704509 0.533989
0.921508 0.738628 0.629572
0.265476 0.823606 0.639185
0.331365 0.897887 0.741863
0.311376 0.885588 0.654612
0.381933 0.878599 0.587198
0.575708 0.869108 0.554940
0.758404 0.879301 0.594965
0.877195 0.893614 0.648859
0.915312 0.874754 0.630091
0.926329 0.859831 0.701015
0.316197 0.890532 0.693599
0.333867 0.912230 0.724102
0.310582 0.902098 0.639902
0.380346 0.910887 0.581247
0.564019 0.911192 0.525490
0.758221 0.919127 0.561883
0.878996 0.933471 0.640009
0.919493 0.940795 0.684871
0.928344 0.911681 0.739742
0.344701 0.915312 0.733288
0.312322 0.904875 0.682963
0.344732 0.908324 0.652201
0.480171 0.919127 0.641398
0.627436 0.925536 0.627878
0.773022 0.930327 0.648402
0.872465 0.941527 0.707454
0.910491 0.947051 0.752895
0.930480 0.948730 0.772030
0.029725 0.029572 0.422095
0.052064 0.027192 0.323552
0.118593 0.031189 0.273594
0.207401 0.041932 0.269352
0.296223 0.053376 0.268864
0.377020 0.064637 0.275731
0.453437 0.074617 0.283299
0.542809 0.087495 0.286198
0.610315 0.100526 0.291814
0.045930 0.081941 0.482246
0.033356 0.036103 0.486610
0.056275 0.036988 0.427466
0.135515 0.043183 0.384527
0.271015 0.058747 0.348791
0.446235 0.079438 0.337346
0.558160 0.094392 0.322057
0.629358 0.109163 0.319921
0.700618 0.138186 0.346319
0.082856 0.186740 0.535210
0.068544 0.140383 0.571618
0.070771 0.096376 0.531701
0.140398 0.097383 0.540490
0.295460 0.108003 0.487953
0.515221 0.125826 0.434516
0.623377 0.121584 0.375280
0.707942 0.142092 0.362982
0.801022 0.214817 0.417731
0.129671 0.353201 0.576684
0.132998 0.350362 0.645075
0.128939 0.275227 0.610010
0.173693 0.221332 0.595972
0.342443 0.229511 0.599268
0.588708 0.250233 0.567559
0.709285 0.204791 0.461036
0.799130 0.216037 0.421149
0.867887 0.364462 0.518486
0.175296 0.529763 0.623774
0.204257 0.597116 0.720027
0.205188 0.536141 0.694667
0.263691 0.487938 0.674647
0.402167 0.454627 0.653590
0.633783 0.486198 0.667048
0.774472 0.422751 0.584802
0.866148 0.391287 0.520500
0.903929 0.536538 0.624659
0.217655 0.684108 0.672358
0.263737 0.783017 0.783902
0.272740 0.766506 0.770748
0.343725 0.747860 0.752590
0.501320 0.737392 0.737819
0.676204 0.733364 0.728969
0.810269 0.682689 0.674922
0.889342 0.624826 0.616007
0.916869 0.707012 0.703319
0.264775 0.807248 0.721614
0.309331 0.871122 0.817990
0.305638 0.870085 0.792508
0.341192 0.861570 0.753841
0.488365 0.859312 0.730022
0.677791 0.854063 0.714626
0.846372 0.876921 0.756161
0.906371 0.850553 0.731197
0.930053 0.854246 0.778744
0.319493 0.877714 0.782834
0.352911 0.908110 0.841367
0.331701 0.904265 0.797940
0.346349 0.903227 0.750546
0.477287 0.908141 0.719707
0.665125 0.908965 0.689097
0.846433 0.921904 0.738277
0.913970 0.932342 0.790311
0.934020 0.910216 0.819455
0.369116 0.915434 0.834958
0.346136 0.912047 0.807401
0.344274 0.908110 0.765347
0.445197 0.916686 0.760983
0.585824 0.928222 0.756008
0.728450 0.930938 0.755367
0.854826 0.939696 0.785733
0.907622 0.947112 0.832822
0.937346 0.950927 0.853574
0.030915 0.029877 0.471229
0.039857 0.028321 0.391150
0.072145 0.028992 0.344060
0.137789 0.035615 0.322515
0.219608 0.045594 0.309636
0.304265 0.057038 0.303563
0.412268 0.071901 0.304814
0.518090 0.086702 0.313146
0.604303 0.102846 0.326543
0.047120 0.083253 0.533013
0.033112 0.037598 0.541070
0.038148 0.037324 0.519890
0.071412 0.038422 0.487251
0.162524 0.046632 0.428931
0.314824 0.064515 0.383886
0.514488 0.088838 0.374670
0.613581 0.109957 0.374395
0.682124 0.134646 0.395880
0.084962 0.190707 0.591638
0.062684 0.125429 0.605432
0.050050 0.078340 0.577264
0.076295 0.075502 0.615930
0.169574 0.077699 0.583856
0.350683 0.095674 0.500267
0.559350 0.119539 0.462409
0.672358 0.137972 0.445991
0.773739 0.197757 0.481544
0.129519 0.342397 0.631861
0.116670 0.288624 0.665797
0.095735 0.213306 0.645319
0.100252 0.157382 0.652277
0.193011 0.157244 0.694514
0.400031 0.175952 0.647700
0.635706 0.208301 0.601831
0.750393 0.202182 0.531914
0.843534 0.337972 0.592523
0.175448 0.508644 0.676997
0.178042 0.497887 0.719631
0.159396 0.423789 0.709468
0.168811 0.360220 0.707393
0.239338 0.314809 0.720333
0.458686 0.357595 0.745571
0.707393 0.404135 0.736904
0.821866 0.367269 0.650172
0.885405 0.515724 0.703487
0.218997 0.657099 0.724819
0.237369 0.690211 0.782101
0.231388 0.657008 0.778592
0.257572 0.636133 0.783810
0.365759 0.620157 0.794247
0.515358 0.596262 0.781796
0.752132 0.658427 0.802701
0.863920 0.605814 0.750408
0.906676 0.693049 0.786679
0.253788 0.769039 0.763516
0.286137 0.830472 0.837400
0.292546 0.839200 0.841672
0.324041 0.842100 0.842039
0.449088 0.847166 0.846372
0.621454 0.849088 0.843595
0.779690 0.855558 0.836820
0.887053 0.817655 0.809720
0.927886 0.837797 0.831785
0.290990 0.847990 0.801511
0.311406 0.879240 0.847440
0.316960 0.889952 0.850370
0.341314 0.896849 0.843473
0.448478 0.903380 0.842618
0.616373 0.909758 0.834653
0.782345 0.907744 0.821714
0.907012 0.926604 0.863493
0.939818 0.912688 0.868254
0.330510 0.889738 0.840665
0.330510 0.898741 0.848081
0.342351 0.902983 0.834684
0.432105 0.913939 0.838834
0.564370 0.928405 0.846464
0.705653 0.936889 0.843168
0.818265 0.938994 0.850187
0.909239 0.950225 0.878355
0.943053 0.953826 0.893248
0.030976 0.031830 0.519890
0.034394 0.031708 0.481147
0.047547 0.031220 0.451881
0.081117 0.033539 0.424140
0.146304 0.040131 0.390112
0.231510 0.049928 0.363592
0.344182 0.064240 0.345251
0.481910 0.082429 0.343633
0.589441 0.102480 0.363531
0.047913 0.086275 0.577447
0.037446 0.052613 0.575952
0.040345 0.050111 0.602380
0.061097 0.048432 0.603021
0.119265 0.051179 0.549737
0.233371 0.061616 0.475898
0.393713 0.081117 0.432074
0.567163 0.103059 0.431159
0.654414 0.134524 0.458869
0.085145 0.188785 0.628229
0.067292 0.137850 0.630213
0.051667 0.091493 0.633539
0.064057 0.083436 0.688655
0.124269 0.082551 0.698207
0.252049 0.093538 0.618341
0.431067 0.113954 0.554131
0.605768 0.139925 0.530877
0.735042 0.200626 0.580896
0.125917 0.319402 0.663325
0.110445 0.262089 0.677577
0.089479 0.196994 0.673793
0.077363 0.139010 0.701930
0.125673 0.134432 0.774685
0.257359 0.148562 0.760739
0.470253 0.176608 0.690303
0.675441 0.219242 0.663661
0.817288 0.331777 0.706203
0.168368 0.468925 0.697200
0.157473 0.425284 0.717067
0.138399 0.355825 0.719509
0.127443 0.287404 0.732204
0.145693 0.231281 0.768521
0.282963 0.267079 0.816922
0.527184 0.318990 0.798154
0.768032 0.366415 0.791196
0.869505 0.497063 0.797787
0.210117 0.608331 0.744106
0.207614 0.584314 0.760739
0.198734 0.551736 0.767330
0.205234 0.520607 0.783261
0.250492 0.492393 0.814115
0.328695 0.447105 0.829496
0.587991 0.539956 0.850706
0.824033 0.578805 0.857542
0.895750 0.663218 0.849546
0.247654 0.723995 0.786404
0.258030 0.736873 0.817533
0.261204 0.740230 0.828611
0.282200 0.748898 0.842649
0.367559 0.771145 0.865476
0.499352 0.768307 0.877409
0.639277 0.742641 0.867491
0.865934 0.796231 0.885100
0.915129 0.811337 0.876921
0.278019 0.813291 0.823240
0.298070 0.858427 0.858152
0.315343 0.878813 0.869932
0.349248 0.894438 0.879973
0.442206 0.902068 0.889403
0.586557 0.908843 0.894957
0.728908 0.914214 0.900114
0.885618 0.912413 0.898680
0.938720 0.913939 0.900572
0.302434 0.868132 0.843198
0.313359 0.885100 0.855924
0.338018 0.898375 0.864103
0.422522 0.913512 0.874388
0.546487 0.928405 0.882902
0.681147 0.939178 0.890379
0.794858 0.941924 0.892790
0.893004 0.945037 0.905760
0.946319 0.954040 0.914885
0.033234 0.041016 0.567529
0.033478 0.040833 0.567834
0.041230 0.039826 0.569604
0.062074 0.040040 0.547906
0.104860 0.042603 0.505974
0.180514 0.049317 0.454719
0.283879 0.061158 0.415778
0.413733 0.077790 0.392523
0.549859 0.096010 0.396765
0.052277 0.100679 0.613703
0.049622 0.085115 0.620142
0.055421 0.078218 0.670130
0.079164 0.075868 0.702785
0.130953 0.077089 0.685084
0.222324 0.085878 0.611872
0.343755 0.098054 0.554070
0.476143 0.114137 0.524254
0.602960 0.135164 0.519188
0.088380 0.197757 0.657313
0.079744 0.168826 0.662043
0.074586 0.136355 0.704829
0.096773 0.128939 0.764920
0.146426 0.131167 0.803677
0.246036 0.143282 0.772274
0.390021 0.162142 0.712154
0.541588 0.183444 0.677516
0.679683 0.219791 0.668635
0.123537 0.306249 0.686549
0.113802 0.267399 0.695338
0.104860 0.223575 0.715969
0.121370 0.204349 0.772396
0.173922 0.215518 0.827268
0.277531 0.242100 0.843046
0.441901 0.275822 0.813809
0.614374 0.306859 0.789883
0.772152 0.342779 0.792111
0.159457 0.432197 0.709834
0.149966 0.392508 0.728695
0.147982 0.352255 0.749630
0.167117 0.335225 0.786862
0.209537 0.331746 0.832639
0.328435 0.382452 0.865049
0.505058 0.434379 0.860471
0.683284 0.468009 0.851591
0.839841 0.485740 0.855772
0.196078 0.547570 0.744167
0.191714 0.529381 0.761044
0.204349 0.523919 0.785733
0.247410 0.532937 0.823972
0.299840 0.531594 0.854215
0.371633 0.531350 0.876646
0.562112 0.608103 0.883787
0.746700 0.646586 0.885649
0.882597 0.643320 0.885374
0.232181 0.660975 0.782437
0.235264 0.663264 0.798245
0.258213 0.690028 0.825620
0.328130 0.731746 0.860685
0.421515 0.756191 0.881804
0.512581 0.748623 0.891905
0.606775 0.742184 0.895262
0.787778 0.798215 0.903014
0.907530 0.799405 0.905516
0.266148 0.762692 0.824552
0.277867 0.785306 0.845945
0.305150 0.823667 0.863188
0.378820 0.853056 0.880858
0.483436 0.868284 0.895750
0.602167 0.877745 0.908110
0.710872 0.878752 0.912291
0.828580 0.886412 0.916136
0.929229 0.906126 0.929107
0.293828 0.849393 0.855528
0.312749 0.875761 0.867369
0.348547 0.898405 0.882292
0.432105 0.913756 0.895048
0.540063 0.928191 0.906859
0.655329 0.938170 0.916655
0.770138 0.941772 0.922454
0.881865 0.946868 0.933288
0.966064 0.966064 0.957580
