LUTs/25.cube
# (C) 2014 VisionColor & Patchflyer [www.vision-color.com]
# Generator: VC Patchmatch v.2.1.1 [64/53]
# All work and no play makes Jack a dull boy.
# LUT generated from: Fuji Pro 400_FC
LUT_3D_SIZE 5
0.025147 0.025147 0.025147
0.381628 0.041901 0.044373
0.569085 0.063722 0.065949
0.630915 0.122408 0.090272
0.714412 0.153689 0.122621
0.128420 0.359106 0.085786
0.411078 0.439887 0.152316
0.639002 0.548669 0.218387
0.737606 0.522820 0.222110
0.785580 0.447578 0.202884
0.307683 0.641596 0.180514
0.593439 0.719905 0.242527
0.738109 0.753872 0.276677
0.843961 0.753872 0.292668
0.862730 0.703273 0.278874
0.408789 0.820005 0.222080
0.721431 0.857298 0.292241
0.827604 0.869322 0.313634
0.875761 0.879698 0.323522
0.892302 0.869841 0.326909
0.495460 0.903685 0.261601
0.793576 0.905974 0.325200
0.864744 0.909728 0.341314
0.891722 0.917876 0.348730
0.902037 0.934508 0.347631
0.027131 0.027131 0.166629
0.213169 0.034180 0.155520
0.444190 0.064698 0.181491
0.573541 0.083650 0.185672
0.663996 0.100679 0.202182
0.078706 0.230594 0.268864
0.289616 0.263249 0.275151
0.647913 0.204288 0.210086
0.757809 0.181643 0.163485
0.859251 0.273930 0.267094
0.159091 0.589120 0.342687
0.429297 0.730220 0.294560
0.757595 0.758938 0.353979
0.868925 0.678721 0.298131
0.898283 0.637278 0.377478
0.205539 0.827543 0.371344
0.490669 0.887175 0.289128
0.801846 0.896788 0.358373
0.900725 0.917510 0.405493
0.915434 0.872129 0.498909
0.245701 0.890043 0.429541
0.526055 0.916381 0.387274
0.751003 0.917967 0.427283
0.883879 0.938994 0.523949
0.919676 0.940337 0.555840
0.028260 0.028748 0.350622
0.161257 0.034058 0.228061
0.357458 0.059052 0.244419
0.499123 0.078187 0.262699
0.620508 0.098848 0.260136
0.082277 0.190311 0.460883
0.113619 0.125338 0.458747
0.457679 0.144717 0.411963
0.671839 0.128145 0.308171
0.831083 0.228336 0.374426
0.168582 0.530617 0.550103
0.262455 0.653696 0.639902
0.569848 0.588785 0.594125
0.828519 0.449119 0.464744
0.912779 0.541512 0.528725
0.265476 0.823606 0.639185
0.311376 0.885588 0.654612
0.575708 0.869108 0.554940
0.877195 0.893614 0.648859
0.926329 0.859831 0.701015
0.344701 0.915312 0.733288
0.344732 0.908324 0.652201
0.627436 0.925536 0.627878
0.872465 0.941527 0.707454
0.930480 0.948730 0.772030
0.030915 0.029877 0.471229
0.072145 0.028992 0.344060
0.219608 0.045594 0.309636
0.412268 0.071901 0.304814
0.604303 0.102846 0.326543
0.084962 0.190707 0.591638
0.050050 0.078340 0.577264
0.169574 0.077699 0.583856
0.559350 0.119539 0.462409
0.773739 0.197757 0.481544
0.175448 0.508644 0.676997
0.159396 0.423789 0.709468
0.239338 0.314809 0.720333
0.707393 0.404135 0.736904
0.885405 0.515724 0.703487
0.253788 0.769039 0.763516
0.292546 0.839200 0.841672
0.449088 0.847166 0.846372
0.779690 0.855558 0.836820
0.927886 0.837797 0.831785
0.330510 0.889738 0.840665
0.342351 0.902983 0.834684
0.564370 0.928405 0.846464
0.818265 0.938994 0.850187
0.943053 0.953826 0.893248
0.033234 0.041016 0.567529
0.041230 0.039826 0.569604
0.104860 0.042603 0.505974
0.283879 0.061158 0.415778
0.549859 0.096010 0.396765
0.088380 0.197757 0.657313
0.074586 0.136355 0.704829
0.146426 0.131167 0.803677
0.390021 0.162142 0.712154
0.679683 0.219791 0.668635
0.159457 0.432197 0.709834
0.147982 0.352255 0.749630
0.209537 0.331746 0.832639
0.505058 0.434379 0.860471
0.839841 0.485740 0.855772
0.232181 0.660975 0.782437
0.258213 0.690028 0.825620
0.421515 0.756191 0.881804
0.606775 0.742184 0.895262
0.907530 0.799405 0.905516
0.293828 0.849393 0.855528
0.348547 0.898405 0.882292
0.540063 0.928191 0.906859
0.770138 0.941772 0.922454
0.966064 0.966064 0.957580
