LUTs/26.cube
# (C) 2014 VisionColor & Patchflyer [www.vision-color.com]
# Generator: VC Patchmatch v.2.1.1 [64/53]
# All work and no play makes Jack a dull boy.
# LUT generated from: Fuji Pro 400_FPE
LUT_3D_SIZE 9
0.033509 0.036683 0.037079
0.112825 0.046601 0.038819
0.265110 0.058350 0.045899
0.357763 0.061616 0.052644
0.392950 0.068330 0.057099
0.437964 0.091493 0.065522
0.493477 0.129488 0.077882
0.532525 0.151583 0.088441
0.557763 0.163027 0.105287
0.049866 0.127657 0.054871
0.226474 0.194186 0.071992
0.393103 0.250126 0.099611
0.514427 0.304662 0.127810
0.579980 0.333989 0.145266
0.622827 0.348119 0.156435
0.644282 0.338628 0.153506
0.663722 0.334966 0.153597
0.684657 0.337041 0.161410
0.125917 0.296635 0.114137
0.382055 0.396216 0.154391
0.513573 0.450965 0.187259
0.637568 0.515953 0.234989
0.714626 0.551995 0.268894
0.757931 0.559350 0.278691
0.768307 0.533532 0.263920
0.763485 0.495521 0.241611
0.767025 0.470924 0.226169
0.242832 0.434394 0.178805
0.527214 0.536553 0.229252
0.626520 0.579522 0.263615
0.695125 0.609766 0.293584
0.775448 0.635859 0.321141
0.818875 0.641810 0.333562
0.834318 0.629541 0.326970
0.833402 0.607172 0.310246
0.834043 0.587091 0.297063
0.381765 0.532921 0.227970
0.618250 0.617182 0.279210
0.700587 0.648646 0.307713
0.759579 0.672511 0.333196
0.813718 0.690486 0.354467
0.856687 0.699886 0.368414
0.875731 0.695796 0.369726
0.879149 0.679744 0.357183
0.876890 0.662989 0.346166
0.473854 0.601953 0.262333
0.678737 0.672358 0.313359
0.758938 0.699550 0.342809
0.812131 0.718318 0.364172
0.851652 0.731929 0.380774
0.881529 0.741299 0.391180
0.898894 0.746151 0.398993
0.902708 0.737728 0.394781
0.901061 0.719936 0.383154
0.512322 0.643305 0.281682
0.720119 0.709194 0.338445
0.807431 0.736446 0.371405
0.847471 0.750057 0.388556
0.876951 0.760800 0.399664
0.898619 0.769070 0.409003
0.907134 0.774685 0.411902
0.913024 0.775021 0.414069
0.915618 0.767788 0.413672
0.556512 0.679255 0.303685
0.769833 0.739376 0.364965
0.843168 0.762478 0.393164
0.872587 0.772061 0.407263
0.893858 0.780270 0.413916
0.906767 0.786770 0.419440
0.912657 0.790524 0.426856
0.918456 0.797543 0.422339
0.919676 0.792142 0.425452
0.601312 0.707668 0.328679
0.799680 0.760403 0.387640
0.855009 0.778286 0.409583
0.882963 0.786465 0.423194
0.898253 0.792264 0.430060
0.908782 0.798642 0.433631
0.915679 0.801968 0.439094
0.919005 0.805447 0.445319
0.923522 0.812985 0.437110
0.029633 0.036439 0.056672
0.077546 0.044343 0.073671
0.183078 0.056397 0.083803
0.297368 0.065705 0.096803
0.374578 0.073884 0.102815
0.429969 0.081758 0.106172
0.466682 0.091005 0.110262
0.489113 0.099062 0.120699
0.511833 0.104524 0.139773
0.032990 0.098695 0.120607
0.145510 0.135286 0.135256
0.347570 0.133822 0.100465
0.443549 0.125399 0.088228
0.484474 0.128847 0.087495
0.524254 0.149172 0.092164
0.547967 0.160372 0.099458
0.570214 0.171023 0.119570
0.616968 0.210147 0.166140
0.058137 0.253544 0.165255
0.257389 0.384833 0.172519
0.574456 0.493233 0.227329
0.680140 0.488014 0.231479
0.708888 0.459510 0.220035
0.702113 0.406592 0.193393
0.699489 0.373114 0.176455
0.707973 0.361028 0.178958
0.735225 0.380743 0.222995
0.109316 0.390906 0.212406
0.402075 0.538109 0.232914
0.661311 0.625910 0.293065
0.796597 0.668849 0.338445
0.830716 0.649195 0.335698
0.834165 0.617334 0.317449
0.819791 0.570245 0.286259
0.810452 0.530388 0.263432
0.821714 0.529809 0.292729
0.143984 0.472694 0.257786
0.485328 0.615869 0.276005
0.718349 0.688838 0.333593
0.822599 0.722194 0.370642
0.882231 0.743343 0.395361
0.892424 0.726833 0.389227
0.888457 0.695338 0.367468
0.880125 0.664515 0.351995
0.880278 0.658351 0.378149
0.158999 0.523705 0.290990
0.525658 0.656825 0.293553
0.760403 0.727413 0.359228
0.846464 0.753628 0.392462
0.889555 0.770657 0.412970
0.911162 0.781888 0.423987
0.914244 0.770382 0.415137
0.910063 0.744289 0.410315
0.908415 0.734462 0.443824
0.190280 0.564569 0.313420
0.575433 0.691218 0.314733
0.792386 0.752194 0.380194
0.865385 0.774990 0.410315
0.897642 0.787228 0.424231
0.912474 0.795804 0.435523
0.920531 0.803677 0.432807
0.919097 0.791928 0.443854
0.916381 0.779568 0.487556
0.300328 0.620905 0.347662
0.605341 0.711086 0.340307
0.791653 0.761288 0.393500
0.857603 0.781704 0.422431
0.891844 0.794064 0.440162
0.907317 0.804349 0.452766
0.916899 0.809110 0.459937
0.922423 0.816251 0.456184
0.918334 0.808743 0.515190
0.390570 0.664210 0.393744
0.607263 0.721340 0.381964
0.752743 0.759701 0.412573
0.823087 0.779477 0.438911
0.868193 0.795377 0.468147
0.893004 0.811368 0.495399
0.906432 0.820645 0.512535
0.916350 0.823880 0.518486
0.922210 0.827878 0.521569
0.030060 0.037354 0.087495
0.061128 0.042908 0.095949
0.163119 0.056336 0.116274
0.268467 0.069459 0.136416
0.347753 0.079255 0.151369
0.404242 0.086976 0.158785
0.438148 0.092164 0.159518
0.465553 0.097169 0.161654
0.500084 0.106355 0.175753
0.036286 0.089540 0.175509
0.052613 0.063081 0.153140
0.255039 0.100710 0.189029
0.381537 0.102663 0.176211
0.446296 0.102663 0.163760
0.480171 0.102571 0.149508
0.501091 0.104311 0.144503
0.535882 0.116670 0.163302
0.595819 0.160037 0.212070
0.048646 0.206363 0.254917
0.102144 0.292821 0.325780
0.331121 0.302220 0.296880
0.493935 0.276432 0.252110
0.560540 0.232975 0.207340
0.583307 0.201205 0.169772
0.596918 0.196170 0.148867
0.626795 0.219181 0.174075
0.701900 0.301244 0.262333
0.073182 0.348577 0.324041
0.158846 0.476783 0.373968
0.427222 0.510369 0.344060
0.653620 0.568780 0.384192
0.728206 0.527306 0.340185
0.756924 0.476890 0.285634
0.757534 0.434470 0.238682
0.764218 0.424323 0.251438
0.797879 0.470558 0.340856
0.101167 0.452186 0.372778
0.203677 0.561120 0.385962
0.515679 0.622187 0.363745
0.700984 0.671565 0.405554
0.813230 0.701747 0.438941
0.855680 0.676310 0.405539
0.870359 0.648234 0.365896
0.865538 0.621622 0.361807
0.867460 0.625956 0.433982
0.126528 0.522820 0.400153
0.212161 0.591333 0.378210
0.562707 0.677211 0.365393
0.740444 0.724422 0.407538
0.834989 0.751797 0.445411
0.889586 0.775357 0.476539
0.907897 0.763546 0.457893
0.908934 0.742031 0.461189
0.903990 0.735531 0.518730
0.139193 0.562402 0.411536
0.264408 0.623285 0.391089
0.588861 0.702876 0.361486
0.768582 0.752224 0.406714
0.853422 0.778225 0.447150
0.895811 0.798611 0.481453
0.914855 0.809689 0.497780
0.916136 0.800137 0.519890
0.912535 0.787503 0.574304
0.149996 0.584253 0.425605
0.339361 0.657740 0.421790
0.606714 0.722774 0.388830
0.765164 0.764248 0.421942
0.846647 0.788663 0.462959
0.890715 0.812131 0.506645
0.911223 0.824216 0.530388
0.922515 0.829557 0.537987
0.914702 0.823606 0.613916
0.179263 0.611627 0.454871
0.373083 0.677302 0.461219
0.603235 0.737514 0.458412
0.719783 0.765927 0.470405
0.810269 0.791989 0.509056
0.866941 0.816739 0.558007
0.894347 0.834989 0.599725
0.910826 0.842100 0.617884
0.920501 0.845029 0.627405
0.030243 0.036561 0.121706
0.055604 0.042206 0.118196
0.144717 0.054902 0.135897
0.250095 0.069093 0.159213
0.323888 0.077699 0.178744
0.380285 0.085084 0.190707
0.421851 0.092897 0.194217
0.454475 0.098573 0.192325
0.489662 0.106874 0.201144
0.037324 0.080476 0.204654
0.034668 0.045106 0.168368
0.139193 0.066865 0.186557
0.316472 0.094636 0.224460
0.398657 0.097505 0.220554
0.447181 0.102083 0.208469
0.477791 0.104616 0.195132
0.518883 0.116304 0.205386
0.583307 0.157565 0.249210
0.050477 0.186069 0.294041
0.063172 0.199985 0.326024
0.172549 0.186984 0.293645
0.400092 0.226474 0.330999
0.495399 0.194888 0.292271
0.539879 0.166659 0.253635
0.563226 0.148775 0.220798
0.604212 0.168582 0.231754
0.687739 0.263584 0.306310
0.070161 0.316167 0.377386
0.120180 0.453620 0.481819
0.257511 0.461097 0.456458
0.499001 0.469703 0.451331
0.603876 0.417792 0.400183
0.659175 0.345418 0.333974
0.676844 0.293202 0.271534
0.701167 0.303593 0.263615
0.774533 0.417548 0.374670
0.098848 0.442542 0.437964
0.158206 0.561242 0.507408
0.312291 0.586084 0.484962
0.555200 0.613428 0.492103
0.715175 0.654322 0.527977
0.785306 0.615610 0.476646
0.819425 0.568887 0.410605
0.830442 0.543923 0.386587
0.844388 0.584237 0.478355
0.135164 0.536980 0.476234
0.185916 0.613245 0.511681
0.333471 0.644038 0.483833
0.585870 0.687251 0.486488
0.744411 0.729549 0.530968
0.839323 0.758602 0.568322
0.881498 0.740993 0.533043
0.897398 0.723476 0.512871
0.890745 0.721126 0.580621
0.169253 0.597589 0.499641
0.182620 0.623957 0.506615
0.318578 0.658381 0.472877
0.594049 0.717494 0.458167
0.760342 0.761715 0.502235
0.852995 0.793484 0.556390
0.898650 0.814237 0.596460
0.912963 0.804440 0.594171
0.905516 0.789792 0.644099
0.180270 0.622736 0.514946
0.190646 0.630854 0.506035
0.340490 0.674037 0.486275
0.599970 0.735256 0.461036
0.762264 0.777279 0.491554
0.858213 0.812802 0.556970
0.899413 0.835935 0.607843
0.919066 0.843778 0.628656
0.910521 0.830991 0.683314
0.180423 0.632593 0.528435
0.230716 0.652277 0.526940
0.411048 0.707332 0.534417
0.608881 0.753353 0.542138
0.741115 0.788510 0.566033
0.831357 0.819516 0.614496
0.881041 0.843137 0.665003
0.903685 0.854276 0.693996
0.914611 0.858335 0.705592
0.031250 0.036133 0.148959
0.046937 0.039796 0.136172
0.119997 0.051301 0.150393
0.212680 0.066255 0.172183
0.292790 0.076631 0.190463
0.348028 0.082246 0.207187
0.400000 0.089448 0.214511
0.444953 0.098329 0.216953
0.484535 0.108644 0.223301
0.037110 0.070497 0.219760
0.033326 0.040711 0.182956
0.071473 0.050050 0.184726
0.200259 0.073487 0.220005
0.344976 0.093874 0.244297
0.413367 0.096803 0.239017
0.463813 0.105562 0.231083
0.505425 0.118410 0.237430
0.569604 0.158541 0.275029
0.049866 0.172854 0.317571
0.048402 0.147433 0.317876
0.083619 0.126558 0.280766
0.234562 0.154971 0.315038
0.433967 0.181186 0.340856
0.499977 0.155673 0.301335
0.535454 0.143435 0.268284
0.585351 0.167208 0.276371
0.676356 0.263676 0.346288
0.071717 0.316625 0.411933
0.088258 0.376532 0.477546
0.138674 0.350774 0.444862
0.308110 0.348913 0.433478
0.539055 0.388952 0.467750
0.611414 0.319265 0.404318
0.647120 0.262592 0.345022
0.682429 0.266545 0.330236
0.766629 0.406561 0.430060
0.103395 0.443320 0.485634
0.145846 0.555505 0.579278
0.209323 0.558404 0.564111
0.408881 0.579675 0.561120
0.607874 0.593103 0.569116
0.693721 0.543648 0.519966
0.748592 0.476463 0.452049
0.774227 0.438712 0.401816
0.825315 0.549783 0.510994
0.136507 0.543908 0.532128
0.191592 0.628962 0.607782
0.232456 0.630426 0.581994
0.404364 0.657496 0.576837
0.629969 0.688319 0.594141
0.772442 0.731655 0.636805
0.837308 0.705089 0.598718
0.869169 0.679850 0.562829
0.878477 0.705730 0.627070
0.185122 0.617304 0.572778
0.251957 0.681697 0.635523
0.238743 0.663478 0.589624
0.364904 0.685756 0.566796
0.625208 0.734981 0.578927
0.786572 0.780728 0.629267
0.871122 0.811276 0.678065
0.899992 0.798917 0.663478
0.898436 0.787747 0.698604
0.238132 0.668757 0.609400
0.254154 0.687282 0.627161
0.236057 0.668513 0.582025
0.355901 0.700191 0.564691
0.613428 0.751919 0.559960
0.794415 0.804990 0.611994
0.877104 0.838468 0.677699
0.909087 0.853971 0.712276
0.907042 0.833249 0.735927
0.268315 0.694636 0.633783
0.229679 0.671901 0.603449
0.286442 0.689204 0.594934
0.486641 0.743160 0.616693
0.661128 0.781613 0.631312
0.792706 0.818265 0.666072
0.861753 0.845853 0.715267
0.893462 0.859922 0.747982
0.910765 0.865965 0.762295
0.032258 0.036316 0.168063
0.038209 0.037629 0.148806
0.082246 0.045319 0.156680
0.163241 0.058961 0.181460
0.245945 0.072267 0.199313
0.313146 0.081361 0.213870
0.371252 0.087587 0.226139
0.434485 0.097932 0.235294
0.483589 0.110780 0.245792
0.037629 0.068635 0.236271
0.033356 0.038575 0.189853
0.041108 0.041566 0.187289
0.100038 0.053193 0.208133
0.229358 0.074800 0.237278
0.375219 0.093721 0.260746
0.452430 0.105074 0.262242
0.502281 0.120333 0.268315
0.558587 0.154665 0.297795
0.049378 0.168521 0.339300
0.043824 0.122744 0.312139
0.047059 0.086671 0.266850
0.108965 0.101442 0.294682
0.273030 0.127718 0.326665
0.460639 0.152926 0.344091
0.513024 0.136934 0.309941
0.566827 0.159609 0.310552
0.659205 0.250553 0.371862
0.070466 0.315068 0.438911
0.070741 0.312551 0.461463
0.073060 0.258045 0.417609
0.133715 0.230976 0.398886
0.345739 0.267597 0.437888
0.570336 0.307973 0.469276
0.613062 0.243000 0.394873
0.658381 0.251057 0.373907
0.752590 0.407889 0.472755
0.101839 0.445319 0.515923
0.121279 0.494377 0.571130
0.129381 0.464530 0.548669
0.225818 0.466636 0.543282
0.420142 0.473289 0.540413
0.644617 0.528298 0.584863
0.719295 0.469810 0.526665
0.759152 0.432456 0.478706
0.818296 0.555642 0.573510
0.136263 0.544457 0.573083
0.171023 0.608667 0.640284
0.188174 0.607813 0.635035
0.303639 0.632685 0.637781
0.527291 0.669673 0.652888
0.693111 0.693111 0.668849
0.781003 0.665827 0.635798
0.826963 0.621683 0.588663
0.861570 0.685756 0.659907
0.176333 0.614527 0.611902
0.216861 0.662501 0.667689
0.214206 0.659297 0.654719
0.276509 0.672297 0.642847
0.495232 0.719661 0.658381
0.701717 0.754147 0.677607
0.829343 0.796780 0.724758
0.877653 0.781582 0.711971
0.892607 0.785336 0.736171
0.234440 0.669215 0.652979
0.269535 0.700496 0.687495
0.243534 0.685817 0.662135
0.272312 0.690944 0.642634
0.472618 0.741939 0.656672
0.692561 0.784909 0.670253
0.835050 0.827604 0.724086
0.891966 0.849943 0.765499
0.903471 0.833707 0.775051
0.293004 0.710872 0.687526
0.262058 0.697017 0.669673
0.265965 0.692592 0.649042
0.415549 0.736660 0.669520
0.596872 0.783963 0.696345
0.742336 0.814542 0.716152
0.836789 0.843015 0.750729
0.881346 0.861051 0.786160
0.909148 0.871397 0.805081
0.032868 0.036439 0.179690
0.033936 0.036591 0.163638
0.048585 0.040131 0.164401
0.099214 0.048524 0.182345
0.174990 0.061311 0.202426
0.256382 0.075135 0.221042
0.344579 0.087190 0.236942
0.422095 0.097871 0.252262
0.485420 0.113313 0.269657
0.038148 0.069581 0.250340
0.033845 0.038788 0.201999
0.034363 0.039124 0.199527
0.049958 0.043641 0.210117
0.122789 0.055787 0.231022
0.268956 0.079377 0.261112
0.426246 0.099916 0.288762
0.500023 0.121248 0.303655
0.551904 0.150149 0.327428
0.049470 0.171298 0.358892
0.042206 0.107698 0.307897
0.038911 0.065553 0.256718
0.050111 0.067353 0.271824
0.134417 0.080781 0.301671
0.316075 0.112184 0.331365
0.483772 0.139162 0.355077
0.554131 0.154726 0.357610
0.639277 0.229191 0.401770
0.068696 0.306432 0.454231
0.060700 0.260639 0.439765
0.052644 0.192569 0.388861
0.058656 0.146197 0.355901
0.160632 0.165881 0.393515
0.386786 0.207385 0.440467
0.583795 0.253773 0.467262
0.633509 0.235660 0.429328
0.731868 0.383169 0.506462
0.098695 0.433677 0.530053
0.097993 0.427878 0.542260
0.085939 0.372885 0.512993
0.101030 0.335958 0.492882
0.202319 0.324666 0.491295
0.462989 0.394400 0.550927
0.678309 0.459495 0.597955
0.731868 0.417472 0.545220
0.802365 0.544808 0.613519
0.133120 0.532372 0.588617
0.144106 0.554955 0.617914
0.140200 0.536278 0.608972
0.177005 0.539025 0.612024
0.339742 0.569635 0.632013
0.526680 0.582269 0.637690
0.736721 0.653284 0.691188
0.805386 0.620005 0.660761
0.850462 0.682460 0.700801
0.161715 0.598383 0.628443
0.189212 0.636378 0.670619
0.195895 0.643519 0.675349
0.242466 0.660914 0.682521
0.426322 0.709133 0.708217
0.636316 0.747799 0.732540
0.770047 0.773434 0.749569
0.846769 0.760525 0.738888
0.881895 0.775692 0.757168
0.197177 0.644099 0.655970
0.214054 0.667597 0.682216
0.219211 0.674495 0.685420
0.254917 0.689662 0.687495
0.413748 0.736416 0.710079
0.628031 0.784543 0.737972
0.776425 0.809506 0.752224
0.875944 0.844999 0.797543
0.903685 0.836545 0.801053
0.240696 0.681758 0.682643
0.237461 0.685054 0.686366
0.255924 0.692348 0.681971
0.386557 0.734646 0.704097
0.557931 0.782895 0.736385
0.712276 0.819852 0.760037
0.801297 0.838346 0.777218
0.877440 0.864897 0.812039
0.910491 0.876219 0.832029
0.033326 0.036835 0.191257
0.033356 0.036957 0.184543
0.037079 0.037934 0.183780
0.055879 0.041993 0.192996
0.107149 0.051057 0.209232
0.186648 0.063539 0.227604
0.291997 0.080262 0.248356
0.399359 0.094575 0.266941
0.480385 0.112917 0.292912
0.038666 0.071046 0.264103
0.035828 0.046143 0.226932
0.035950 0.044953 0.229709
0.042390 0.046296 0.237491
0.085145 0.055055 0.256077
0.191684 0.069612 0.275059
0.342809 0.096223 0.303075
0.472877 0.114778 0.329320
0.543420 0.150973 0.362951
0.048493 0.168429 0.367926
0.043763 0.119448 0.325261
0.039551 0.075013 0.282811
0.042329 0.069154 0.290074
0.088136 0.078676 0.317296
0.219669 0.101320 0.347051
0.390478 0.132723 0.375189
0.527398 0.162814 0.399969
0.628534 0.234897 0.453071
0.065522 0.288548 0.455482
0.057710 0.237949 0.430091
0.049714 0.175998 0.386725
0.045747 0.120485 0.347875
0.083162 0.127016 0.375952
0.232761 0.161898 0.425666
0.444556 0.207340 0.464454
0.611627 0.264378 0.499306
0.720668 0.381643 0.560784
0.092409 0.406744 0.525689
0.082918 0.374182 0.517021
0.071534 0.317525 0.488380
0.067445 0.262440 0.459571
0.085878 0.226246 0.445914
0.256840 0.284550 0.506645
0.518547 0.362539 0.569116
0.704250 0.423117 0.612268
0.790127 0.535256 0.656916
0.123659 0.503594 0.583337
0.119844 0.489265 0.583032
0.112703 0.466041 0.575128
0.121584 0.450416 0.572839
0.182193 0.453117 0.585321
0.296071 0.448112 0.591913
0.586435 0.551217 0.660182
0.771115 0.602579 0.705928
0.836179 0.666285 0.727504
0.153872 0.575311 0.627863
0.162051 0.584436 0.642573
0.164675 0.586572 0.647242
0.190158 0.599847 0.658259
0.309407 0.645167 0.689876
0.492271 0.681544 0.717525
0.640681 0.689754 0.724392
0.821775 0.749264 0.774655
0.866636 0.761685 0.777493
0.181949 0.626093 0.661280
0.199161 0.652827 0.685756
0.217716 0.670954 0.698360
0.263005 0.695216 0.712764
0.397726 0.736751 0.738552
0.585306 0.781643 0.769863
0.726131 0.811032 0.796506
0.850217 0.831449 0.814389
0.898833 0.838193 0.822141
0.204685 0.658503 0.678218
0.214481 0.671077 0.687922
0.247013 0.689906 0.698940
0.366903 0.732967 0.724453
0.530312 0.781186 0.756954
0.683131 0.820462 0.788083
0.780606 0.840848 0.804227
0.858183 0.858274 0.826566
0.911345 0.877684 0.847135
0.034394 0.040192 0.211002
0.034394 0.040070 0.210941
0.035462 0.040314 0.212772
0.043793 0.042542 0.220462
0.071931 0.048707 0.232456
0.138369 0.057588 0.246036
0.237888 0.073091 0.264836
0.353429 0.091951 0.284367
0.454536 0.106630 0.306584
0.039673 0.082734 0.287358
0.039216 0.069825 0.273320
0.040528 0.064881 0.278630
0.049134 0.067048 0.290654
0.097902 0.076692 0.315312
0.188876 0.091615 0.331884
0.308659 0.111177 0.349248
0.426825 0.135042 0.371923
0.520623 0.156039 0.390723
0.049226 0.176394 0.382025
0.046723 0.148867 0.361395
0.044831 0.117159 0.345800
0.057618 0.114961 0.359289
0.102144 0.128786 0.386694
0.221683 0.156222 0.424689
0.371984 0.186465 0.451392
0.505821 0.217685 0.474403
0.612940 0.264622 0.501427
0.063325 0.277562 0.456916
0.058686 0.243565 0.439826
0.055604 0.203159 0.417609
0.067140 0.192935 0.423621
0.122896 0.215457 0.456275
0.251438 0.258762 0.501060
0.435615 0.310979 0.544976
0.585718 0.353460 0.573205
0.700038 0.398077 0.604517
0.084535 0.379675 0.517479
0.078645 0.349767 0.508904
0.078431 0.319173 0.498054
0.098604 0.314626 0.505699
0.147921 0.328145 0.526452
0.299016 0.388830 0.576104
0.504112 0.457252 0.624292
0.656733 0.501961 0.656123
0.768490 0.528237 0.682612
0.110933 0.464820 0.566949
0.106661 0.451301 0.566827
0.118929 0.453285 0.575586
0.170413 0.476112 0.599207
0.242222 0.494499 0.620325
0.342855 0.516579 0.643091
0.560098 0.595163 0.691371
0.718135 0.641413 0.725948
0.821561 0.653223 0.744198
0.140688 0.538964 0.611505
0.141848 0.540551 0.617700
0.165011 0.563531 0.637018
0.255161 0.612512 0.673609
0.384833 0.655451 0.705592
0.506722 0.673640 0.723812
0.605066 0.684230 0.735683
0.758419 0.739742 0.774350
0.856840 0.755764 0.793637
0.169406 0.599359 0.651026
0.179965 0.613672 0.664302
0.209934 0.642145 0.684077
0.314000 0.685939 0.713222
0.458244 0.728511 0.743404
0.602914 0.762753 0.772030
0.706477 0.781674 0.790982
0.797147 0.803647 0.810239
0.885435 0.832120 0.838376
0.195071 0.646571 0.681880
0.214939 0.668421 0.696162
0.260929 0.696620 0.714168
0.378546 0.738735 0.740780
0.520607 0.782223 0.772030
0.654200 0.817044 0.801205
0.758083 0.839353 0.823850
0.845304 0.860441 0.847868
0.929107 0.894743 0.888395
