LUTs/26.cube
# (C) 2014 VisionColor & Patchflyer [www.vision-color.com]
# Generator: VC Patchmatch v.2.1.1 [64/53]
# All work and no play makes Jack a dull boy.
# LUT generated from: Fuji Pro 400_FPE
LUT_3D_SIZE 17
0.033509 0.036683 0.037079
0.055268 0.039765 0.037232
0.112825 0.046601 0.038819
0.189364 0.053559 0.042054
0.265110 0.058350 0.045899
0.324620 0.060853 0.050080
0.357763 0.061616 0.052644
0.374853 0.062257 0.053925
0.392950 0.068330 0.057099
0.410407 0.074983 0.059968
0.437964 0.091493 0.065522
0.466194 0.110475 0.071748
0.493477 0.129488 0.077882
0.516045 0.143618 0.082765
0.532525 0.151583 0.088441
0.547234 0.158602 0.095064
0.557763 0.163027 0.105287
0.034516 0.063203 0.041627
0.083894 0.081270 0.044221
0.159213 0.098726 0.047150
0.239536 0.111360 0.052308
0.316991 0.130129 0.060609
0.383215 0.149325 0.070283
0.425727 0.159152 0.077394
0.454780 0.165988 0.082673
0.478218 0.173800 0.086915
0.501549 0.182132 0.091279
0.525597 0.197787 0.097688
0.545495 0.208133 0.102205
0.566583 0.222477 0.107973
0.584772 0.232761 0.112215
0.602533 0.242924 0.118044
0.616968 0.249607 0.124483
0.628107 0.253666 0.133822
0.049866 0.127657 0.054871
0.123537 0.158816 0.061006
0.226474 0.194186 0.071992
0.312566 0.220859 0.084993
0.393103 0.250126 0.099611
0.461799 0.280491 0.114504
0.514427 0.304662 0.127810
0.553887 0.324437 0.139834
0.579980 0.333989 0.145266
0.605951 0.345312 0.153201
0.622827 0.348119 0.156435
0.634089 0.342016 0.154299
0.644282 0.338628 0.153506
0.652247 0.332158 0.150637
0.663722 0.334966 0.153597
0.674586 0.336126 0.156497
0.684657 0.337041 0.161410
0.082155 0.212009 0.081392
0.187472 0.255436 0.092653
0.295048 0.298528 0.111299
0.384009 0.330602 0.125765
0.460761 0.364080 0.145174
0.530571 0.400488 0.167239
0.586053 0.432074 0.188815
0.631861 0.459419 0.208225
0.659449 0.470466 0.216678
0.688075 0.482582 0.226749
0.700862 0.476417 0.225040
0.709773 0.465827 0.220188
0.712032 0.447089 0.210391
0.712398 0.428748 0.200473
0.715541 0.416663 0.194461
0.721309 0.409308 0.191012
0.728878 0.405402 0.189914
0.125917 0.296635 0.114137
0.269413 0.351537 0.132479
0.382055 0.396216 0.154391
0.456519 0.427253 0.172488
0.513573 0.450965 0.187259
0.581231 0.486275 0.210605
0.637568 0.515953 0.234989
0.683070 0.539757 0.258030
0.714626 0.551995 0.268894
0.744747 0.563439 0.279820
0.757931 0.559350 0.278691
0.767056 0.550347 0.274083
0.768307 0.533532 0.263920
0.765438 0.512901 0.251774
0.763485 0.495521 0.241611
0.763119 0.480079 0.231876
0.767025 0.470924 0.226169
0.177951 0.371801 0.148165
0.345708 0.430884 0.169680
0.462989 0.476631 0.194919
0.528893 0.504509 0.213565
0.575006 0.526635 0.230655
0.614588 0.544701 0.245640
0.672267 0.570886 0.267613
0.719142 0.591333 0.288273
0.749905 0.600305 0.300145
0.780270 0.609949 0.310948
0.793759 0.606348 0.310552
0.803250 0.600031 0.307378
0.805020 0.586419 0.298955
0.803983 0.571405 0.288701
0.801938 0.556298 0.279057
0.801297 0.543359 0.271092
0.802213 0.531273 0.262303
0.242832 0.434394 0.178805
0.416602 0.495186 0.203647
0.527214 0.536553 0.229252
0.586389 0.560327 0.246891
0.626520 0.579522 0.263615
0.661738 0.595819 0.279515
0.695125 0.609766 0.293584
0.744717 0.628351 0.311131
0.775448 0.635859 0.321141
0.804685 0.644160 0.332647
0.818875 0.641810 0.333562
0.831144 0.638972 0.333257
0.834318 0.629541 0.326970
0.835233 0.619287 0.318761
0.833402 0.607172 0.310246
0.833158 0.596551 0.303319
0.834043 0.587091 0.297063
0.319005 0.488838 0.205295
0.478553 0.545739 0.233646
0.576776 0.581231 0.257603
0.629023 0.601343 0.273014
0.668879 0.618921 0.287968
0.702144 0.633509 0.303166
0.732631 0.645930 0.316320
0.766567 0.657038 0.329290
0.796902 0.664942 0.339300
0.826413 0.672786 0.349493
0.840665 0.672267 0.352514
0.852903 0.671443 0.354040
0.858579 0.666041 0.350866
0.860044 0.657313 0.343359
0.858305 0.645624 0.334783
0.857114 0.636286 0.328527
0.856840 0.627314 0.323156
0.381765 0.532921 0.227970
0.528374 0.585657 0.256809
0.618250 0.617182 0.279210
0.663691 0.633936 0.293645
0.700587 0.648646 0.307713
0.733547 0.662043 0.321416
0.759579 0.672511 0.333196
0.790585 0.682704 0.345251
0.813718 0.690486 0.354467
0.842771 0.698543 0.364385
0.856687 0.699886 0.368414
0.869596 0.700252 0.371649
0.875731 0.695796 0.369726
0.880308 0.690761 0.365545
0.879149 0.679744 0.357183
0.878935 0.671229 0.350988
0.876890 0.662989 0.346166
0.443854 0.575372 0.248936
0.573205 0.621851 0.278508
0.654047 0.648890 0.298772
0.696101 0.663630 0.312963
0.731685 0.676722 0.326482
0.764614 0.689052 0.339879
0.791440 0.699153 0.350317
0.815976 0.707179 0.360815
0.836240 0.714046 0.369207
0.858488 0.720760 0.376989
0.871153 0.722683 0.381262
0.882689 0.725460 0.385901
0.888792 0.723415 0.386481
0.893095 0.721004 0.384680
0.893339 0.712428 0.378912
0.892149 0.702296 0.371344
0.889647 0.692042 0.364843
0.473854 0.601953 0.262333
0.596246 0.645045 0.291539
0.678737 0.672358 0.313359
0.724239 0.687495 0.328954
0.758938 0.699550 0.342809
0.788052 0.709285 0.354650
0.812131 0.718318 0.364172
0.833402 0.725673 0.373144
0.851652 0.731929 0.380774
0.870054 0.737728 0.387488
0.881529 0.741299 0.391180
0.892973 0.745296 0.396612
0.898894 0.746151 0.398993
0.902708 0.745144 0.399390
0.902708 0.737728 0.394781
0.903319 0.731441 0.390967
0.901061 0.719936 0.383154
0.496773 0.625086 0.273320
0.615717 0.665003 0.303197
0.702907 0.693477 0.327245
0.751186 0.708827 0.344182
0.785245 0.719997 0.358221
0.811521 0.728725 0.369238
0.831052 0.735622 0.377508
0.850523 0.742611 0.385199
0.866697 0.748287 0.391333
0.881285 0.753445 0.397528
0.892576 0.757168 0.401526
0.898375 0.760006 0.403632
0.903380 0.761563 0.406226
0.907042 0.762264 0.407691
0.909331 0.760555 0.407141
0.910918 0.756558 0.405219
0.911009 0.748043 0.401648
0.512322 0.643305 0.281682
0.633295 0.681361 0.312901
0.720119 0.709194 0.338445
0.774289 0.726070 0.357153
0.807431 0.736446 0.371405
0.830472 0.744076 0.381476
0.847471 0.750057 0.388556
0.862150 0.755489 0.394476
0.876951 0.760800 0.399664
0.887694 0.765011 0.404364
0.898619 0.769070 0.409003
0.903136 0.771756 0.411322
0.907134 0.774685 0.411902
0.911070 0.776120 0.413886
0.913024 0.775021 0.414069
0.915068 0.774319 0.414557
0.915618 0.767788 0.413672
0.531853 0.662196 0.291691
0.658228 0.698116 0.324773
0.744228 0.725032 0.351141
0.797818 0.741573 0.369909
0.829129 0.751003 0.383673
0.847562 0.757290 0.393011
0.861814 0.762356 0.398505
0.874754 0.767361 0.403326
0.887053 0.771756 0.406836
0.895018 0.775296 0.410864
0.903563 0.779049 0.414466
0.906828 0.781216 0.418128
0.910613 0.784115 0.418616
0.913848 0.787320 0.417670
0.915465 0.786587 0.418433
0.917235 0.785946 0.419715
0.917998 0.783536 0.422126
0.556512 0.679255 0.303685
0.684901 0.713558 0.338262
0.769833 0.739376 0.364965
0.815793 0.754421 0.381353
0.843168 0.762478 0.393164
0.859403 0.767880 0.401587
0.872587 0.772061 0.407263
0.882902 0.776242 0.410925
0.893858 0.780270 0.413916
0.899992 0.783413 0.416266
0.906767 0.786770 0.419440
0.909758 0.788632 0.423377
0.912657 0.790524 0.426856
0.915282 0.792966 0.428260
0.918456 0.797543 0.422339
0.919676 0.795895 0.423438
0.919676 0.792142 0.425452
0.580468 0.695247 0.316045
0.709377 0.728237 0.351690
0.791653 0.752468 0.378149
0.831113 0.765499 0.392584
0.853941 0.772763 0.402777
0.869169 0.777310 0.410254
0.881712 0.781033 0.415808
0.890501 0.784329 0.419409
0.899107 0.787869 0.421271
0.904479 0.791074 0.423224
0.909331 0.793606 0.425208
0.912383 0.795529 0.429023
0.915099 0.797299 0.432624
0.916869 0.799191 0.436164
0.919066 0.802792 0.433539
0.921874 0.806332 0.428077
0.921538 0.801938 0.430457
0.601312 0.707668 0.328679
0.721584 0.737636 0.361822
0.799680 0.760403 0.387640
0.835477 0.771939 0.400763
0.855009 0.778286 0.409583
0.870359 0.782895 0.416815
0.882963 0.786465 0.423194
0.891295 0.789364 0.427008
0.898253 0.792264 0.430060
0.903868 0.795804 0.431830
0.908782 0.798642 0.433631
0.913054 0.800778 0.436133
0.915679 0.801968 0.439094
0.918090 0.803433 0.442664
0.919005 0.805447 0.445319
0.920806 0.808927 0.443580
0.923522 0.812985 0.437110
0.030884 0.036591 0.045716
0.044770 0.038880 0.050965
0.090211 0.044495 0.054353
0.154543 0.050813 0.057313
0.220157 0.056489 0.062104
0.282933 0.060914 0.066804
0.328161 0.062684 0.069947
0.362982 0.064759 0.071321
0.389258 0.067872 0.072480
0.416358 0.071382 0.073304
0.440833 0.079683 0.076722
0.463630 0.087800 0.080171
0.484230 0.099825 0.085939
0.498878 0.108797 0.092195
0.507591 0.113100 0.100191
0.515892 0.116579 0.109102
0.524987 0.117830 0.119448
0.029541 0.055085 0.059052
0.066163 0.072908 0.069734
0.158450 0.071992 0.056703
0.258854 0.073548 0.054353
0.335729 0.073365 0.056580
0.372442 0.070375 0.057496
0.392187 0.071046 0.058839
0.408698 0.075105 0.060670
0.432990 0.088136 0.065034
0.459937 0.105074 0.070436
0.487495 0.124758 0.076936
0.507805 0.137667 0.081422
0.527123 0.149386 0.086976
0.541344 0.155947 0.092958
0.552758 0.161166 0.101778
0.564294 0.167056 0.113313
0.580468 0.178470 0.131044
0.036072 0.111360 0.075074
0.091524 0.171420 0.082307
0.268925 0.230076 0.099580
0.370275 0.232731 0.100130
0.442573 0.233188 0.100710
0.485664 0.232303 0.103944
0.513176 0.231662 0.106935
0.529473 0.226413 0.106264
0.547051 0.231113 0.110506
0.560082 0.231540 0.111025
0.575616 0.237736 0.113588
0.589227 0.242100 0.115572
0.604669 0.250095 0.119783
0.618799 0.257023 0.124910
0.630915 0.262303 0.132937
0.641260 0.265843 0.142550
0.652583 0.271641 0.158358
0.056641 0.190463 0.094881
0.144381 0.292638 0.118410
0.342351 0.365362 0.143862
0.480140 0.420203 0.172824
0.553155 0.426093 0.181491
0.602686 0.433021 0.190188
0.636774 0.438788 0.198154
0.657923 0.436439 0.199802
0.667567 0.424292 0.195743
0.667933 0.403052 0.184909
0.671138 0.386542 0.176394
0.673243 0.370642 0.168276
0.678492 0.359930 0.164218
0.684260 0.354040 0.163027
0.689723 0.350072 0.164462
0.697292 0.348882 0.169894
0.706813 0.350866 0.182528
0.083680 0.271122 0.119112
0.211124 0.390784 0.156344
0.429114 0.470008 0.190036
0.544518 0.515526 0.219425
0.626917 0.551843 0.249760
0.679255 0.556390 0.261204
0.716670 0.561639 0.271397
0.742123 0.562951 0.277989
0.752956 0.552972 0.274510
0.753689 0.533043 0.263615
0.748562 0.507683 0.248356
0.744198 0.483955 0.234257
0.739101 0.460151 0.219394
0.738613 0.444099 0.211276
0.738705 0.429664 0.203311
0.743374 0.423102 0.202335
0.751644 0.422889 0.211917
0.118868 0.346716 0.144747
0.289952 0.464363 0.191897
0.496895 0.538415 0.228336
0.598627 0.576410 0.256474
0.668879 0.605829 0.281865
0.727260 0.628046 0.305241
0.765225 0.629999 0.314305
0.790311 0.628626 0.319738
0.801999 0.621454 0.319127
0.804410 0.605585 0.310521
0.803983 0.588800 0.299565
0.797757 0.564508 0.284398
0.792844 0.543908 0.271214
0.786435 0.522789 0.258122
0.784115 0.506279 0.247684
0.784695 0.493660 0.240330
0.791531 0.491066 0.245640
0.169406 0.410895 0.170352
0.367041 0.521660 0.221195
0.549493 0.586419 0.257084
0.640009 0.618555 0.282811
0.702876 0.643732 0.305913
0.754513 0.662440 0.326299
0.798947 0.677333 0.343328
0.824002 0.675929 0.349035
0.837369 0.670985 0.349950
0.841398 0.659998 0.345525
0.843046 0.647395 0.337835
0.839078 0.629664 0.325689
0.834684 0.611811 0.313603
0.829038 0.593530 0.301213
0.825040 0.576776 0.290806
0.824430 0.563348 0.282811
0.829252 0.558068 0.285283
0.218448 0.462715 0.193698
0.432685 0.568292 0.247074
0.593530 0.625086 0.281010
0.675746 0.652705 0.304662
0.730312 0.672847 0.325414
0.777493 0.690517 0.344366
0.816831 0.703944 0.359747
0.848203 0.713405 0.371527
0.862333 0.709621 0.373236
0.868070 0.700648 0.370184
0.870390 0.690425 0.365454
0.867521 0.674983 0.355352
0.864652 0.659419 0.344396
0.858915 0.642329 0.332128
0.854826 0.627985 0.323430
0.853422 0.618036 0.319249
0.856748 0.613733 0.322698
0.253269 0.501030 0.213718
0.472084 0.599573 0.262547
0.619348 0.650538 0.295689
0.702632 0.677791 0.320653
0.754055 0.695766 0.340551
0.794705 0.709529 0.356603
0.829831 0.722469 0.370947
0.858854 0.731868 0.382269
0.877775 0.737514 0.389593
0.883665 0.731136 0.388403
0.887144 0.725429 0.386999
0.888029 0.714687 0.380621
0.887449 0.702693 0.372442
0.884978 0.686824 0.360479
0.881285 0.673884 0.352941
0.879149 0.664881 0.350011
0.880522 0.663417 0.358465
0.279576 0.535332 0.233249
0.495369 0.622003 0.272618
0.636927 0.669429 0.306310
0.724453 0.697658 0.333593
0.773068 0.713771 0.352575
0.810575 0.725948 0.367590
0.839017 0.735805 0.379248
0.864103 0.745388 0.389868
0.881529 0.751156 0.397009
0.895384 0.755764 0.402411
0.898009 0.750790 0.401587
0.900084 0.745754 0.398779
0.901549 0.737972 0.394354
0.900145 0.725093 0.385199
0.896208 0.709255 0.376745
0.893553 0.699397 0.374395
0.894591 0.697200 0.383490
0.283024 0.556359 0.250950
0.509209 0.639155 0.278904
0.649104 0.684291 0.314641
0.741238 0.713527 0.344091
0.791012 0.729427 0.363836
0.823362 0.739712 0.377142
0.848539 0.748165 0.387518
0.869108 0.755673 0.396338
0.886168 0.762478 0.403693
0.898619 0.767361 0.408453
0.905547 0.770565 0.411536
0.908141 0.767910 0.410407
0.910521 0.764401 0.409003
0.911101 0.756466 0.404456
0.908232 0.743282 0.398596
0.906065 0.731411 0.396826
0.905486 0.726894 0.406989
0.290532 0.575921 0.265568
0.530510 0.657191 0.287480
0.672511 0.700160 0.327062
0.761044 0.727993 0.355627
0.808682 0.743038 0.374731
0.839048 0.752743 0.387579
0.859037 0.759213 0.395453
0.876646 0.765591 0.402625
0.890929 0.771267 0.408057
0.901305 0.776150 0.414405
0.908019 0.779568 0.418280
0.911742 0.782895 0.415961
0.913756 0.780789 0.415595
0.914549 0.776516 0.414282
0.915434 0.770474 0.415229
0.914611 0.760464 0.415961
0.914824 0.754299 0.427649
0.321660 0.598413 0.279301
0.550317 0.673976 0.297368
0.694362 0.714839 0.338811
0.776974 0.740383 0.366247
0.823240 0.754696 0.384619
0.851377 0.763760 0.397009
0.869932 0.769528 0.404242
0.883879 0.774685 0.409094
0.896361 0.779690 0.413550
0.903960 0.783475 0.418158
0.910338 0.787381 0.423560
0.913420 0.790402 0.422950
0.916808 0.793637 0.420600
0.917632 0.790921 0.420294
0.917937 0.786068 0.423072
0.918212 0.780972 0.429877
0.917632 0.773556 0.443641
0.376165 0.626459 0.294560
0.574121 0.690028 0.310338
0.718959 0.728481 0.351812
0.793729 0.751492 0.377203
0.834928 0.764614 0.393805
0.859983 0.772793 0.405280
0.877867 0.777829 0.412268
0.890135 0.782437 0.416297
0.900359 0.786740 0.419196
0.906706 0.790097 0.422522
0.911650 0.793088 0.426459
0.914305 0.795285 0.431312
0.917296 0.798489 0.429908
0.920317 0.802548 0.424353
0.920226 0.798520 0.428412
0.919860 0.794186 0.436835
0.918914 0.790738 0.457374
0.437385 0.652674 0.311528
0.591943 0.701473 0.323247
0.725582 0.735561 0.359747
0.798459 0.757717 0.384131
0.835325 0.769650 0.399573
0.859281 0.777401 0.410895
0.876677 0.782345 0.418799
0.889128 0.786770 0.423682
0.899718 0.791074 0.427161
0.905852 0.795041 0.430182
0.910552 0.797696 0.433387
0.913848 0.799435 0.436744
0.916625 0.801358 0.440681
0.919585 0.804440 0.439002
0.922515 0.809171 0.433356
0.921355 0.804196 0.441901
0.919554 0.800046 0.462562
0.496223 0.678004 0.330419
0.604181 0.709773 0.335821
0.722042 0.739010 0.365484
0.793301 0.760586 0.388861
0.830839 0.772061 0.404150
0.853513 0.779568 0.415534
0.870665 0.784543 0.423987
0.884550 0.789303 0.431342
0.895323 0.793667 0.436011
0.901854 0.798245 0.440497
0.907622 0.802029 0.444038
0.911498 0.804044 0.447211
0.915282 0.805295 0.449104
0.918029 0.806973 0.452766
0.920623 0.810117 0.451209
0.923217 0.814694 0.446723
0.920684 0.809537 0.467445
0.530968 0.694362 0.350652
0.607294 0.714321 0.350622
0.706355 0.738796 0.372229
0.776028 0.759793 0.394141
0.813230 0.770382 0.407935
0.839719 0.777981 0.419745
0.856901 0.783413 0.429328
0.872587 0.789029 0.439002
0.887053 0.794766 0.448615
0.894133 0.799954 0.454597
0.900786 0.805142 0.461769
0.906218 0.808743 0.466102
0.910826 0.810697 0.469154
0.915190 0.811704 0.470314
0.917418 0.812955 0.473640
0.919921 0.815579 0.473518
0.922484 0.819608 0.471351
0.029633 0.036439 0.056672
0.039338 0.038300 0.063752
0.077546 0.044343 0.073671
0.128725 0.050324 0.078248
0.183078 0.056397 0.083803
0.244114 0.061555 0.091096
0.297368 0.065705 0.096803
0.342596 0.070222 0.101778
0.374578 0.073884 0.102815
0.406958 0.077607 0.105043
0.429969 0.081758 0.106172
0.449866 0.085328 0.107301
0.466682 0.091005 0.110262
0.479255 0.095644 0.113649
0.489113 0.099062 0.120699
0.499153 0.101991 0.128634
0.511833 0.104524 0.139773
0.030121 0.053193 0.084474
0.036866 0.046998 0.083131
0.116548 0.059785 0.100740
0.197726 0.067109 0.092470
0.281407 0.070741 0.090394
0.339239 0.071351 0.087739
0.381445 0.073182 0.086793
0.410590 0.073854 0.083558
0.436500 0.078798 0.084291
0.457984 0.085023 0.085267
0.478157 0.094636 0.088746
0.490364 0.100587 0.092927
0.501976 0.107149 0.099031
0.509911 0.110292 0.106691
0.520104 0.113008 0.116915
0.534112 0.118227 0.128908
0.557549 0.132906 0.147433
0.032990 0.098695 0.120607
0.049439 0.134707 0.155398
0.145510 0.135286 0.135256
0.249363 0.132967 0.111696
0.347570 0.133822 0.100465
0.408118 0.130007 0.094057
0.443549 0.125399 0.088228
0.463569 0.122042 0.086427
0.484474 0.128847 0.087495
0.504051 0.137514 0.089082
0.524254 0.149172 0.092164
0.535576 0.154269 0.094545
0.547967 0.160372 0.099458
0.557244 0.163638 0.105806
0.570214 0.171023 0.119570
0.589807 0.185702 0.138491
0.616968 0.210147 0.166140
0.041871 0.173068 0.141970
0.074495 0.248692 0.165713
0.191714 0.263432 0.148959
0.372137 0.320195 0.167452
0.471717 0.317998 0.156313
0.534874 0.318425 0.152560
0.575006 0.315618 0.148653
0.595880 0.306462 0.145541
0.603632 0.290867 0.138827
0.606806 0.273442 0.131350
0.614160 0.268559 0.129580
0.620264 0.266239 0.129732
0.630518 0.269322 0.133883
0.639429 0.271916 0.139651
0.646906 0.271977 0.148989
0.661463 0.280980 0.166873
0.683406 0.300389 0.195041
0.058137 0.253544 0.165255
0.116945 0.354162 0.182437
0.257389 0.384833 0.172519
0.436255 0.446204 0.200229
0.574456 0.493233 0.227329
0.638300 0.491981 0.231144
0.680140 0.488014 0.231479
0.704829 0.481697 0.231510
0.708888 0.459510 0.220035
0.707759 0.435157 0.207767
0.702113 0.406592 0.193393
0.700374 0.389868 0.184390
0.699489 0.373114 0.176455
0.704158 0.368017 0.176913
0.707973 0.361028 0.178958
0.717617 0.365087 0.194827
0.735225 0.380743 0.222995
0.080140 0.328374 0.188357
0.168551 0.428992 0.205753
0.332921 0.472206 0.203769
0.510185 0.534234 0.236484
0.621180 0.571679 0.264591
0.706600 0.599542 0.290898
0.748775 0.593957 0.292699
0.773312 0.586297 0.293492
0.782162 0.570855 0.285405
0.781704 0.548043 0.272709
0.776791 0.524346 0.259281
0.769345 0.497322 0.242344
0.762753 0.474403 0.228733
0.759793 0.457343 0.220005
0.761624 0.446723 0.217533
0.767269 0.444770 0.227604
0.779660 0.456214 0.255650
0.109316 0.390906 0.212406
0.210025 0.482673 0.225132
0.402075 0.538109 0.232914
0.568353 0.595392 0.265995
0.661311 0.625910 0.293065
0.736660 0.650385 0.317845
0.796597 0.668849 0.338445
0.820737 0.660731 0.340246
0.830716 0.649195 0.335698
0.836149 0.635737 0.328008
0.834165 0.617334 0.317449
0.828183 0.595392 0.302281
0.819791 0.570245 0.286259
0.811978 0.546685 0.271458
0.810452 0.530388 0.263432
0.813809 0.524712 0.270054
0.821714 0.529809 0.292729
0.130159 0.439551 0.238193
0.237430 0.520073 0.242802
0.457160 0.586816 0.261387
0.612299 0.637751 0.292821
0.690272 0.661616 0.316442
0.758724 0.684321 0.339666
0.812894 0.701473 0.358679
0.852598 0.713771 0.373602
0.862943 0.703029 0.370031
0.869017 0.691951 0.364904
0.869566 0.677333 0.356817
0.865202 0.658015 0.343145
0.858030 0.637079 0.329351
0.850187 0.615106 0.315190
0.847654 0.601556 0.309667
0.848600 0.594842 0.314855
0.853178 0.597162 0.335729
0.143984 0.472694 0.257786
0.246616 0.544427 0.258457
0.485328 0.615869 0.276005
0.637171 0.664240 0.308354
0.718349 0.688838 0.333593
0.775540 0.705898 0.353216
0.822599 0.722194 0.370642
0.858549 0.734249 0.384741
0.882231 0.743343 0.395361
0.889525 0.735378 0.392859
0.892424 0.726833 0.389227
0.892546 0.712673 0.378546
0.888457 0.695338 0.367468
0.883574 0.676478 0.355596
0.880125 0.664515 0.351995
0.879271 0.658747 0.359411
0.880278 0.658351 0.378149
0.154604 0.504082 0.278477
0.258488 0.564630 0.268956
0.507744 0.639002 0.286717
0.657496 0.685328 0.321111
0.741573 0.710658 0.347936
0.796719 0.726833 0.367132
0.834867 0.739254 0.382086
0.863767 0.750607 0.394781
0.886137 0.759365 0.405249
0.901762 0.766384 0.413123
0.904540 0.759335 0.410742
0.906096 0.751492 0.403235
0.904540 0.737484 0.395148
0.900572 0.720424 0.385077
0.896849 0.705989 0.383368
0.896483 0.701137 0.393256
0.897826 0.701503 0.414160
0.158999 0.523705 0.290990
0.279026 0.584772 0.279667
0.525658 0.656825 0.293553
0.673243 0.701137 0.330938
0.760403 0.727413 0.359228
0.812314 0.742977 0.378485
0.846464 0.753628 0.392462
0.869749 0.762234 0.402869
0.889555 0.770657 0.412970
0.903136 0.777493 0.420417
0.911162 0.781888 0.423987
0.913878 0.777584 0.418616
0.914244 0.770382 0.415137
0.913298 0.757534 0.409247
0.910063 0.744289 0.410315
0.907988 0.735195 0.421668
0.908415 0.734462 0.443824
0.165255 0.542321 0.300938
0.335637 0.612329 0.293004
0.551690 0.675258 0.303716
0.696651 0.716548 0.342962
0.780636 0.741939 0.370764
0.830747 0.757443 0.389685
0.857572 0.766079 0.402136
0.877714 0.773373 0.410742
0.894499 0.780362 0.418616
0.904723 0.785580 0.425513
0.912077 0.789548 0.429267
0.917052 0.794125 0.428779
0.917876 0.789609 0.426947
0.917845 0.782284 0.424384
0.917205 0.773831 0.431678
0.915587 0.765225 0.445075
0.914916 0.760983 0.467903
0.190280 0.564569 0.313420
0.394629 0.639643 0.309026
0.575433 0.691218 0.314733
0.716884 0.729366 0.355047
0.792386 0.752194 0.380194
0.839445 0.766781 0.398230
0.865385 0.774990 0.410315
0.882170 0.780880 0.417609
0.897642 0.787228 0.424231
0.906004 0.791959 0.429572
0.912474 0.795804 0.435523
0.917266 0.799619 0.436622
0.920531 0.803677 0.432807
0.920684 0.798764 0.432563
0.919097 0.791928 0.443854
0.917784 0.785946 0.464118
0.916381 0.779568 0.487556
0.231388 0.590539 0.326879
0.463081 0.667475 0.327733
0.598321 0.705287 0.327581
0.733425 0.740200 0.366247
0.803067 0.761135 0.389868
0.844083 0.774227 0.406043
0.868589 0.781643 0.417487
0.884978 0.787289 0.424872
0.898711 0.792630 0.430976
0.906401 0.797452 0.435767
0.912535 0.801205 0.440131
0.916869 0.803494 0.444434
0.919951 0.807095 0.443183
0.922820 0.811521 0.437995
0.920653 0.805844 0.451789
0.918700 0.801144 0.475685
0.917479 0.797818 0.506310
0.300328 0.620905 0.347662
0.498756 0.683894 0.346960
0.605341 0.711086 0.340307
0.721309 0.740993 0.369940
0.791653 0.761288 0.393500
0.833188 0.774289 0.410193
0.857603 0.781704 0.422431
0.876677 0.788205 0.432288
0.891844 0.794064 0.440162
0.900450 0.800076 0.447822
0.907317 0.804349 0.452766
0.912840 0.807431 0.457435
0.916899 0.809110 0.459937
0.920226 0.812253 0.458045
0.922423 0.816251 0.456184
0.920043 0.811795 0.482185
0.918334 0.808743 0.515190
0.355596 0.647028 0.369482
0.515557 0.694453 0.367285
0.607752 0.715938 0.357763
0.710414 0.742367 0.380865
0.773495 0.760159 0.399359
0.817411 0.773129 0.415930
0.842283 0.780667 0.428534
0.863432 0.787778 0.440986
0.881651 0.794919 0.452277
0.892485 0.801938 0.462562
0.900786 0.808347 0.472786
0.906920 0.812253 0.478737
0.912566 0.814481 0.482246
0.916930 0.815763 0.484016
0.920012 0.818479 0.484138
0.922240 0.821530 0.484077
0.919982 0.818753 0.520592
0.390570 0.664210 0.393744
0.510887 0.698390 0.389105
0.607263 0.721340 0.381964
0.696468 0.744167 0.398169
0.752743 0.759701 0.412573
0.795071 0.771206 0.425696
0.823087 0.779477 0.438911
0.847074 0.787320 0.453071
0.868193 0.795377 0.468147
0.881102 0.803281 0.480873
0.893004 0.811368 0.495399
0.900267 0.817441 0.505669
0.906432 0.820645 0.512535
0.912230 0.822629 0.516136
0.916350 0.823880 0.518486
0.919707 0.825650 0.519860
0.922210 0.827878 0.521569
0.029786 0.036957 0.070619
0.036866 0.038605 0.076753
0.067628 0.043610 0.086213
0.118288 0.049775 0.093935
0.170474 0.057252 0.102846
0.224399 0.063478 0.111177
0.277287 0.068269 0.119020
0.323033 0.072786 0.126802
0.359319 0.077760 0.130587
0.394018 0.082277 0.135470
0.416175 0.085145 0.135744
0.435309 0.087922 0.136324
0.450263 0.090333 0.136873
0.462989 0.093233 0.138186
