LUTs/26.cube
# (C) 2014 VisionColor & Patchflyer [www.vision-color.com]
# Generator: VC Patchmatch v.2.1.1 [64/53]
# All work and no play makes Jack a dull boy.
# LUT generated from: Fuji Pro 400_FPE
LUT_3D_SIZE 5
0.033509 0.036683 0.037079
0.265110 0.058350 0.045899
0.392950 0.068330 0.057099
0.493477 0.129488 0.077882
0.557763 0.163027 0.105287
0.125917 0.296635 0.114137
0.513573 0.450965 0.187259
0.714626 0.551995 0.268894
0.768307 0.533532 0.263920
0.767025 0.470924 0.226169
0.381765 0.532921 0.227970
0.700587 0.648646 0.307713
0.813718 0.690486 0.354467
0.875731 0.695796 0.369726
0.876890 0.662989 0.346166
0.512322 0.643305 0.281682
0.807431 0.736446 0.371405
0.876951 0.760800 0.399664
0.907134 0.774685 0.411902
0.915618 0.767788 0.413672
0.601312 0.707668 0.328679
0.855009 0.778286 0.409583
0.898253 0.792264 0.430060
0.915679 0.801968 0.439094
0.923522 0.812985 0.437110
0.030060 0.037354 0.087495
0.163119 0.056336 0.116274
0.347753 0.079255 0.151369
0.438148 0.092164 0.159518
0.500084 0.106355 0.175753
0.048646 0.206363 0.254917
0.331121 0.302220 0.296880
0.560540 0.232975 0.207340
0.596918 0.196170 0.148867
0.701900 0.301244 0.262333
0.101167 0.452186 0.372778
0.515679 0.622187 0.363745
0.813230 0.701747 0.438941
0.870359 0.648234 0.365896
0.867460 0.625956 0.433982
0.139193 0.562402 0.411536
0.588861 0.702876 0.361486
0.853422 0.778225 0.447150
0.914855 0.809689 0.497780
0.912535 0.787503 0.574304
0.179263 0.611627 0.454871
0.603235 0.737514 0.458412
0.810269 0.791989 0.509056
0.894347 0.834989 0.599725
0.920501 0.845029 0.627405
0.031250 0.036133 0.148959
0.119997 0.051301 0.150393
0.292790 0.076631 0.190463
0.400000 0.089448 0.214511
0.484535 0.108644 0.223301
0.049866 0.172854 0.317571
0.083619 0.126558 0.280766
0.433967 0.181186 0.340856
0.535454 0.143435 0.268284
0.676356 0.263676 0.346288
0.103395 0.443320 0.485634
0.209323 0.558404 0.564111
0.607874 0.593103 0.569116
0.748592 0.476463 0.452049
0.825315 0.549783 0.510994
0.185122 0.617304 0.572778
0.238743 0.663478 0.589624
0.625208 0.734981 0.578927
0.871122 0.811276 0.678065
0.898436 0.787747 0.698604
0.268315 0.694636 0.633783
0.286442 0.689204 0.594934
0.661128 0.781613 0.631312
0.861753 0.845853 0.715267
0.910765 0.865965 0.762295
0.032868 0.036439 0.179690
0.048585 0.040131 0.164401
0.174990 0.061311 0.202426
0.344579 0.087190 0.236942
0.485420 0.113313 0.269657
0.049470 0.171298 0.358892
0.038911 0.065553 0.256718
0.134417 0.080781 0.301671
0.483772 0.139162 0.355077
0.639277 0.229191 0.401770
0.098695 0.433677 0.530053
0.085939 0.372885 0.512993
0.202319 0.324666 0.491295
0.678309 0.459495 0.597955
0.802365 0.544808 0.613519
0.161715 0.598383 0.628443
0.195895 0.643519 0.675349
0.426322 0.709133 0.708217
0.770047 0.773434 0.749569
0.881895 0.775692 0.757168
0.240696 0.681758 0.682643
0.255924 0.692348 0.681971
0.557931 0.782895 0.736385
0.801297 0.838346 0.777218
0.910491 0.876219 0.832029
0.034394 0.040192 0.211002
0.035462 0.040314 0.212772
0.071931 0.048707 0.232456
0.237888 0.073091 0.264836
0.454536 0.106630 0.306584
0.049226 0.176394 0.382025
0.044831 0.117159 0.345800
0.102144 0.128786 0.386694
0.371984 0.186465 0.451392
0.612940 0.264622 0.501427
0.084535 0.379675 0.517479
0.078431 0.319173 0.498054
0.147921 0.328145 0.526452
0.504112 0.457252 0.624292
0.768490 0.528237 0.682612
0.140688 0.538964 0.611505
0.165011 0.563531 0.637018
0.384833 0.655451 0.705592
0.605066 0.684230 0.735683
0.856840 0.755764 0.793637
0.195071 0.646571 0.681880
0.260929 0.696620 0.714168
0.520607 0.782223 0.772030
0.758083 0.839353 0.823850
0.929107 0.894743 0.888395
