LUTs/3.cube
LUT_3D_SIZE 6
-0.014281 -0.014250 -0.006361
0.132170 0.043615 0.043697
0.529748 0.100159 0.101604
0.859627 0.163050 0.161952
0.973930 0.186804 0.184086
0.983021 0.229476 0.220940
0.043937 0.141303 0.046277
0.124978 0.135771 0.046212
0.526566 0.295040 0.117843
0.857126 0.332619 0.172156
0.974061 0.302864 0.187106
0.983455 0.293327 0.224421
0.153962 0.557743 0.155709
0.287240 0.557954 0.158057
0.523175 0.552882 0.167264
0.853382 0.608700 0.211239
0.969441 0.532699 0.212982
0.985329 0.457551 0.239222
0.241359 0.870436 0.242497
0.346582 0.870608 0.243890
0.588405 0.871297 0.251555
0.863160 0.878054 0.267751
0.967716 0.758200 0.252146
0.988884 0.640267 0.264271
0.270997 0.975990 0.271672
0.338675 0.976102 0.272466
0.522624 0.976458 0.276932
0.741251 0.977358 0.285787
0.982456 0.988437 0.302173
0.994593 0.820799 0.294768
0.318538 1.047187 0.318726
0.354820 1.047271 0.318955
0.451005 1.047585 0.320064
0.594573 1.048220 0.323348
0.788309 1.049589 0.330478
1.006656 1.055516 0.339828
-0.119331 -0.401882 0.115747
0.067841 -0.402154 0.113593
0.539848 -0.395340 0.297171
0.882617 -0.378853 0.339818
0.988320 -0.370205 0.305948
0.982712 -0.344159 0.297672
0.047138 0.141113 0.148075
0.130646 0.141206 0.151994
0.555554 0.115471 0.148087
0.884494 0.159153 0.182537
0.980308 0.216841 0.224025
0.983083 0.265913 0.262735
0.156470 0.557814 0.310358
0.129979 0.562244 0.162020
0.525528 0.555818 0.172777
0.863648 0.584262 0.212501
0.982237 0.506524 0.222951
0.984931 0.444611 0.273627
0.242862 0.870489 0.367950
0.232038 0.873277 0.246643
0.559462 0.873396 0.252971
0.864264 0.879314 0.269682
0.973845 0.751461 0.253454
0.988494 0.634476 0.295864
0.271859 0.976039 0.353840
0.268007 0.978498 0.278649
0.492746 0.978742 0.278430
0.731013 0.978905 0.287286
0.983200 0.989225 0.303705
0.994252 0.818435 0.324517
0.318695 1.047194 0.355929
0.337982 1.047064 0.338181
0.444073 1.047325 0.332506
0.590928 1.048015 0.334928
0.786238 1.049471 0.347755
1.006675 1.055531 0.358827
-0.070359 -0.395024 0.613987
0.273064 -0.394818 0.609975
0.536853 -0.393328 0.589455
0.877704 -0.377577 0.638286
0.987181 -0.370668 0.543213
0.982740 -0.343251 0.452644
0.110392 0.298753 0.585970
0.138913 0.150135 0.598418
0.554847 0.128597 0.606789
0.877615 0.174503 0.610683
0.980197 0.215655 0.517978
0.983232 0.263272 0.441522
0.162779 0.560549 0.577235
0.161979 0.565235 0.583834
0.530565 0.559890 0.581064
0.862265 0.580058 0.604532
0.984661 0.595808 0.620894
0.988480 0.613922 0.632548
0.246106 0.870815 0.633763
0.246789 0.872718 0.607299
0.542881 0.873296 0.597161
0.859456 0.875139 0.587942
0.987985 0.776260 0.594314
0.991100 0.717463 0.627288
0.273735 0.976193 0.559022
0.274305 0.977972 0.532097
0.516656 0.990155 0.581265
0.733071 0.987886 0.557457
0.982356 0.989096 0.566225
0.995388 0.853578 0.638366
0.318197 1.047067 0.443074
0.330524 1.046921 0.431831
0.605999 1.048251 0.635292
0.686557 1.048727 0.634800
0.827417 1.049847 0.652395
1.006354 1.054707 0.662642
0.150638 -0.375872 0.980282
0.318544 -0.375962 0.980417
0.586992 -0.377675 0.970540
0.873678 -0.371740 0.949684
0.979091 -0.369175 0.784244
0.982330 -0.341558 0.620169
0.160379 0.336731 0.951278
0.183318 0.194772 0.970157
0.571765 0.193553 0.967734
0.887468 0.189324 0.962500
0.980515 0.214416 0.790937
0.983621 0.266030 0.643445
0.197626 0.614834 0.936551
0.193215 0.595103 0.953839
0.561855 0.591472 0.967333
0.889918 0.574271 0.970961
0.985094 0.585085 0.828728
0.988513 0.603124 0.743114
0.257218 0.883658 0.939716
0.258435 0.885801 0.942863
0.525963 0.887781 0.953331
0.864341 0.879889 0.939792
0.981974 0.882161 0.951409
0.997772 0.892144 0.947439
0.277495 0.976560 0.798255
0.278363 0.978090 0.789879
0.499237 0.989667 0.813987
0.868568 0.980054 0.945448
0.975264 0.982386 0.940661
0.999814 0.939222 0.944989
0.317827 1.046833 0.625308
0.332710 1.046677 0.618943
0.603907 1.047825 0.727732
0.889325 1.050685 0.946352
0.927857 1.051717 0.955811
1.005862 1.053362 0.970930
0.198035 -0.359105 1.051324
0.293013 -0.358041 1.051539
0.482026 -0.355200 1.047150
0.704053 -0.349103 1.037992
0.960458 -0.335580 1.040403
0.982482 -0.338555 0.832998
0.196010 0.307514 1.030798
0.222028 0.236465 1.030263
0.472850 0.243190 1.031038
0.715241 0.254213 1.032541
0.962974 0.274536 1.040907
0.984317 0.270344 0.850070
0.221874 0.530079 1.033563
0.245938 0.508159 1.033168
0.580521 0.609449 1.034670
0.752846 0.599374 1.035771
0.967334 0.604471 1.043326
0.989053 0.604362 0.896393
0.260809 0.755724 1.038622
0.281419 0.748484 1.038400
0.577825 0.779713 1.038984
0.876572 0.890701 1.042847
0.973057 0.888455 1.046028
0.998537 0.888703 1.000745
0.310899 0.982687 1.053116
0.331451 0.982641 1.052981
0.595761 0.982602 1.051295
0.877145 0.982314 1.048480
0.976045 0.982503 1.047061
1.002627 0.983367 1.048215
0.321026 1.047457 0.846390
0.338632 1.047308 0.843676
0.613386 1.048340 0.890319
0.899503 1.051202 0.999740
0.986383 1.052397 1.048763
1.005574 1.052536 1.059088
0.198948 -0.358639 1.066193
0.261539 -0.358047 1.066325
0.391848 -0.356395 1.065397
0.561440 -0.352906 1.063409
0.769439 -0.346011 1.063262
0.988203 -0.334942 1.065702
0.194959 0.275556 1.060890
0.227429 0.242195 1.060581
0.403726 0.242132 1.061044
0.595339 0.249085 1.061947
0.789673 0.259675 1.063368
0.991755 0.274302 1.065475
0.212206 0.450483 1.062593
0.238919 0.435675 1.062355
0.584658 0.613475 1.064014
0.685064 0.598498 1.064503
0.830251 0.601182 1.065716
0.995023 0.605147 1.067495
0.240300 0.638300 1.065822
0.263586 0.631882 1.065608
0.573989 0.714007 1.066387
0.879448 0.893342 1.070808
0.927061 0.887895 1.071152
1.000408 0.888993 1.072013
0.274781 0.821790 1.070536
0.294787 0.819386 1.070387
0.583342 0.853553 1.070352
0.875125 0.938805 1.072429
0.977202 0.983721 1.074211
1.002586 0.983196 1.074456
0.314875 1.009626 1.077086
0.332013 1.009666 1.077015
0.596194 1.009251 1.075891
0.878682 1.008544 1.075097
0.977259 1.008037 1.075163
1.003831 1.008522 1.075275
