LUTs/3.cube
LUT_3D_SIZE 16
-0.014281 -0.014250 -0.006361
0.010881 -0.013827 0.004612
0.063561 0.022124 0.024294
0.132170 0.043615 0.043697
0.231738 0.043386 0.047022
0.368934 0.068751 0.071476
0.529748 0.100159 0.101604
0.671145 0.127160 0.127618
0.780949 0.148063 0.147668
0.859627 0.163050 0.161952
0.913433 0.173340 0.171684
0.950407 0.180071 0.178019
0.973930 0.186804 0.184086
0.978193 0.205715 0.200244
0.978790 0.209719 0.203575
0.983021 0.229476 0.220940
-0.013981 0.011811 0.004283
-0.008857 -0.006212 -0.009630
0.063250 0.036327 0.023028
0.131921 0.057790 0.043051
0.231302 0.068408 0.047595
0.368597 0.094292 0.071822
0.529429 0.124684 0.101727
0.670805 0.149000 0.127581
0.780747 0.166720 0.147566
0.859513 0.178620 0.161824
0.913297 0.186255 0.171553
0.950310 0.190897 0.177946
0.973937 0.195397 0.183720
0.978187 0.212142 0.200131
0.978827 0.214969 0.203483
0.983054 0.233392 0.220967
0.020976 0.068548 0.024330
0.033730 0.068302 0.024104
0.059478 0.064994 0.021835
0.130063 0.099791 0.043300
0.230084 0.130625 0.053322
0.367338 0.167838 0.077718
0.528083 0.204926 0.107215
0.669576 0.228745 0.132429
0.779679 0.241084 0.151697
0.858592 0.245298 0.165268
0.912529 0.244725 0.174403
0.949527 0.241883 0.180429
0.974342 0.238041 0.184426
0.978394 0.245443 0.201246
0.978941 0.242932 0.204504
0.983150 0.255172 0.222102
0.043937 0.141303 0.046277
0.055607 0.141254 0.046300
0.092309 0.140695 0.046632
0.124978 0.135771 0.046212
0.229036 0.191999 0.063460
0.366421 0.246157 0.088838
0.526566 0.295040 0.117843
0.667828 0.323099 0.141934
0.778017 0.333773 0.159869
0.857126 0.332619 0.172156
0.911264 0.324966 0.180146
0.948388 0.314730 0.185332
0.974061 0.302864 0.187106
0.978894 0.298994 0.203347
0.979292 0.289494 0.206528
0.983455 0.293327 0.224421
0.067943 0.249406 0.070228
0.080698 0.249430 0.070200
0.126555 0.249489 0.071202
0.179296 0.248849 0.072950
0.224215 0.242469 0.073496
0.365796 0.321791 0.103129
0.525972 0.385657 0.132807
0.666558 0.419277 0.155714
0.776396 0.429956 0.171941
0.855374 0.425165 0.182442
0.909617 0.411966 0.188851
0.946862 0.395445 0.192686
0.972526 0.377593 0.193624
0.979703 0.363343 0.206380
0.979876 0.347031 0.209658
0.983850 0.342608 0.228027
0.108365 0.394641 0.110339
0.120459 0.394674 0.110162
0.169988 0.394777 0.111096
0.234432 0.394852 0.112984
0.301556 0.394018 0.115532
0.360999 0.387129 0.116804
0.525523 0.472720 0.150015
0.666274 0.514147 0.172662
0.775387 0.525371 0.187160
0.854064 0.517872 0.195722
0.908120 0.500112 0.200245
0.945352 0.478308 0.202439
0.970945 0.455107 0.202332
0.980700 0.432775 0.210186
0.980505 0.410044 0.213767
0.984505 0.398346 0.232969
0.153962 0.557743 0.155709
0.165372 0.557749 0.155422
0.216099 0.557818 0.156288
0.287240 0.557954 0.158057
0.366355 0.558168 0.160850
0.446754 0.557308 0.164261
0.523175 0.552882 0.167264
0.666600 0.605450 0.191199
0.775472 0.618480 0.204582
0.853382 0.608700 0.211239
0.907115 0.587049 0.213816
0.944190 0.560619 0.214236
0.969441 0.532699 0.212982
0.981998 0.504132 0.214282
0.981469 0.475590 0.218634
0.985329 0.457551 0.239222
0.192155 0.694552 0.193695
0.202246 0.694595 0.193375
0.250174 0.694606 0.194130
0.321622 0.694717 0.195704
0.403766 0.694934 0.198205
0.490877 0.695261 0.201695
0.579182 0.695070 0.205918
0.667851 0.694220 0.210721
0.776459 0.709409 0.223374
0.853636 0.697555 0.228339
0.906679 0.672206 0.229037
0.943432 0.641516 0.227645
0.968287 0.609191 0.225059
0.982652 0.575828 0.220543
0.982621 0.541940 0.223724
0.986320 0.518285 0.246652
0.221001 0.797703 0.222332
0.229579 0.797734 0.222014
0.272534 0.797773 0.222665
0.339841 0.797866 0.224019
0.419739 0.798074 0.226164
0.505912 0.798337 0.229185
0.595311 0.798784 0.233110
0.686512 0.799261 0.237886
0.781356 0.801798 0.244031
0.855476 0.785437 0.246784
0.907147 0.755618 0.245456
0.943363 0.720936 0.242302
0.967683 0.684303 0.238150
0.981646 0.646686 0.232706
0.984230 0.608040 0.228342
0.987503 0.579362 0.255107
0.241359 0.870436 0.242497
0.248523 0.870459 0.242202
0.285723 0.870495 0.242747
0.346582 0.870608 0.243890
0.421019 0.870718 0.245685
0.502766 0.870991 0.248235
0.588405 0.871297 0.251555
0.676409 0.871764 0.255668
0.766590 0.872951 0.260750
0.863160 0.878054 0.267751
0.909501 0.839455 0.263226
0.943870 0.798977 0.257934
0.967716 0.758200 0.252146
0.981164 0.716384 0.245499
0.985015 0.673555 0.234777
0.988884 0.640267 0.264271
0.255203 0.919820 0.256157
0.261142 0.919885 0.255905
0.292842 0.919884 0.256363
0.346565 0.919993 0.257306
0.414139 0.920139 0.258805
0.489758 0.920305 0.260938
0.569834 0.920590 0.263711
0.652642 0.920893 0.267173
0.737009 0.921302 0.271315
0.824131 0.922973 0.276475
0.918978 0.929794 0.283866
0.946542 0.878255 0.274877
0.968377 0.831197 0.266970
0.981287 0.785159 0.258888
0.984662 0.738163 0.247012
0.990629 0.700919 0.273912
0.264676 0.953516 0.265470
0.269592 0.953514 0.265250
0.296476 0.953506 0.265621
0.343391 0.953604 0.266412
0.403960 0.953693 0.267665
0.472916 0.953876 0.269433
0.546820 0.954064 0.271764
0.623782 0.954354 0.274668
0.702567 0.954741 0.278149
0.782600 0.955171 0.282245
0.865623 0.957120 0.287352
0.957047 0.964973 0.294832
0.971266 0.905751 0.283010
0.981950 0.853265 0.272855
0.984703 0.802021 0.259697
0.992549 0.761042 0.284078
0.270997 0.975990 0.271672
0.275115 0.975987 0.271481
0.297898 0.976057 0.271803
0.338675 0.976102 0.272466
0.392591 0.976209 0.273514
0.454974 0.976314 0.274992
0.522624 0.976458 0.276932
0.593646 0.976720 0.279379
0.666687 0.976995 0.282347
0.741251 0.977358 0.285787
0.816739 0.977803 0.289752
0.895197 0.979900 0.294711
0.982456 0.988437 0.302173
0.984965 0.923044 0.287964
0.985288 0.865364 0.272954
0.994593 0.820799 0.294768
0.274535 0.988383 0.275096
0.277998 0.988439 0.274951
0.297329 0.988504 0.275218
0.332620 0.988502 0.275760
0.380256 0.988550 0.276623
0.436359 0.988594 0.277871
0.497867 0.988781 0.279512
0.562989 0.988981 0.281571
0.630269 0.989197 0.284043
0.699202 0.989479 0.286966
0.769245 0.989823 0.290344
0.840070 0.990344 0.294166
0.913782 0.992657 0.298979
0.995546 1.000098 0.305868
0.988183 0.930459 0.287301
0.996767 0.880244 0.305940
0.272541 0.991112 0.273016
0.275462 0.991108 0.272876
0.292121 0.991163 0.273121
0.322894 0.991211 0.273587
0.365184 0.991239 0.274324
0.415591 0.991329 0.275381
0.471432 0.991410 0.276780
0.530871 0.991485 0.278525
0.592756 0.991715 0.280650
0.656283 0.991899 0.283162
0.720923 0.992188 0.286066
0.786408 0.992555 0.289326
0.852540 0.992949 0.293010
0.921505 0.995232 0.297634
0.997521 1.001991 0.302288
1.000541 0.941484 0.317394
0.318538 1.047187 0.318726
0.320894 1.047192 0.318678
0.332967 1.047219 0.318764
0.354820 1.047271 0.318955
0.383648 1.047365 0.319285
0.415964 1.047472 0.319657
0.451005 1.047585 0.320064
0.491356 1.047727 0.320738
0.539213 1.047930 0.321800
0.594573 1.048220 0.323348
0.655834 1.048604 0.325376
0.720787 1.049082 0.327822
0.788309 1.049589 0.330478
0.857472 1.050125 0.333344
0.929118 1.052086 0.336357
1.006656 1.055516 0.339828
-0.127757 -0.403404 -0.124429
-0.128696 -0.403431 -0.124676
-0.114041 -0.403097 -0.119872
0.061094 -0.402168 -0.108666
0.214107 -0.402111 -0.100160
0.368757 -0.400040 -0.068635
0.540113 -0.395618 0.082412
0.688401 -0.389867 0.126369
0.802454 -0.384104 0.151849
0.882810 -0.379181 0.167085
0.936282 -0.375478 0.175856
0.971172 -0.372939 0.180377
0.988185 -0.370148 0.185251
0.987276 -0.359919 0.207233
0.981903 -0.357315 0.211051
0.982629 -0.344368 0.234286
-0.011371 0.012082 0.028895
0.007591 0.007672 0.028849
0.064018 0.023984 0.035403
0.136082 0.035479 0.045559
0.234397 -0.019094 0.044206
0.370660 0.050621 0.069245
0.530926 0.089429 0.101181
0.672059 0.118771 0.127625
0.781684 0.141391 0.147935
0.860299 0.157721 0.162363
0.914033 0.169085 0.172157
0.950988 0.176637 0.178539
0.973996 0.184766 0.185172
0.978325 0.204412 0.201261
0.978894 0.208765 0.204553
0.983010 0.228961 0.221884
0.023634 0.068411 0.044016
-0.018500 0.069607 0.028802
0.060218 0.066110 0.026397
0.131924 0.095675 0.044630
0.231805 0.122063 0.052685
0.368764 0.156143 0.076905
0.529230 0.191039 0.106352
0.670495 0.214116 0.131655
0.780566 0.226890 0.151078
0.859376 0.232133 0.164798
0.913264 0.232874 0.174089
0.950299 0.231300 0.180159
0.974326 0.229479 0.185206
0.978499 0.238716 0.201881
0.978995 0.237298 0.205137
0.983150 0.250955 0.222787
0.046178 0.141220 0.065092
0.032918 0.141883 0.045942
0.087436 0.141247 0.047240
0.125437 0.136455 0.047003
0.229606 0.189444 0.063253
0.367054 0.241255 0.088290
0.527202 0.288414 0.117185
0.668458 0.315503 0.141309
0.778627 0.325897 0.159351
0.857707 0.324944 0.171756
0.911825 0.317704 0.179869
0.948933 0.307958 0.185116
0.974768 0.296602 0.186894
0.978887 0.294107 0.204017
0.979387 0.285257 0.207183
0.983405 0.289939 0.225089
0.070116 0.249394 0.091211
0.055146 0.249692 0.068551
0.118898 0.249752 0.071176
0.176617 0.249063 0.073059
0.224561 0.242908 0.073789
0.365992 0.320004 0.102938
0.526243 0.382344 0.132400
0.666865 0.415045 0.155256
0.776749 0.425307 0.171544
0.855820 0.420459 0.182127
0.910090 0.407342 0.188628
0.947310 0.391056 0.192552
0.973061 0.373359 0.193485
0.979710 0.359842 0.207103
0.979855 0.343842 0.210282
0.983855 0.339985 0.228693
0.110102 0.394678 0.130822
0.100057 0.394833 0.108878
0.160707 0.394903 0.111036
0.229912 0.394960 0.112999
0.299715 0.394122 0.115602
0.361279 0.387453 0.117020
0.525623 0.471409 0.149898
0.666459 0.511911 0.172412
0.775572 0.522613 0.186899
0.854318 0.514911 0.195505
0.908473 0.497095 0.200090
0.945681 0.475318 0.202332
0.971303 0.452158 0.202209
0.980734 0.430219 0.210910
0.980523 0.407713 0.214404
0.984513 0.396367 0.233622
0.155362 0.557732 0.175217
0.148662 0.557832 0.154996
0.205966 0.557889 0.156239
0.281415 0.557999 0.158053
0.363225 0.558229 0.160883
0.445444 0.557355 0.164355
0.523346 0.553053 0.167451
0.666691 0.604564 0.191181
0.775512 0.617007 0.204480
0.853579 0.606874 0.211125
0.907303 0.585070 0.213732
0.944367 0.558597 0.214171
0.969720 0.530659 0.212921
0.981958 0.502230 0.215065
0.981507 0.473878 0.219311
0.985289 0.455974 0.239857
0.193316 0.694525 0.211257
0.188672 0.694603 0.193784
0.240200 0.694666 0.194116
0.315297 0.694826 0.195732
0.399914 0.694920 0.198237
0.488666 0.695260 0.201768
0.578216 0.695103 0.206040
0.667931 0.694329 0.210897
0.776519 0.708751 0.223426
0.853722 0.696512 0.228340
0.906835 0.670956 0.229025
0.943596 0.640151 0.227652
0.968478 0.607771 0.225066
0.982983 0.574441 0.220511
0.982626 0.540614 0.224452
0.986286 0.517082 0.247288
0.221963 0.797724 0.237556
0.218182 0.797785 0.222573
0.263318 0.797806 0.222699
0.333574 0.797882 0.224068
0.415605 0.798126 0.226242
0.503253 0.798374 0.229275
0.593735 0.798812 0.233217
0.685816 0.799294 0.238030
0.781442 0.801863 0.244210
0.855441 0.784936 0.246853
0.907211 0.754891 0.245512
0.943455 0.720025 0.242373
0.967862 0.683285 0.238212
0.981835 0.645640 0.232738
0.984161 0.607029 0.229133
0.987467 0.578415 0.255730
0.242162 0.870450 0.255368
0.239051 0.870500 0.242775
0.277573 0.870556 0.242814
0.340714 0.870659 0.243967
0.416928 0.870808 0.245777
0.499952 0.871069 0.248331
0.586539 0.871313 0.251654
0.675300 0.871811 0.255784
0.766075 0.872971 0.260888
0.863169 0.878114 0.267900
0.909522 0.839090 0.263313
0.943870 0.798447 0.258012
0.967853 0.757539 0.252241
0.981270 0.715628 0.245591
0.985201 0.672892 0.234815
0.988896 0.639549 0.264896
0.255869 0.919873 0.266924
0.253331 0.919897 0.256466
0.285758 0.919905 0.256428
0.341201 0.920010 0.257382
0.410258 0.920146 0.258885
0.486954 0.920344 0.261034
0.567877 0.920606 0.263816
0.651269 0.920895 0.267269
0.736285 0.921326 0.271436
0.823731 0.923033 0.276610
0.919052 0.929893 0.284023
0.946569 0.877996 0.274983
0.968462 0.830814 0.267061
0.981402 0.784672 0.258993
0.984763 0.737776 0.247104
0.990589 0.700358 0.274552
0.265219 0.953499 0.274453
0.263150 0.953552 0.265795
0.290398 0.953559 0.265711
0.338622 0.953633 0.266516
0.400358 0.953732 0.267770
0.470237 0.953882 0.269531
0.544851 0.954105 0.271870
0.622371 0.954397 0.274769
0.701611 0.954779 0.278278
0.781981 0.955199 0.282364
0.865369 0.957162 0.287477
0.957119 0.965037 0.294982
0.971267 0.905508 0.283099
0.982014 0.852934 0.272954
0.984812 0.801706 0.259777
0.992518 0.760604 0.284703
0.271446 0.975984 0.279203
0.269759 0.976061 0.271993
0.292709 0.976084 0.271901
0.334437 0.976144 0.272561
0.389282 0.976248 0.273608
0.452465 0.976341 0.275092
0.520733 0.976517 0.277048
0.592231 0.976791 0.279506
0.665675 0.977029 0.282452
0.740512 0.977449 0.285916
0.816231 0.977777 0.289877
0.894940 0.979913 0.294843
0.982553 0.988465 0.302308
0.985022 0.922942 0.288079
0.985319 0.865120 0.273020
0.994571 0.820489 0.295376
0.274933 0.988497 0.281440
0.273523 0.988467 0.275415
0.292893 0.988494 0.275314
0.328922 0.988596 0.275882
0.377303 0.988584 0.276743
0.434014 0.988619 0.277979
0.496081 0.988794 0.279619
0.561587 0.988987 0.281685
0.629240 0.989263 0.284170
0.698470 0.989527 0.287090
0.768769 0.989839 0.290454
0.839745 0.990414 0.294309
0.913618 0.992645 0.299096
0.995600 1.000125 0.305988
0.988179 0.930295 0.287352
0.996753 0.880086 0.306520
0.272845 0.991099 0.278418
0.271691 0.991219 0.273334
0.288221 0.991227 0.273187
0.319579 0.991192 0.273642
0.362479 0.991292 0.274406
0.413442 0.991299 0.275440
0.469694 0.991447 0.276843
0.529559 0.991585 0.278607
0.591686 0.991724 0.280731
0.655498 0.992025 0.283255
0.720346 0.992224 0.286152
0.785990 0.992594 0.289423
0.852302 0.992956 0.293095
0.921327 0.995229 0.297691
0.997575 1.002016 0.302331
1.000539 0.941359 0.317958
0.318655 1.047177 0.322023
0.318306 1.047172 0.318686
0.330636 1.047203 0.318796
0.352905 1.047260 0.318704
0.382163 1.047354 0.318433
0.414885 1.047461 0.318087
0.450248 1.047576 0.317860
0.490819 1.047719 0.318174
0.538794 1.047921 0.319241
0.594232 1.048213 0.321018
0.655529 1.048597 0.323376
0.720548 1.049076 0.326180
0.788108 1.049585 0.329200
0.857345 1.050122 0.332377
0.929045 1.052086 0.335644
1.006659 1.055521 0.339290
-0.125195 -0.402947 -0.098401
-0.122920 -0.402923 -0.097849
-0.112745 -0.403052 -0.099042
0.062136 -0.402205 -0.063984
0.214117 -0.402091 0.084297
0.368664 -0.399980 0.146027
0.540012 -0.395512 0.194804
0.688252 -0.389782 0.224406
0.802367 -0.383974 0.239429
0.882701 -0.379089 0.244387
0.936213 -0.375351 0.243415
0.971028 -0.372871 0.239353
0.988203 -0.370155 0.235311
0.987275 -0.359876 0.244811
0.981940 -0.357265 0.242413
0.982655 -0.344307 0.257907
0.027009 0.042498 0.080992
0.029595 0.031959 0.080421
0.065651 0.026300 0.080256
0.135032 0.042281 0.104543
0.232860 0.045210 0.130354
0.369128 0.072603 0.165439
0.529613 0.103756 0.200672
0.670861 0.130279 0.223692
0.780752 0.150725 0.235772
0.859455 0.165311 0.239944
0.913263 0.175270 0.239462
0.950378 0.181518 0.236516
0.973770 0.188140 0.233860
0.978090 0.206731 0.238869
0.978770 0.210499 0.235883
0.983006 0.230212 0.246072
0.024461 0.068691 0.076517
0.009474 0.069704 0.078903
0.062840 0.067798 0.078086
0.128437 0.075918 0.084721
0.242560 0.044913 0.072058
0.382078 0.015466 0.074265
0.540020 0.070784 0.099276
0.679331 0.107138 0.126230
0.788111 0.133584 0.147797
0.866054 0.151799 0.162614
0.919372 0.164628 0.172905
0.956269 0.172908 0.179428
0.976001 0.188145 0.191287
0.979579 0.208904 0.207827
0.980001 0.213839 0.211481
0.982957 0.235762 0.229999
0.046372 0.141133 0.104611
0.043528 0.141534 0.102083
0.056751 0.142608 0.075564
0.126832 0.138278 0.075411
0.234939 0.176477 0.069968
0.374090 0.216752 0.088578
0.534208 0.255065 0.115492
0.675138 0.277711 0.139216
0.784918 0.287019 0.157446
0.863764 0.287172 0.170239
0.917596 0.282189 0.178768
0.954856 0.274863 0.183906
0.976490 0.270289 0.192750
0.980027 0.273181 0.209987
0.980440 0.267659 0.213185
0.983225 0.277786 0.232318
0.070550 0.249420 0.140000
0.069933 0.249531 0.135263
0.025218 0.251868 0.071491
0.161122 0.250678 0.075728
0.225664 0.244639 0.077384
0.368481 0.312183 0.103157
0.529624 0.367645 0.131225
0.670796 0.396178 0.153660
0.781019 0.404442 0.170006
0.860233 0.399092 0.180872
0.914560 0.386434 0.187707
0.952134 0.370941 0.191749
0.977149 0.354795 0.194370
0.980483 0.345337 0.213117
0.980781 0.331155 0.216121
0.983629 0.330649 0.235774
0.110497 0.394688 0.185349
0.110478 0.394699 0.178917
0.084978 0.396301 0.106881
0.205533 0.396292 0.113299
0.290894 0.395077 0.116402
0.362321 0.388774 0.118236
0.527010 0.465920 0.149493
0.668416 0.502412 0.171387
0.778286 0.510900 0.185753
0.857364 0.502146 0.194474
0.911832 0.484069 0.199286
0.949376 0.462440 0.201762
0.975531 0.439586 0.201202
0.981377 0.419852 0.216849
0.981367 0.398407 0.219987
0.984307 0.389228 0.240560
0.155734 0.557754 0.232481
0.155795 0.557734 0.224851
0.138253 0.558765 0.151854
0.251595 0.558944 0.157815
0.348205 0.558947 0.160984
0.439360 0.557986 0.164644
0.524177 0.553981 0.168124
0.667473 0.600724 0.190810
0.776995 0.610707 0.203775
0.855545 0.599307 0.210387
0.909641 0.576839 0.213091
0.947133 0.550231 0.213735
0.972916 0.522223 0.212087
0.982549 0.494724 0.220830
0.982159 0.467001 0.224669
0.985107 0.450503 0.246607
0.193632 0.694575 0.266385
0.193746 0.694565 0.258603
0.180803 0.695394 0.190688
0.283673 0.695547 0.195391
0.381510 0.695572 0.198145
0.478527 0.695786 0.201776
0.573968 0.695516 0.206200
0.668503 0.694950 0.211342
0.777314 0.706234 0.223219
0.854815 0.692269 0.227919
0.908488 0.665896 0.228588
0.945532 0.634662 0.227298
0.970961 0.602136 0.224516
0.984045 0.568915 0.224455
0.983229 0.535550 0.229702
0.986182 0.512870 0.253827
0.222242 0.797748 0.287600
0.222378 0.797716 0.280317
0.212922 0.798404 0.220658
0.302679 0.798523 0.223738
0.396067 0.798651 0.226089
0.491070 0.798826 0.229193
0.586697 0.799142 0.233215
0.682819 0.799630 0.238174
0.781866 0.802351 0.244564
0.856042 0.783220 0.246780
0.908167 0.751940 0.245281
0.944678 0.716486 0.242120
0.969548 0.679487 0.237957
0.983961 0.641747 0.232002
0.984544 0.603214 0.234403
0.987320 0.575181 0.262097
0.242395 0.870478 0.299235
0.242517 0.870456 0.292666
0.235840 0.871098 0.242191
0.312053 0.871193 0.243701
0.397629 0.871312 0.245672
0.487056 0.871467 0.248270
0.578204 0.871710 0.251654
0.670323 0.872083 0.255861
0.763933 0.873224 0.261056
0.863515 0.878461 0.268233
0.910030 0.837876 0.263348
0.944686 0.796454 0.257950
0.968997 0.755180 0.252180
0.982892 0.712998 0.245304
0.986220 0.670104 0.237724
0.988723 0.637071 0.271193
0.256059 0.919874 0.304619
0.256177 0.919861 0.298885
0.250946 0.920416 0.256372
0.315420 0.920580 0.257228
0.392068 0.920678 0.258874
0.474138 0.920808 0.261023
0.559008 0.920982 0.263846
0.645453 0.921230 0.267364
0.732667 0.921626 0.271572
0.822152 0.923239 0.276808
0.919342 0.930111 0.284330
0.947025 0.877181 0.275098
0.969212 0.829438 0.267112
0.982466 0.783000 0.258982
0.986229 0.735808 0.246358
0.990458 0.698466 0.280775
0.265375 0.953497 0.306652
0.265491 0.953490 0.301717
0.261282 0.954067 0.266014
0.315697 0.954201 0.266422
0.383550 0.954267 0.267809
0.457944 0.954381 0.269587
0.535948 0.954562 0.271959
0.616069 0.954740 0.274877
0.697384 0.955072 0.278411
0.779467 0.955498 0.282548
0.864270 0.957393 0.287709
0.957365 0.965297 0.295299
0.971680 0.905050 0.283292
0.982670 0.851956 0.273082
0.985970 0.800540 0.259307
0.992316 0.759197 0.290740
0.271582 0.975979 0.306653
0.271702 0.975976 0.302403
0.268324 0.976575 0.272502
0.314276 0.976713 0.272554
0.373917 0.976723 0.273711
0.440863 0.976844 0.275208
0.512033 0.976860 0.277152
0.585821 0.977092 0.279625
0.661089 0.977355 0.282607
0.737392 0.977697 0.286092
0.814433 0.978110 0.290095
0.894136 0.980112 0.295084
0.982711 0.988605 0.302595
0.985396 0.922539 0.288291
0.985999 0.864445 0.272621
0.994491 0.819523 0.301190
0.275036 0.988494 0.304860
0.275152 0.988494 0.301206
0.272386 0.988904 0.276132
0.311124 0.988980 0.275880
0.363385 0.988998 0.276868
0.423272 0.989213 0.278149
0.487823 0.989370 0.279793
0.555300 0.989511 0.281864
0.624561 0.989628 0.284351
0.695117 0.989888 0.287312
0.766359 0.990147 0.290686
0.838335 0.990610 0.294534
0.913097 0.992867 0.299376
0.995776 1.000291 0.306278
0.988554 0.930119 0.287053
0.996671 0.879455 0.312123
0.272956 0.991162 0.298638
0.272921 0.991143 0.295347
0.270421 0.991695 0.273889
0.303393 0.991780 0.273171
0.349510 0.991802 0.273995
0.403194 0.991944 0.275079
0.461665 0.991999 0.276478
0.523335 0.992081 0.278255
0.586896 0.992167 0.280371
0.651811 0.992373 0.282905
0.717773 0.992644 0.285820
0.784276 0.992904 0.289113
0.851184 0.993156 0.292790
0.920907 0.995377 0.297470
0.997679 1.002184 0.301754
1.000523 0.941040 0.323153
0.318579 1.047161 0.334880
0.318689 1.047147 0.332435
0.321751 1.047120 0.321707
0.345777 1.047182 0.322396
0.376380 1.047278 0.321330
0.410354 1.047389 0.319518
0.446716 1.047508 0.317973
0.488036 1.047655 0.317563
0.536527 1.047863 0.318589
0.592363 1.048172 0.320799
0.653961 1.048562 0.323822
0.719281 1.049037 0.327340
0.787156 1.049555 0.330992
0.856660 1.050099 0.334782
0.928687 1.052078 0.338402
1.006670 1.055535 0.342067
-0.119331 -0.401882 0.115747
-0.112478 -0.401835 0.117091
-0.082442 -0.401927 0.119826
0.067841 -0.402154 0.113593
0.214452 -0.402054 0.177681
0.368716 -0.399880 0.241057
0.539848 -0.395340 0.297171
0.688114 -0.389596 0.329100
0.802225 -0.383762 0.341190
0.882617 -0.378853 0.339818
0.936076 -0.375176 0.330978
0.971024 -0.372673 0.318917
0.988320 -0.370205 0.305948
0.987347 -0.359840 0.302490
0.981974 -0.357188 0.292186
0.982712 -0.344159 0.297672
0.045598 0.062638 0.156096
0.042270 0.045458 0.161063
0.095973 0.045284 0.161310
0.134603 0.042270 0.154113
0.232030 0.046441 0.196072
0.368647 0.073852 0.246029
0.529180 0.104814 0.293709
0.670515 0.131202 0.321050
0.780451 0.151505 0.331162
0.859239 0.165956 0.329565
0.913072 0.175797 0.321488
0.950169 0.182011 0.310804
0.973828 0.188153 0.299875
0.978140 0.206901 0.293930
0.978814 0.210668 0.283706
0.983048 0.230461 0.285118
0.044614 0.105262 0.155320
0.039516 0.101941 0.158492
0.072125 0.077742 0.153941
0.129902 0.078351 0.150764
0.242038 0.056096 0.190877
0.379718 0.071078 0.228725
0.537047 0.103585 0.266493
0.676323 0.131148 0.288842
0.785223 0.151822 0.297492
0.863500 0.166413 0.296678
0.917039 0.176193 0.290608
0.954458 0.181449 0.281957
0.975380 0.192833 0.275679
0.979425 0.211396 0.274002
0.979907 0.215135 0.266763
0.982975 0.236419 0.272846
0.047138 0.141113 0.148075
0.044501 0.141859 0.149347
0.058151 0.143187 0.153661
0.130646 0.141206 0.151994
0.227375 0.141206 0.153183
0.376448 0.133726 0.152606
0.555554 0.115471 0.148087
0.698831 0.124411 0.157400
0.807325 0.142657 0.170763
0.884494 0.159153 0.182537
0.937248 0.171616 0.191392
0.972033 0.183377 0.199566
0.980308 0.216841 0.224025
0.980405 0.239065 0.241087
0.980463 0.245018 0.245500
0.983083 0.265913 0.262735
0.071337 0.249436 0.198136
0.070800 0.249521 0.196477
0.061190 0.251364 0.185062
0.119892 0.248949 0.146040
0.225753 0.244074 0.147888
0.376080 0.290704 0.136460
0.544098 0.329557 0.145280
0.687790 0.348330 0.161568
0.798819 0.352333 0.175907
0.878359 0.346572 0.186419
0.932767 0.335625 0.193404
0.971625 0.321911 0.195623
0.980759 0.321932 0.223505
0.981063 0.321721 0.242314
0.981014 0.313844 0.246062
0.983480 0.320327 0.264190
0.111302 0.394780 0.255001
0.111301 0.394787 0.251780
0.109737 0.395937 0.230977
0.090598 0.399999 0.132280
0.264096 0.397365 0.132034
0.363342 0.390591 0.132776
0.532715 0.453698 0.155745
0.677529 0.481620 0.175198
0.789371 0.485438 0.188983
0.869971 0.474664 0.197978
0.925456 0.456197 0.203421
0.964749 0.434793 0.204918
0.981358 0.417155 0.223816
0.981943 0.403197 0.244729
0.981739 0.385799 0.248731
0.984094 0.381433 0.268304
0.156470 0.557814 0.310358
0.156541 0.557780 0.305949
0.156309 0.558521 0.278666
0.129979 0.562244 0.162020
0.305728 0.561806 0.165054
0.423784 0.559926 0.169285
0.525528 0.555818 0.172777
0.671353 0.593270 0.193243
0.783222 0.598222 0.205661
0.863648 0.584262 0.212501
0.919410 0.560735 0.215805
0.958516 0.533748 0.216312
0.982237 0.506524 0.222951
0.983084 0.482481 0.247094
0.982731 0.457515 0.251898
0.984931 0.444611 0.273627
0.194302 0.694609 0.345484
0.194410 0.694603 0.340550
0.194303 0.695062 0.310479
0.173654 0.698157 0.196499
0.332371 0.698269 0.199831
