LUTs/30.cube
# (C) 2014 VisionColor & Patchflyer [www.vision-color.com]
# Generator: VC Patchmatch v.2.1.1 [64/53]
# All work and no play makes Jack a dull boy.
# LUT generated from: Fuji Superior 200_VisionSpace
LUT_3D_SIZE 5
0.029999 0.029999 0.029999
0.230198 0.052094 0.052094
0.343145 0.064027 0.063508
0.421302 0.072175 0.072053
0.514305 0.129824 0.127932
0.197757 0.289525 0.112551
0.433936 0.377997 0.192935
0.553491 0.426307 0.228641
0.609796 0.449439 0.251011
0.644923 0.466468 0.280247
0.449409 0.536919 0.248600
0.614832 0.601099 0.336950
0.673518 0.631739 0.362249
0.698207 0.642634 0.371679
0.711513 0.643214 0.378729
0.604730 0.665125 0.344640
0.696345 0.702571 0.392309
0.729458 0.717922 0.403937
0.743770 0.725307 0.409979
0.743099 0.719753 0.410132
0.650446 0.714260 0.372930
0.734646 0.753414 0.416327
0.755764 0.757565 0.424872
0.759670 0.758938 0.427741
0.758724 0.758572 0.425116
0.039490 0.039490 0.177829
0.201816 0.053346 0.207218
0.348943 0.078035 0.242344
0.429908 0.089113 0.252934
0.492744 0.125582 0.268406
0.171633 0.322210 0.306798
0.366308 0.357458 0.338506
0.586938 0.284001 0.260838
0.616114 0.243900 0.229129
0.713039 0.367834 0.341192
0.302129 0.552422 0.411444
0.541863 0.635584 0.342901
0.707271 0.666224 0.412757
0.717525 0.618860 0.374273
0.728145 0.576471 0.405798
0.440986 0.682918 0.486122
0.624811 0.711391 0.371557
0.737331 0.745449 0.421607
0.761013 0.751675 0.444404
0.759121 0.712428 0.478553
0.527977 0.748043 0.469551
0.628779 0.739925 0.389868
0.732906 0.765408 0.465339
0.758053 0.770932 0.515068
0.773526 0.773526 0.534112
0.045380 0.045380 0.246403
0.153628 0.058289 0.299413
0.296300 0.066957 0.285649
0.378698 0.078309 0.300389
0.456703 0.116396 0.319890
0.178073 0.316136 0.393927
0.151827 0.209232 0.409705
0.411872 0.224979 0.422736
0.511894 0.204318 0.368078
0.657130 0.316899 0.428199
0.285283 0.512749 0.515099
0.342870 0.581506 0.581109
0.569665 0.560235 0.557244
0.669703 0.496452 0.479271
0.705440 0.530907 0.508202
0.358465 0.660548 0.600122
0.441413 0.730007 0.599176
0.638361 0.722164 0.539467
0.749325 0.733791 0.605493
0.755123 0.703700 0.608454
0.431189 0.747982 0.641749
0.551049 0.761624 0.600397
0.673609 0.767788 0.597452
0.744137 0.775967 0.648371
0.780941 0.780941 0.673671
0.047303 0.047333 0.297856
0.116060 0.055177 0.333837
0.239017 0.064393 0.329015
0.342382 0.075715 0.345953
0.435615 0.116518 0.373266
0.186191 0.330114 0.483986
0.078828 0.136294 0.417609
0.230488 0.139010 0.437354
0.436133 0.186404 0.461921
0.574151 0.289311 0.487098
0.279789 0.504295 0.565087
0.235767 0.462730 0.568444
0.295094 0.388235 0.567605
0.559716 0.411460 0.591852
0.662226 0.474449 0.571984
0.360723 0.645380 0.655177
0.359747 0.654078 0.663203
0.447990 0.683101 0.688350
0.682887 0.687556 0.686366
0.729274 0.676600 0.668208
0.393011 0.718868 0.691524
0.441230 0.748135 0.713588
0.567193 0.764248 0.715511
0.712123 0.772274 0.725002
0.785336 0.785275 0.745449
0.053559 0.062440 0.367285
0.101534 0.059236 0.373571
0.207950 0.074952 0.379065
0.298955 0.088441 0.392340
0.412909 0.110933 0.417273
0.166415 0.328161 0.525719
0.120974 0.221073 0.471321
0.211765 0.221317 0.551507
0.363195 0.246464 0.558068
0.507713 0.277470 0.550286
0.237308 0.489204 0.583154
0.218143 0.420874 0.561852
0.271855 0.405646 0.605280
0.452888 0.428290 0.649622
0.612879 0.449256 0.648615
0.341711 0.622003 0.661677
0.324804 0.592920 0.646571
0.404273 0.622034 0.694423
0.560601 0.624292 0.701198
0.698268 0.645167 0.708522
0.357000 0.665858 0.675380
0.366705 0.673793 0.681971
0.441047 0.734615 0.739620
0.620905 0.768399 0.768399
0.796475 0.796475 0.796475
