LUTs/30.cube
# (C) 2014 VisionColor & Patchflyer [www.vision-color.com]
# Generator: VC Patchmatch v.2.1.1 [64/53]
# All work and no play makes Jack a dull boy.
# LUT generated from: Fuji Superior 200_VisionSpace
LUT_3D_SIZE 9
0.029999 0.029999 0.029999
0.126925 0.039796 0.039796
0.230198 0.052094 0.052094
0.299870 0.059266 0.059205
0.343145 0.064027 0.063508
0.383825 0.068238 0.067750
0.421302 0.072175 0.072053
0.460670 0.086488 0.085847
0.514305 0.129824 0.127932
0.082002 0.138216 0.057069
0.198825 0.170748 0.081422
0.320989 0.209781 0.106691
0.406683 0.237797 0.124819
0.460243 0.252445 0.136294
0.502129 0.268589 0.149081
0.532952 0.278080 0.158938
0.557855 0.288029 0.173190
0.591119 0.321202 0.209598
0.197757 0.289525 0.112551
0.334295 0.343023 0.161196
0.433936 0.377997 0.192935
0.509575 0.408515 0.214725
0.553491 0.426307 0.228641
0.586114 0.439521 0.240665
0.609796 0.449439 0.251011
0.627649 0.455756 0.261143
0.644923 0.466468 0.280247
0.334783 0.430426 0.181582
0.462074 0.482155 0.240909
0.551232 0.516320 0.280125
0.598169 0.540703 0.299870
0.622705 0.548913 0.306340
0.646174 0.560052 0.315496
0.661433 0.566400 0.321416
0.672419 0.571008 0.327916
0.682216 0.572198 0.338109
0.449409 0.536919 0.248600
0.548241 0.577783 0.305089
0.614832 0.601099 0.336950
0.652796 0.619745 0.353552
0.673518 0.631739 0.362249
0.687770 0.637049 0.368963
0.698207 0.642634 0.371679
0.705715 0.644984 0.374121
0.711513 0.643214 0.378729
0.544701 0.618067 0.308049
0.609522 0.644373 0.352911
0.660639 0.659358 0.371862
0.690303 0.672541 0.382544
0.708736 0.683955 0.390387
0.718410 0.688350 0.394263
0.725826 0.691890 0.398474
0.727352 0.690425 0.400214
0.731350 0.687648 0.398871
0.604730 0.665125 0.344640
0.656641 0.692561 0.381598
0.696345 0.702571 0.392309
0.717098 0.711025 0.399145
0.729458 0.717922 0.403937
0.738705 0.723415 0.407965
0.743770 0.725307 0.409979
0.744167 0.726101 0.411933
0.743099 0.719753 0.410132
0.637324 0.693996 0.362524
0.689662 0.725399 0.399145
0.722652 0.734554 0.407233
0.737697 0.738277 0.412573
0.745052 0.741299 0.415991
0.750362 0.744289 0.418677
0.752956 0.745602 0.419318
0.754604 0.747951 0.419379
0.753323 0.745754 0.419257
0.650446 0.714260 0.372930
0.700282 0.740017 0.407141
0.734646 0.753414 0.416327
0.750301 0.756527 0.422461
0.755764 0.757565 0.424872
0.758907 0.758267 0.426581
0.759670 0.758938 0.427741
0.759457 0.758999 0.426795
0.758724 0.758572 0.425116
0.036408 0.036439 0.127871
0.106538 0.041382 0.124849
0.210117 0.052186 0.136538
0.286503 0.061158 0.153933
0.339788 0.067659 0.163241
0.386908 0.074128 0.171572
0.427985 0.080873 0.177584
0.464302 0.092958 0.186435
0.508049 0.126741 0.217746
0.086427 0.172610 0.157290
0.191073 0.195560 0.179660
0.363531 0.147219 0.137026
0.412818 0.131075 0.121798
0.439521 0.118044 0.110933
0.463783 0.108980 0.104677
0.492470 0.116213 0.113436
0.553460 0.177340 0.172274
0.648249 0.272007 0.255589
0.165255 0.346899 0.207858
0.325902 0.404608 0.201633
0.513298 0.457069 0.264500
0.562829 0.427100 0.251774
0.578882 0.396826 0.234745
0.586725 0.369421 0.220859
0.596277 0.354162 0.218967
0.619318 0.372869 0.251316
0.669306 0.420233 0.305333
0.276738 0.474495 0.253880
0.462867 0.550408 0.275822
0.599207 0.596521 0.336278
0.667750 0.623316 0.363134
0.671901 0.596704 0.348363
0.670954 0.573663 0.334081
0.669917 0.549126 0.322057
0.672358 0.529900 0.326635
0.696651 0.528283 0.344793
0.374884 0.574731 0.301915
0.558862 0.633906 0.331579
0.645655 0.663294 0.370245
0.700954 0.681941 0.387274
0.724880 0.693782 0.396460
0.721248 0.677028 0.390600
0.716640 0.660212 0.386786
0.714961 0.637140 0.379034
0.721706 0.613672 0.379065
0.450629 0.642481 0.349889
0.616754 0.678645 0.359045
0.682765 0.709224 0.391333
0.722316 0.720516 0.403082
0.739864 0.727504 0.410437
0.749538 0.733669 0.414496
0.744625 0.720333 0.409827
0.739528 0.696590 0.401099
0.742336 0.674128 0.405921
0.500633 0.686030 0.372290
0.643336 0.705440 0.369482
0.704677 0.735775 0.405463
0.738979 0.745571 0.415259
0.750668 0.749508 0.420722
0.756558 0.751492 0.423468
0.757015 0.753231 0.422583
0.753201 0.736965 0.417243
0.753140 0.714443 0.425757
0.530632 0.714137 0.370031
0.642420 0.717342 0.368292
0.700282 0.740780 0.405585
0.738003 0.755154 0.418341
0.752468 0.758602 0.425086
0.758907 0.760067 0.430671
0.760403 0.760006 0.433265
0.760159 0.760067 0.429694
0.759640 0.742489 0.445136
0.556939 0.734096 0.368780
0.626978 0.721675 0.363561
0.686000 0.741451 0.399725
0.727626 0.757504 0.419623
0.745327 0.761074 0.436316
0.754940 0.763027 0.447791
0.760220 0.763851 0.455512
0.763180 0.764187 0.458991
0.765194 0.765194 0.461067
0.039490 0.039490 0.177829
0.097749 0.048646 0.212314
0.201816 0.053346 0.207218
0.289036 0.067750 0.227604
0.348943 0.078035 0.242344
0.395605 0.084993 0.251133
0.429908 0.089113 0.252934
0.458473 0.098512 0.254948
0.492744 0.125582 0.268406
0.093996 0.183474 0.239109
0.094972 0.118318 0.267918
0.281254 0.129580 0.282933
0.372686 0.123598 0.261234
0.426917 0.120089 0.248112
0.461707 0.114656 0.234562
0.488838 0.117586 0.226078
0.531670 0.161715 0.253758
0.605554 0.244205 0.312627
0.171633 0.322210 0.306798
0.217288 0.389960 0.371801
0.366308 0.357458 0.338506
0.517296 0.316106 0.296208
0.586938 0.284001 0.260838
0.600427 0.259770 0.240482
0.616114 0.243900 0.229129
0.667414 0.281926 0.262425
0.713039 0.367834 0.341192
0.233799 0.448096 0.364202
0.325048 0.558801 0.395178
0.455268 0.536797 0.323064
0.607263 0.555383 0.367987
0.652155 0.527001 0.345312
0.663264 0.495140 0.327184
0.667659 0.459632 0.310399
0.690517 0.453864 0.318456
0.717128 0.478767 0.370367
0.302129 0.552422 0.411444
0.427985 0.647486 0.416938
0.541863 0.635584 0.342901
0.653071 0.655299 0.386236
0.707271 0.666224 0.412757
0.717525 0.648707 0.393408
0.717525 0.618860 0.374273
0.719234 0.585321 0.367834
0.728145 0.576471 0.405798
0.375769 0.629267 0.454261
0.494942 0.698177 0.419013
0.600397 0.687495 0.367041
0.680873 0.708064 0.396277
0.725704 0.716731 0.421485
0.745541 0.721126 0.435615
0.746151 0.705135 0.415320
0.743984 0.676661 0.410040
0.745144 0.657099 0.445289
0.440986 0.682918 0.486122
0.535088 0.730190 0.399908
0.624811 0.711391 0.371557
0.696773 0.734432 0.403082
0.737331 0.745449 0.421607
0.752956 0.748592 0.437751
0.761013 0.751675 0.444404
0.758053 0.730831 0.442267
0.759121 0.712428 0.478553
0.493263 0.720546 0.490730
0.562371 0.741817 0.388830
0.624689 0.721065 0.363500
0.696254 0.744381 0.406134
0.738186 0.759793 0.428809
0.754788 0.763272 0.450355
0.762905 0.764828 0.462928
0.766659 0.766384 0.468696
0.767025 0.744442 0.507622
0.527977 0.748043 0.469551
0.572137 0.749203 0.390539
0.628779 0.739925 0.389868
0.693233 0.758511 0.426764
0.732906 0.765408 0.465339
0.749386 0.768826 0.493660
0.758053 0.770932 0.515068
0.767391 0.771969 0.527581
0.773526 0.773526 0.534112
0.042817 0.042817 0.213107
0.088502 0.054597 0.271641
0.176730 0.058076 0.260868
0.261509 0.062776 0.254215
0.324041 0.071931 0.265507
0.370398 0.079011 0.277226
0.407111 0.083650 0.282017
0.437049 0.092744 0.284703
0.474128 0.119722 0.296727
0.099306 0.188937 0.286778
0.063325 0.083497 0.288914
0.184237 0.097536 0.320836
0.319463 0.109133 0.314244
0.382239 0.109255 0.304356
0.428565 0.107240 0.296880
0.462287 0.112032 0.287633
0.507836 0.153811 0.303319
0.578363 0.231235 0.348821
0.176089 0.316991 0.356237
0.188144 0.319249 0.407141
0.227939 0.267765 0.407294
0.412421 0.269596 0.411353
0.496803 0.249912 0.372412
0.539391 0.231357 0.342229
0.563684 0.217960 0.317693
0.623590 0.250126 0.332921
0.691341 0.337377 0.391272
0.234318 0.424628 0.415229
0.284794 0.513420 0.512169
0.336339 0.485023 0.476967
0.481086 0.468666 0.457008
0.575952 0.439643 0.423804
0.645533 0.406302 0.383261
0.692805 0.366003 0.340002
0.713588 0.367041 0.340307
0.710567 0.452003 0.425086
0.279820 0.526207 0.472084
0.335637 0.619623 0.539025
0.412848 0.618036 0.486213
0.544213 0.602441 0.461891
0.654810 0.621088 0.497230
0.690150 0.600397 0.454551
0.713527 0.562112 0.405539
0.722286 0.527214 0.388586
0.723201 0.551659 0.461891
0.327337 0.609735 0.514794
0.399939 0.690059 0.555291
0.487373 0.692134 0.476661
0.596246 0.685878 0.437675
0.686397 0.695460 0.487160
0.730434 0.701930 0.512322
0.741909 0.685786 0.470649
0.744320 0.651301 0.444648
0.741878 0.643549 0.504265
0.381353 0.674403 0.551629
0.468055 0.735317 0.548577
0.535088 0.735958 0.432700
0.619074 0.725338 0.395819
0.704128 0.738186 0.453483
0.742733 0.743923 0.496803
0.762264 0.746426 0.512932
0.762478 0.725582 0.494759
0.760372 0.710658 0.549004
0.436439 0.721401 0.570520
0.519829 0.754147 0.521843
0.563226 0.755428 0.408789
0.632013 0.738491 0.397314
0.711818 0.760464 0.444068
0.746883 0.766934 0.492561
0.762509 0.769497 0.521996
0.773465 0.772091 0.532952
0.769985 0.747097 0.583886
0.484627 0.752041 0.570825
0.548577 0.762112 0.510948
0.587793 0.761105 0.458839
0.652094 0.762203 0.476417
0.704494 0.768246 0.525628
0.736904 0.772030 0.559380
0.751919 0.774227 0.585168
0.767422 0.775906 0.602991
0.778073 0.778073 0.612390
0.045380 0.045380 0.246403
0.076692 0.051881 0.293431
0.153628 0.058289 0.299413
0.229953 0.061433 0.283726
0.296300 0.066957 0.285649
0.338750 0.072389 0.290929
0.378698 0.078309 0.300389
0.415076 0.088045 0.306096
0.456703 0.116396 0.319890
0.103761 0.191379 0.329931
0.054902 0.070924 0.310033
0.127199 0.077455 0.342473
0.243961 0.087922 0.334630
0.339361 0.098604 0.341436
0.389044 0.099794 0.331701
0.433082 0.106813 0.324834
0.483223 0.147616 0.337499
0.550652 0.221714 0.376562
0.178073 0.316136 0.393927
0.164828 0.287938 0.437263
0.151827 0.209232 0.409705
0.291936 0.212985 0.439673
0.411872 0.224979 0.422736
0.474769 0.213626 0.395087
0.511894 0.204318 0.368078
0.566094 0.237980 0.376471
0.657130 0.316899 0.428199
0.236545 0.412146 0.453590
0.259098 0.452125 0.518791
0.258396 0.412116 0.507561
0.346593 0.380896 0.493629
0.495369 0.388586 0.499001
0.579400 0.358465 0.467185
0.638666 0.321752 0.423743
0.676509 0.327428 0.408453
0.692592 0.422858 0.466316
0.285283 0.512749 0.515099
0.332860 0.597070 0.604181
0.342870 0.581506 0.581109
0.448341 0.567346 0.561517
0.569665 0.560235 0.557244
0.621118 0.533516 0.523445
0.669703 0.496452 0.479271
0.703853 0.469184 0.444373
0.705440 0.530907 0.508202
0.323613 0.595514 0.563653
0.366705 0.670039 0.630243
0.384527 0.669032 0.595728
0.489570 0.665431 0.577142
0.611994 0.655207 0.569757
0.687190 0.669947 0.595087
0.717952 0.653864 0.550896
0.730831 0.621103 0.507988
0.731167 0.630426 0.558618
0.358465 0.660548 0.600122
0.404395 0.724880 0.648066
0.441413 0.730007 0.599176
0.532219 0.726040 0.559976
0.638361 0.722164 0.539467
0.710353 0.729030 0.584497
0.749325 0.733791 0.605493
0.759854 0.719692 0.574212
0.755123 0.703700 0.608454
0.395697 0.713130 0.629786
0.440436 0.751766 0.635859
0.502800 0.758053 0.587243
0.569665 0.760281 0.524544
0.653986 0.759121 0.504799
0.721279 0.763882 0.564172
0.752926 0.767727 0.602564
0.774838 0.770871 0.619898
0.771634 0.749142 0.649134
0.431189 0.747982 0.641749
0.480659 0.760220 0.620081
0.551049 0.761624 0.600397
0.616571 0.763638 0.587503
0.673609 0.767788 0.597452
0.714412 0.772854 0.626368
0.744137 0.775967 0.648371
0.765438 0.778683 0.663447
0.780941 0.780941 0.673671
0.046418 0.046418 0.275303
0.068025 0.049409 0.305913
0.133486 0.056214 0.323705
0.202884 0.059968 0.310796
0.264683 0.065064 0.308629
0.317754 0.070192 0.314214
0.358312 0.076692 0.321355
0.401099 0.087556 0.331273
0.444587 0.116152 0.346563
0.110262 0.194614 0.373419
0.052033 0.063264 0.326329
0.089845 0.062470 0.343725
0.187167 0.073152 0.349432
0.280598 0.083040 0.355016
0.363348 0.095949 0.371801
0.414313 0.106142 0.365362
0.464118 0.147189 0.374243
0.525689 0.216739 0.403113
0.183474 0.321233 0.439551
0.147036 0.264958 0.465614
0.109163 0.169284 0.409339
0.196063 0.163973 0.445167
0.315267 0.179477 0.436744
0.416632 0.198672 0.438361
0.472480 0.195865 0.413977
0.524956 0.228672 0.413184
0.615869 0.301579 0.459236
0.233433 0.410773 0.486213
0.228153 0.421302 0.532738
0.206241 0.354726 0.501793
0.231159 0.309163 0.508278
0.372213 0.315328 0.540948
0.499397 0.325032 0.526238
0.565515 0.297642 0.480201
0.617517 0.304234 0.460700
0.664759 0.395239 0.499489
0.287449 0.503197 0.542290
0.316167 0.559853 0.606317
0.298192 0.518776 0.581903
0.329427 0.495201 0.582788
0.437064 0.474632 0.564599
0.558740 0.488060 0.568109
0.623285 0.445579 0.534661
0.668513 0.421469 0.500206
0.685115 0.502815 0.543175
0.330755 0.592126 0.601160
0.363745 0.649805 0.659876
0.355566 0.635493 0.640467
0.401221 0.635401 0.635645
0.527504 0.630884 0.630488
0.631373 0.629877 0.629450
0.664057 0.606195 0.599847
0.695277 0.576806 0.561486
0.709560 0.608942 0.595331
0.361181 0.654627 0.638209
0.385290 0.702327 0.680812
0.387213 0.702876 0.667475
0.431800 0.710933 0.661616
0.551644 0.709499 0.649927
0.662837 0.702602 0.647639
0.720150 0.712032 0.661097
0.741970 0.699886 0.636072
0.745937 0.694270 0.650629
0.383673 0.702449 0.664454
0.402106 0.733547 0.686305
0.424964 0.744869 0.680171
0.485634 0.756405 0.668421
0.583841 0.755123 0.653162
0.675532 0.751369 0.643610
0.732570 0.758144 0.668666
0.768490 0.763760 0.685206
0.769436 0.746059 0.692714
0.405371 0.737331 0.681239
0.424811 0.748501 0.679957
0.482490 0.759274 0.680110
0.554681 0.763485 0.676295
0.626154 0.765927 0.675929
0.693843 0.769223 0.685573
0.731655 0.774960 0.696956
0.762234 0.779263 0.710567
0.782620 0.782406 0.718379
0.047303 0.047333 0.297856
0.059052 0.048768 0.312261
0.116060 0.055177 0.333837
0.179446 0.059571 0.330602
0.239017 0.064393 0.329015
0.290684 0.069520 0.334905
0.342382 0.075715 0.345953
0.388952 0.087343 0.356878
0.435615 0.116518 0.373266
0.111666 0.195285 0.412238
0.052338 0.060639 0.347631
0.071168 0.055695 0.348974
0.148409 0.064881 0.364599
0.234440 0.075471 0.368658
0.309758 0.086275 0.382605
0.394446 0.103334 0.402075
0.448249 0.145357 0.412757
0.504112 0.214023 0.432898
0.186191 0.330114 0.483986
0.128878 0.242222 0.478157
0.078828 0.136294 0.417609
0.129976 0.121920 0.425147
0.230488 0.139010 0.437354
0.330632 0.159518 0.445289
0.436133 0.186404 0.461921
0.495857 0.222843 0.456214
0.574151 0.289311 0.487098
0.226841 0.413123 0.518547
0.198459 0.393439 0.540063
0.152621 0.307073 0.501396
0.154696 0.243839 0.467567
0.244770 0.245258 0.541634
0.378210 0.261418 0.546380
0.492714 0.279789 0.532494
0.556023 0.287083 0.500359
0.629908 0.372198 0.532952
0.279789 0.504295 0.565087
0.273106 0.525277 0.599725
0.235767 0.462730 0.568444
0.243427 0.416892 0.551904
0.295094 0.388235 0.567605
0.437842 0.404105 0.597864
0.559716 0.411460 0.591852
0.619074 0.387381 0.552087
0.662226 0.474449 0.571984
0.332586 0.587610 0.619013
0.349462 0.624994 0.659388
0.327794 0.594202 0.637324
0.327794 0.570275 0.627008
0.394934 0.569116 0.640803
0.515190 0.560204 0.627619
0.622461 0.571954 0.632715
0.658595 0.534447 0.598535
0.692958 0.587976 0.619806
0.360723 0.645380 0.655177
0.364874 0.664179 0.673609
0.359747 0.654078 0.663203
0.374273 0.663783 0.670192
0.447990 0.683101 0.688350
0.582452 0.682582 0.684260
0.682887 0.687556 0.686366
0.709865 0.668238 0.661646
0.729274 0.676600 0.668208
0.379187 0.686152 0.675715
0.386267 0.700069 0.684627
0.391577 0.710964 0.691707
0.418189 0.732296 0.706966
0.492409 0.748012 0.714076
0.595850 0.746456 0.703243
0.699184 0.743099 0.705348
0.756802 0.754269 0.718349
0.765316 0.741176 0.713344
0.393011 0.718868 0.691524
0.403693 0.730739 0.697627
0.441230 0.748135 0.713588
0.501518 0.759182 0.718776
0.567193 0.764248 0.715511
0.642512 0.767849 0.713130
0.712123 0.772274 0.725002
0.758511 0.779446 0.735378
0.785336 0.785275 0.745449
0.049226 0.050416 0.324834
0.053742 0.049134 0.321111
0.101930 0.054719 0.344488
0.162264 0.060395 0.348760
0.220279 0.065797 0.349798
0.270787 0.071077 0.355291
0.317815 0.077150 0.366888
0.375952 0.086305 0.379797
0.425299 0.114382 0.398840
0.108705 0.193790 0.444343
0.058900 0.083436 0.387518
0.077729 0.070680 0.382422
0.138979 0.078645 0.400366
0.209812 0.091402 0.402380
0.275700 0.103639 0.410590
0.344182 0.118868 0.424933
0.428046 0.140108 0.441138
0.486397 0.210513 0.465431
0.178866 0.330510 0.511925
0.117006 0.238010 0.483314
0.082033 0.154543 0.437964
0.121065 0.139010 0.444892
0.197940 0.151247 0.471077
0.283116 0.168948 0.475563
0.371435 0.190524 0.486854
0.463935 0.213291 0.495338
0.538903 0.281865 0.516381
0.213474 0.413703 0.540215
0.171847 0.366247 0.535698
0.133974 0.290623 0.500847
0.124178 0.225071 0.471992
0.187472 0.223514 0.516075
0.289219 0.235966 0.569574
0.404303 0.259953 0.559258
0.505089 0.279973 0.548211
0.591943 0.355230 0.568231
0.259586 0.498238 0.577691
0.230838 0.481117 0.582300
0.198611 0.421881 0.557366
0.194522 0.371633 0.538048
0.210483 0.325673 0.533867
0.308843 0.339910 0.615442
0.453315 0.357000 0.627405
0.569757 0.371099 0.614099
0.635767 0.454261 0.606226
0.320348 0.581018 0.626276
0.307103 0.582940 0.637659
0.280705 0.548333 0.619532
0.277134 0.514885 0.606439
0.308110 0.501534 0.622766
0.361471 0.475959 0.637476
0.515862 0.499428 0.644160
0.621576 0.510674 0.648829
0.675135 0.569818 0.643977
0.355444 0.633875 0.661097
0.351324 0.641810 0.671534
0.338445 0.625544 0.661677
0.340459 0.616022 0.657771
0.370886 0.626093 0.678676
0.466438 0.637720 0.696162
0.586175 0.629084 0.680140
0.680842 0.642390 0.689418
0.715908 0.661646 0.687800
0.368231 0.665736 0.676295
0.350164 0.660609 0.670527
0.349828 0.659571 0.669703
0.368048 0.673609 0.682063
0.403784 0.707729 0.713741
0.494331 0.730739 0.733608
0.614038 0.739101 0.739223
0.736324 0.740749 0.740749
0.763119 0.741970 0.736996
0.381506 0.690761 0.682826
0.384741 0.696071 0.685054
0.403174 0.718654 0.706294
0.442054 0.741848 0.724697
0.505211 0.757412 0.734646
0.589136 0.765255 0.738338
0.670954 0.771237 0.745266
0.746090 0.776181 0.758389
0.786954 0.786923 0.767300
0.053559 0.062440 0.367285
0.056367 0.054475 0.347539
0.101534 0.059236 0.373571
0.156283 0.066804 0.379248
0.207950 0.074952 0.379065
0.253880 0.081300 0.383520
0.298955 0.088441 0.392340
0.349554 0.098054 0.403998
0.412909 0.110933 0.417273
0.108400 0.204990 0.472206
0.078767 0.142000 0.432074
0.104036 0.126619 0.437201
0.154818 0.133120 0.456306
0.211460 0.143435 0.467018
0.270604 0.155550 0.467994
0.329107 0.170108 0.475471
0.392065 0.186007 0.483040
0.461341 0.203952 0.490669
0.166415 0.328161 0.525719
0.122316 0.261326 0.491310
0.120974 0.221073 0.471321
0.158083 0.216678 0.489479
0.211765 0.221317 0.551507
0.285283 0.228885 0.564202
0.363195 0.246464 0.558068
0.442786 0.264988 0.556848
0.507713 0.277470 0.550286
0.196658 0.408667 0.550622
0.161654 0.356268 0.528496
0.164157 0.319371 0.513664
0.188510 0.304387 0.522240
0.230900 0.307958 0.567987
0.307378 0.315404 0.628779
0.403479 0.327733 0.627070
0.500206 0.345464 0.622553
0.566918 0.355627 0.612177
0.237308 0.489204 0.583154
0.213016 0.453285 0.570733
0.218143 0.420874 0.561852
0.247166 0.414313 0.576379
0.271855 0.405646 0.605280
0.349248 0.416754 0.646571
0.452888 0.428290 0.649622
0.547051 0.442603 0.651118
0.612879 0.449256 0.648615
0.294774 0.565026 0.625544
0.272618 0.540337 0.614038
0.276829 0.519432 0.609094
0.305547 0.521538 0.628504
0.353216 0.529656 0.657282
0.400946 0.524620 0.674647
0.511437 0.537591 0.669551
0.599603 0.551019 0.672328
0.655055 0.557427 0.679103
0.341711 0.622003 0.661677
0.324071 0.604425 0.651270
0.324804 0.592920 0.646571
0.349767 0.602380 0.666499
0.404273 0.622034 0.694423
0.483101 0.628168 0.707271
0.560601 0.624292 0.701198
0.651209 0.637354 0.699947
0.698268 0.645167 0.708522
0.356451 0.649775 0.673915
0.348302 0.641749 0.669856
0.353582 0.639155 0.670222
0.375372 0.657465 0.690517
0.423896 0.682277 0.717098
0.510399 0.699886 0.734829
0.609003 0.704738 0.737179
0.693629 0.711208 0.735470
0.745052 0.721828 0.745235
0.357000 0.665858 0.675380
0.347295 0.657496 0.668727
0.366705 0.673793 0.681971
0.393774 0.703639 0.709987
0.441047 0.734615 0.739620
0.522942 0.760006 0.760739
0.620905 0.768399 0.768399
0.725856 0.776394 0.776394
0.796475 0.796475 0.796475
