LUTs/30.cube
# (C) 2014 VisionColor & Patchflyer [www.vision-color.com]
# Generator: VC Patchmatch v.2.1.1 [64/53]
# All work and no play makes Jack a dull boy.
# LUT generated from: Fuji Superior 200_VisionSpace
LUT_3D_SIZE 17
0.029999 0.029999 0.029999
0.076265 0.032502 0.032502
0.126925 0.039796 0.039796
0.181308 0.046540 0.046540
0.230198 0.052094 0.052094
0.270390 0.056458 0.056458
0.299870 0.059266 0.059205
0.322606 0.061555 0.061341
0.343145 0.064027 0.063508
0.363622 0.066438 0.065827
0.383825 0.068238 0.067750
0.402838 0.069886 0.069612
0.421302 0.072175 0.072053
0.439277 0.075807 0.075410
0.460670 0.086488 0.085847
0.484596 0.102358 0.101106
0.514305 0.129824 0.127932
0.046571 0.074556 0.035889
0.089937 0.076295 0.042847
0.152895 0.088624 0.052461
0.215335 0.101534 0.061097
0.272129 0.117891 0.071260
0.319310 0.130800 0.079347
0.354437 0.139590 0.085328
0.383154 0.146700 0.090486
0.406561 0.151980 0.094423
0.430304 0.158236 0.099001
0.448157 0.163394 0.102602
0.465461 0.168795 0.106783
0.479896 0.170962 0.109926
0.494148 0.173892 0.114534
0.511376 0.185489 0.127047
0.531243 0.201694 0.143679
0.557061 0.230961 0.171756
0.082002 0.138216 0.057069
0.131991 0.152438 0.066804
0.198825 0.170748 0.081422
0.263157 0.190127 0.094209
0.320989 0.209781 0.106691
0.369848 0.227237 0.117525
0.406683 0.237797 0.124819
0.436835 0.246189 0.131167
0.460243 0.252445 0.136294
0.483589 0.261570 0.143191
0.502129 0.268589 0.149081
0.519097 0.274876 0.154818
0.532952 0.278080 0.158938
0.544945 0.280705 0.163485
0.557855 0.288029 0.173190
0.572503 0.299626 0.186679
0.591119 0.321202 0.209598
0.134279 0.212802 0.082338
0.194095 0.236301 0.098268
0.263157 0.259983 0.119509
0.320775 0.277226 0.134890
0.374762 0.298222 0.148287
0.422217 0.315862 0.160098
0.458045 0.327916 0.168765
0.486824 0.338293 0.176486
0.508843 0.344732 0.182223
0.530358 0.354192 0.190005
0.546929 0.360998 0.196353
0.562188 0.367315 0.202457
0.575189 0.371344 0.207431
0.586725 0.375463 0.212650
0.597070 0.380194 0.219883
0.608179 0.387366 0.229679
0.621027 0.400244 0.245884
0.197757 0.289525 0.112551
0.265904 0.316564 0.135103
0.334295 0.343023 0.161196
0.391241 0.362249 0.180087
0.433936 0.377997 0.192935
0.477394 0.396551 0.205631
0.509575 0.408515 0.214725
0.533898 0.418982 0.222293
0.553491 0.426307 0.228641
0.572778 0.435248 0.235966
0.586114 0.439521 0.240665
0.599207 0.445594 0.246525
0.609796 0.449439 0.251011
0.620020 0.454139 0.256138
0.627649 0.455756 0.261143
0.635645 0.459113 0.268070
0.644923 0.466468 0.280247
0.267185 0.363470 0.146273
0.334386 0.388830 0.173159
0.403601 0.417914 0.202243
0.458015 0.437751 0.223911
0.498970 0.453101 0.239261
0.529625 0.467750 0.250095
0.556542 0.479500 0.259251
0.575799 0.488624 0.266026
0.591608 0.495521 0.270939
0.609186 0.505364 0.278630
0.619532 0.508293 0.281682
0.630091 0.511894 0.285679
0.637842 0.513054 0.288151
0.646235 0.516686 0.292180
0.652461 0.517815 0.296452
0.658869 0.520012 0.301885
0.664820 0.522789 0.310582
0.334783 0.430426 0.181582
0.396796 0.454871 0.211032
0.462074 0.482155 0.240909
0.514214 0.502190 0.263767
0.551232 0.516320 0.280125
0.577935 0.528771 0.291539
0.598169 0.540703 0.299870
0.612421 0.545708 0.304021
0.622705 0.548913 0.306340
0.636316 0.556207 0.311894
0.646174 0.560052 0.315496
0.655268 0.565209 0.319280
0.661433 0.566400 0.321416
0.667659 0.570001 0.324620
0.672419 0.571008 0.327916
0.677913 0.573053 0.332677
0.682216 0.572198 0.338109
0.395453 0.488502 0.216068
0.449104 0.512322 0.246799
0.509270 0.535882 0.275639
0.554925 0.552544 0.296574
0.588342 0.565545 0.313390
0.612268 0.576349 0.324681
0.629541 0.586145 0.332555
0.642573 0.593835 0.338262
0.650568 0.595972 0.339605
0.660914 0.600488 0.343267
0.669734 0.604700 0.346349
0.677394 0.609247 0.349218
0.682124 0.610651 0.349767
0.686854 0.612268 0.351385
0.690150 0.611872 0.352941
0.693874 0.612238 0.355810
0.697322 0.609827 0.359655
0.449409 0.536919 0.248600
0.496895 0.557946 0.278538
0.548241 0.577783 0.305089
0.586633 0.590997 0.322911
0.614832 0.601099 0.336950
0.637140 0.610834 0.346227
0.652796 0.619745 0.353552
0.665675 0.627497 0.359045
0.673518 0.631739 0.362249
0.681849 0.634089 0.364660
0.687770 0.637049 0.368963
0.694209 0.641321 0.371405
0.698207 0.642634 0.371679
0.702419 0.644495 0.372564
0.705715 0.644984 0.374121
0.709407 0.646113 0.376928
0.711513 0.643214 0.378729
0.502129 0.584466 0.281407
0.541222 0.600732 0.309117
0.580835 0.614771 0.331121
0.614832 0.625757 0.346197
0.639948 0.634180 0.358495
0.660273 0.642786 0.365972
0.674708 0.650141 0.372839
0.686976 0.657923 0.378454
0.694148 0.662104 0.381476
0.700618 0.665034 0.383856
0.704921 0.666163 0.386358
0.710109 0.669001 0.388464
0.712123 0.669123 0.387274
0.714504 0.669551 0.387518
0.717067 0.669276 0.388373
0.720333 0.669703 0.389197
0.722438 0.666987 0.389532
0.544701 0.618067 0.308049
0.576318 0.632532 0.333562
0.609522 0.644373 0.352911
0.637781 0.652705 0.363928
0.660639 0.659358 0.371862
0.677089 0.666163 0.377050
0.690303 0.672541 0.382544
0.701259 0.678767 0.387121
0.708736 0.683955 0.390387
0.714809 0.687129 0.392798
0.718410 0.688350 0.394263
0.723659 0.691371 0.397375
0.725826 0.691890 0.398474
0.726192 0.691524 0.399756
0.727352 0.690425 0.400214
0.729458 0.690150 0.400183
0.731350 0.687648 0.398871
0.580102 0.645869 0.330022
0.606287 0.659907 0.353429
0.634455 0.670771 0.368933
0.659175 0.677394 0.377630
0.679774 0.682795 0.383520
0.694453 0.688533 0.388067
0.704646 0.693721 0.391638
0.714351 0.698695 0.395239
0.720638 0.702602 0.397833
0.726772 0.706630 0.400519
0.730709 0.708309 0.402167
0.733700 0.709255 0.403479
0.735378 0.709743 0.404791
0.736263 0.710964 0.406256
0.735348 0.708644 0.406287
0.736599 0.708064 0.406226
0.737911 0.705623 0.405097
0.604730 0.665125 0.344640
0.631434 0.681056 0.368688
0.656641 0.692561 0.381598
0.678584 0.698634 0.387091
0.696345 0.702571 0.392309
0.709010 0.707088 0.396185
0.717098 0.711025 0.399145
0.723934 0.714839 0.401770
0.729458 0.717922 0.403937
0.733974 0.720638 0.405890
0.738705 0.723415 0.407965
0.741390 0.724392 0.409003
0.743770 0.725307 0.409979
0.744717 0.726864 0.411597
0.744167 0.726101 0.411933
0.743099 0.723384 0.411444
0.743099 0.719753 0.410132
0.624292 0.681270 0.355108
0.652216 0.699031 0.379705
0.676875 0.712428 0.391485
0.696712 0.717952 0.396002
0.712062 0.720974 0.400702
0.722805 0.724025 0.403937
0.728206 0.726009 0.406226
0.733516 0.728695 0.408453
0.737362 0.730648 0.410315
0.741024 0.733028 0.412085
0.745052 0.735225 0.413855
0.747066 0.736080 0.414343
0.749020 0.737301 0.414954
0.750881 0.739101 0.415503
0.750698 0.739773 0.416175
0.750332 0.738827 0.416236
0.748226 0.733120 0.414160
0.637324 0.693996 0.362524
0.664210 0.710048 0.385626
0.689662 0.725399 0.399145
0.709010 0.732174 0.402899
0.722652 0.734554 0.407233
0.732174 0.736782 0.410285
0.737697 0.738277 0.412573
0.741634 0.739742 0.414313
0.745052 0.741299 0.415991
0.747066 0.742489 0.417151
0.750362 0.744289 0.418677
0.751827 0.745357 0.419348
0.752956 0.745602 0.419318
0.754116 0.746334 0.419348
0.754604 0.747951 0.419379
0.754635 0.748653 0.420203
0.753323 0.745754 0.419257
0.647517 0.706233 0.369085
0.673579 0.719997 0.389502
0.699092 0.735683 0.404822
0.718807 0.743709 0.408881
0.731899 0.746456 0.413031
0.740566 0.747921 0.416327
0.745937 0.749081 0.418555
0.749142 0.749935 0.419959
0.751644 0.750973 0.421210
0.753445 0.751705 0.422187
0.755306 0.752682 0.423285
0.756436 0.753567 0.423957
0.757351 0.754116 0.424384
0.757382 0.753658 0.423682
0.757321 0.754360 0.423102
0.757290 0.755215 0.422766
0.757015 0.754513 0.422889
0.650446 0.714260 0.372930
0.675471 0.725429 0.388861
0.700282 0.740017 0.407141
0.721370 0.749813 0.412543
0.734646 0.753414 0.416327
0.743954 0.755428 0.419623
0.750301 0.756527 0.422461
0.753323 0.757076 0.423774
0.755764 0.757565 0.424872
0.757717 0.757931 0.425788
0.758907 0.758267 0.426581
0.759335 0.758511 0.427222
0.759670 0.758938 0.427741
0.759854 0.759335 0.428016
0.759457 0.758999 0.426795
0.759091 0.758694 0.425910
0.758724 0.758572 0.425116
0.032654 0.032685 0.081849
0.057740 0.033845 0.073548
0.110719 0.039185 0.072663
0.165164 0.045655 0.078492
0.214023 0.051331 0.087587
0.256565 0.056184 0.095979
0.289921 0.059571 0.101442
0.316411 0.062196 0.105531
0.338933 0.064546 0.108034
0.360632 0.066957 0.111025
0.382086 0.069306 0.113985
0.403326 0.071992 0.117494
0.422675 0.074739 0.120638
0.441108 0.078248 0.124025
0.461646 0.087709 0.134249
0.484199 0.101472 0.148470
0.511040 0.125734 0.173739
0.043427 0.080018 0.075654
0.092927 0.092073 0.090883
0.188144 0.068940 0.066743
0.243015 0.068299 0.066590
0.289952 0.069184 0.067292
0.321782 0.070253 0.068147
0.345098 0.071412 0.069276
0.362860 0.069398 0.068208
0.381140 0.069886 0.069062
0.398932 0.070924 0.070344
0.417670 0.073518 0.072847
0.434699 0.076143 0.075654
0.453986 0.082826 0.082216
0.475654 0.095552 0.094606
0.505272 0.122957 0.121004
0.539513 0.159518 0.155825
0.582757 0.207492 0.199710
0.079011 0.170718 0.094636
0.137697 0.199924 0.092103
0.258122 0.228916 0.120546
0.319463 0.209751 0.116030
0.366552 0.202060 0.114412
0.400519 0.198703 0.114626
0.427222 0.197238 0.115724
0.447150 0.192599 0.114382
0.463966 0.194369 0.117098
0.476539 0.192538 0.117952
0.488441 0.191806 0.119600
0.499153 0.190860 0.121920
0.512932 0.195346 0.128420
0.528374 0.206302 0.141054
0.550439 0.230106 0.165469
0.576379 0.262272 0.197299
0.609339 0.302190 0.235203
0.134920 0.254734 0.123995
0.211917 0.294408 0.124788
0.318578 0.334325 0.160769
0.418036 0.365576 0.189853
0.452705 0.348119 0.183841
0.479042 0.337530 0.180301
0.499794 0.331701 0.178683
0.514672 0.325078 0.175540
0.528344 0.323186 0.176852
0.538384 0.318090 0.176547
0.549401 0.317479 0.179080
0.558190 0.314794 0.180514
0.567346 0.314611 0.184756
0.577081 0.318303 0.193118
0.589746 0.329534 0.209232
0.607721 0.350317 0.233707
0.633234 0.378820 0.264469
0.190616 0.329992 0.150698
0.291844 0.382574 0.162966
0.392309 0.425574 0.205051
0.479194 0.455909 0.238590
0.541650 0.482216 0.262547
0.553887 0.463569 0.252720
0.566003 0.453040 0.247532
0.574273 0.442695 0.241337
0.583642 0.436683 0.239597
0.589807 0.428016 0.236606
0.597406 0.423651 0.236881
0.603418 0.418280 0.236332
0.609491 0.414649 0.237491
0.616083 0.413977 0.242344
0.623255 0.415778 0.251713
0.633814 0.425452 0.268193
0.651637 0.443305 0.291752
0.254704 0.393622 0.183536
0.366766 0.459785 0.203891
0.453620 0.497078 0.245518
0.531029 0.525200 0.279637
0.583520 0.546441 0.303807
0.616510 0.562951 0.317510
0.619593 0.545769 0.307683
0.624018 0.535851 0.301274
0.628962 0.529595 0.296422
0.632929 0.521324 0.292210
0.636042 0.514183 0.288640
0.640070 0.506340 0.285954
0.643977 0.500511 0.285191
0.647639 0.494850 0.286046
0.652247 0.492561 0.292149
0.657679 0.492195 0.301549
0.668605 0.499916 0.317418
0.315160 0.452918 0.215366
0.434028 0.524712 0.242832
0.502220 0.552819 0.280003
0.569482 0.576440 0.311711
0.614801 0.593713 0.334539
0.643610 0.607446 0.347478
0.663233 0.617884 0.355718
0.663813 0.606195 0.347021
0.665095 0.599054 0.342901
0.666346 0.590326 0.336431
0.668666 0.583886 0.332952
0.668818 0.577081 0.328801
0.671290 0.571435 0.327489
0.672969 0.565423 0.326757
0.675258 0.558190 0.328588
0.678981 0.553826 0.334936
0.686366 0.552361 0.344488
0.373236 0.508476 0.248753
0.495186 0.578363 0.279179
0.545861 0.597345 0.311345
0.599603 0.614832 0.337285
0.638270 0.628717 0.356634
0.664851 0.641321 0.367285
0.683101 0.650690 0.374487
0.695033 0.657160 0.379492
0.694697 0.650080 0.376165
0.692836 0.641169 0.371374
0.693904 0.634333 0.366278
0.693233 0.627039 0.361761
0.692988 0.621027 0.358160
0.693355 0.613977 0.355993
0.694240 0.606775 0.356695
0.696895 0.598962 0.356878
0.701930 0.593011 0.361913
0.420874 0.554314 0.277592
0.540246 0.614435 0.306279
0.579217 0.630579 0.335912
0.623316 0.644709 0.357549
0.657099 0.655756 0.370977
0.679469 0.665522 0.378943
0.697108 0.674403 0.385504
0.709072 0.680842 0.390356
0.716854 0.685725 0.393774
0.713497 0.676234 0.389044
0.712367 0.669703 0.387091
0.711940 0.664454 0.385046
0.711818 0.659663 0.382727
0.711421 0.654322 0.380438
0.712001 0.648096 0.381170
0.713680 0.640406 0.379950
0.716945 0.630793 0.378302
0.465797 0.596185 0.302983
0.574182 0.640314 0.326513
0.607172 0.657374 0.354894
0.643061 0.669032 0.372259
0.672541 0.677638 0.380682
0.692470 0.685634 0.387030
0.706569 0.692317 0.392096
0.718532 0.698604 0.396643
0.725795 0.702907 0.399786
0.731960 0.706935 0.402472
0.728664 0.699367 0.400977
0.727047 0.694148 0.399756
0.725826 0.688838 0.397650
0.724330 0.682551 0.394903
0.724422 0.675654 0.392340
0.725978 0.667781 0.390356
0.729244 0.658198 0.388251
0.499336 0.626917 0.323156
0.599329 0.659907 0.341802
0.631495 0.678859 0.370031
0.662257 0.690761 0.381781
0.687129 0.697230 0.388708
0.704311 0.702541 0.393805
0.716304 0.708125 0.398260
0.725978 0.712978 0.401831
0.732845 0.716731 0.404639
0.738369 0.720455 0.406897
0.742580 0.723018 0.408972
0.740810 0.718349 0.408515
0.739254 0.713893 0.408118
0.735805 0.706783 0.406226
0.734951 0.699641 0.403235
0.735805 0.692164 0.400092
0.738399 0.682429 0.397894
0.527977 0.652583 0.339300
0.617792 0.676265 0.351446
0.650935 0.696437 0.381109
0.678737 0.708827 0.390265
0.700984 0.714168 0.396490
0.717098 0.718685 0.401312
0.725490 0.721553 0.404639
0.733547 0.725765 0.407752
0.738979 0.729091 0.410254
0.743282 0.731075 0.411872
0.747250 0.733303 0.413733
0.748501 0.734829 0.413733
0.746853 0.731044 0.413428
0.744869 0.726955 0.412390
0.742885 0.719570 0.409735
0.743099 0.712123 0.406989
0.744533 0.702663 0.405951
0.552331 0.673091 0.350866
0.633387 0.691066 0.360449
0.666773 0.711421 0.389685
0.693080 0.724422 0.398230
0.713069 0.729366 0.403296
0.727718 0.732662 0.407630
0.735134 0.734859 0.410773
0.740414 0.737087 0.413123
0.744991 0.739895 0.415473
0.748104 0.741482 0.416968
0.751614 0.743221 0.418402
0.752346 0.744076 0.418189
0.753414 0.744991 0.417945
0.751644 0.741787 0.417395
0.750088 0.736812 0.415686
0.748287 0.727779 0.412940
0.748775 0.718288 0.412757
0.571801 0.689876 0.359472
0.643305 0.702663 0.366613
0.675959 0.721126 0.393347
0.701778 0.734737 0.403815
0.721096 0.740230 0.408942
0.734920 0.743465 0.413123
0.742397 0.745144 0.416297
0.746670 0.746670 0.418189
0.749844 0.747982 0.419715
0.752529 0.749752 0.421271
0.755001 0.751308 0.422553
0.755550 0.750942 0.422431
0.756252 0.751614 0.422065
0.756222 0.752560 0.421332
0.755184 0.749660 0.420356
0.753872 0.743130 0.418677
0.752590 0.731838 0.419409
0.584924 0.702266 0.367987
0.646876 0.710597 0.370123
0.676722 0.724208 0.392004
0.702785 0.739010 0.407324
0.722560 0.746426 0.411353
0.736538 0.750088 0.415473
0.745083 0.751980 0.419348
0.749722 0.752926 0.421332
0.753262 0.753994 0.422950
0.755581 0.754574 0.424079
0.757534 0.756008 0.425422
0.758114 0.756497 0.426307
0.758480 0.756130 0.425696
0.758419 0.756436 0.424811
0.757992 0.756619 0.423957
0.757198 0.752407 0.423163
0.756619 0.744076 0.424964
0.596155 0.713222 0.373388
0.645441 0.716365 0.370489
0.671901 0.725063 0.385473
0.698848 0.739437 0.406043
0.720180 0.749172 0.412757
0.735103 0.754208 0.416358
0.744228 0.756344 0.420600
0.750088 0.757412 0.423224
0.754238 0.758053 0.425086
0.757412 0.758602 0.427008
0.759243 0.759060 0.428504
0.759945 0.759731 0.429877
0.760250 0.759976 0.431037
0.760067 0.759304 0.429938
0.759762 0.759335 0.428870
0.759518 0.759396 0.427375
0.759365 0.753750 0.430732
0.601434 0.720211 0.374670
0.637293 0.718959 0.366491
0.661738 0.724330 0.376257
0.689509 0.737484 0.401404
0.712673 0.748104 0.409827
0.729274 0.754665 0.415473
0.739528 0.757473 0.420111
0.746090 0.758724 0.424231
0.751522 0.759731 0.427558
0.755581 0.760281 0.430304
0.758694 0.760800 0.433631
0.759884 0.761074 0.435737
0.760708 0.761288 0.437964
0.761257 0.761471 0.439796
0.761196 0.761288 0.438514
0.761318 0.761288 0.437140
0.761501 0.761501 0.435920
0.036408 0.036439 0.127871
0.055207 0.037659 0.125185
0.106538 0.041382 0.124849
0.163180 0.046906 0.127871
0.210117 0.052186 0.136538
0.251713 0.057160 0.146670
0.286503 0.061158 0.153933
0.315709 0.065064 0.159884
0.339788 0.067659 0.163241
0.364446 0.071351 0.168551
0.386908 0.074128 0.171572
0.408240 0.077272 0.174777
0.427985 0.080873 0.177584
0.445594 0.084657 0.179690
0.464302 0.092958 0.186435
0.484688 0.105287 0.197391
0.508049 0.126741 0.217746
0.048890 0.086732 0.130129
0.058076 0.064729 0.166049
0.157473 0.071931 0.169863
0.222568 0.067048 0.145876
0.272801 0.068238 0.138552
0.308721 0.069612 0.135470
0.337072 0.071412 0.134615
0.359319 0.070649 0.131197
0.381170 0.072206 0.132235
0.400885 0.073701 0.131807
0.420264 0.076509 0.132937
0.437324 0.078767 0.133242
0.456336 0.084810 0.138369
0.476204 0.095430 0.148501
0.500755 0.118288 0.171145
0.530510 0.149935 0.201022
0.571496 0.192966 0.238224
0.086427 0.172610 0.157290
0.119844 0.224979 0.203922
0.191073 0.195560 0.179660
0.318639 0.160067 0.145022
0.363531 0.147219 0.137026
0.393469 0.138979 0.129305
0.412818 0.131075 0.121798
0.427863 0.124605 0.116060
0.439521 0.118044 0.110933
0.449653 0.111086 0.105715
0.463783 0.108980 0.104677
0.473884 0.106325 0.103365
0.492470 0.116213 0.113436
0.514031 0.133181 0.130251
0.553460 0.177340 0.172274
0.601984 0.224674 0.214633
0.648249 0.272007 0.255589
0.129763 0.266392 0.193088
0.172610 0.342779 0.198459
0.245884 0.317540 0.160220
0.376806 0.336522 0.198062
0.426246 0.311803 0.193881
0.464179 0.298009 0.187686
0.491798 0.286412 0.180941
0.508537 0.275090 0.175357
0.517693 0.262974 0.168856
0.524041 0.249668 0.161746
0.530419 0.241276 0.158236
0.536248 0.233616 0.155917
0.548455 0.239048 0.165042
0.564782 0.252476 0.181033
0.588220 0.282872 0.213748
0.624445 0.319036 0.249363
0.658076 0.354559 0.283421
0.165255 0.346899 0.207858
0.253422 0.427619 0.212039
0.325902 0.404608 0.201633
0.429084 0.436194 0.237644
0.513298 0.457069 0.264500
0.542443 0.440803 0.258885
0.562829 0.427100 0.251774
0.572778 0.411597 0.243015
0.578882 0.396826 0.234745
0.581994 0.381750 0.226291
0.586725 0.369421 0.220859
0.589990 0.357916 0.215946
0.596277 0.354162 0.218967
0.606958 0.360052 0.230320
0.619318 0.372869 0.251316
0.642542 0.395209 0.277470
0.669306 0.420233 0.305333
0.218967 0.414527 0.228489
0.330877 0.494362 0.247593
0.398596 0.484443 0.239628
0.489632 0.517754 0.277287
0.561822 0.538170 0.305821
0.607294 0.555169 0.323827
0.621576 0.539910 0.316197
0.628717 0.525689 0.308354
0.630091 0.511925 0.299290
0.631647 0.496269 0.289403
0.632746 0.482368 0.281346
0.634577 0.467720 0.273777
0.636927 0.458320 0.272282
0.641566 0.453864 0.276249
0.648676 0.457160 0.290471
0.662013 0.462531 0.303838
0.680568 0.475746 0.324712
0.276738 0.474495 0.253880
0.390173 0.550713 0.272129
0.462867 0.550408 0.275822
0.538445 0.578180 0.309819
0.599207 0.596521 0.336278
0.640406 0.611566 0.352209
0.667750 0.623316 0.363134
0.671748 0.608515 0.353948
0.671901 0.596704 0.348363
0.671168 0.585016 0.340551
0.670954 0.573663 0.334081
0.669703 0.561273 0.326146
0.669917 0.549126 0.322057
0.670039 0.537621 0.320195
0.672358 0.529900 0.326635
0.682826 0.528161 0.334661
0.696651 0.528283 0.344793
0.328557 0.531182 0.277684
0.440528 0.595300 0.296269
0.518669 0.601251 0.309361
0.575097 0.619623 0.335149
0.623590 0.634577 0.356451
0.662806 0.648005 0.368994
0.689021 0.658412 0.378119
0.704860 0.666377 0.383948
0.703944 0.655360 0.381689
0.701473 0.644923 0.378637
0.699794 0.634974 0.370459
0.697383 0.623102 0.363958
0.694697 0.611200 0.358373
0.693324 0.598016 0.354406
0.694514 0.587030 0.353491
0.699214 0.576562 0.354498
0.709163 0.571893 0.361639
0.374884 0.574731 0.301915
0.478248 0.626398 0.318364
0.558862 0.633906 0.331579
0.604517 0.650629 0.354986
0.645655 0.663294 0.370245
0.676448 0.673213 0.379248
0.700954 0.681941 0.387274
0.716121 0.689326 0.392767
0.724880 0.693782 0.396460
0.723049 0.684962 0.394385
0.721248 0.677028 0.390600
0.718959 0.669795 0.389960
0.716640 0.660212 0.386786
0.714504 0.649378 0.384009
0.714961 0.637140 0.379034
0.717525 0.624506 0.376013
0.721706 0.613672 0.379065
0.416785 0.614008 0.327581
0.508568 0.650233 0.331670
0.592157 0.660304 0.348180
0.630152 0.677577 0.371862
0.664759 0.688106 0.381506
0.692592 0.696834 0.389258
0.711696 0.703029 0.395697
0.725338 0.709102 0.400488
0.733730 0.713039 0.404059
0.739956 0.716823 0.406714
0.736660 0.708156 0.405097
0.734737 0.702083 0.403021
0.731563 0.692744 0.399817
0.728420 0.681331 0.395727
0.728450 0.668666 0.390509
0.730129 0.656519 0.388647
0.733455 0.646021 0.392767
0.450629 0.642481 0.349889
0.534508 0.669642 0.343542
0.616754 0.678645 0.359045
0.651911 0.698512 0.383001
0.682765 0.709224 0.391333
0.705898 0.715541 0.397253
0.722316 0.720516 0.403082
0.732113 0.724788 0.407141
0.739864 0.727504 0.410437
0.745480 0.730678 0.412879
0.749538 0.733669 0.414496
0.748043 0.728542 0.412146
0.744625 0.720333 0.409827
0.740414 0.709224 0.406256
0.739528 0.696590 0.401099
0.740200 0.684291 0.399847
0.742336 0.674128 0.405921
0.479469 0.668025 0.365972
0.555230 0.686030 0.351720
0.633722 0.693996 0.365454
0.667353 0.713497 0.391791
0.696681 0.724483 0.399817
0.718929 0.731228 0.405005
0.731899 0.734615 0.409949
0.739803 0.738125 0.413458
0.745876 0.740414 0.416236
0.750210 0.741970 0.418128
0.753872 0.744320 0.419593
0.754299 0.745815 0.419318
0.751614 0.739101 0.417060
0.748867 0.731075 0.413642
0.747005 0.719081 0.409979
0.747280 0.707027 0.409216
0.748989 0.697017 0.415381
0.500633 0.686030 0.372290
0.573236 0.700587 0.361334
0.643336 0.705440 0.369482
0.677150 0.723903 0.395941
0.704677 0.735775 0.405463
0.725734 0.742061 0.410437
0.738979 0.745571 0.415259
0.745449 0.747341 0.418128
0.750668 0.749508 0.420722
0.753964 0.750881 0.422400
0.756558 0.751492 0.423468
0.756893 0.752316 0.423377
0.757015 0.753231 0.422583
0.754726 0.746487 0.419684
0.753201 0.736965 0.417243
0.751888 0.724666 0.418952
0.753140 0.714443 0.425757
0.517571 0.703059 0.372381
0.587671 0.711513 0.369299
0.647517 0.713710 0.370916
0.680079 0.730007 0.395422
0.707393 0.742061 0.407111
0.728298 0.749630 0.414160
0.742397 0.753567 0.418860
0.749233 0.755184 0.421790
0.754299 0.756405 0.424170
0.757229 0.757656 0.425788
0.759213 0.758419 0.426947
0.759304 0.757809 0.427192
0.759152 0.757809 0.426398
0.758694 0.758144 0.425086
0.757595 0.750576 0.423651
0.756802 0.740597 0.427131
0.756649 0.729641 0.436377
0.530632 0.714137 0.370031
0.595483 0.718288 0.375250
0.642420 0.717342 0.368292
0.671138 0.727016 0.386206
0.700282 0.740780 0.405585
0.722377 0.749752 0.414008
0.738003 0.755154 0.418341
0.746456 0.757259 0.422095
0.752468 0.758602 0.425086
0.756436 0.759243 0.428443
0.758907 0.760067 0.430671
0.760220 0.760159 0.432990
0.760403 0.760006 0.433265
0.760250 0.760128 0.432502
0.760159 0.760067 0.429694
0.759548 0.751644 0.434455
0.759640 0.742489 0.445136
0.544488 0.725887 0.369360
0.599481 0.723659 0.378119
0.633814 0.718959 0.363531
0.661402 0.726162 0.379644
0.692226 0.739284 0.401679
0.716060 0.749844 0.413275
0.732448 0.755978 0.417517
0.741848 0.758175 0.423774
0.749020 0.759793 0.428138
0.753811 0.760586 0.432471
0.757321 0.761227 0.436591
0.759243 0.761563 0.439582
0.761166 0.761898 0.442329
0.761685 0.761929 0.442786
0.761807 0.761929 0.441474
0.762295 0.762295 0.441169
0.762295 0.753933 0.453712
0.556939 0.734096 0.368780
0.599756 0.727474 0.377539
0.626978 0.721675 0.363561
0.654536 0.727779 0.379004
0.686000 0.741451 0.399725
0.710445 0.750698 0.414679
0.727626 0.757504 0.419623
0.737667 0.759426 0.428321
0.745327 0.761074 0.436316
0.750851 0.762020 0.441596
0.754940 0.763027 0.447791
0.757778 0.763455 0.451179
0.760220 0.763851 0.455512
0.762844 0.764157 0.458595
0.763180 0.764187 0.458991
0.764126 0.764523 0.459724
0.765194 0.765194 0.461067
0.038544 0.038575 0.157961
0.053895 0.040070 0.164431
0.102876 0.044343 0.170535
0.159915 0.047913 0.170504
0.213199 0.054383 0.178988
0.255711 0.060426 0.189639
0.291875 0.065736 0.198795
0.322301 0.070527 0.205814
0.347875 0.074495 0.210727
0.372473 0.078553 0.216281
0.394385 0.081361 0.219089
0.414496 0.084077 0.221622
0.432471 0.087190 0.223178
