LUTs/31.cube
# (C) 2014 VisionColor & Patchflyer [www.vision-color.com]
# Generator: VC Patchmatch v.2.1.1 [64/53]
# All work and no play makes Jack a dull boy.
# LUT generated from: FujiColor 200_FC
LUT_3D_SIZE 5
0.023743 0.023743 0.023743
0.276036 0.098848 0.003967
0.378729 0.118074 0.002411
0.453956 0.131991 0.002930
0.598230 0.159365 0.012085
0.125521 0.251286 0.169284
0.345678 0.282475 0.045014
0.583810 0.340581 0.051759
0.743679 0.385016 0.067262
0.801297 0.438636 0.117525
0.181674 0.454109 0.286748
0.513512 0.507317 0.126741
0.678203 0.531060 0.147616
0.820523 0.591546 0.191959
0.844144 0.620295 0.231540
0.181918 0.597986 0.421271
0.581445 0.632074 0.181735
0.766232 0.667750 0.236454
0.863523 0.734737 0.347631
0.876310 0.755520 0.384771
0.226230 0.713069 0.556207
0.544121 0.710201 0.250004
0.737514 0.686702 0.240818
0.875456 0.797940 0.478065
0.888090 0.835172 0.564324
0.012360 0.077852 0.174777
0.228580 0.111116 0.266148
0.437171 0.129915 0.275669
0.561242 0.128908 0.275669
0.703517 0.137484 0.283024
0.106722 0.306493 0.376440
0.282780 0.271855 0.297795
0.680247 0.245853 0.190311
0.774197 0.222477 0.111452
0.869078 0.338354 0.257939
0.143465 0.465675 0.503685
0.296849 0.589593 0.384070
0.758740 0.644724 0.339132
0.862882 0.614572 0.270191
0.875486 0.619211 0.366262
0.161959 0.583185 0.615167
0.280705 0.741939 0.529320
0.764538 0.765682 0.378622
0.885679 0.834928 0.578210
0.884855 0.817075 0.577417
0.250828 0.713008 0.724819
0.445472 0.800443 0.678279
0.733227 0.838315 0.597284
0.884367 0.869383 0.698726
0.892027 0.873594 0.730861
0.012665 0.121126 0.225772
0.173220 0.118257 0.380652
0.354070 0.137636 0.390539
0.504204 0.149050 0.401221
0.634913 0.158236 0.410040
0.083406 0.325048 0.451362
0.118135 0.219242 0.366247
0.427008 0.231968 0.499580
0.686854 0.203464 0.429465
0.819425 0.294469 0.458625
0.126223 0.474739 0.573846
0.253330 0.548302 0.617487
0.534508 0.529183 0.559014
0.824613 0.478721 0.453727
0.862730 0.555200 0.519478
0.162997 0.585321 0.672328
0.253971 0.699611 0.732692
0.541024 0.798947 0.662898
0.879667 0.857145 0.729824
0.888548 0.831388 0.714931
0.230655 0.688655 0.739925
0.436805 0.800076 0.787411
0.687175 0.864683 0.804013
0.886290 0.898528 0.839902
0.907744 0.904936 0.862425
0.000885 0.146517 0.267216
0.076295 0.124666 0.481147
0.287480 0.134737 0.479255
0.460182 0.152621 0.485084
0.589227 0.172488 0.495155
0.021820 0.346197 0.528710
0.003418 0.205966 0.395148
0.181018 0.178805 0.627894
0.545983 0.201022 0.620783
0.732784 0.275334 0.583978
0.103487 0.483192 0.613581
0.120851 0.458686 0.608850
0.198932 0.368277 0.606119
0.615167 0.403433 0.704311
0.796811 0.491203 0.655909
0.141543 0.574456 0.685969
0.180941 0.620111 0.726375
0.428214 0.751461 0.784939
0.793606 0.808560 0.799771
0.879149 0.792508 0.770871
0.177615 0.628321 0.731258
0.401617 0.783719 0.813840
0.680980 0.869230 0.858915
0.865629 0.904692 0.873320
0.908995 0.917235 0.888701
0.000305 0.167697 0.307195
0.011322 0.143709 0.517205
0.210330 0.141665 0.574029
0.370977 0.151308 0.578729
0.556146 0.166293 0.574182
0.006653 0.348180 0.536278
0.021668 0.260136 0.505394
0.077394 0.233402 0.695705
0.360571 0.243503 0.750607
0.632319 0.265232 0.712642
0.088319 0.485664 0.632868
0.128603 0.426734 0.598962
0.155306 0.385504 0.636774
0.376135 0.413397 0.798245
0.707546 0.453925 0.756008
0.140932 0.561578 0.685878
0.212192 0.594232 0.703914
0.346777 0.654963 0.755154
0.498924 0.668849 0.808865
0.843565 0.756283 0.844785
0.141787 0.604974 0.721553
0.250858 0.691218 0.763394
0.501137 0.826505 0.840360
0.808103 0.894102 0.882536
0.909026 0.917937 0.902220
