LUTs/31.cube
# (C) 2014 VisionColor & Patchflyer [www.vision-color.com]
# Generator: VC Patchmatch v.2.1.1 [64/53]
# All work and no play makes Jack a dull boy.
# LUT generated from: FujiColor 200_FC
LUT_3D_SIZE 9
0.023743 0.023743 0.023743
0.175998 0.065370 0.016175
0.276036 0.098848 0.003967
0.333257 0.110750 0.002472
0.378729 0.118074 0.002411
0.416175 0.126436 0.002655
0.453956 0.131991 0.002930
0.501671 0.140475 0.003815
0.598230 0.159365 0.012085
0.060243 0.138613 0.100923
0.155795 0.149081 0.037690
0.292699 0.175937 0.010010
0.402899 0.197910 0.009339
0.485832 0.213779 0.008728
0.560571 0.233005 0.009827
0.622492 0.248386 0.011536
0.684657 0.265934 0.019257
0.746059 0.299748 0.050935
0.125521 0.251286 0.169284
0.241764 0.284703 0.063111
0.345678 0.282475 0.045014
0.477363 0.315404 0.046754
0.583810 0.340581 0.051759
0.678035 0.363500 0.057649
0.743679 0.385016 0.067262
0.775326 0.409277 0.083772
0.801297 0.438636 0.117525
0.165988 0.365850 0.227939
0.324285 0.413764 0.106325
0.448310 0.413855 0.086244
0.533501 0.419440 0.088167
0.646372 0.454658 0.104921
0.738643 0.480476 0.116457
0.795254 0.500450 0.130098
0.815824 0.521385 0.148165
0.827756 0.543053 0.174594
0.181674 0.454109 0.286748
0.378729 0.509972 0.147463
0.513512 0.507317 0.126741
0.599680 0.512840 0.128969
0.678203 0.531060 0.147616
0.771298 0.567254 0.171603
0.820523 0.591546 0.191959
0.837491 0.606195 0.210117
0.844144 0.620295 0.231540
0.183200 0.532586 0.350317
0.411139 0.590936 0.184451
0.564050 0.582544 0.160464
0.655512 0.585016 0.169986
0.731319 0.609339 0.195102
0.792142 0.635828 0.228336
0.845518 0.668330 0.257481
0.858366 0.687190 0.280308
0.864103 0.693141 0.298528
0.181918 0.597986 0.421271
0.408606 0.661158 0.227970
0.581445 0.632074 0.181735
0.682216 0.632593 0.194919
0.766232 0.667750 0.236454
0.831357 0.709590 0.299077
0.863523 0.734737 0.347631
0.873198 0.750332 0.373693
0.876310 0.755520 0.384771
0.192111 0.655146 0.494911
0.403052 0.715084 0.304906
0.556115 0.671504 0.204929
0.657954 0.649287 0.194705
0.763210 0.685847 0.241611
0.846922 0.746181 0.344854
0.873716 0.782925 0.439460
0.881743 0.797482 0.474830
0.881651 0.800565 0.483436
0.226230 0.713069 0.556207
0.424262 0.749020 0.387762
0.544121 0.710201 0.250004
0.629908 0.675166 0.210697
0.737514 0.686702 0.240818
0.835752 0.744503 0.349279
0.875456 0.797940 0.478065
0.885740 0.827939 0.552941
0.888090 0.835172 0.564324
0.016358 0.048280 0.120241
0.141512 0.077424 0.172000
0.291661 0.104646 0.172885
0.403082 0.120974 0.176333
0.475959 0.124666 0.174655
0.535790 0.122835 0.172091
0.595270 0.118593 0.168917
0.655909 0.121279 0.168978
0.720211 0.139376 0.182925
0.059113 0.166323 0.197665
0.156191 0.156130 0.157321
0.399176 0.163149 0.096498
0.500847 0.153780 0.046906
0.529503 0.148165 0.022644
0.542687 0.146517 0.011505
0.569787 0.152560 0.009155
0.682887 0.181308 0.038849
0.800534 0.244816 0.130953
0.109255 0.276188 0.278691
0.189364 0.325475 0.218143
0.438300 0.356909 0.130892
0.592706 0.347539 0.103853
0.687709 0.334813 0.078492
0.733852 0.326848 0.059510
0.749325 0.326635 0.059388
0.780728 0.349187 0.097169
0.842649 0.395453 0.171298
0.140383 0.375830 0.355810
0.209476 0.470802 0.281407
0.503655 0.512840 0.172580
0.662470 0.524681 0.173892
0.763027 0.523003 0.166659
0.806973 0.517052 0.155123
0.818204 0.507134 0.150484
0.829282 0.503777 0.169100
0.855283 0.523247 0.223911
0.154788 0.454047 0.421027
0.203708 0.566064 0.358007
0.520195 0.609522 0.201328
0.701137 0.621637 0.215488
0.807950 0.658183 0.264195
0.848753 0.655451 0.257343
0.853635 0.642969 0.245426
0.857450 0.628626 0.249210
0.865019 0.631708 0.295079
0.160067 0.519463 0.482094
0.193637 0.633753 0.434363
0.496071 0.677089 0.235203
0.699001 0.672206 0.227634
0.830076 0.724636 0.317113
0.874327 0.765713 0.401648
0.875120 0.753231 0.375341
0.872404 0.730007 0.352117
0.872984 0.721309 0.379553
0.164645 0.580072 0.543999
0.207462 0.685634 0.516136
0.455085 0.722164 0.298650
0.635172 0.679347 0.217777
0.794446 0.717159 0.292958
0.876341 0.794980 0.459968
0.884794 0.816190 0.526207
0.881376 0.797879 0.477394
0.880064 0.786740 0.474617
0.192538 0.646510 0.617029
0.252659 0.732113 0.569146
0.460334 0.751980 0.383368
0.601556 0.714412 0.263981
0.746624 0.719265 0.284321
0.861112 0.784939 0.432288
0.885374 0.832242 0.563836
0.888426 0.841886 0.587060
0.886351 0.833524 0.573053
0.237980 0.707973 0.680385
0.328618 0.768429 0.609339
0.507988 0.782681 0.481361
0.631556 0.769223 0.392554
0.744778 0.772702 0.388769
0.843717 0.801785 0.472541
0.880735 0.837827 0.584985
0.888792 0.858457 0.648157
0.888945 0.857542 0.642542
0.012360 0.077852 0.174777
0.096651 0.092775 0.251987
0.228580 0.111116 0.266148
0.352483 0.124269 0.268620
0.437171 0.129915 0.275669
0.501701 0.130922 0.277348
0.561242 0.128908 0.275669
0.626551 0.126406 0.275090
0.703517 0.137484 0.283024
0.057557 0.189090 0.262638
0.077516 0.141787 0.215610
0.270359 0.160708 0.317906
0.442664 0.160006 0.280308
0.548882 0.150912 0.253758
0.622705 0.136934 0.227878
0.684596 0.133242 0.207065
0.753536 0.158114 0.215763
0.817014 0.218814 0.271763
0.106722 0.306493 0.376440
0.162417 0.342870 0.407568
0.282780 0.271855 0.297795
0.531518 0.264805 0.238285
0.680247 0.245853 0.190311
0.755917 0.228550 0.143435
0.774197 0.222477 0.111452
0.818662 0.253544 0.145907
0.869078 0.338354 0.257939
0.131807 0.397772 0.445686
0.173037 0.464820 0.475166
0.302312 0.442481 0.344579
0.546014 0.475196 0.288273
0.719982 0.463294 0.245914
0.809537 0.446479 0.201877
0.836606 0.430732 0.173098
0.854246 0.435035 0.193820
0.876707 0.481880 0.291752
0.143465 0.465675 0.503685
0.173465 0.544762 0.533074
0.296849 0.589593 0.384070
0.589044 0.621408 0.325231
0.758740 0.644724 0.339132
0.844633 0.636576 0.301686
0.862882 0.614572 0.270191
0.865782 0.603342 0.283040
0.875486 0.619211 0.366262
0.149813 0.525475 0.558495
0.175174 0.607782 0.589105
0.282597 0.694636 0.445533
0.600366 0.720790 0.351385
0.791379 0.735958 0.382269
0.867491 0.769985 0.446784
0.877562 0.755978 0.417945
0.874937 0.735775 0.406226
0.879973 0.740932 0.470649
0.161959 0.583185 0.615167
0.212619 0.675471 0.654963
0.280705 0.741939 0.529320
0.560311 0.757748 0.388556
0.764538 0.765682 0.378622
0.871397 0.813748 0.512413
0.885679 0.834928 0.578210
0.884153 0.815366 0.541863
0.884855 0.817075 0.577417
0.198398 0.649805 0.674067
0.257542 0.722713 0.694789
0.340093 0.770809 0.608331
0.552117 0.785885 0.476112
0.716197 0.781399 0.424659
0.847807 0.820188 0.518303
0.885679 0.854154 0.636469
0.888731 0.858518 0.650233
0.889860 0.863432 0.674617
0.250828 0.713008 0.724819
0.312230 0.753872 0.711147
0.445472 0.800443 0.678279
0.606714 0.830137 0.629175
0.733227 0.838315 0.597284
0.838407 0.850950 0.624018
0.884367 0.869383 0.698726
0.892210 0.878782 0.746883
0.892027 0.873594 0.730861
0.013306 0.101625 0.198367
0.064363 0.108309 0.294377
0.203525 0.114992 0.324681
0.296880 0.128176 0.333989
0.389624 0.134279 0.334447
0.463935 0.139956 0.343816
0.528008 0.141939 0.347387
0.593347 0.140017 0.349126
0.671778 0.145144 0.354498
0.052277 0.204746 0.306523
0.046754 0.148928 0.251530
0.173800 0.149325 0.378668
0.347997 0.162570 0.399664
0.466987 0.161288 0.374640
0.556573 0.152651 0.355962
0.637751 0.143160 0.336156
0.722164 0.155459 0.331365
0.793820 0.208865 0.368383
0.099977 0.321233 0.420142
0.114412 0.315587 0.433082
0.172946 0.233341 0.354314
0.369604 0.249973 0.429816
0.540642 0.242832 0.386511
0.677516 0.218753 0.342855
0.763546 0.198947 0.299992
0.817472 0.225498 0.305669
0.848936 0.316899 0.382116
0.123751 0.407050 0.500237
0.158389 0.471992 0.560540
0.272892 0.435828 0.490883
0.410986 0.399969 0.439643
0.633326 0.383276 0.381140
0.780118 0.361624 0.322072
0.855039 0.329809 0.265583
0.873228 0.339269 0.260319
0.868803 0.446723 0.392096
0.138216 0.474708 0.551049
0.167941 0.546319 0.613550
0.265843 0.553185 0.542016
0.416938 0.558907 0.466926
0.636790 0.589364 0.457145
0.803128 0.583291 0.393576
0.864439 0.561318 0.339437
0.876310 0.542885 0.327291
0.872709 0.587564 0.442130
0.149691 0.532952 0.602991
0.177371 0.607569 0.662531
0.240391 0.640436 0.603571
0.412146 0.703883 0.516075
0.679561 0.739406 0.494667
0.829007 0.763516 0.536980
0.873381 0.753506 0.497047
0.878447 0.729122 0.467781
0.879118 0.733303 0.543633
0.163577 0.586633 0.650324
0.217319 0.675410 0.712154
0.253819 0.706600 0.675410
0.400092 0.775174 0.585534
0.682048 0.810666 0.541894
0.844907 0.834104 0.596551
0.884092 0.848905 0.649287
0.886900 0.835966 0.619715
0.888731 0.835752 0.665034
0.198032 0.646113 0.697597
0.265904 0.725307 0.741299
0.323796 0.757473 0.724208
0.444404 0.801205 0.671901
0.671611 0.833555 0.614771
0.826810 0.851926 0.631464
0.886687 0.872221 0.717800
0.892271 0.872404 0.727596
0.895201 0.880003 0.761563
0.247318 0.707424 0.738613
0.318425 0.754299 0.752224
0.426947 0.798215 0.751156
0.562860 0.834104 0.746059
0.717968 0.863096 0.744991
0.831876 0.874479 0.744808
0.886809 0.887541 0.785824
0.900786 0.894469 0.816831
0.901244 0.894652 0.816953
0.012665 0.121126 0.225772
0.034302 0.123659 0.320256
0.173220 0.118257 0.380652
0.270481 0.127291 0.383398
0.354070 0.137636 0.390539
0.432807 0.142702 0.394324
0.504204 0.149050 0.401221
0.565789 0.151675 0.404547
0.634913 0.158236 0.410040
0.031495 0.214633 0.348272
0.020172 0.157107 0.290898
0.084108 0.145541 0.421668
0.270024 0.150271 0.455238
0.408820 0.162936 0.458381
0.512261 0.163729 0.436805
0.591394 0.160769 0.423377
0.671077 0.168826 0.419409
0.757717 0.206271 0.437720
0.083406 0.325048 0.451362
0.055726 0.297642 0.463111
0.118135 0.219242 0.366247
0.248447 0.219883 0.495155
0.427008 0.231968 0.499580
0.558572 0.223941 0.455497
0.686854 0.203464 0.429465
0.773953 0.217685 0.423682
0.819425 0.294469 0.458625
0.109041 0.413672 0.520348
0.123079 0.443976 0.564446
0.194553 0.389929 0.506798
0.270054 0.333257 0.491768
0.477180 0.355261 0.541650
0.645365 0.331273 0.495598
0.774716 0.298711 0.445060
0.830625 0.307256 0.418173
0.843839 0.417609 0.491585
0.126223 0.474739 0.573846
0.154604 0.542168 0.642115
0.253330 0.548302 0.617487
0.388769 0.547539 0.587060
0.534508 0.529183 0.559014
0.712779 0.503456 0.507485
0.824613 0.478721 0.453727
0.863890 0.464042 0.418601
0.862730 0.555200 0.519478
0.147280 0.534478 0.626215
0.171481 0.601343 0.692470
0.238254 0.630213 0.676173
0.363973 0.666499 0.641596
0.533104 0.684550 0.589899
0.745739 0.716899 0.609247
0.852567 0.703532 0.557702
0.876127 0.685100 0.527855
0.872923 0.711315 0.597803
0.162997 0.585321 0.672328
0.202060 0.649622 0.724117
0.253971 0.699611 0.732692
0.349798 0.743801 0.707301
0.541024 0.798947 0.662898
0.778393 0.834928 0.677302
0.879667 0.857145 0.729824
0.889220 0.845548 0.696315
0.888548 0.831388 0.714931
0.190768 0.634241 0.709865
0.252903 0.707118 0.750546
0.325811 0.755520 0.765469
0.423316 0.798215 0.764187
0.574044 0.842710 0.744381
0.794873 0.871458 0.742672
0.887541 0.888121 0.793149
0.901823 0.893400 0.814755
0.901305 0.890593 0.818784
0.230655 0.688655 0.739925
0.321904 0.754055 0.772885
0.436805 0.800076 0.787411
0.563500 0.839078 0.797238
0.687175 0.864683 0.804013
0.820691 0.887449 0.821256
0.886290 0.898528 0.839902
0.905364 0.904204 0.856901
0.907744 0.904936 0.862425
0.006226 0.138003 0.256352
0.012512 0.136934 0.346441
0.128420 0.122469 0.433539
0.242039 0.128695 0.431708
0.322606 0.137026 0.435126
0.404395 0.145937 0.438727
0.484474 0.151156 0.445563
0.548424 0.157626 0.448920
0.609216 0.168673 0.455695
0.009583 0.225803 0.381018
0.001190 0.161929 0.298772
0.019806 0.149264 0.436225
0.182391 0.141268 0.506401
0.334585 0.150332 0.509728
0.473487 0.163882 0.513085
0.562310 0.167666 0.491371
0.629541 0.182284 0.482216
0.710475 0.211734 0.492958
0.057038 0.333898 0.488014
0.011505 0.284092 0.465064
0.048157 0.216037 0.407752
0.134752 0.198001 0.521431
0.310445 0.202090 0.572168
0.479072 0.213352 0.560967
0.606958 0.211032 0.518120
0.711116 0.220310 0.507652
0.781888 0.281559 0.524071
0.094575 0.417975 0.547875
0.080964 0.427192 0.579767
0.115190 0.351934 0.519493
0.164324 0.288365 0.484443
0.316747 0.294331 0.618860
0.522484 0.307424 0.611872
0.665339 0.284855 0.550195
0.776669 0.286503 0.522667
0.807767 0.390417 0.556237
0.106783 0.474281 0.592523
0.125216 0.515648 0.638544
0.186236 0.498558 0.616388
0.266896 0.480491 0.599756
0.363256 0.443198 0.613855
0.587091 0.472587 0.640803
0.728176 0.435355 0.587762
0.807767 0.419669 0.547295
0.836637 0.522225 0.603296
0.136416 0.533654 0.638727
0.151919 0.587274 0.699367
0.217838 0.607569 0.697719
0.342214 0.648737 0.701167
0.498527 0.672633 0.694667
0.661280 0.669917 0.677150
0.793423 0.633783 0.626154
0.849607 0.606012 0.586938
0.862150 0.671748 0.649104
0.155673 0.582361 0.685206
0.168887 0.620752 0.724575
0.227420 0.667964 0.741543
0.336751 0.731777 0.755642
0.492149 0.780484 0.752163
0.665156 0.802121 0.719753
0.852018 0.842130 0.757443
0.881529 0.814328 0.721035
0.885405 0.814481 0.739651
0.174594 0.617395 0.713283
0.216220 0.667628 0.743709
0.303319 0.736110 0.776272
0.424933 0.797238 0.802945
0.558648 0.837095 0.807553
0.707424 0.865476 0.794461
0.871977 0.892180 0.827024
0.904143 0.901732 0.855955
0.904265 0.892668 0.842222
0.206332 0.656031 0.735012
0.303319 0.737087 0.776516
0.441291 0.802823 0.810697
0.576593 0.844236 0.830686
0.690517 0.867979 0.842771
0.798398 0.889799 0.854337
0.877745 0.904021 0.865232
0.905119 0.908385 0.876066
0.908690 0.911070 0.883024
0.000885 0.146517 0.267216
0.002136 0.144564 0.341680
0.076295 0.124666 0.481147
0.205814 0.128786 0.475746
0.287480 0.134737 0.479255
0.371191 0.143465 0.482582
0.460182 0.152621 0.485084
0.533227 0.157961 0.491096
0.589227 0.172488 0.495155
0.000610 0.225834 0.377386
0.000305 0.163607 0.293400
0.001587 0.152071 0.397360
0.097246 0.136049 0.551781
0.254414 0.142702 0.553155
0.389013 0.152285 0.556359
0.532036 0.164279 0.554925
0.596643 0.184421 0.543908
0.666346 0.218204 0.542901
0.021820 0.346197 0.528710
0.001007 0.268070 0.436652
0.003418 0.205966 0.395148
0.046113 0.192782 0.519554
0.181018 0.178805 0.627894
0.363867 0.187716 0.633173
0.545983 0.201022 0.620783
0.643641 0.224125 0.582025
0.732784 0.275334 0.583978
0.076143 0.428748 0.575769
0.039673 0.413977 0.590661
0.035492 0.327794 0.536828
0.068589 0.264195 0.493996
0.144701 0.246433 0.643290
0.356817 0.255741 0.696468
0.569604 0.265782 0.670985
0.697780 0.276280 0.611505
0.764035 0.367651 0.615106
0.103487 0.483192 0.613581
0.109499 0.504692 0.639490
0.120851 0.458686 0.608850
0.154894 0.412650 0.579187
0.198932 0.368277 0.606119
0.393591 0.389029 0.717281
0.615167 0.403433 0.704311
0.736812 0.386221 0.639277
0.796811 0.491203 0.655909
0.117372 0.523156 0.646967
0.135164 0.558862 0.681910
0.169894 0.560937 0.678309
0.243229 0.570397 0.682612
0.347173 0.586572 0.702327
0.469444 0.573861 0.722988
0.712306 0.607889 0.744259
0.788754 0.562570 0.683650
0.842191 0.643641 0.714778
0.141543 0.574456 0.685969
0.142855 0.601526 0.716304
0.180941 0.620111 0.726375
0.267964 0.680812 0.749813
0.428214 0.751461 0.784939
0.621363 0.796139 0.798856
0.793606 0.808560 0.799771
0.862913 0.766445 0.746365
0.879149 0.792508 0.770871
0.153201 0.602106 0.714137
0.173739 0.628443 0.733700
0.239567 0.684535 0.759030
0.354330 0.760983 0.800137
0.518807 0.827085 0.836606
0.672084 0.862364 0.839750
0.809720 0.880858 0.833982
0.898466 0.896117 0.857755
0.902861 0.887419 0.846983
0.177615 0.628321 0.731258
0.263127 0.701167 0.765835
0.401617 0.783719 0.813840
0.554788 0.839567 0.843809
0.680980 0.869230 0.858915
0.785153 0.887144 0.866606
0.865629 0.904692 0.873320
0.901366 0.909300 0.880461
0.908995 0.917235 0.888701
0.000366 0.154879 0.273289
0.000641 0.150637 0.327123
0.031495 0.129244 0.514519
0.160525 0.127260 0.522698
0.246403 0.134066 0.520256
0.329229 0.140017 0.525567
0.417609 0.148379 0.527520
0.513451 0.157687 0.529015
0.575586 0.169802 0.538598
0.000336 0.228946 0.378058
0.000305 0.179934 0.328740
0.002533 0.172183 0.414740
0.048554 0.151858 0.586023
0.190372 0.150484 0.607996
0.309453 0.157717 0.609796
0.438758 0.166384 0.607874
0.568109 0.176883 0.599878
0.627710 0.216159 0.602594
0.005646 0.345373 0.530724
0.001007 0.273167 0.450782
0.000793 0.217533 0.409888
0.031067 0.210300 0.524681
0.105653 0.189212 0.661463
0.266224 0.190860 0.691341
0.437537 0.200565 0.685420
0.599451 0.213413 0.664332
0.669947 0.269322 0.647669
0.052338 0.432959 0.594934
0.034424 0.389807 0.576043
0.014984 0.322667 0.551598
0.022980 0.265049 0.515923
0.078492 0.243992 0.612833
0.212390 0.238407 0.741756
0.428016 0.251316 0.744167
0.625513 0.264927 0.712062
0.706935 0.352117 0.679164
0.097566 0.492134 0.628870
0.097414 0.479011 0.626642
0.099001 0.431495 0.600549
0.094270 0.379614 0.577081
0.108949 0.324742 0.568261
0.196353 0.322423 0.723705
0.430823 0.346273 0.770840
0.653468 0.368460 0.736385
0.748928 0.467826 0.712520
0.123842 0.530968 0.655451
0.141085 0.542718 0.668055
0.152255 0.526970 0.658656
0.172305 0.509636 0.650324
0.212985 0.497826 0.660060
0.246189 0.459663 0.700526
0.474784 0.498466 0.779995
0.709194 0.528389 0.764279
0.801114 0.615808 0.755062
0.129091 0.561486 0.684413
0.149752 0.585412 0.703761
0.181338 0.599329 0.709987
0.229953 0.623957 0.723598
0.324163 0.664729 0.751431
0.444999 0.695979 0.784756
0.588510 0.698329 0.808682
0.822843 0.748379 0.828214
0.867765 0.778103 0.823575
0.139101 0.596429 0.712245
0.149783 0.608362 0.723354
0.188449 0.635767 0.738338
0.250614 0.691035 0.762295
0.377432 0.769131 0.808164
0.565316 0.841031 0.848539
0.749630 0.878569 0.868040
0.889982 0.894469 0.879301
0.904967 0.891875 0.874723
0.152316 0.610132 0.725948
0.214054 0.659480 0.751034
0.315831 0.737301 0.790280
0.457450 0.803067 0.829892
0.606943 0.852445 0.854948
0.747127 0.881529 0.870237
0.843534 0.899992 0.883604
0.893675 0.909483 0.887022
0.908965 0.917632 0.894774
0.000305 0.167697 0.307195
0.000580 0.164401 0.350042
0.011322 0.143709 0.517205
0.108888 0.135286 0.582849
0.210330 0.141665 0.574029
0.285832 0.146731 0.576440
0.370977 0.151308 0.578729
0.462531 0.158968 0.575402
0.556146 0.166293 0.574182
0.000366 0.238560 0.396002
0.001923 0.211429 0.394720
0.020356 0.210941 0.484718
0.038300 0.187747 0.617365
0.136660 0.178225 0.681544
0.255467 0.184695 0.682033
0.363561 0.191196 0.679652
0.485603 0.200046 0.671382
0.597070 0.207492 0.658106
0.006653 0.348180 0.536278
0.006439 0.292760 0.503899
0.021668 0.260136 0.505394
0.064424 0.247898 0.547082
0.077394 0.233402 0.695705
0.210590 0.234501 0.751095
0.360571 0.243503 0.750607
0.509880 0.253971 0.741115
0.632319 0.265232 0.712642
0.045624 0.430396 0.601007
0.058015 0.380652 0.572717
0.058900 0.338170 0.561578
0.084413 0.307225 0.558526
0.121920 0.297856 0.629435
0.190249 0.300023 0.764706
0.362066 0.318761 0.785458
0.530541 0.334295 0.766445
0.664393 0.349004 0.736751
0.088319 0.485664 0.632868
0.109529 0.456550 0.612390
0.128603 0.426734 0.598962
0.144991 0.410376 0.610376
0.155306 0.385504 0.636774
0.213382 0.389136 0.747616
0.376135 0.413397 0.798245
0.562951 0.439887 0.779538
0.707546 0.453925 0.756008
0.129580 0.527611 0.657526
0.145296 0.518120 0.650172
0.170047 0.512108 0.650721
0.209140 0.519249 0.666651
0.242466 0.521935 0.696223
0.260807 0.500389 0.736690
0.408011 0.532158 0.800778
0.625940 0.576318 0.798337
0.762692 0.592676 0.788479
0.140932 0.561578 0.685878
0.173342 0.575158 0.689296
0.212192 0.594232 0.703914
0.272068 0.624201 0.726833
0.346777 0.654963 0.755154
0.424613 0.673091 0.786343
0.498924 0.668849 0.808865
0.723537 0.730251 0.836545
0.843565 0.756283 0.844785
0.138766 0.588281 0.707301
0.180514 0.613886 0.721401
0.237766 0.657252 0.743038
0.323186 0.714443 0.776303
0.438331 0.766171 0.809140
0.570550 0.815641 0.839506
0.705043 0.840452 0.859373
0.828672 0.863218 0.876646
0.901915 0.882780 0.888212
0.141787 0.604974 0.721553
0.183108 0.633173 0.736233
0.250858 0.691218 0.763394
0.354223 0.762234 0.806332
0.501137 0.826505 0.840360
0.669413 0.869535 0.864713
0.808103 0.894102 0.882536
0.891264 0.912352 0.899870
0.909026 0.917937 0.902220
