LUTs/31.cube
# (C) 2014 VisionColor & Patchflyer [www.vision-color.com]
# Generator: VC Patchmatch v.2.1.1 [64/53]
# All work and no play makes Jack a dull boy.
# LUT generated from: FujiColor 200_FC
LUT_3D_SIZE 17
0.023743 0.023743 0.023743
0.089052 0.044160 0.025940
0.175998 0.065370 0.016175
0.232181 0.084382 0.007141
0.276036 0.098848 0.003967
0.308049 0.106355 0.003021
0.333257 0.110750 0.002472
0.358618 0.114595 0.002380
0.378729 0.118074 0.002411
0.397436 0.121981 0.002502
0.416175 0.126436 0.002655
0.434882 0.129519 0.002777
0.453956 0.131991 0.002930
0.471992 0.134371 0.003052
0.501671 0.140475 0.003815
0.539849 0.147677 0.006317
0.598230 0.159365 0.012085
0.030488 0.074891 0.055421
0.072389 0.080568 0.036530
0.160464 0.105562 0.026703
0.225986 0.121950 0.012451
0.282963 0.135561 0.005798
0.334112 0.146059 0.004852
0.374365 0.152743 0.004822
0.406500 0.158602 0.004547
0.429816 0.162478 0.004028
0.456855 0.167147 0.003479
0.484138 0.172610 0.003479
0.509667 0.178439 0.003449
0.530510 0.181704 0.003571
0.550378 0.185580 0.003876
0.583947 0.193515 0.005463
0.626398 0.203952 0.010742
0.692561 0.221195 0.022522
0.060243 0.138613 0.100923
0.095644 0.145968 0.061799
0.155795 0.149081 0.037690
0.231388 0.163485 0.020691
0.292699 0.175937 0.010010
0.350774 0.188449 0.008820
0.402899 0.197910 0.009339
0.450263 0.206424 0.009522
0.485832 0.213779 0.008728
0.529656 0.224582 0.009308
0.560571 0.233005 0.009827
0.595453 0.242222 0.010590
0.622492 0.248386 0.011536
0.651820 0.256016 0.013275
0.684657 0.265934 0.019257
0.714961 0.279667 0.030426
0.746059 0.299748 0.050935
0.096468 0.194461 0.137240
0.130800 0.210361 0.085206
0.195163 0.214664 0.046540
0.247471 0.213809 0.036286
0.323857 0.230198 0.026520
0.385168 0.243168 0.023560
0.442237 0.254582 0.023896
0.495644 0.265141 0.024750
0.544106 0.274784 0.024353
0.594537 0.288487 0.027527
0.637110 0.298772 0.029480
0.675563 0.309087 0.032013
0.704280 0.318975 0.035126
0.727687 0.330114 0.039673
0.744900 0.341863 0.050202
0.762112 0.356115 0.064637
0.778470 0.374456 0.086824
0.125521 0.251286 0.169284
0.168429 0.276768 0.104738
0.241764 0.284703 0.063111
0.299626 0.283360 0.049683
0.345678 0.282475 0.045014
0.418097 0.301854 0.044892
0.477363 0.315404 0.046754
0.533043 0.329717 0.049592
0.583810 0.340581 0.051759
0.633387 0.353246 0.054810
0.678035 0.363500 0.057649
0.717525 0.374945 0.062287
0.743679 0.385016 0.067262
0.762387 0.398383 0.074037
0.775326 0.409277 0.083772
0.788327 0.422705 0.097017
0.801297 0.438636 0.117525
0.148318 0.310002 0.198917
0.205203 0.341100 0.125948
0.285801 0.353796 0.083833
0.351781 0.352819 0.069978
0.401556 0.352575 0.064240
0.443763 0.353307 0.063691
0.508202 0.371740 0.069276
0.567880 0.390600 0.075959
0.619577 0.403571 0.080110
0.669917 0.418219 0.084871
0.713161 0.427893 0.088014
0.750301 0.437415 0.092470
0.773861 0.445411 0.097261
0.788571 0.457771 0.104738
0.798581 0.468544 0.115236
0.806760 0.481422 0.128206
0.817166 0.493965 0.146426
0.165988 0.365850 0.227939
0.230381 0.400793 0.146151
0.324285 0.413764 0.106325
0.395941 0.414099 0.092317
0.448310 0.413855 0.086244
0.492592 0.415625 0.084993
0.533501 0.419440 0.088167
0.593729 0.439551 0.097627
0.646372 0.454658 0.104921
0.698116 0.469703 0.110811
0.738643 0.480476 0.116457
0.773526 0.491920 0.123445
0.795254 0.500450 0.130098
0.808469 0.511681 0.138735
0.815824 0.521385 0.148165
0.822354 0.533989 0.160464
0.827756 0.543053 0.174594
0.177432 0.411902 0.256107
0.251164 0.455268 0.165194
0.358282 0.464424 0.127810
0.431250 0.465644 0.113588
0.485451 0.463996 0.108064
0.530449 0.465644 0.105989
0.571283 0.471107 0.108675
0.612940 0.477821 0.114443
0.666728 0.495674 0.124422
0.720974 0.515831 0.135988
0.759121 0.527459 0.143740
0.791653 0.539971 0.152987
0.811490 0.549523 0.161990
0.822812 0.558770 0.170779
0.828641 0.565209 0.179507
0.832914 0.575891 0.190188
0.836088 0.583185 0.202945
0.181674 0.454109 0.286748
0.259342 0.503319 0.187900
0.378729 0.509972 0.147463
0.458442 0.508721 0.132601
0.513512 0.507317 0.126741
0.561517 0.507164 0.126650
0.599680 0.512840 0.128969
0.639902 0.519585 0.134890
0.678203 0.531060 0.147616
0.732296 0.552789 0.161715
0.771298 0.567254 0.171603
0.801907 0.581018 0.182040
0.820523 0.591546 0.191959
0.831785 0.600519 0.201358
0.837491 0.606195 0.210117
0.841367 0.614008 0.221195
0.844144 0.620295 0.231540
0.183780 0.494850 0.316960
0.270878 0.549462 0.210941
0.403662 0.551720 0.166049
0.487739 0.549828 0.150790
0.542504 0.548730 0.145022
0.592645 0.547845 0.146426
0.631952 0.552239 0.150423
0.670832 0.560235 0.155795
0.708583 0.573449 0.170230
0.742092 0.582971 0.181643
0.781857 0.601160 0.196597
0.814633 0.618982 0.211673
0.832090 0.632380 0.226352
0.843137 0.643366 0.238773
0.848081 0.648829 0.245792
0.851987 0.654322 0.255985
0.854612 0.657862 0.264378
0.183200 0.532586 0.350317
0.275151 0.586816 0.242008
0.411139 0.590936 0.184451
0.502678 0.584192 0.165866
0.564050 0.582544 0.160464
0.614038 0.579675 0.163699
0.655512 0.585016 0.169986
0.694789 0.593378 0.177737
0.731319 0.609339 0.195102
0.764157 0.621759 0.209873
0.792142 0.635828 0.228336
0.825864 0.654047 0.243229
0.845518 0.668330 0.257481
0.854429 0.681086 0.270970
0.858366 0.687190 0.280308
0.861936 0.692012 0.289891
0.864103 0.693141 0.298528
0.182315 0.567681 0.385016
0.275853 0.624445 0.269718
0.415717 0.626062 0.200473
0.513695 0.614679 0.178836
0.580224 0.611048 0.173495
0.631159 0.607294 0.176547
0.675837 0.613947 0.186954
0.716396 0.624414 0.198734
0.752987 0.642237 0.218418
0.786435 0.659907 0.241123
0.815244 0.675624 0.262455
0.835599 0.688197 0.282811
0.855131 0.702876 0.302647
0.863218 0.715084 0.319890
0.867460 0.722316 0.326696
0.870756 0.728023 0.336156
0.872404 0.728481 0.338781
0.181918 0.597986 0.421271
0.273564 0.657160 0.312871
0.408606 0.661158 0.227970
0.510246 0.643793 0.193149
0.581445 0.632074 0.181735
0.633661 0.627283 0.184573
0.682216 0.632593 0.194919
0.729244 0.648463 0.214847
0.766232 0.667750 0.236454
0.800717 0.690089 0.271153
0.831357 0.709590 0.299077
0.848112 0.723537 0.327031
0.863523 0.734737 0.347631
0.870573 0.744717 0.366278
0.873198 0.750332 0.373693
0.875181 0.756527 0.383093
0.876310 0.755520 0.384771
0.181521 0.625879 0.458900
0.271183 0.688930 0.357580
0.402045 0.692836 0.260624
0.500847 0.671717 0.210178
0.570428 0.652247 0.189944
0.624414 0.642542 0.188022
0.677668 0.643091 0.196109
0.728939 0.660945 0.218753
0.777066 0.688441 0.249149
0.814298 0.715023 0.297673
0.844968 0.736294 0.333196
0.857237 0.752987 0.374212
0.869963 0.764889 0.399237
0.875608 0.772763 0.418738
0.877317 0.777523 0.426246
0.878843 0.781247 0.434882
0.879393 0.779965 0.433997
0.192111 0.655146 0.494911
0.278111 0.713008 0.400854
0.403052 0.715084 0.304906
0.494118 0.695308 0.236759
0.556115 0.671504 0.204929
0.609064 0.657679 0.196078
0.657954 0.649287 0.194705
0.712337 0.661891 0.213718
0.763210 0.685847 0.241611
0.816709 0.722713 0.300694
0.846922 0.746181 0.344854
0.862882 0.769100 0.404395
0.873716 0.782925 0.439460
0.879240 0.792294 0.466163
0.881743 0.797482 0.474830
0.882292 0.800565 0.483375
0.881651 0.800565 0.483436
0.204868 0.684657 0.528832
0.288670 0.734432 0.441596
0.408850 0.735409 0.347234
0.491859 0.717281 0.266911
0.545708 0.692378 0.223911
0.594049 0.672053 0.204440
0.641993 0.659266 0.198520
0.695735 0.664668 0.212131
0.751675 0.685695 0.238437
0.806607 0.718929 0.295811
0.848508 0.752316 0.354864
0.866361 0.778164 0.421759
0.877226 0.796963 0.472114
0.881804 0.807980 0.508782
0.884092 0.815732 0.523186
0.885618 0.819425 0.529931
0.884245 0.818631 0.526482
0.226230 0.713069 0.556207
0.311192 0.749874 0.474495
0.424262 0.749020 0.387762
0.497169 0.732967 0.300603
0.544121 0.710201 0.250004
0.586542 0.690517 0.222385
0.629908 0.675166 0.210697
0.683070 0.677150 0.221653
0.737514 0.686702 0.240818
0.792691 0.714321 0.291936
0.835752 0.744503 0.349279
0.862150 0.775326 0.420050
0.875456 0.797940 0.478065
0.882963 0.816251 0.529992
0.885740 0.827939 0.552941
0.887480 0.834470 0.564111
0.888090 0.835172 0.564324
0.018433 0.034333 0.070680
0.074647 0.049195 0.094789
0.170169 0.072816 0.094362
0.248112 0.091402 0.091432
0.312474 0.104921 0.093080
0.368902 0.113985 0.095033
0.410712 0.118013 0.092958
0.446418 0.120089 0.090883
0.476081 0.121431 0.087465
0.504692 0.121798 0.083986
0.530114 0.122103 0.080934
0.557488 0.120882 0.078950
0.582055 0.121187 0.076265
0.608454 0.121431 0.074372
0.635645 0.126864 0.077302
0.666438 0.134707 0.082612
0.703548 0.148013 0.095827
0.036133 0.087037 0.102174
0.080781 0.086824 0.088380
0.211276 0.105867 0.050874
0.300725 0.113008 0.024659
0.354223 0.116091 0.011444
0.373754 0.118929 0.006317
0.392615 0.122744 0.004211
0.398505 0.123873 0.002960
0.413794 0.125399 0.002808
0.429786 0.127047 0.002686
0.449653 0.130190 0.002869
0.467506 0.133242 0.002960
0.492287 0.137942 0.003510
0.525536 0.144381 0.004639
0.587549 0.155886 0.011688
0.656092 0.172671 0.027649
0.725948 0.199069 0.062501
0.059998 0.152255 0.144167
0.102968 0.169833 0.130739
0.200534 0.181735 0.064302
0.304021 0.179385 0.032166
0.381476 0.180026 0.020356
0.429877 0.182834 0.013458
0.465156 0.184634 0.010040
0.481697 0.183871 0.005585
0.509148 0.188968 0.005432
0.528374 0.191135 0.004761
0.547967 0.193576 0.004761
0.563409 0.196017 0.004822
0.587579 0.200076 0.006317
0.622797 0.207492 0.009888
0.674678 0.222293 0.021881
0.727260 0.243351 0.044678
0.772427 0.272648 0.084596
0.090120 0.207034 0.180941
0.135164 0.248936 0.170169
0.230472 0.274388 0.085084
0.331640 0.273503 0.062257
0.415320 0.267430 0.043458
0.477699 0.265782 0.035920
0.529747 0.266117 0.031586
0.575555 0.264225 0.022827
0.610468 0.269169 0.022034
0.637415 0.271611 0.020722
0.663325 0.277409 0.021576
0.682155 0.281437 0.022370
0.699886 0.287663 0.026795
0.718685 0.295811 0.034577
0.739651 0.309361 0.053651
0.770748 0.328405 0.078920
0.804166 0.352972 0.116091
0.116670 0.262150 0.221256
0.158816 0.324804 0.206088
0.267887 0.364080 0.113069
0.378485 0.366186 0.086427
0.459113 0.367437 0.079744
0.528252 0.363043 0.071107
0.582803 0.363012 0.068238
0.635279 0.361761 0.062562
0.674800 0.361883 0.059236
0.704402 0.360449 0.056123
0.728084 0.364141 0.057038
0.742885 0.366491 0.058289
0.756405 0.370367 0.062898
0.767697 0.378515 0.071839
0.779995 0.388251 0.088258
0.796414 0.402350 0.111299
0.819883 0.421759 0.143343
0.136782 0.316228 0.258671
0.173037 0.388586 0.241581
0.293797 0.435401 0.140383
0.412055 0.439063 0.111330
0.496590 0.440467 0.103853
0.566094 0.448035 0.106966
0.622599 0.445319 0.105470
0.678691 0.447517 0.104433
0.717433 0.447181 0.101930
0.745785 0.446540 0.099733
0.767391 0.448768 0.099763
0.780179 0.448432 0.099611
0.790890 0.450752 0.103334
0.797024 0.454261 0.111208
0.805508 0.460609 0.125460
0.815335 0.468482 0.143435
0.830930 0.481666 0.170382
0.152682 0.366674 0.293431
0.182589 0.441291 0.274998
0.309972 0.491890 0.164187
0.436713 0.493874 0.133791
0.523827 0.494911 0.126223
0.591730 0.500420 0.128756
0.651576 0.510979 0.137057
0.709194 0.515435 0.140322
0.748775 0.519951 0.142550
0.774166 0.517876 0.141421
0.793576 0.519890 0.143069
0.804837 0.520409 0.143252
0.814328 0.522301 0.146914
0.820005 0.523033 0.151736
0.824063 0.524163 0.161227
0.830991 0.528588 0.176150
0.841062 0.535698 0.197635
0.164034 0.408850 0.326970
0.184634 0.488838 0.312352
0.312596 0.543267 0.186496
0.454658 0.541344 0.151827
0.546258 0.540581 0.144778
0.612634 0.544640 0.148531
0.671748 0.554437 0.158083
0.727871 0.570031 0.174014
0.768338 0.577173 0.178103
0.795743 0.579522 0.180117
0.813413 0.579309 0.182376
0.823117 0.578424 0.182681
0.831571 0.578424 0.184909
0.835843 0.577905 0.189761
0.838437 0.576318 0.196750
0.841062 0.577142 0.207919
0.847837 0.582910 0.228397
0.169711 0.448218 0.360540
0.185122 0.527489 0.344488
0.315068 0.584619 0.211521
0.465126 0.579767 0.169772
0.561181 0.577173 0.160616
0.627619 0.579156 0.165347
0.686275 0.588312 0.177859
0.741085 0.603052 0.194797
0.785458 0.625177 0.217838
0.812406 0.630396 0.222385
0.827695 0.633783 0.224857
0.836179 0.631891 0.224430
0.844144 0.632044 0.227451
0.846677 0.628321 0.228183
0.849332 0.625879 0.233829
0.851957 0.624781 0.242985
0.854429 0.627405 0.260410
0.173281 0.485847 0.392737
0.183871 0.562036 0.376928
0.307225 0.622370 0.241184
0.464607 0.612787 0.185824
0.564233 0.608301 0.174685
0.633875 0.607446 0.177340
0.695247 0.617273 0.193271
0.747677 0.630945 0.213169
0.794003 0.656550 0.244633
0.828153 0.677607 0.272374
0.841062 0.682918 0.281193
0.847654 0.682826 0.277073
0.854246 0.681819 0.279088
0.856352 0.678004 0.277348
0.857664 0.673243 0.275364
0.860258 0.669551 0.281987
0.862730 0.669520 0.296605
0.172244 0.519799 0.424384
0.182010 0.593927 0.410010
0.302434 0.656031 0.277409
0.456733 0.645197 0.205020
0.560296 0.633265 0.185763
0.634577 0.628748 0.185000
0.700710 0.640620 0.204593
0.754757 0.657008 0.230533
0.804074 0.686671 0.272160
0.834318 0.708827 0.305943
0.857939 0.725765 0.334997
0.863371 0.727016 0.330632
0.867796 0.727962 0.330297
0.867399 0.723323 0.326970
0.867613 0.718593 0.324285
0.868284 0.712551 0.323949
0.869749 0.708247 0.335943
0.171481 0.551537 0.456001
0.184054 0.621088 0.447089
0.295354 0.685908 0.322271
0.443153 0.675929 0.231693
0.543297 0.656428 0.201144
0.615686 0.644617 0.190372
0.684352 0.644099 0.199344
0.744183 0.664485 0.230655
0.803555 0.697414 0.276493
0.838712 0.729641 0.335149
0.863706 0.750454 0.373266
0.870604 0.760067 0.402045
0.874052 0.761105 0.402228
0.874205 0.759426 0.391882
0.875608 0.756588 0.380713
0.876524 0.750851 0.375769
0.877287 0.744991 0.379034
0.171450 0.582300 0.489021
0.188266 0.646632 0.481086
0.293919 0.710872 0.366583
0.433112 0.704250 0.264530
0.527276 0.678706 0.216251
0.600580 0.658900 0.197757
0.668482 0.652186 0.200168
0.732769 0.669825 0.226017
0.797848 0.705165 0.276722
0.841062 0.741634 0.345785
0.868406 0.769375 0.399786
0.874296 0.782071 0.439307
0.880278 0.791012 0.462715
0.880522 0.788632 0.451301
0.879515 0.783963 0.440711
0.879759 0.778500 0.428016
0.879667 0.771115 0.426123
0.175479 0.613947 0.525567
0.199405 0.670283 0.515251
0.298589 0.729397 0.410590
0.426581 0.723476 0.305089
0.513695 0.697841 0.243473
0.581079 0.674067 0.209751
0.643030 0.656275 0.198367
0.709361 0.671534 0.222324
0.779477 0.700343 0.259449
0.830625 0.740505 0.337606
0.867582 0.773159 0.405737
0.876249 0.794491 0.467414
0.882017 0.805356 0.496437
0.884672 0.811093 0.511223
0.882383 0.806149 0.501152
0.881010 0.800046 0.488106
0.881285 0.794583 0.475441
0.189639 0.645808 0.561395
0.218265 0.697719 0.543206
0.316686 0.745083 0.443671
0.431769 0.736538 0.346349
0.509575 0.715785 0.272618
0.572808 0.692164 0.230686
0.628199 0.674006 0.211154
0.692164 0.678981 0.224247
0.761212 0.701350 0.254810
0.821744 0.736782 0.319615
0.861082 0.771603 0.396521
0.876066 0.797604 0.472724
0.882597 0.814023 0.518242
0.886137 0.823575 0.543969
0.886992 0.825742 0.546990
0.884764 0.819730 0.535454
0.884031 0.814603 0.525322
0.206394 0.676692 0.594690
0.241886 0.724239 0.565209
0.340612 0.757961 0.472267
0.445258 0.749325 0.385443
0.514336 0.731807 0.310704
0.570520 0.714015 0.259892
0.622156 0.696864 0.236484
0.681697 0.696773 0.242130
0.747860 0.708980 0.264378
0.806851 0.737270 0.321141
0.853147 0.769100 0.388464
0.871702 0.796384 0.467384
0.882475 0.817990 0.526909
0.886931 0.832212 0.566064
0.887938 0.837369 0.577752
0.888365 0.838682 0.578241
0.886442 0.832761 0.567864
0.229892 0.705928 0.624506
0.273808 0.746212 0.580743
0.371649 0.768429 0.500206
0.467506 0.762295 0.424750
0.529656 0.749111 0.357488
0.582208 0.736782 0.309606
0.628931 0.725246 0.283024
0.686183 0.726284 0.286870
0.743954 0.730282 0.300938
0.801389 0.751278 0.348821
0.842161 0.772519 0.403357
0.867033 0.798764 0.474189
0.878935 0.818875 0.528832
0.886748 0.836515 0.577935
0.888060 0.845426 0.600580
0.888579 0.848905 0.608301
0.888640 0.848997 0.605188
0.016358 0.048280 0.120241
0.055756 0.060731 0.152804
0.141512 0.077424 0.172000
0.221866 0.094240 0.169802
0.291661 0.104646 0.172885
0.352850 0.114321 0.175418
0.403082 0.120974 0.176333
0.443519 0.124819 0.177157
0.475959 0.124666 0.174655
0.506462 0.124666 0.174594
0.535790 0.122835 0.172091
0.565484 0.120424 0.170718
0.595270 0.118593 0.168917
0.626215 0.116945 0.167849
0.655909 0.121279 0.168978
0.687129 0.127474 0.173342
0.720211 0.139376 0.182925
0.031281 0.104097 0.146731
0.041566 0.084352 0.142489
0.164828 0.109773 0.195743
0.286595 0.118349 0.168643
0.376562 0.124605 0.149660
0.433082 0.126131 0.135378
0.472755 0.126497 0.125948
0.504204 0.123262 0.113771
0.532311 0.121889 0.109010
0.560754 0.120546 0.102998
0.589014 0.120516 0.099428
0.614191 0.121035 0.095460
0.638911 0.123659 0.092897
0.664637 0.129549 0.093782
0.697353 0.141451 0.104097
0.735286 0.158206 0.122621
0.776333 0.184115 0.153475
0.059113 0.166323 0.197665
0.096620 0.189944 0.223423
0.156191 0.156130 0.157321
0.294011 0.164858 0.126619
0.399176 0.163149 0.096498
0.462013 0.158328 0.069459
0.500847 0.153780 0.046906
0.523461 0.150576 0.031373
0.529503 0.148165 0.022644
0.533349 0.146365 0.014069
0.542687 0.146517 0.011505
0.539788 0.147036 0.006806
0.569787 0.152560 0.009155
0.613062 0.160708 0.014038
0.682887 0.181308 0.038849
0.747494 0.210056 0.079927
0.800534 0.244816 0.130953
0.086610 0.222019 0.237613
0.118807 0.265965 0.261540
0.168368 0.231571 0.185763
0.294499 0.253788 0.132113
0.407874 0.251011 0.110506
0.490639 0.246098 0.089937
0.551232 0.240299 0.069551
0.594324 0.236515 0.051270
0.618402 0.233219 0.040040
0.637873 0.228550 0.028321
0.642847 0.227970 0.025299
0.651087 0.225376 0.019257
0.670832 0.231540 0.024262
0.701991 0.241062 0.032715
0.744289 0.262852 0.063325
0.793057 0.288365 0.102693
0.831724 0.318853 0.149325
0.109255 0.276188 0.278691
0.141360 0.333410 0.298558
0.189364 0.325475 0.218143
0.324224 0.351843 0.150454
0.438300 0.356909 0.130892
0.522545 0.352056 0.117037
0.592706 0.347539 0.103853
0.652491 0.341711 0.092500
0.687709 0.334813 0.078492
0.714351 0.329229 0.066255
0.733852 0.326848 0.059510
0.740230 0.323827 0.054627
0.749325 0.326635 0.059388
0.761563 0.334905 0.070069
0.780728 0.349187 0.097169
0.812833 0.369512 0.130251
0.842649 0.395453 0.171298
0.127443 0.328222 0.320104
0.155703 0.390723 0.335149
0.203769 0.405341 0.249088
0.359197 0.440620 0.171878
0.476387 0.443519 0.153170
0.561090 0.447486 0.147250
0.631128 0.444038 0.138796
0.691402 0.441688 0.131563
0.733211 0.438239 0.123568
0.761868 0.432990 0.113191
0.779690 0.428626 0.107210
0.787961 0.423377 0.101472
0.793545 0.420874 0.103914
0.798306 0.422675 0.111849
0.810483 0.431617 0.134188
0.827115 0.443702 0.161318
0.848630 0.462440 0.196597
0.140383 0.375830 0.355810
0.165286 0.436683 0.366674
0.209476 0.470802 0.281407
0.381994 0.511711 0.190951
0.503655 0.512840 0.172580
0.591791 0.516197 0.169009
0.662470 0.524681 0.173892
0.723507 0.525383 0.171023
0.763027 0.523003 0.166659
0.791836 0.520745 0.160159
0.806973 0.517052 0.155123
0.813016 0.512596 0.150240
0.818204 0.507134 0.150484
0.822263 0.502159 0.153872
0.829282 0.503777 0.169100
0.842191 0.511315 0.192477
0.855283 0.523247 0.223911
0.149111 0.416785 0.389013
0.169162 0.478798 0.399847
0.208804 0.523278 0.319097
0.389563 0.567224 0.209415
0.519341 0.567193 0.189090
0.612268 0.571008 0.189273
0.685481 0.579492 0.196323
0.746303 0.594141 0.212253
0.786007 0.592187 0.209873
0.814755 0.591058 0.207645
0.829343 0.588403 0.204135
0.833768 0.583398 0.198764
0.836912 0.576898 0.195712
0.839658 0.570397 0.197482
0.844327 0.566705 0.207218
0.850401 0.568963 0.227115
0.859983 0.578637 0.257877
0.154788 0.454047 0.421027
0.170291 0.512352 0.431434
0.203708 0.566064 0.358007
0.380011 0.613306 0.232090
0.520195 0.609522 0.201328
0.622583 0.610986 0.201694
0.701137 0.621637 0.215488
0.763699 0.638331 0.234928
0.807950 0.658183 0.264195
0.835843 0.657328 0.262104
0.848753 0.655451 0.257343
0.851469 0.650126 0.249866
0.853635 0.642969 0.245426
0.853849 0.634180 0.241489
0.857450 0.628626 0.249210
0.860990 0.627192 0.265995
0.865019 0.631708 0.295079
0.159579 0.488807 0.452186
0.170230 0.543786 0.461860
0.197330 0.602533 0.397803
0.363012 0.653986 0.258305
0.513542 0.645533 0.215854
0.619989 0.643763 0.209354
0.706294 0.652674 0.224216
0.773770 0.674678 0.254459
0.823301 0.697688 0.291814
0.851408 0.716487 0.327764
0.862425 0.714351 0.325200
0.864622 0.710170 0.316472
0.864836 0.700435 0.307073
0.863981 0.690242 0.299413
0.864378 0.681239 0.295872
0.866667 0.677394 0.309636
0.869474 0.679408 0.335729
0.160067 0.519463 0.482094
0.169680 0.573907 0.492348
0.193637 0.633753 0.434363
0.348394 0.686702 0.300572
0.496071 0.677089 0.235203
0.608240 0.664759 0.212467
0.699001 0.672206 0.227634
0.768795 0.692561 0.261295
0.830076 0.724636 0.317113
0.859739 0.747250 0.362219
0.874327 0.765713 0.401648
0.876463 0.762509 0.391424
0.875120 0.753231 0.375341
0.872648 0.740047 0.360265
0.872404 0.730007 0.352117
0.872129 0.722744 0.356725
0.872984 0.721309 0.379553
0.161166 0.549432 0.512291
0.176242 0.605493 0.527733
0.196139 0.661311 0.479561
0.336187 0.711391 0.351049
0.472023 0.699763 0.266789
0.576669 0.684596 0.224704
0.666026 0.670008 0.213901
0.743725 0.692103 0.252003
0.817685 0.724269 0.308553
0.857450 0.761654 0.388815
0.877562 0.786313 0.442878
0.880613 0.795590 0.474617
0.879637 0.787930 0.455116
0.877958 0.778134 0.433112
0.878050 0.768856 0.412451
0.877653 0.761563 0.411292
0.877836 0.759121 0.426184
0.164645 0.580072 0.543999
0.184085 0.635187 0.559716
0.207462 0.685634 0.516136
0.335302 0.731685 0.399573
0.455085 0.722164 0.298650
0.552361 0.698634 0.238987
0.635172 0.679347 0.217777
0.712810 0.684138 0.236286
0.794446 0.717159 0.292958
0.848417 0.759396 0.379080
0.876341 0.794980 0.459968
0.881895 0.809964 0.505455
0.884794 0.816190 0.526207
0.883177 0.807279 0.498726
0.881376 0.797879 0.477394
0.880339 0.790707 0.465095
0.880064 0.786740 0.474617
0.173404 0.613458 0.580255
0.200473 0.665125 0.592523
0.225956 0.708797 0.550958
0.344427 0.747463 0.444343
0.451179 0.737881 0.341466
0.535454 0.714992 0.267918
0.603571 0.688899 0.227665
0.680217 0.689601 0.238865
0.761334 0.703395 0.267109
0.825315 0.749538 0.359060
0.870817 0.789212 0.444434
0.881498 0.815824 0.517998
0.886168 0.827207 0.550683
0.887816 0.831022 0.561608
0.885039 0.822232 0.539208
0.883116 0.815671 0.524834
0.882261 0.813138 0.524193
0.192538 0.646510 0.617029
0.219699 0.692256 0.616541
0.252659 0.732113 0.569146
0.366613 0.758083 0.473426
0.460334 0.751980 0.383368
0.539513 0.734096 0.308995
0.601556 0.714412 0.263981
0.670558 0.710170 0.261936
0.746624 0.719265 0.284321
0.814725 0.747616 0.346441
0.861112 0.784939 0.432288
0.878935 0.812497 0.512963
0.885374 0.832242 0.563836
0.888243 0.841398 0.587060
0.888426 0.841886 0.587060
0.886839 0.835660 0.573175
0.886351 0.833524 0.573053
0.213077 0.678828 0.651576
0.241062 0.716731 0.635157
0.286412 0.751461 0.587213
0.393561 0.771572 0.502708
0.480873 0.766781 0.429541
0.553063 0.756222 0.366308
0.611902 0.740505 0.320012
0.673823 0.739498 0.313054
0.741207 0.742672 0.324102
0.804837 0.763973 0.374395
0.852140 0.787259 0.435889
0.873442 0.813535 0.514885
0.884245 0.833677 0.570184
0.888243 0.848234 0.607721
0.888609 0.851072 0.617151
0.888670 0.850431 0.612848
0.888029 0.846891 0.611322
0.237980 0.707973 0.680385
0.266911 0.736080 0.646815
0.328618 0.768429 0.609339
0.427619 0.784360 0.538659
0.507988 0.782681 0.481361
0.575708 0.777646 0.435309
0.631556 0.769223 0.392554
0.689326 0.770413 0.386572
0.744778 0.772702 0.388769
0.803983 0.787289 0.427710
0.843717 0.801785 0.472541
0.870085 0.822049 0.537224
0.880735 0.837827 0.584985
0.888212 0.852934 0.627955
0.888792 0.858457 0.648157
0.888945 0.859281 0.650874
0.888945 0.857542 0.642542
0.012940 0.063783 0.153719
0.041779 0.075105 0.187228
0.118196 0.084871 0.216251
0.189456 0.097292 0.224277
0.260746 0.108034 0.224552
0.326024 0.115480 0.228916
0.381231 0.121767 0.232029
0.424567 0.126284 0.235050
0.458961 0.127596 0.234867
0.491218 0.129061 0.236210
0.520562 0.127199 0.233463
0.549798 0.125429 0.231907
0.580621 0.122896 0.230930
0.612116 0.120363 0.230686
