LUTs/33.cube
# (C) 2014 VisionColor & Patchflyer [www.vision-color.com]
# Generator: VC Patchmatch v.2.1.1 [64/53]
# All work and no play makes Jack a dull boy.
# LUT generated from: FujiColor 200_VisionSpace
LUT_3D_SIZE 9
0.028168 0.028168 0.028168
0.171206 0.096468 0.052338
0.256565 0.144411 0.056764
0.298466 0.163424 0.064546
0.328496 0.174166 0.069551
0.352850 0.185214 0.074250
0.375647 0.193210 0.078035
0.404181 0.204532 0.083101
0.455421 0.228641 0.098238
0.095399 0.176272 0.139406
0.194736 0.190982 0.097688
0.293400 0.227481 0.084443
0.364050 0.254734 0.095064
0.415015 0.273838 0.103517
0.460212 0.294621 0.116304
0.494362 0.311070 0.125826
0.520989 0.329046 0.143587
0.553643 0.361303 0.190280
0.172885 0.296574 0.220706
0.293278 0.317968 0.160555
0.354162 0.323033 0.154025
0.434577 0.358343 0.172274
0.495277 0.384192 0.191470
0.544305 0.406744 0.209537
0.575463 0.425910 0.226902
0.594659 0.445747 0.247929
0.615717 0.469612 0.281590
0.222019 0.395026 0.282200
0.373816 0.425574 0.221530
0.446998 0.430426 0.225345
0.494484 0.440162 0.236057
0.557641 0.473915 0.266423
0.602289 0.498329 0.288212
0.628626 0.515465 0.305394
0.643091 0.531609 0.320226
0.658747 0.547723 0.334356
0.246464 0.463691 0.338201
0.423682 0.503838 0.262669
0.508965 0.505577 0.280186
0.553429 0.513787 0.290349
0.594263 0.530480 0.305272
0.641993 0.561456 0.332677
0.667750 0.579950 0.347509
0.680385 0.590204 0.355261
0.689418 0.599481 0.363134
0.263005 0.521996 0.396124
0.452522 0.566491 0.289830
0.555077 0.563073 0.314580
0.599359 0.569299 0.326268
0.638697 0.588190 0.342657
0.669642 0.605951 0.361181
0.697688 0.627100 0.381140
0.706050 0.637995 0.396368
0.710140 0.641657 0.407630
0.284764 0.561883 0.455024
0.451637 0.614618 0.318639
0.572992 0.597162 0.328099
0.622461 0.602106 0.342504
0.665736 0.624933 0.366033
0.698421 0.649683 0.407660
0.714687 0.664027 0.443336
0.721065 0.672145 0.462501
0.723262 0.675166 0.470314
0.309697 0.595575 0.510185
0.451209 0.645899 0.379553
0.562005 0.619776 0.333806
0.614282 0.610742 0.342321
0.667170 0.634882 0.369787
0.708370 0.669734 0.441505
0.724086 0.688197 0.510277
0.729152 0.695338 0.536919
0.729580 0.696773 0.542931
0.337804 0.633417 0.555779
0.477394 0.662867 0.451240
0.556237 0.643702 0.353643
0.604120 0.624811 0.345556
0.657160 0.634852 0.367590
0.704097 0.668757 0.443610
0.726253 0.695399 0.538567
0.733120 0.710018 0.592401
0.734676 0.713466 0.600763
0.035828 0.060945 0.107851
0.176852 0.108644 0.202548
0.308110 0.148013 0.214786
0.388006 0.169650 0.222568
0.426032 0.178073 0.224521
0.449317 0.181308 0.222934
0.467872 0.182589 0.222507
0.496345 0.189456 0.226993
0.543542 0.210361 0.245121
0.115206 0.202976 0.222690
0.204807 0.204898 0.205997
0.371099 0.221500 0.162387
0.396674 0.219181 0.128786
0.409339 0.213596 0.104067
0.419623 0.212650 0.093599
0.439460 0.220096 0.092683
0.495216 0.255924 0.139193
0.588312 0.316838 0.234195
0.175174 0.312688 0.313756
0.245701 0.362524 0.273594
0.438911 0.391089 0.231632
0.511803 0.391699 0.234134
0.545892 0.386114 0.218936
0.556939 0.380774 0.202243
0.562799 0.380987 0.202213
0.585504 0.400580 0.239750
0.640742 0.437751 0.297978
0.217990 0.395575 0.382147
0.269383 0.479011 0.332860
0.508171 0.515190 0.287755
0.593133 0.528252 0.314519
0.630335 0.530236 0.319982
0.642817 0.527276 0.315618
0.642664 0.521599 0.316228
0.651453 0.520012 0.322301
0.681208 0.534722 0.344549
0.247532 0.454780 0.434089
0.280919 0.547539 0.403418
0.531548 0.583337 0.317205
0.630945 0.595483 0.346593
0.682155 0.619806 0.381750
0.695735 0.619074 0.382025
0.696468 0.612879 0.372869
0.698573 0.605035 0.370916
0.704677 0.606744 0.398199
0.274113 0.501884 0.480232
0.297795 0.586328 0.468147
0.518212 0.624201 0.337713
0.637446 0.625422 0.358770
0.699062 0.658015 0.421698
0.723262 0.679805 0.481941
0.722408 0.674037 0.463447
0.718959 0.661891 0.445716
0.718715 0.657282 0.463050
0.297398 0.542687 0.523857
0.322118 0.615869 0.527916
0.492439 0.650141 0.379583
0.606653 0.627466 0.347967
0.683833 0.653407 0.403525
0.726589 0.693904 0.524834
0.732021 0.704402 0.573877
0.729274 0.695521 0.538231
0.727687 0.690486 0.534905
0.324712 0.588037 0.574243
0.355474 0.646815 0.566491
0.500725 0.666102 0.446479
0.592004 0.647730 0.368811
0.665156 0.653590 0.394171
0.718349 0.688655 0.504540
0.733272 0.712001 0.599786
0.735317 0.716701 0.614710
0.733791 0.712734 0.604913
0.354070 0.631373 0.619196
0.412268 0.669306 0.594018
0.544945 0.679225 0.524407
0.616571 0.676387 0.464698
0.669337 0.680537 0.467567
0.712428 0.696254 0.531487
0.731807 0.714839 0.610681
0.737606 0.725338 0.650080
0.737362 0.724697 0.647181
0.045197 0.097475 0.153750
0.132357 0.127565 0.266453
0.262425 0.155428 0.289677
0.349493 0.176028 0.295262
0.396979 0.187686 0.300847
0.427893 0.193973 0.302068
0.452369 0.197269 0.300816
0.478401 0.199802 0.301091
0.521935 0.215152 0.312993
0.125246 0.225071 0.264439
0.120699 0.184146 0.241062
0.312810 0.211154 0.349554
0.432410 0.214542 0.317510
0.481422 0.212009 0.294072
0.498024 0.204623 0.272374
0.519860 0.204349 0.257603
0.576257 0.229740 0.271824
0.650507 0.282078 0.322484
0.194308 0.333715 0.371313
0.229679 0.374151 0.418494
0.329229 0.320653 0.339361
0.516655 0.315404 0.291447
0.581842 0.305211 0.259556
0.581140 0.298100 0.233066
0.565576 0.297307 0.214206
0.606012 0.324041 0.244999
0.690669 0.386023 0.325170
0.232853 0.407324 0.433112
0.263737 0.465950 0.471534
0.356634 0.458412 0.389044
0.536034 0.489113 0.350378
0.630274 0.483284 0.329961
0.649683 0.474556 0.315007
0.645258 0.464424 0.304662
0.663294 0.466712 0.312810
0.700191 0.500145 0.370703
0.260227 0.458412 0.478431
0.289006 0.522515 0.514733
0.357397 0.569635 0.424659
0.573632 0.596094 0.395972
0.664546 0.611841 0.419287
0.697383 0.608972 0.400656
0.701350 0.595758 0.379599
0.702449 0.587762 0.385229
0.712276 0.598047 0.441291
0.284367 0.502434 0.518578
0.309941 0.562463 0.552972
0.358953 0.631373 0.479469
0.588739 0.652583 0.428595
0.685603 0.664393 0.462074
0.720455 0.682246 0.513176
0.724147 0.675563 0.492836
0.721309 0.664851 0.482673
0.724025 0.668086 0.528252
0.305730 0.543359 0.555779
0.338872 0.609308 0.599481
0.370520 0.654414 0.542596
0.572564 0.669062 0.461250
0.676204 0.677668 0.461143
0.725521 0.702663 0.562066
0.733700 0.713314 0.608942
0.731533 0.704219 0.582177
0.731716 0.705409 0.605280
0.332586 0.590600 0.600702
0.367651 0.641443 0.629145
0.421088 0.670710 0.594720
0.581079 0.679225 0.531975
0.656519 0.683742 0.494392
0.715846 0.704982 0.565057
0.735439 0.723262 0.642298
0.737392 0.725490 0.651118
0.738521 0.728511 0.663569
0.365179 0.635340 0.640711
0.405371 0.661616 0.643275
0.504234 0.686397 0.636286
0.618708 0.700618 0.628260
0.673335 0.709865 0.615839
0.715785 0.719997 0.632776
0.737514 0.731929 0.674311
0.742824 0.738003 0.697230
0.741634 0.734920 0.689662
0.054780 0.125490 0.179202
0.105715 0.143954 0.270756
0.241733 0.160220 0.329625
0.315496 0.179477 0.340307
0.371618 0.191562 0.339391
0.413489 0.202853 0.345953
0.445747 0.210239 0.348058
0.472847 0.214023 0.347906
0.511131 0.224155 0.355657
0.126528 0.238560 0.289494
0.104005 0.185000 0.241917
0.221408 0.196902 0.379095
0.366583 0.217563 0.401129
0.434607 0.222690 0.378607
0.471962 0.221897 0.360143
0.496742 0.219181 0.344152
0.543328 0.234958 0.348913
0.617273 0.280583 0.390478
0.197726 0.343511 0.392523
0.202152 0.343328 0.405707
0.225498 0.282506 0.378485
0.398138 0.301732 0.442634
0.522881 0.296239 0.410956
0.590570 0.279332 0.374273
0.615290 0.265812 0.340520
0.654475 0.289219 0.349218
0.688655 0.367315 0.415351
0.238437 0.411536 0.457404
0.272099 0.466438 0.514519
0.330755 0.454444 0.493660
0.436896 0.429145 0.453498
0.584466 0.418830 0.416724
0.661860 0.401862 0.372152
0.691646 0.377264 0.327596
0.695521 0.386450 0.326116
0.696956 0.474617 0.436103
0.266026 0.463111 0.500511
0.297826 0.521294 0.553124
0.338506 0.542565 0.534386
0.460456 0.549340 0.493812
0.602014 0.576440 0.498024
0.679683 0.575067 0.453483
0.703395 0.558877 0.413535
0.706691 0.545068 0.403220
0.707118 0.578973 0.490898
0.290440 0.507897 0.538262
0.317784 0.562737 0.584924
0.341009 0.595361 0.575036
0.468879 0.638209 0.538293
0.638300 0.662867 0.542382
0.703151 0.679408 0.575799
0.721553 0.674678 0.547112
0.722347 0.661524 0.524742
0.721218 0.665644 0.575219
0.309911 0.546166 0.571130
0.345830 0.609888 0.624659
0.363043 0.632197 0.617853
0.465827 0.674006 0.584497
0.647456 0.695338 0.582483
0.716121 0.711971 0.618097
0.734127 0.720882 0.648951
0.734340 0.714473 0.631586
0.734371 0.715145 0.655268
0.333776 0.588861 0.609552
0.376135 0.643580 0.650690
0.413916 0.663691 0.650080
0.503227 0.686671 0.633295
0.651850 0.703822 0.627222
0.711604 0.720058 0.638148
0.738979 0.733730 0.683742
0.741421 0.734279 0.688289
0.744411 0.739071 0.702724
0.363775 0.631891 0.645777
0.411048 0.662348 0.661982
0.490455 0.685695 0.668605
0.589349 0.703883 0.673396
0.677668 0.720790 0.687251
0.719234 0.732265 0.692439
0.742794 0.742916 0.712367
0.750210 0.748043 0.725124
0.750454 0.748226 0.725185
0.060426 0.147097 0.202548
0.084504 0.157046 0.258518
0.215793 0.163424 0.363653
0.294560 0.178988 0.364141
0.351568 0.194797 0.372412
0.396674 0.205600 0.374487
0.437751 0.217227 0.381445
0.470283 0.224735 0.384039
0.506310 0.236027 0.391089
0.109071 0.242283 0.302983
0.080598 0.186923 0.252293
0.139467 0.187259 0.350378
0.302434 0.203647 0.424048
0.397986 0.224033 0.426947
0.454536 0.231846 0.411048
0.490150 0.235874 0.399390
0.530297 0.247807 0.402594
0.594934 0.281010 0.431800
0.187991 0.342962 0.400671
0.156619 0.315221 0.385840
0.179385 0.264988 0.361059
0.294865 0.271397 0.477577
0.437201 0.286564 0.488930
0.522637 0.283543 0.454139
0.571527 0.273381 0.427192
0.615839 0.288823 0.427863
0.666499 0.351537 0.468666
0.231998 0.412726 0.462562
0.249699 0.437964 0.495094
0.266331 0.413123 0.491005
0.320226 0.372107 0.488777
0.482307 0.393957 0.527337
0.591760 0.377234 0.497704
0.652430 0.352911 0.459129
0.677821 0.360388 0.440742
0.682429 0.453346 0.503105
0.261387 0.460304 0.505425
0.297215 0.515251 0.557946
0.335241 0.537682 0.577752
0.435554 0.543664 0.566033
0.538750 0.535271 0.548852
0.622614 0.520348 0.522774
0.673884 0.501320 0.485039
0.693446 0.489387 0.458000
0.692164 0.559716 0.538415
0.291966 0.508507 0.546807
0.318303 0.557366 0.592645
0.344915 0.588403 0.609430
0.429755 0.618311 0.605982
0.561639 0.629114 0.589868
0.663874 0.653559 0.611963
0.705470 0.650050 0.581720
0.715297 0.639628 0.560510
0.713314 0.656245 0.606683
0.311498 0.545281 0.579309
0.337774 0.593164 0.622126
0.367071 0.628138 0.641993
0.428565 0.658625 0.642298
0.575402 0.686366 0.634791
0.693843 0.710018 0.659266
0.733822 0.726375 0.686946
0.735927 0.720272 0.670771
0.733120 0.714351 0.678065
0.330846 0.581201 0.610468
0.367834 0.632258 0.650843
0.416876 0.662806 0.667445
0.487343 0.685817 0.673762
0.598810 0.707759 0.674342
0.707424 0.728511 0.691341
0.743282 0.743374 0.715175
0.750362 0.747494 0.724330
0.749447 0.746090 0.725093
0.353796 0.619562 0.641443
0.414221 0.662409 0.670130
0.497719 0.687099 0.683284
0.587945 0.707179 0.693507
0.661952 0.722499 0.704158
0.720424 0.739254 0.721614
0.745815 0.749508 0.732509
0.754635 0.754299 0.740383
0.755825 0.755032 0.742733
0.057679 0.164004 0.224826
0.066865 0.166659 0.263340
0.173342 0.167391 0.385931
0.273991 0.180179 0.390845
0.330022 0.193973 0.394049
0.380926 0.208499 0.400610
0.425940 0.220157 0.405524
0.464271 0.231388 0.410254
0.502739 0.245396 0.420661
0.086427 0.246799 0.315831
0.058564 0.189456 0.260044
0.079286 0.182193 0.308507
0.226581 0.191348 0.439826
0.341146 0.210117 0.441260
0.427710 0.233249 0.449683
0.477424 0.242985 0.438575
0.522210 0.258274 0.443336
0.578241 0.285405 0.466346
0.168948 0.342779 0.407538
0.103822 0.295048 0.371893
0.125246 0.248142 0.335485
0.197208 0.246098 0.448631
0.342306 0.257359 0.523644
0.461677 0.275090 0.514611
0.534081 0.279606 0.483345
0.584588 0.292424 0.479500
0.642420 0.343023 0.509117
0.223392 0.412665 0.471046
0.214572 0.415198 0.480293
0.214374 0.370459 0.455100
0.231022 0.330602 0.456962
0.357351 0.340749 0.565881
0.511620 0.356695 0.566644
0.592645 0.342168 0.527428
0.641993 0.346685 0.508507
0.665064 0.431983 0.541955
0.248814 0.455268 0.507164
0.274601 0.489754 0.540490
0.293004 0.491997 0.554070
0.334310 0.489128 0.565759
0.405478 0.463279 0.571405
0.561028 0.493248 0.588708
0.632136 0.467094 0.562768
0.665949 0.455650 0.538506
0.678553 0.536843 0.583124
0.286809 0.505302 0.548028
0.311498 0.543359 0.585321
0.334112 0.571069 0.611597
0.414008 0.607935 0.632685
0.532616 0.624628 0.633631
0.624811 0.628107 0.630793
0.667506 0.612421 0.609125
0.686030 0.598321 0.587884
0.697841 0.637842 0.628717
0.310948 0.541283 0.580957
0.325200 0.568109 0.606134
0.351537 0.607202 0.636896
0.420569 0.652338 0.662562
0.536660 0.678920 0.668482
0.647395 0.690974 0.668116
0.720485 0.717830 0.694270
0.727718 0.706935 0.678523
0.729030 0.707973 0.685634
0.324376 0.567926 0.604028
0.346532 0.605707 0.636011
0.401648 0.651820 0.668269
0.488716 0.685756 0.689082
0.586145 0.706142 0.696925
0.673609 0.722652 0.702571
0.738735 0.744839 0.726467
0.753567 0.752895 0.739254
0.751217 0.747890 0.733425
0.340978 0.597711 0.628351
0.401862 0.651911 0.668360
0.501396 0.688594 0.692836
0.596674 0.710353 0.706783
0.663569 0.724849 0.717281
0.713497 0.740230 0.730953
0.744259 0.752224 0.741848
0.755917 0.756924 0.747951
0.758022 0.758755 0.751308
0.053498 0.174350 0.239322
0.055634 0.173342 0.268894
0.129305 0.168551 0.347021
0.244388 0.179538 0.412604
0.304051 0.191318 0.412360
0.358495 0.205631 0.417853
0.412909 0.221378 0.425299
0.453986 0.232822 0.431159
0.494240 0.249241 0.443122
0.076020 0.249516 0.322576
0.060029 0.195743 0.267796
0.058473 0.182925 0.298192
0.151400 0.182681 0.411597
0.284031 0.199039 0.457465
0.369482 0.218387 0.459388
0.454139 0.241794 0.466102
0.504173 0.261418 0.476539
0.561761 0.290410 0.497841
0.136477 0.339879 0.409918
0.087160 0.284153 0.362005
0.075257 0.232517 0.319097
0.122225 0.229465 0.368994
0.237018 0.231968 0.499748
0.372564 0.249454 0.535973
0.487617 0.273320 0.525750
0.553338 0.295445 0.521782
0.616114 0.339025 0.541650
0.211917 0.415320 0.478279
0.173007 0.393225 0.463416
0.144274 0.332555 0.416510
0.158373 0.293523 0.397009
0.217212 0.292027 0.518135
0.383459 0.309361 0.606470
0.530938 0.327092 0.585718
0.599878 0.339300 0.556542
0.642908 0.414130 0.572717
0.249607 0.460945 0.516838
0.260594 0.477974 0.533257
0.254826 0.448463 0.515892
0.254795 0.423453 0.513771
0.274311 0.396567 0.539010
0.423011 0.421500 0.617212
0.573754 0.439689 0.618006
0.632319 0.428626 0.587060
0.662104 0.513939 0.605249
0.272038 0.493202 0.543023
0.294926 0.522148 0.568872
0.307897 0.531518 0.581109
0.337865 0.550347 0.607599
0.410407 0.566735 0.627100
0.499947 0.561883 0.635096
0.638544 0.593256 0.650355
0.662593 0.566949 0.624659
0.688899 0.622156 0.650050
0.303105 0.532891 0.574914
0.312413 0.549554 0.590356
0.327581 0.571160 0.611505
0.372076 0.620203 0.651270
0.488640 0.664576 0.678248
0.620386 0.689021 0.691005
0.697322 0.701259 0.699794
0.711238 0.686122 0.680415
0.721798 0.699031 0.693385
0.316716 0.552605 0.593347
0.328588 0.573846 0.612268
0.359838 0.618128 0.648768
0.437476 0.666835 0.682826
0.556588 0.701411 0.706600
0.654536 0.721187 0.715053
0.715908 0.735500 0.723781
0.750271 0.749599 0.738796
0.749538 0.745113 0.733822
0.328893 0.575402 0.613306
0.375677 0.628656 0.655421
0.472389 0.678889 0.691615
0.580621 0.708064 0.711391
0.658076 0.725643 0.723720
0.708278 0.738643 0.733822
0.739559 0.751919 0.744137
0.754818 0.757198 0.749691
0.759640 0.762142 0.754849
0.056916 0.185580 0.253483
0.056306 0.181338 0.273564
0.088655 0.166629 0.330083
0.205478 0.176272 0.436866
0.276371 0.189029 0.432441
0.329870 0.201389 0.433356
0.383307 0.216068 0.440284
0.441077 0.232914 0.449195
0.482002 0.249027 0.461860
0.077760 0.255222 0.330266
0.065126 0.212375 0.291112
0.065492 0.203098 0.313512
0.114015 0.193942 0.378119
0.237217 0.204074 0.502495
0.325658 0.219242 0.496315
0.403784 0.237247 0.493935
0.479591 0.256992 0.494881
0.538048 0.289952 0.525078
0.112459 0.336950 0.411017
0.087800 0.286931 0.367468
0.074495 0.243015 0.332189
0.113466 0.241489 0.366918
0.176516 0.236454 0.480064
0.303899 0.248295 0.572045
0.422553 0.266819 0.561028
0.518914 0.288823 0.549310
0.583368 0.334234 0.572656
0.191928 0.410468 0.476478
0.161898 0.375921 0.450813
0.121370 0.322637 0.411017
0.116487 0.282506 0.381659
0.169162 0.281651 0.442908
0.273930 0.290044 0.575067
0.432929 0.309453 0.620783
0.557336 0.330938 0.598260
0.614588 0.401526 0.601678
0.247990 0.465919 0.522515
0.244297 0.456611 0.518822
0.232456 0.424140 0.498634
0.212070 0.386023 0.474159
0.208743 0.349889 0.466911
0.271336 0.359869 0.585077
0.447303 0.387854 0.648005
0.590845 0.413733 0.629419
0.641871 0.496162 0.627527
0.278843 0.500328 0.549950
0.293339 0.512596 0.562402
0.291752 0.504082 0.560632
0.292210 0.496406 0.563439
0.308019 0.496010 0.581811
0.323522 0.471229 0.606073
0.493721 0.510918 0.650965
0.629969 0.541985 0.651606
0.673426 0.605310 0.659419
0.291661 0.522240 0.568444
0.310735 0.541680 0.585626
0.321233 0.558709 0.603296
0.343114 0.582910 0.627619
0.405035 0.614618 0.654688
0.495583 0.636530 0.674128
0.583398 0.639826 0.683833
0.698695 0.676234 0.701503
0.717250 0.693172 0.706844
0.308446 0.545617 0.586969
0.317968 0.555444 0.596216
0.333349 0.582574 0.620966
0.365026 0.623499 0.653803
0.454292 0.671229 0.687251
0.591058 0.708339 0.713039
0.692714 0.732906 0.731075
0.747219 0.748592 0.745602
0.752102 0.748440 0.744625
0.319554 0.557214 0.598321
0.348760 0.599084 0.633844
0.411017 0.651698 0.673732
0.513817 0.688960 0.700679
0.613642 0.715724 0.718563
0.692317 0.734432 0.732357
0.730922 0.748653 0.745571
0.752041 0.756863 0.751888
0.759884 0.762509 0.757229
0.061524 0.200351 0.276219
0.060548 0.195499 0.289616
0.071046 0.177371 0.332982
0.162814 0.184085 0.430243
0.252201 0.195438 0.471504
0.306462 0.206119 0.468666
0.358160 0.217136 0.468452
0.412116 0.231754 0.471595
0.466316 0.246830 0.475441
0.080415 0.263828 0.341741
0.075410 0.238590 0.326024
0.099367 0.238926 0.350744
0.116701 0.225711 0.395483
0.198550 0.232792 0.509606
0.296818 0.241428 0.564294
0.372992 0.253971 0.555352
0.448981 0.269932 0.549065
0.513298 0.284215 0.542229
0.116579 0.339818 0.415473
0.100893 0.300999 0.388373
0.113161 0.279301 0.378149
0.156344 0.281498 0.409766
0.165347 0.273350 0.472343
0.269902 0.286900 0.596613
0.385657 0.299535 0.625177
0.487678 0.316289 0.612482
0.560723 0.331518 0.598077
0.184573 0.406622 0.475227
0.184146 0.377020 0.456855
0.171328 0.346685 0.439490
0.186099 0.331151 0.443305
0.214878 0.332586 0.493019
0.263737 0.341741 0.597681
0.395239 0.363043 0.654688
0.514885 0.382025 0.640101
0.593133 0.398840 0.626642
0.239292 0.458961 0.519280
0.246464 0.443946 0.512993
0.249149 0.427893 0.509880
0.251072 0.419867 0.521263
0.252110 0.403723 0.534417
0.291508 0.414527 0.613703
0.415015 0.440375 0.664424
0.546441 0.468238 0.649104
0.623346 0.484382 0.644190
0.281926 0.499489 0.551720
0.285985 0.496773 0.553185
0.293065 0.498421 0.563928
0.310796 0.510582 0.586053
0.330175 0.517906 0.609277
0.338872 0.504570 0.632837
0.450080 0.535302 0.666560
0.594720 0.573083 0.661891
0.658289 0.589349 0.667567
0.299596 0.525139 0.572381
0.312963 0.541680 0.588708
0.328405 0.562219 0.612177
0.365789 0.588800 0.636805
0.419593 0.611688 0.657740
0.477974 0.623316 0.673182
0.526970 0.622492 0.681605
0.657923 0.662867 0.697047
0.707240 0.681849 0.708919
0.305913 0.540673 0.583764
0.326085 0.567041 0.608606
0.353643 0.603754 0.640589
0.411627 0.641291 0.667872
0.497414 0.671504 0.689204
0.593866 0.696895 0.707057
0.666010 0.713375 0.721340
0.717861 0.730251 0.736110
0.749752 0.744015 0.747555
0.312810 0.551446 0.592432
0.331945 0.578637 0.617334
0.365881 0.623560 0.653468
0.438514 0.666316 0.684627
0.546105 0.700587 0.707668
0.654169 0.725460 0.725673
0.717403 0.743923 0.742031
0.751614 0.758602 0.756863
0.760159 0.762875 0.760159
