LUTs/33.cube
# (C) 2014 VisionColor & Patchflyer [www.vision-color.com]
# Generator: VC Patchmatch v.2.1.1 [64/53]
# All work and no play makes Jack a dull boy.
# LUT generated from: FujiColor 200_VisionSpace
LUT_3D_SIZE 5
0.028168 0.028168 0.028168
0.256565 0.144411 0.056764
0.328496 0.174166 0.069551
0.375647 0.193210 0.078035
0.455421 0.228641 0.098238
0.172885 0.296574 0.220706
0.354162 0.323033 0.154025
0.495277 0.384192 0.191470
0.575463 0.425910 0.226902
0.615717 0.469612 0.281590
0.246464 0.463691 0.338201
0.508965 0.505577 0.280186
0.594263 0.530480 0.305272
0.667750 0.579950 0.347509
0.689418 0.599481 0.363134
0.284764 0.561883 0.455024
0.572992 0.597162 0.328099
0.665736 0.624933 0.366033
0.714687 0.664027 0.443336
0.723262 0.675166 0.470314
0.337804 0.633417 0.555779
0.556237 0.643702 0.353643
0.657160 0.634852 0.367590
0.726253 0.695399 0.538567
0.734676 0.713466 0.600763
0.045197 0.097475 0.153750
0.262425 0.155428 0.289677
0.396979 0.187686 0.300847
0.452369 0.197269 0.300816
0.521935 0.215152 0.312993
0.194308 0.333715 0.371313
0.329229 0.320653 0.339361
0.581842 0.305211 0.259556
0.565576 0.297307 0.214206
0.690669 0.386023 0.325170
0.260227 0.458412 0.478431
0.357397 0.569635 0.424659
0.664546 0.611841 0.419287
0.701350 0.595758 0.379599
0.712276 0.598047 0.441291
0.305730 0.543359 0.555779
0.370520 0.654414 0.542596
0.676204 0.677668 0.461143
0.733700 0.713314 0.608942
0.731716 0.705409 0.605280
0.365179 0.635340 0.640711
0.504234 0.686397 0.636286
0.673335 0.709865 0.615839
0.737514 0.731929 0.674311
0.741634 0.734920 0.689662
0.060426 0.147097 0.202548
0.215793 0.163424 0.363653
0.351568 0.194797 0.372412
0.437751 0.217227 0.381445
0.506310 0.236027 0.391089
0.187991 0.342962 0.400671
0.179385 0.264988 0.361059
0.437201 0.286564 0.488930
0.571527 0.273381 0.427192
0.666499 0.351537 0.468666
0.261387 0.460304 0.505425
0.335241 0.537682 0.577752
0.538750 0.535271 0.548852
0.673884 0.501320 0.485039
0.692164 0.559716 0.538415
0.311498 0.545281 0.579309
0.367071 0.628138 0.641993
0.575402 0.686366 0.634791
0.733822 0.726375 0.686946
0.733120 0.714351 0.678065
0.353796 0.619562 0.641443
0.497719 0.687099 0.683284
0.661952 0.722499 0.704158
0.745815 0.749508 0.732509
0.755825 0.755032 0.742733
0.053498 0.174350 0.239322
0.129305 0.168551 0.347021
0.304051 0.191318 0.412360
0.412909 0.221378 0.425299
0.494240 0.249241 0.443122
0.136477 0.339879 0.409918
0.075257 0.232517 0.319097
0.237018 0.231968 0.499748
0.487617 0.273320 0.525750
0.616114 0.339025 0.541650
0.249607 0.460945 0.516838
0.254826 0.448463 0.515892
0.274311 0.396567 0.539010
0.573754 0.439689 0.618006
0.662104 0.513939 0.605249
0.303105 0.532891 0.574914
0.327581 0.571160 0.611505
0.488640 0.664576 0.678248
0.697322 0.701259 0.699794
0.721798 0.699031 0.693385
0.328893 0.575402 0.613306
0.472389 0.678889 0.691615
0.658076 0.725643 0.723720
0.739559 0.751919 0.744137
0.759640 0.762142 0.754849
0.061524 0.200351 0.276219
0.071046 0.177371 0.332982
0.252201 0.195438 0.471504
0.358160 0.217136 0.468452
0.466316 0.246830 0.475441
0.116579 0.339818 0.415473
0.113161 0.279301 0.378149
0.165347 0.273350 0.472343
0.385657 0.299535 0.625177
0.560723 0.331518 0.598077
0.239292 0.458961 0.519280
0.249149 0.427893 0.509880
0.252110 0.403723 0.534417
0.415015 0.440375 0.664424
0.623346 0.484382 0.644190
0.299596 0.525139 0.572381
0.328405 0.562219 0.612177
0.419593 0.611688 0.657740
0.526970 0.622492 0.681605
0.707240 0.681849 0.708919
0.312810 0.551446 0.592432
0.365881 0.623560 0.653468
0.546105 0.700587 0.707668
0.717403 0.743923 0.742031
0.760159 0.762875 0.760159
