LUTs/33.cube
# (C) 2014 VisionColor & Patchflyer [www.vision-color.com]
# Generator: VC Patchmatch v.2.1.1 [64/53]
# All work and no play makes Jack a dull boy.
# LUT generated from: FujiColor 200_VisionSpace
LUT_3D_SIZE 17
0.028168 0.028168 0.028168
0.098238 0.060670 0.043763
0.171206 0.096468 0.052338
0.219760 0.123995 0.053040
0.256565 0.144411 0.056764
0.280766 0.156161 0.061341
0.298466 0.163424 0.064546
0.315312 0.169223 0.067292
0.328496 0.174166 0.069551
0.340795 0.179416 0.071839
0.352850 0.185214 0.074250
0.364324 0.189548 0.076234
0.375647 0.193210 0.078035
0.386511 0.196780 0.079774
0.404181 0.204532 0.083101
0.425208 0.213931 0.088472
0.455421 0.228641 0.098238
0.049775 0.095705 0.075746
0.098207 0.106569 0.060151
0.181552 0.144656 0.074678
0.232578 0.167971 0.070253
0.274632 0.186038 0.069764
0.309300 0.200137 0.074769
0.334905 0.209567 0.079133
0.355596 0.217533 0.082734
0.370947 0.223239 0.085359
0.388220 0.229740 0.088350
0.405737 0.236484 0.091402
0.422370 0.243381 0.094423
0.435462 0.247868 0.096559
0.447272 0.252567 0.098665
0.464637 0.260960 0.102144
0.483345 0.272618 0.112673
0.509483 0.292210 0.134585
0.095399 0.176272 0.139406
0.135805 0.186862 0.098390
0.194736 0.190982 0.097688
0.250065 0.211002 0.091646
0.293400 0.227481 0.084443
0.332158 0.243046 0.089540
0.364050 0.254734 0.095064
0.392004 0.264897 0.099855
0.415015 0.273838 0.103517
0.440894 0.285496 0.110384
0.460212 0.294621 0.116304
0.479469 0.304265 0.122255
0.494362 0.311070 0.125826
0.508415 0.318853 0.130800
0.520989 0.329046 0.143587
0.536004 0.342382 0.160952
0.553643 0.361303 0.190280
0.137514 0.240085 0.184421
0.181064 0.254856 0.130098
0.243107 0.255406 0.126650
0.276341 0.258701 0.122225
0.325872 0.278691 0.121859
0.364965 0.294041 0.123476
0.398413 0.307042 0.130648
0.428321 0.318456 0.137850
0.455329 0.328862 0.143252
0.484688 0.342473 0.153353
0.507164 0.352880 0.160189
0.526604 0.362982 0.167758
0.541436 0.372351 0.175448
0.553246 0.382300 0.184970
0.564019 0.392645 0.198825
0.575647 0.404913 0.216678
0.589654 0.420203 0.241337
0.172885 0.296574 0.220706
0.224735 0.316014 0.163394
0.293278 0.317968 0.160555
0.328527 0.320562 0.154818
0.354162 0.323033 0.154025
0.399451 0.343877 0.163333
0.434577 0.358343 0.172274
0.468055 0.373114 0.183078
0.495277 0.384192 0.191470
0.522789 0.396735 0.201297
0.544305 0.406744 0.209537
0.563134 0.417182 0.218784
0.575463 0.425910 0.226902
0.586206 0.436835 0.236973
0.594659 0.445747 0.247929
0.604212 0.456641 0.261784
0.615717 0.469612 0.281590
0.200351 0.348943 0.252537
0.263493 0.371801 0.193179
0.338018 0.375860 0.194583
0.377508 0.378271 0.190982
0.404883 0.381292 0.190646
0.428504 0.384833 0.194064
0.467414 0.403174 0.207950
0.503471 0.421454 0.222873
0.530175 0.434089 0.233494
0.557000 0.447761 0.244694
0.576654 0.456977 0.252872
0.594293 0.465827 0.261387
0.605280 0.472877 0.268742
0.613886 0.482856 0.278447
0.620996 0.491402 0.288090
0.628870 0.501427 0.298497
0.637995 0.511437 0.312444
0.222019 0.395026 0.282200
0.289586 0.420478 0.217777
0.373816 0.425574 0.221530
0.418006 0.427680 0.224643
0.446998 0.430426 0.225345
0.471260 0.434546 0.229068
0.494484 0.440162 0.236057
0.530449 0.459541 0.253147
0.557641 0.473915 0.266423
0.584100 0.488350 0.278569
0.602289 0.498329 0.288212
0.618189 0.508415 0.298375
0.628626 0.515465 0.305394
0.636500 0.524224 0.313695
0.643091 0.531609 0.320226
0.650813 0.540978 0.328222
0.658747 0.547723 0.334356
0.236179 0.431495 0.309422
0.309026 0.464729 0.234897
0.405646 0.467231 0.246952
0.451606 0.469764 0.253574
0.482185 0.471199 0.256077
0.505608 0.474891 0.259709
0.528099 0.481544 0.266636
0.549554 0.489296 0.275975
0.577874 0.505821 0.291691
0.606500 0.524407 0.309117
0.623835 0.534936 0.319432
0.639277 0.545220 0.328496
0.649256 0.552178 0.333959
0.656489 0.558709 0.339147
0.661921 0.563134 0.342443
0.667933 0.570275 0.346990
0.674525 0.575097 0.349798
0.246464 0.463691 0.338201
0.317510 0.503136 0.257481
0.423682 0.503838 0.262669
0.477211 0.504204 0.273655
0.508965 0.505577 0.280186
0.533074 0.507774 0.285557
0.553429 0.513787 0.290349
0.573754 0.520928 0.298192
0.594263 0.530480 0.305272
0.623407 0.549676 0.322545
0.641993 0.561456 0.332677
0.657618 0.572442 0.341894
0.667750 0.579950 0.347509
0.675319 0.586236 0.352056
0.680385 0.590204 0.355261
0.685695 0.595514 0.359045
0.689418 0.599481 0.363134
0.254063 0.494606 0.366094
0.329015 0.539910 0.279118
0.445747 0.537987 0.278050
0.503899 0.537469 0.294072
0.536278 0.539086 0.302495
0.560693 0.540887 0.309026
0.579858 0.545464 0.314153
0.599176 0.553002 0.320897
0.619471 0.563348 0.328405
0.635950 0.571221 0.336950
0.656306 0.584344 0.346746
0.673823 0.596735 0.356451
0.683406 0.605097 0.365698
0.690028 0.611749 0.373205
0.693446 0.615167 0.376867
0.697414 0.618830 0.381109
0.700343 0.621302 0.384527
0.263005 0.521996 0.396124
0.334386 0.566094 0.308965
0.452522 0.566491 0.289830
0.518395 0.562036 0.303960
0.555077 0.563073 0.314580
0.579034 0.564050 0.320500
0.599359 0.569299 0.326268
0.618982 0.576684 0.332891
0.638697 0.588190 0.342657
0.655451 0.597253 0.351781
0.669642 0.605951 0.361181
0.687465 0.618463 0.371160
0.697688 0.627100 0.381140
0.703548 0.634577 0.389929
0.706050 0.637995 0.396368
0.708553 0.640894 0.402441
0.710140 0.641657 0.407630
0.273411 0.544579 0.426032
0.336309 0.592157 0.332860
0.457832 0.591394 0.299351
0.529473 0.583612 0.312474
0.569055 0.583398 0.324224
0.593896 0.583795 0.330388
0.615747 0.589776 0.337774
0.635889 0.597864 0.345220
0.655512 0.609583 0.355779
0.672877 0.621118 0.370214
0.687312 0.630701 0.382513
0.697383 0.638209 0.396643
0.706813 0.646387 0.411963
0.711940 0.653071 0.424384
0.714809 0.657191 0.429450
0.717189 0.660578 0.435920
0.718349 0.661402 0.437476
0.284764 0.561883 0.455024
0.340246 0.611414 0.372076
0.451637 0.614618 0.318639
0.529686 0.602747 0.318151
0.572992 0.597162 0.328099
0.598901 0.596887 0.334539
0.622461 0.602106 0.342504
0.646052 0.613001 0.354742
0.665736 0.624933 0.366033
0.683406 0.638086 0.388678
0.698421 0.649683 0.407660
0.707088 0.657526 0.427985
0.714687 0.664027 0.443336
0.719142 0.669215 0.457099
0.721065 0.672145 0.462501
0.722713 0.675471 0.469245
0.723262 0.675166 0.470314
0.296056 0.577783 0.483253
0.343481 0.628473 0.409888
0.447303 0.633478 0.341527
0.525383 0.619165 0.324376
0.568963 0.608637 0.329412
0.597040 0.605463 0.336126
0.621912 0.607904 0.343877
0.647425 0.619837 0.357733
0.672786 0.636622 0.375433
0.691707 0.651850 0.408148
0.706752 0.664485 0.432624
0.714107 0.672877 0.462196
0.720760 0.679286 0.480537
0.724300 0.683192 0.494911
0.725673 0.685573 0.500175
0.726864 0.687495 0.506310
0.727077 0.686946 0.505547
0.309697 0.595575 0.510185
0.355047 0.641169 0.445502
0.451209 0.645899 0.379553
0.520867 0.633783 0.338689
0.562005 0.619776 0.333806
0.590539 0.613703 0.337469
0.614282 0.610742 0.342321
0.640742 0.619837 0.353704
0.667170 0.634882 0.369787
0.693294 0.656123 0.410651
0.708370 0.669734 0.441505
0.718074 0.681178 0.484382
0.724086 0.688197 0.510277
0.727565 0.692836 0.530205
0.729152 0.695338 0.536919
0.729763 0.696834 0.543145
0.729580 0.696773 0.542931
0.323278 0.614343 0.535576
0.368353 0.652644 0.479438
0.459937 0.656764 0.415229
0.519615 0.647669 0.357427
0.556725 0.632288 0.340215
0.584222 0.621332 0.338750
0.607904 0.615808 0.342382
0.634089 0.620813 0.352117
0.662776 0.634546 0.366705
0.688869 0.654108 0.406836
0.709682 0.672847 0.448707
0.720455 0.685664 0.496986
0.727047 0.694942 0.534295
0.730037 0.700435 0.561730
0.731624 0.704158 0.571649
0.732662 0.705928 0.576928
0.731960 0.705470 0.573907
0.337804 0.633417 0.555779
0.388861 0.661616 0.505730
0.477394 0.662867 0.451240
0.524041 0.657710 0.382513
0.556237 0.643702 0.353643
0.581109 0.632471 0.344091
0.604120 0.624811 0.345556
0.630426 0.627710 0.354681
0.657160 0.634852 0.367590
0.682734 0.651728 0.403510
0.704097 0.668757 0.443610
0.718532 0.684077 0.495064
0.726253 0.695399 0.538567
0.731106 0.704402 0.577661
0.733120 0.710018 0.592401
0.734340 0.713130 0.600488
0.734676 0.713466 0.600763
0.028962 0.041749 0.069551
0.095521 0.066011 0.116457
0.202182 0.101625 0.126162
0.265232 0.129671 0.131289
0.308751 0.150240 0.139803
0.343725 0.163760 0.147280
0.364355 0.171023 0.149783
0.383032 0.175265 0.149569
0.395850 0.178653 0.149081
0.409888 0.180484 0.147494
0.416236 0.183230 0.147707
0.423102 0.184817 0.148409
0.434241 0.186587 0.147524
0.446571 0.188571 0.147555
0.462928 0.196139 0.153536
0.482704 0.206332 0.162356
0.510124 0.222507 0.179751
0.064424 0.111269 0.123720
0.111055 0.118441 0.120058
0.226658 0.148623 0.095705
0.273686 0.163241 0.083742
0.303960 0.169284 0.073976
0.319646 0.173770 0.071015
0.333959 0.179049 0.071229
0.340520 0.181247 0.072297
0.350561 0.183871 0.073732
0.360754 0.186618 0.075227
0.372595 0.191073 0.077272
0.383886 0.195346 0.079225
0.398413 0.201480 0.081880
0.417182 0.209567 0.085359
0.447578 0.224582 0.096986
0.481544 0.245487 0.122164
0.522362 0.274723 0.167971
0.104128 0.190188 0.182803
0.144411 0.216373 0.176577
0.240177 0.228367 0.125612
0.300175 0.232120 0.111910
0.342962 0.237003 0.102358
0.371740 0.241703 0.096834
0.392767 0.245487 0.095796
0.404944 0.246586 0.094331
0.422309 0.252934 0.097932
0.434791 0.256260 0.099489
0.446754 0.259617 0.101015
0.455604 0.262638 0.102358
0.468055 0.267491 0.105470
0.484108 0.275700 0.111391
0.505364 0.292302 0.133303
0.531853 0.314244 0.165774
0.564904 0.341619 0.210513
0.138430 0.250492 0.228092
0.184237 0.295415 0.221988
0.281834 0.312810 0.163455
0.346624 0.316136 0.164767
0.388708 0.316594 0.152682
0.421241 0.318578 0.147799
0.447486 0.321691 0.147616
0.469184 0.322026 0.140780
0.489662 0.327764 0.140963
0.503807 0.331151 0.140200
0.517021 0.337316 0.144839
0.525170 0.341527 0.148531
0.533837 0.347417 0.156680
0.542657 0.354955 0.168704
0.555962 0.367193 0.191592
0.574609 0.384527 0.221225
0.601587 0.405859 0.256992
0.169162 0.304112 0.270085
0.211612 0.361639 0.259709
0.323430 0.388373 0.199802
0.397498 0.391516 0.207706
0.442573 0.397284 0.210727
0.476417 0.398352 0.208316
0.503410 0.401465 0.210208
0.526421 0.403296 0.209659
0.543297 0.405280 0.209812
0.554040 0.405524 0.208774
0.563348 0.409064 0.211337
0.569421 0.411383 0.213565
0.575830 0.414893 0.218662
0.583093 0.421851 0.229343
0.592035 0.430060 0.244755
0.605127 0.441993 0.266148
0.625666 0.457832 0.291936
0.195132 0.351476 0.305974
0.230045 0.413153 0.295018
0.347936 0.447333 0.225132
0.434028 0.449470 0.242161
0.482551 0.454810 0.248356
0.519524 0.464637 0.258762
0.546441 0.466621 0.262058
0.570062 0.470924 0.266575
0.585321 0.472267 0.268070
0.595422 0.472816 0.268223
0.603662 0.475257 0.270665
0.608179 0.475471 0.271519
0.613001 0.477668 0.275608
0.616968 0.480598 0.281224
0.623682 0.485908 0.291234
0.632685 0.492348 0.301579
0.647150 0.503044 0.318700
0.215885 0.392889 0.337835
0.244053 0.454414 0.327153
0.364141 0.492988 0.246769
0.461006 0.493324 0.267765
0.512200 0.498024 0.278538
0.547234 0.505516 0.287663
0.578485 0.516472 0.298558
0.602869 0.522393 0.305455
0.618952 0.527428 0.311406
0.627619 0.526452 0.310735
0.635096 0.528527 0.312840
0.638483 0.529717 0.315557
0.642695 0.531609 0.318334
0.645747 0.532891 0.321843
0.650477 0.534234 0.325170
0.658106 0.537926 0.330724
0.669978 0.543572 0.337438
0.231632 0.425971 0.366705
0.253605 0.490303 0.361883
0.367620 0.534112 0.264927
0.481331 0.530327 0.285283
0.535912 0.533715 0.301976
0.569177 0.539391 0.310399
0.598962 0.548821 0.319799
0.627375 0.561700 0.329503
0.644251 0.568719 0.337896
0.654047 0.571160 0.342535
0.659449 0.571191 0.345525
0.662440 0.570947 0.346105
0.666041 0.571496 0.346990
0.668818 0.571374 0.347631
0.671962 0.570764 0.348211
0.676356 0.571344 0.350408
0.684779 0.575433 0.356756
0.244511 0.455665 0.394965
0.262150 0.518944 0.390997
0.369177 0.565240 0.285496
0.492500 0.558862 0.296178
0.552300 0.560174 0.314458
0.585260 0.564691 0.323674
0.614771 0.573236 0.333410
0.642786 0.585351 0.343023
0.665095 0.599603 0.356085
0.675135 0.603296 0.361730
0.681117 0.605585 0.364996
0.684749 0.605097 0.364050
0.688563 0.605798 0.365209
0.690333 0.604395 0.364080
0.692775 0.603418 0.364599
0.695125 0.602716 0.367712
0.698116 0.603998 0.376776
0.256504 0.483162 0.422004
0.271305 0.542016 0.419226
0.362951 0.591333 0.309728
0.495277 0.581476 0.302342
0.559197 0.580865 0.321386
0.594568 0.583612 0.330480
0.625086 0.592248 0.341466
0.652277 0.603265 0.352789
0.675288 0.619165 0.372107
0.692805 0.631830 0.389624
0.697780 0.634577 0.398962
0.700435 0.635065 0.396521
0.702968 0.634821 0.397772
0.703578 0.632990 0.395911
0.704128 0.630396 0.392889
0.705531 0.628351 0.395209
0.707820 0.628382 0.403052
0.267369 0.507042 0.447242
0.282200 0.559838 0.446845
0.360998 0.612879 0.342443
0.490974 0.603326 0.311315
0.560204 0.597223 0.325200
0.599695 0.597589 0.335119
0.632227 0.606989 0.347997
0.659358 0.618585 0.363684
0.683650 0.636439 0.390631
0.699550 0.649042 0.412940
0.711330 0.659022 0.433967
0.713863 0.660151 0.431556
0.716213 0.660792 0.431220
0.715511 0.658228 0.428687
0.715206 0.655512 0.426184
0.715145 0.652430 0.425147
0.715694 0.650080 0.432380
0.279057 0.528130 0.470710
0.293584 0.575799 0.474891
0.358587 0.629572 0.380255
0.481025 0.622614 0.324987
0.550774 0.611078 0.330205
0.591852 0.606287 0.335363
0.625238 0.608728 0.345617
0.655268 0.622461 0.364355
0.685084 0.642542 0.392981
0.703761 0.659937 0.433997
0.716518 0.671687 0.461585
0.720577 0.676692 0.482734
0.722347 0.677028 0.483162
0.722377 0.676234 0.475380
0.722835 0.675135 0.467323
0.722896 0.672572 0.463294
0.722957 0.670100 0.464942
0.290929 0.547051 0.494820
0.304784 0.590906 0.500572
0.362402 0.642145 0.418769
0.472786 0.640070 0.346960
0.542931 0.624079 0.333471
0.586145 0.614221 0.336706
0.619593 0.612848 0.344976
0.650782 0.624964 0.361669
0.683589 0.646632 0.393408
0.706020 0.666529 0.441871
0.720485 0.681483 0.480934
0.724392 0.687800 0.510277
0.728145 0.692256 0.527276
0.728054 0.691066 0.519036
0.727321 0.688807 0.510979
0.727016 0.686244 0.501488
0.726375 0.682918 0.499825
0.303136 0.567132 0.521050
0.317266 0.605798 0.525689
0.371496 0.651362 0.455085
0.468269 0.651667 0.378363
0.533715 0.635889 0.347936
0.576349 0.622553 0.338018
0.608301 0.614221 0.341894
0.640558 0.625086 0.358434
0.675776 0.643427 0.381567
0.701503 0.665492 0.436652
0.720333 0.683223 0.485237
0.726284 0.693721 0.531273
0.730068 0.699092 0.552636
0.731624 0.701961 0.563989
0.730404 0.699519 0.555932
0.729397 0.696590 0.545769
0.729061 0.694057 0.535607
0.316899 0.587915 0.546380
0.331090 0.623987 0.546105
0.389838 0.659419 0.482185
0.474434 0.658961 0.413550
0.531762 0.646937 0.364630
0.572992 0.633356 0.346807
0.603052 0.624170 0.345129
0.634394 0.628962 0.357366
0.668849 0.643580 0.377508
0.696895 0.663600 0.423743
0.717067 0.682277 0.478767
0.726619 0.695155 0.534874
0.730861 0.703273 0.567681
0.732998 0.707973 0.586419
0.733577 0.709010 0.588495
0.732204 0.706081 0.580560
0.731472 0.703670 0.573602
0.330541 0.609400 0.570581
0.347906 0.641505 0.562890
0.412207 0.666072 0.505547
0.488563 0.664881 0.447425
0.535668 0.656886 0.393622
0.573358 0.646632 0.361547
0.602350 0.637629 0.356268
0.632136 0.639002 0.365576
0.664454 0.647639 0.382635
0.691096 0.663661 0.423957
0.713222 0.680934 0.472724
0.724453 0.694453 0.530724
0.731075 0.705104 0.573907
0.733852 0.712123 0.601495
0.734707 0.714595 0.608850
0.735012 0.715175 0.609247
0.733852 0.712306 0.602655
0.345464 0.629419 0.592248
0.371283 0.655818 0.575250
0.439765 0.671046 0.528130
0.510216 0.670222 0.480598
0.550591 0.665217 0.432380
0.581445 0.660121 0.398505
0.609430 0.653803 0.385962
0.637690 0.655665 0.392615
0.665064 0.659083 0.406561
0.690364 0.671046 0.442237
0.709194 0.682429 0.482765
0.722499 0.695491 0.535119
0.729366 0.705440 0.573999
0.734157 0.714321 0.608454
0.735531 0.718532 0.622583
0.736049 0.720180 0.627375
0.736080 0.720119 0.625788
0.035828 0.060945 0.107851
0.078981 0.082246 0.165743
0.176852 0.108644 0.202548
0.252689 0.132418 0.209079
0.308110 0.148013 0.214786
0.353948 0.160800 0.219760
0.388006 0.169650 0.222568
0.411597 0.176028 0.225132
0.426032 0.178073 0.224521
0.440070 0.180392 0.224735
0.449317 0.181308 0.222934
0.457954 0.181857 0.222232
0.467872 0.182589 0.222507
0.479896 0.183200 0.223209
0.496345 0.189456 0.226993
0.516014 0.197330 0.233524
0.543542 0.210361 0.245121
0.071229 0.131685 0.158938
0.070283 0.111360 0.156771
0.208377 0.150271 0.237491
0.316289 0.162264 0.213260
0.381476 0.170108 0.194705
0.407202 0.175448 0.184360
0.423987 0.178714 0.178531
0.420996 0.180911 0.172763
0.426246 0.182895 0.170748
0.434638 0.183993 0.167788
0.448341 0.185428 0.166567
0.457282 0.188205 0.165713
0.469276 0.192599 0.166049
0.483894 0.200595 0.170230
0.508232 0.214664 0.183505
0.541894 0.232242 0.202945
0.586725 0.255680 0.230930
0.115206 0.202976 0.222690
0.145327 0.235416 0.261357
0.204807 0.204898 0.205997
0.327611 0.214572 0.173831
0.371099 0.221500 0.162387
0.388769 0.221134 0.145235
0.396674 0.219181 0.128786
0.404578 0.215457 0.111757
0.409339 0.213596 0.104067
0.413764 0.211582 0.094575
0.419623 0.212650 0.093599
0.423194 0.212772 0.087953
0.439460 0.220096 0.092683
0.460883 0.230747 0.100771
0.495216 0.255924 0.139193
0.538689 0.285863 0.186801
0.588312 0.316838 0.234195
0.147799 0.261540 0.271458
0.176120 0.307042 0.302373
0.223392 0.279759 0.241032
0.334356 0.302251 0.188388
0.397711 0.304143 0.192844
0.434577 0.305211 0.186709
0.458289 0.304051 0.177005
0.474281 0.301396 0.161501
0.485298 0.298863 0.149722
0.492744 0.295232 0.137209
0.495460 0.295048 0.136507
0.497169 0.293217 0.130282
0.506310 0.299596 0.138643
0.520348 0.309758 0.151705
0.546441 0.330694 0.188449
0.580865 0.354894 0.229587
0.619379 0.379553 0.268223
0.175174 0.312688 0.313756
0.204593 0.364782 0.338689
0.245701 0.362524 0.273594
0.365362 0.386145 0.216739
0.438911 0.391089 0.231632
0.481025 0.391608 0.234226
0.511803 0.391699 0.234134
0.536370 0.389960 0.228916
0.545892 0.386114 0.218936
0.551873 0.382391 0.209049
0.556939 0.380774 0.202243
0.558038 0.378332 0.197299
0.562799 0.380987 0.202213
0.570611 0.388373 0.215183
0.585504 0.400580 0.239750
0.610773 0.417792 0.268345
0.640742 0.437751 0.297978
0.198886 0.357519 0.351537
0.225284 0.410468 0.370886
0.260563 0.427527 0.302831
0.399329 0.457099 0.245853
0.479286 0.460945 0.264103
0.525414 0.466529 0.275944
0.556054 0.467262 0.281712
0.580102 0.467689 0.281590
0.593256 0.466651 0.280919
0.600549 0.463600 0.274510
0.604852 0.460914 0.271031
0.606043 0.457374 0.266667
0.607904 0.455817 0.267216
0.611170 0.457588 0.272618
0.622156 0.465034 0.287388
0.638178 0.474525 0.302495
0.659052 0.488930 0.324132
0.217990 0.395575 0.382147
0.241032 0.445899 0.398077
0.269383 0.479011 0.332860
0.421210 0.512474 0.268772
0.508171 0.515190 0.287755
0.557519 0.520134 0.301885
0.593133 0.528252 0.314519
0.616510 0.530724 0.319738
0.630335 0.530236 0.319982
0.639185 0.529534 0.318395
0.642817 0.527276 0.315618
0.642054 0.525139 0.316747
0.642664 0.521599 0.316228
0.643427 0.518608 0.318517
0.651453 0.520012 0.322301
0.665339 0.525841 0.331151
0.681208 0.534722 0.344549
0.233738 0.426734 0.409369
0.254307 0.476753 0.425818
0.275059 0.519677 0.368475
0.430426 0.554131 0.288426
0.526604 0.555291 0.305608
0.579919 0.560357 0.319249
0.617029 0.568170 0.331609
0.647089 0.579919 0.344060
0.660853 0.579553 0.347143
0.669703 0.579095 0.349950
0.672114 0.577386 0.351904
0.671260 0.574395 0.350256
0.670893 0.570764 0.348272
0.671016 0.566308 0.347112
0.675441 0.564080 0.348241
0.682246 0.565698 0.355779
0.693294 0.572625 0.370489
0.247532 0.454780 0.434089
0.266636 0.500847 0.449622
0.280919 0.547539 0.403418
0.424933 0.585748 0.308476
0.531548 0.583337 0.317205
0.591821 0.587304 0.331060
0.630945 0.595483 0.346593
0.661799 0.607813 0.360479
0.682155 0.619806 0.381750
0.691798 0.619776 0.383398
0.695735 0.619074 0.382025
0.696132 0.616510 0.376745
0.696468 0.612879 0.372869
0.696742 0.608576 0.368231
0.698573 0.605035 0.370916
0.701076 0.604059 0.380133
0.704677 0.606744 0.398199
0.261418 0.480293 0.457374
0.277806 0.522301 0.472511
0.287816 0.569268 0.438117
0.412848 0.611963 0.329961
0.529473 0.605646 0.328527
0.594446 0.607355 0.338048
0.638148 0.614923 0.355077
0.671046 0.629267 0.374975
0.693782 0.643061 0.402045
0.708003 0.653559 0.427466
0.711360 0.652369 0.427649
0.711757 0.650385 0.421637
0.710781 0.645411 0.415045
0.709407 0.640192 0.409216
0.709102 0.635187 0.405035
0.710414 0.632990 0.412665
0.712886 0.634424 0.429114
0.274113 0.501884 0.480232
0.289403 0.541070 0.495552
0.297795 0.586328 0.468147
0.403479 0.630396 0.366003
0.518212 0.624201 0.337713
0.591424 0.618677 0.341070
0.637446 0.625422 0.358770
0.670802 0.638911 0.381537
0.699062 0.658015 0.421698
0.714382 0.670558 0.453651
0.723262 0.679805 0.481941
0.723934 0.678584 0.474739
0.722408 0.674037 0.463447
0.719936 0.667384 0.452522
0.718959 0.661891 0.445716
0.718318 0.658045 0.447913
0.718715 0.657282 0.463050
0.285801 0.522393 0.501488
0.301610 0.562158 0.520623
0.309270 0.600549 0.501640
0.400366 0.642695 0.409674
0.504814 0.636286 0.360693
0.573785 0.629267 0.343847
0.621546 0.623163 0.349950
0.659022 0.637995 0.375433
0.694209 0.657923 0.414954
0.714900 0.677546 0.473152
0.726497 0.689876 0.512383
0.728481 0.694453 0.536553
0.727443 0.690761 0.522301
0.726009 0.685847 0.505394
0.725368 0.681544 0.489967
0.724666 0.678126 0.488380
0.724605 0.677394 0.498604
0.297398 0.542687 0.523857
0.313390 0.581292 0.543725
0.322118 0.615869 0.527916
0.404486 0.652461 0.449897
0.492439 0.650141 0.379583
0.560601 0.636896 0.349187
0.606653 0.627466 0.347967
0.644495 0.632654 0.364904
0.683833 0.653407 0.403525
0.710964 0.676051 0.465705
0.726589 0.693904 0.524834
0.730220 0.701259 0.559045
0.732021 0.704402 0.573877
0.730709 0.700069 0.552789
0.729274 0.695521 0.538231
0.728237 0.692134 0.528862
0.727687 0.690486 0.534905
0.309941 0.565301 0.548760
0.326482 0.601740 0.566888
0.336309 0.631312 0.552422
0.415900 0.660273 0.485328
0.491707 0.658656 0.412085
0.549371 0.647242 0.364996
0.591211 0.632502 0.348760
0.629786 0.634882 0.362219
0.669459 0.645014 0.383902
0.700496 0.669947 0.450996
0.723293 0.690974 0.513268
0.730220 0.704036 0.567926
0.733272 0.709682 0.591455
0.734218 0.711604 0.598566
0.732509 0.707271 0.583490
0.731350 0.704067 0.572839
0.730892 0.702846 0.570550
0.324712 0.588037 0.574243
0.339300 0.620172 0.585443
0.355474 0.646815 0.566491
0.436805 0.664820 0.509392
0.500725 0.666102 0.446479
0.553918 0.658320 0.394598
0.592004 0.647730 0.368811
0.627985 0.646693 0.374548
0.665156 0.653590 0.394171
0.695308 0.668971 0.441077
0.718349 0.688655 0.504540
0.728878 0.702388 0.564965
0.733272 0.712001 0.599786
0.735164 0.716487 0.614649
0.735317 0.716701 0.614710
0.734157 0.713710 0.605524
0.733791 0.712734 0.604913
0.339055 0.611261 0.598871
0.353491 0.636591 0.599970
0.380346 0.659236 0.579553
0.459480 0.672084 0.532158
0.520562 0.672267 0.485084
0.565576 0.669703 0.440070
0.601160 0.661891 0.410071
0.632258 0.662501 0.408637
0.665095 0.665583 0.421698
0.692866 0.677119 0.460365
0.714412 0.689509 0.506645
0.726345 0.702663 0.566125
0.732967 0.712703 0.603265
0.735836 0.719875 0.627008
0.736385 0.721309 0.632868
0.736294 0.720882 0.630457
0.735744 0.719509 0.628443
0.354070 0.631373 0.619196
0.371588 0.649226 0.609064
0.412268 0.669306 0.594018
0.488075 0.678279 0.558434
0.544945 0.679225 0.524407
0.585687 0.678706 0.495979
0.616571 0.676387 0.464698
0.643793 0.678309 0.463630
0.669337 0.680537 0.467567
0.694759 0.688411 0.498329
0.712428 0.696254 0.531487
0.725612 0.706569 0.580804
0.731807 0.714839 0.610681
0.736568 0.722499 0.637568
0.737606 0.725338 0.650080
0.737758 0.725734 0.651667
0.737362 0.724697 0.647181
0.040040 0.080171 0.134249
0.071290 0.100160 0.181796
0.154086 0.117983 0.239780
0.226047 0.136324 0.253666
0.285924 0.152346 0.258335
0.331212 0.164034 0.264134
0.366613 0.173342 0.268467
0.393042 0.180575 0.272068
0.410803 0.184329 0.272526
0.427375 0.188388 0.273716
0.438270 0.189029 0.271794
0.448798 0.189975 0.270787
0.458076 0.190494 0.270268
0.470039 0.190372 0.270451
