LUTs/36.cube
# (C) 2014 VisionColor & Patchflyer [www.vision-color.com]
# Generator: VC Patchmatch v.2.1.1 [64/53]
# All work and no play makes Jack a dull boy.
# LUT generated from: Kodak Vision3 200T 5213 (NEG)_VisionSpace
LUT_3D_SIZE 17
0.035767 0.035767 0.035767
0.054536 0.024231 0.031067
0.070649 0.013794 0.018372
0.092500 0.012055 0.013123
0.110506 0.012451 0.012573
0.123323 0.013123 0.013123
0.135103 0.014282 0.014191
0.151553 0.016022 0.015778
0.165988 0.017395 0.017182
0.181857 0.018952 0.018677
0.192386 0.019837 0.019715
0.203738 0.020996 0.020844
0.215732 0.022370 0.022126
0.228733 0.023682 0.023468
0.238102 0.024384 0.024353
0.254917 0.026093 0.026093
0.272496 0.027863 0.027863
0.057435 0.113649 0.044495
0.086152 0.113497 0.046906
0.127077 0.085664 0.038727
0.157015 0.063081 0.029175
0.183597 0.053132 0.027558
0.210697 0.050904 0.029084
0.236667 0.056611 0.032532
0.260655 0.058961 0.034913
0.278325 0.062043 0.037049
0.294072 0.061189 0.038025
0.308507 0.063508 0.039734
0.321599 0.063050 0.040589
0.329809 0.061830 0.040894
0.334997 0.057618 0.040223
0.329686 0.048463 0.037446
0.329992 0.043244 0.036164
0.328191 0.037324 0.034546
0.083803 0.167758 0.057771
0.099214 0.172122 0.061219
0.126314 0.175723 0.067781
0.207218 0.170382 0.075135
0.266728 0.163607 0.069398
0.309880 0.159365 0.068177
0.345708 0.155825 0.066224
0.367559 0.152621 0.067018
0.383825 0.151369 0.067933
0.392615 0.143496 0.066560
0.406806 0.138369 0.066346
0.423194 0.132967 0.066194
0.430365 0.126741 0.065156
0.435401 0.120546 0.063966
0.434363 0.111055 0.061433
0.429847 0.098909 0.058015
0.424781 0.084382 0.053956
0.116182 0.227054 0.085695
0.134493 0.238102 0.092622
0.144900 0.248783 0.098695
0.192935 0.251957 0.111482
0.283330 0.262242 0.126772
0.348943 0.258915 0.123293
0.403571 0.251225 0.116609
0.453651 0.239414 0.100038
0.470893 0.228031 0.095644
0.480598 0.215427 0.091676
0.476234 0.200290 0.087465
0.477150 0.187350 0.084199
0.489998 0.181552 0.083711
0.497475 0.176333 0.082979
0.502770 0.171572 0.082185
0.499855 0.159304 0.078828
0.498421 0.147860 0.075807
0.165743 0.291142 0.119020
0.181857 0.303777 0.124666
0.185977 0.316136 0.130373
0.198825 0.323186 0.137240
0.259037 0.328161 0.153048
0.349004 0.342473 0.170779
0.419257 0.340154 0.171511
0.476600 0.326848 0.163088
0.515587 0.306401 0.140902
0.541588 0.288060 0.124910
0.541863 0.263584 0.113405
0.542931 0.246128 0.104616
0.539513 0.234226 0.101076
0.549004 0.229618 0.100526
0.555840 0.225772 0.100069
0.558190 0.216037 0.097780
0.558160 0.204685 0.094881
0.224979 0.356390 0.152468
0.234379 0.365057 0.154726
0.233127 0.375921 0.158938
0.235325 0.384100 0.164096
0.264286 0.391791 0.174472
0.324346 0.399023 0.190829
0.414252 0.411841 0.208682
0.486122 0.409705 0.213748
0.530297 0.390814 0.204166
0.565362 0.371939 0.186496
0.585016 0.340047 0.159609
0.598108 0.317357 0.140444
0.608576 0.299626 0.125063
0.614404 0.290898 0.122042
0.615503 0.284947 0.122194
0.613184 0.271855 0.118929
0.609522 0.259464 0.116548
0.286503 0.422705 0.185916
0.290410 0.426520 0.186404
0.283665 0.434424 0.187961
0.278080 0.440925 0.190341
0.293767 0.447944 0.197604
0.334722 0.455238 0.210239
0.396002 0.463508 0.227420
0.481514 0.471687 0.244724
0.539574 0.466102 0.249699
0.581018 0.449485 0.243473
0.603235 0.421927 0.223102
0.619135 0.394278 0.203159
0.632868 0.373709 0.182681
0.640833 0.357916 0.170016
0.647211 0.347265 0.163027
0.650172 0.331579 0.153323
0.653681 0.315496 0.143526
0.346716 0.488960 0.218204
0.346410 0.488380 0.218448
0.339025 0.495857 0.219364
0.324926 0.498878 0.217563
0.330083 0.501915 0.221164
0.356634 0.506493 0.230564
0.408331 0.515129 0.246311
0.477470 0.524620 0.267460
0.541817 0.526543 0.280644
0.595239 0.520714 0.287572
0.619318 0.498558 0.278813
0.636561 0.475151 0.266087
0.648066 0.449119 0.247990
0.657557 0.430167 0.231418
0.663264 0.412238 0.219303
0.668025 0.392187 0.203922
0.671717 0.373419 0.192233
0.404028 0.546288 0.247135
0.401190 0.543603 0.246677
0.391363 0.547631 0.247044
0.374670 0.548791 0.244175
0.371557 0.549096 0.244968
0.387335 0.550225 0.251652
0.421485 0.555413 0.263066
0.477760 0.562097 0.280858
0.544259 0.571588 0.304173
0.602594 0.570214 0.316838
0.634272 0.560555 0.320073
0.654444 0.544411 0.315801
0.667872 0.523293 0.303380
0.675898 0.500893 0.289647
0.680140 0.480186 0.277012
0.681971 0.455314 0.261143
0.682582 0.431632 0.246342
0.461067 0.599145 0.275151
0.458503 0.595422 0.275242
0.448127 0.596521 0.275090
0.428107 0.595697 0.270970
0.415961 0.592706 0.268742
0.425879 0.591211 0.274235
0.453193 0.594049 0.284337
0.490272 0.598230 0.297337
0.548470 0.606531 0.318669
0.610285 0.612726 0.339452
0.644587 0.606989 0.346868
0.669734 0.598383 0.349767
0.685389 0.583459 0.346319
0.694270 0.564324 0.337835
0.699580 0.545800 0.329076
0.701106 0.519493 0.312688
0.701503 0.495186 0.298009
0.520775 0.641840 0.303349
0.516442 0.637263 0.301823
0.502525 0.634455 0.299260
0.478859 0.630884 0.294255
0.461250 0.627039 0.291112
0.465827 0.625177 0.296147
0.490883 0.627161 0.306676
0.523186 0.630365 0.319341
0.562066 0.635035 0.334691
0.612055 0.639887 0.351781
0.654200 0.642603 0.364477
0.681300 0.637049 0.369909
0.701442 0.629175 0.372320
0.712581 0.617334 0.372808
0.719081 0.600946 0.366522
0.721645 0.579278 0.356603
0.721675 0.552850 0.341344
0.576165 0.678309 0.332311
0.571588 0.673518 0.328923
0.558343 0.668421 0.324498
0.532891 0.662989 0.318456
0.512383 0.657923 0.314916
0.510582 0.654719 0.318120
0.526909 0.654658 0.326726
0.555016 0.656977 0.338994
0.587976 0.660975 0.352575
0.622370 0.665980 0.363714
0.660822 0.669581 0.374517
0.692653 0.669276 0.382391
0.714321 0.662776 0.385168
0.729152 0.653742 0.386389
0.738582 0.642237 0.385168
0.742397 0.623468 0.378576
0.744533 0.602747 0.370886
0.625727 0.708492 0.361242
0.620722 0.704738 0.356909
0.608759 0.699092 0.350866
0.586847 0.692561 0.343359
0.563195 0.685939 0.337743
0.554131 0.681208 0.338872
0.566888 0.680476 0.346929
0.585657 0.681178 0.356451
0.614679 0.684718 0.368902
0.642115 0.688899 0.377569
0.672175 0.694453 0.384100
0.699184 0.694881 0.390326
0.725673 0.693202 0.396399
0.742458 0.685847 0.398962
0.754269 0.677028 0.399664
0.760769 0.662867 0.396796
0.763546 0.645930 0.393469
0.663722 0.729610 0.388128
0.657710 0.726894 0.382055
0.648005 0.721462 0.374609
0.630365 0.715511 0.366339
0.609003 0.709346 0.360296
0.593774 0.704036 0.358038
0.597955 0.701991 0.363439
0.612116 0.702174 0.371313
0.631647 0.703883 0.378882
0.655940 0.707851 0.385748
0.682399 0.713008 0.391180
0.705684 0.716487 0.398535
0.730037 0.716701 0.405371
0.752285 0.714778 0.412360
0.765438 0.707607 0.413947
0.774868 0.696620 0.412757
0.779873 0.683192 0.409857
0.695705 0.747707 0.406836
0.687221 0.744808 0.401190
0.675166 0.738796 0.394171
0.661952 0.733425 0.386023
0.643397 0.727626 0.379400
0.627924 0.722499 0.376043
0.625391 0.719539 0.377722
0.632563 0.718685 0.382422
0.648493 0.719844 0.388678
0.667475 0.723476 0.392645
0.691524 0.728420 0.397894
0.714137 0.733242 0.405890
0.736263 0.736355 0.415076
0.757229 0.736019 0.423407
0.770504 0.731167 0.427710
0.780148 0.721157 0.427222
0.785611 0.709651 0.425025
0.721035 0.762112 0.420020
0.711604 0.758450 0.415686
0.697597 0.751888 0.409094
0.686671 0.747463 0.402564
0.672572 0.742824 0.396918
0.657771 0.738338 0.391608
0.651148 0.735042 0.391272
0.650355 0.733425 0.392370
0.658869 0.733577 0.395697
0.674434 0.736812 0.398077
0.693294 0.740566 0.402075
0.714321 0.745388 0.409461
0.734096 0.749111 0.418830
0.753658 0.751339 0.428412
0.765530 0.748104 0.433936
0.778775 0.742061 0.437659
0.786160 0.732082 0.436133
0.741878 0.774014 0.428168
0.732906 0.769680 0.425361
0.716182 0.762509 0.418036
0.706905 0.759274 0.413977
0.695949 0.756191 0.410163
0.684382 0.753048 0.406256
0.674098 0.749935 0.402808
0.670619 0.748165 0.402533
0.669825 0.747066 0.402472
0.682124 0.749599 0.403693
0.695613 0.752285 0.406531
0.714473 0.756588 0.412512
0.731868 0.759670 0.421546
0.749874 0.762631 0.431159
0.762020 0.761807 0.438941
0.772946 0.757321 0.442847
0.781674 0.749081 0.442847
0.015808 0.013977 0.050782
0.077058 0.019226 0.087922
0.110903 0.014893 0.089540
0.128389 0.015625 0.085176
0.134615 0.015839 0.073152
0.137942 0.015686 0.058747
0.142245 0.015869 0.049866
0.156130 0.016968 0.042420
0.168154 0.017914 0.036652
0.180850 0.018860 0.029114
0.192782 0.020020 0.029847
0.201663 0.020722 0.024720
0.211978 0.021790 0.025086
0.220310 0.022553 0.023194
0.226383 0.023163 0.023590
0.239536 0.024506 0.024537
0.254551 0.026032 0.026032
0.050416 0.130343 0.124575
0.099519 0.104005 0.118441
0.173373 0.072358 0.101778
0.194461 0.056519 0.082582
0.220035 0.049073 0.067384
0.245914 0.047028 0.053193
0.268101 0.048981 0.048798
0.297642 0.045350 0.037598
0.307683 0.045624 0.036835
0.320592 0.046082 0.036286
0.332799 0.047211 0.037629
0.333135 0.046265 0.037201
0.334722 0.044953 0.036957
0.323735 0.040406 0.034974
0.312200 0.035706 0.032898
0.305303 0.032746 0.031586
0.302434 0.031403 0.031037
0.076295 0.193881 0.113741
0.103670 0.185214 0.092470
0.164157 0.192935 0.097536
0.244724 0.178866 0.105287
0.298375 0.170321 0.100252
0.342199 0.162295 0.092378
0.381201 0.156344 0.087831
0.425391 0.151949 0.077424
0.449256 0.149660 0.075746
0.467475 0.145510 0.074403
0.470924 0.140810 0.075196
0.476875 0.135683 0.070985
0.475868 0.130770 0.069642
0.469368 0.125643 0.067842
0.459541 0.118288 0.065217
0.444068 0.105074 0.060670
0.423316 0.086763 0.054444
0.110719 0.254917 0.116152
0.147860 0.249180 0.111147
0.185794 0.260716 0.120394
0.233707 0.271397 0.129854
0.317479 0.267857 0.138766
0.377172 0.258427 0.136049
0.428138 0.247807 0.129732
0.472450 0.235935 0.120424
0.505302 0.225986 0.109529
0.530114 0.214420 0.099641
0.529747 0.206973 0.102480
0.541375 0.195499 0.091279
0.539574 0.188876 0.089418
0.537072 0.184085 0.087984
0.529992 0.180301 0.086488
0.521202 0.172366 0.083803
0.510430 0.160159 0.079866
0.154879 0.319463 0.131777
0.194400 0.314183 0.140963
0.226688 0.328344 0.147616
0.251896 0.340246 0.152193
0.304814 0.351232 0.165042
0.388403 0.351110 0.175753
0.452552 0.342931 0.175509
0.503685 0.328527 0.170077
0.537652 0.309453 0.154330
0.563104 0.290349 0.140658
0.574639 0.272282 0.129427
0.584070 0.255283 0.115053
0.580743 0.241062 0.108614
0.582238 0.235416 0.104799
0.578515 0.230991 0.103151
0.572839 0.226474 0.101534
0.566522 0.218357 0.099001
0.214389 0.383764 0.161288
0.240787 0.378912 0.170809
0.272648 0.392370 0.177035
0.290715 0.405463 0.179721
0.321813 0.414893 0.187442
0.377478 0.424048 0.202762
0.457923 0.425696 0.214389
0.520836 0.416632 0.216098
0.559167 0.396399 0.206516
0.586114 0.374197 0.191959
0.603845 0.345815 0.170871
0.615473 0.322942 0.150973
0.623529 0.302129 0.134127
0.625696 0.290074 0.125154
0.622065 0.283360 0.121553
0.620691 0.277195 0.118288
0.613733 0.270329 0.116091
0.273442 0.448035 0.192599
0.291234 0.442969 0.201450
0.321874 0.453407 0.208347
0.336095 0.466865 0.209232
0.354559 0.474311 0.212558
0.390051 0.478737 0.222416
0.449134 0.488014 0.239872
0.522850 0.485328 0.248722
0.574639 0.476753 0.250462
0.604944 0.454856 0.240513
0.624811 0.427543 0.220996
0.635615 0.397971 0.199954
0.643427 0.373831 0.179721
0.647211 0.353918 0.162692
0.655451 0.341131 0.148623
0.660883 0.331914 0.140169
0.664363 0.322728 0.133669
0.332494 0.511772 0.224094
0.340337 0.507286 0.231174
0.370459 0.513420 0.240269
0.384985 0.526421 0.240574
0.394324 0.530480 0.238621
0.412360 0.529442 0.242649
0.455817 0.533928 0.255070
0.516686 0.541833 0.273320
0.575372 0.539666 0.281529
0.619226 0.529824 0.284123
0.640894 0.504402 0.272282
0.653742 0.478294 0.255589
0.661830 0.449088 0.234989
0.669245 0.427329 0.214420
0.673671 0.407767 0.198611
0.677577 0.392096 0.186892
0.679713 0.378851 0.178225
0.387732 0.565026 0.252598
0.392920 0.561242 0.258762
0.418250 0.563714 0.267399
0.432319 0.573663 0.267857
0.436835 0.576806 0.264012
0.444648 0.572473 0.263615
0.462837 0.569085 0.268132
0.508202 0.572442 0.281651
0.571679 0.581720 0.304936
0.621271 0.578180 0.312444
0.654444 0.569070 0.314214
0.671077 0.551919 0.305241
0.681971 0.529122 0.290181
0.687190 0.504585 0.273381
0.689784 0.481498 0.256291
0.691310 0.460044 0.242344
0.691127 0.438987 0.230045
0.441688 0.610834 0.280064
0.443610 0.607752 0.284764
0.461799 0.606989 0.291966
0.474922 0.613062 0.293156
0.475746 0.615442 0.287907
0.481575 0.611231 0.286595
0.494789 0.607233 0.289189
0.512535 0.602686 0.294560
0.564065 0.608942 0.313756
0.620233 0.616541 0.334905
0.658869 0.613733 0.342718
0.684047 0.607843 0.345006
0.698421 0.593469 0.338811
0.705379 0.573297 0.326116
0.709560 0.554376 0.314611
0.710933 0.532006 0.300847
0.710506 0.510079 0.288914
0.493904 0.647242 0.307286
0.496834 0.645594 0.310369
0.509056 0.642603 0.314855
0.517815 0.644282 0.314336
0.513817 0.644923 0.308782
0.516533 0.643122 0.307805
0.530541 0.640558 0.310735
0.547387 0.637446 0.317296
0.573327 0.637140 0.328191
0.615717 0.641169 0.344976
0.662776 0.646906 0.363592
0.690730 0.645685 0.370275
0.711269 0.641169 0.373449
0.721645 0.630457 0.369268
0.727230 0.614252 0.360449
0.730556 0.596033 0.351293
0.730312 0.575006 0.341192
0.546044 0.678004 0.335454
0.550195 0.676600 0.335515
0.555322 0.672175 0.337316
0.559136 0.671504 0.334997
0.551812 0.671046 0.328588
0.550378 0.669032 0.326299
0.561913 0.668666 0.329931
0.578241 0.666499 0.337469
0.601434 0.666865 0.348516
0.626764 0.668360 0.360143
0.667140 0.673274 0.376135
0.698116 0.676112 0.386664
0.720668 0.673945 0.392889
0.734859 0.668666 0.394141
0.743069 0.658259 0.391821
0.747768 0.643030 0.385931
0.749783 0.626398 0.380529
0.596033 0.706203 0.364782
0.601129 0.704707 0.361883
0.602564 0.700252 0.361089
0.602686 0.697902 0.357275
0.593103 0.695918 0.350011
0.587701 0.694057 0.346746
0.596979 0.694026 0.349126
0.611322 0.693843 0.358434
0.632258 0.694575 0.368841
0.654444 0.696742 0.379370
0.679744 0.699886 0.388830
0.705776 0.702602 0.396979
0.729549 0.701869 0.401160
0.745480 0.698146 0.404150
0.756161 0.690394 0.405158
0.763638 0.679225 0.404028
0.766812 0.664118 0.400366
0.639033 0.728817 0.387121
0.644373 0.727169 0.384955
0.643000 0.723445 0.382422
0.641993 0.721035 0.379187
0.633570 0.719020 0.371984
0.625940 0.716915 0.367285
0.627680 0.716396 0.366705
0.639429 0.716243 0.375250
0.655818 0.717433 0.384863
0.676051 0.719692 0.394263
0.697444 0.722774 0.401129
0.716548 0.725277 0.404913
0.736446 0.725338 0.409003
0.753414 0.722988 0.412146
0.765957 0.717189 0.414252
0.775540 0.708034 0.414649
0.782162 0.696010 0.412757
0.675532 0.748379 0.404211
0.678126 0.746120 0.402960
0.674464 0.742916 0.400183
0.672236 0.740444 0.397375
0.666010 0.738369 0.392432
0.658534 0.736477 0.387121
0.655818 0.735348 0.383978
0.662440 0.734768 0.389258
0.675776 0.735470 0.397406
0.692073 0.737423 0.404334
0.711391 0.740322 0.410040
0.728969 0.743130 0.412085
0.744717 0.743801 0.416876
0.760067 0.742092 0.420691
0.770443 0.736446 0.423529
0.781186 0.728878 0.425299
0.789425 0.719081 0.425238
0.709346 0.765164 0.417456
0.707118 0.762264 0.416571
0.700954 0.758755 0.414038
0.696040 0.755520 0.411139
0.691768 0.754086 0.407965
0.685969 0.752407 0.404456
0.681239 0.751003 0.400610
0.682521 0.750240 0.400977
0.691157 0.750271 0.406592
0.705440 0.751980 0.412604
0.721584 0.754360 0.417243
0.738491 0.757290 0.418769
0.753445 0.758968 0.423346
0.766049 0.758144 0.428260
0.775113 0.753719 0.432929
0.782803 0.747005 0.434791
0.792386 0.738094 0.435767
0.738186 0.779385 0.428260
0.731533 0.776211 0.425879
0.723293 0.771695 0.423346
0.714961 0.767361 0.419654
0.710903 0.765927 0.417273
0.707027 0.764889 0.415747
0.701411 0.763272 0.413672
0.701473 0.762539 0.413550
0.703639 0.762142 0.413947
0.715938 0.763607 0.419043
0.729427 0.765560 0.422614
0.745388 0.768582 0.424109
0.759518 0.770199 0.428168
0.772610 0.770718 0.433570
0.780514 0.767788 0.440497
0.786374 0.761959 0.444068
0.791562 0.754238 0.445045
0.010254 0.005127 0.066316
0.059785 0.010925 0.107759
0.095064 0.013672 0.116274
0.117647 0.015808 0.123842
0.130343 0.017090 0.126040
0.138277 0.017731 0.121492
0.148836 0.018555 0.115023
0.164645 0.020081 0.112825
0.180667 0.021424 0.106142
0.195438 0.022705 0.100801
0.205844 0.023255 0.087343
0.216159 0.023896 0.076661
0.222202 0.024018 0.062135
0.228977 0.024201 0.047700
0.227451 0.023682 0.036194
0.235996 0.024292 0.028504
0.246464 0.025238 0.025757
0.031739 0.081147 0.134890
0.076844 0.047700 0.144839
0.144228 0.037354 0.146365
0.183474 0.032959 0.150698
0.211490 0.029816 0.151003
0.237217 0.030579 0.144320
0.258000 0.031403 0.134981
0.281834 0.032044 0.125399
0.293645 0.032807 0.112978
0.311650 0.034485 0.100710
0.323613 0.035554 0.086610
0.329076 0.034791 0.068025
0.330297 0.034577 0.057527
0.321172 0.033143 0.042573
0.314763 0.032319 0.036439
0.311040 0.031830 0.032898
0.309026 0.031678 0.031739
0.072511 0.211246 0.204593
0.102388 0.193240 0.199222
0.176455 0.159731 0.198093
0.281163 0.143832 0.180484
0.328893 0.136416 0.165408
0.357183 0.133669 0.155550
0.382666 0.132082 0.147127
0.413245 0.128084 0.138064
0.436011 0.122225 0.127779
0.457496 0.114229 0.115053
0.477974 0.105165 0.101167
0.491249 0.092653 0.080476
0.484047 0.084718 0.072114
0.484382 0.071229 0.055299
0.453162 0.061585 0.050263
0.424048 0.053986 0.046052
0.396857 0.048737 0.042664
0.105898 0.283482 0.213107
0.126284 0.267399 0.192966
0.185641 0.252781 0.173770
0.258457 0.265141 0.159396
0.347234 0.251225 0.167514
0.400153 0.244175 0.172457
0.442451 0.236942 0.174960
0.483131 0.228275 0.171542
0.508354 0.218906 0.164920
0.528984 0.206394 0.155306
0.550256 0.195804 0.140780
0.557824 0.180301 0.124178
0.562310 0.170596 0.111757
0.567285 0.157534 0.093202
0.564569 0.151736 0.083711
0.547448 0.144381 0.078614
0.527611 0.138949 0.075685
0.141665 0.341436 0.207065
0.147585 0.333959 0.175357
0.216617 0.328618 0.167941
0.270604 0.341466 0.174899
0.333410 0.350530 0.192508
0.410040 0.341222 0.201022
0.466102 0.331640 0.205936
0.515496 0.319677 0.205814
0.542107 0.305089 0.200626
0.563684 0.288853 0.192538
0.580560 0.272007 0.177584
0.588067 0.252842 0.161898
0.598047 0.236942 0.144533
0.603143 0.224552 0.128206
0.614466 0.216312 0.109621
0.610010 0.213382 0.104189
0.599451 0.209751 0.099580
0.170840 0.404364 0.191959
0.192203 0.397528 0.187533
0.256870 0.394873 0.189334
0.306584 0.405798 0.202579
0.349859 0.417975 0.214084
0.405737 0.426123 0.226047
0.475776 0.417914 0.234867
0.532311 0.407874 0.238743
0.566552 0.392279 0.237003
0.590051 0.373739 0.229953
0.605982 0.350301 0.217105
0.613367 0.326101 0.200870
0.622034 0.304051 0.180179
0.627283 0.286748 0.161959
0.636988 0.275822 0.142428
0.643763 0.269139 0.128298
0.640528 0.268254 0.123476
0.218021 0.463691 0.200137
0.232883 0.460609 0.198520
0.296727 0.458259 0.214511
0.346990 0.464759 0.232639
0.380438 0.477791 0.240635
0.423865 0.486549 0.248783
0.475959 0.492134 0.259098
0.540948 0.484016 0.266667
0.583947 0.472602 0.269566
0.611780 0.454520 0.265507
0.629206 0.431662 0.254093
0.637476 0.403372 0.239139
0.644831 0.377371 0.218021
0.647242 0.352575 0.199588
0.652735 0.334386 0.177005
0.660060 0.323430 0.159182
0.667750 0.316564 0.143069
0.287144 0.518639 0.234348
0.293004 0.518120 0.235386
0.339361 0.518853 0.246220
0.387243 0.522026 0.260105
0.413520 0.533104 0.264836
0.449287 0.541802 0.271763
0.493172 0.546899 0.280613
0.543359 0.549798 0.290806
0.591516 0.540917 0.296910
0.629053 0.528664 0.299260
0.649409 0.506264 0.291752
0.659968 0.482048 0.280125
0.665980 0.452628 0.261601
0.669367 0.425895 0.240726
0.671077 0.400229 0.218082
0.673976 0.379797 0.196780
0.679164 0.367651 0.178866
0.343236 0.569085 0.263554
0.345342 0.567987 0.263371
0.380987 0.569696 0.271611
0.424689 0.570092 0.283452
0.449928 0.577844 0.287938
0.479011 0.583459 0.293370
0.512657 0.588281 0.300420
0.553796 0.589929 0.308080
0.595361 0.590875 0.318273
0.636408 0.583154 0.323674
0.666224 0.573129 0.325414
0.680201 0.556252 0.318853
0.688472 0.532326 0.304662
0.691432 0.503517 0.286137
0.691981 0.473472 0.261799
0.692531 0.446952 0.239292
0.691798 0.420096 0.215702
0.392355 0.612940 0.287663
0.396948 0.612390 0.289006
0.423468 0.613275 0.295689
0.461036 0.611902 0.304753
0.485328 0.616236 0.309514
0.510491 0.620233 0.314000
0.539788 0.623896 0.320531
0.565362 0.623987 0.324071
0.603113 0.625574 0.333379
0.640528 0.626337 0.343145
0.675227 0.620966 0.348882
0.696254 0.612909 0.350469
0.707881 0.597894 0.343664
0.712856 0.574456 0.329137
0.715175 0.551965 0.312474
0.713985 0.523232 0.291630
0.711574 0.494011 0.269383
0.441566 0.648676 0.309545
0.449897 0.648859 0.311711
0.470008 0.649256 0.317235
0.500755 0.646601 0.325292
0.521843 0.648035 0.329290
0.539757 0.650080 0.332006
0.567864 0.653773 0.339452
0.588220 0.653895 0.342351
0.612299 0.654627 0.348180
0.640864 0.654200 0.355566
0.679408 0.657038 0.369299
0.703670 0.653559 0.374212
0.722622 0.648737 0.376074
0.731502 0.636133 0.368841
0.734951 0.616236 0.354955
0.735714 0.594476 0.340826
0.732631 0.566278 0.321050
0.496712 0.677516 0.332433
0.506035 0.677607 0.335546
0.519158 0.676844 0.339117
0.539879 0.674189 0.343175
0.555566 0.673976 0.346258
0.569055 0.674739 0.348119
0.587610 0.677150 0.353613
0.606592 0.677882 0.356756
0.628565 0.679255 0.362371
0.650904 0.680995 0.369329
0.686061 0.684413 0.382177
0.711971 0.686915 0.390112
0.733028 0.685298 0.395422
0.746242 0.679316 0.395209
0.751583 0.667262 0.391699
0.753475 0.649866 0.382818
0.752377 0.629206 0.371160
0.551873 0.704829 0.356237
0.561059 0.704402 0.358312
0.570336 0.703059 0.360174
0.582940 0.700313 0.361730
0.591760 0.698787 0.363531
0.599176 0.698299 0.364843
0.613306 0.700008 0.369085
0.627832 0.701564 0.372320
0.648951 0.703670 0.378454
0.669917 0.706203 0.385809
0.692622 0.708919 0.394598
0.716457 0.711635 0.402258
0.740047 0.713619 0.409308
0.755459 0.710567 0.411414
0.764279 0.701839 0.409766
0.768582 0.689021 0.406500
0.768795 0.672267 0.398749
0.605188 0.726314 0.376165
0.612879 0.726009 0.379034
0.618250 0.725307 0.380499
0.624659 0.723445 0.379950
0.630152 0.721981 0.381842
0.633661 0.721126 0.382666
0.638788 0.721096 0.384070
0.650477 0.722591 0.386481
0.665949 0.724666 0.391150
0.686366 0.727626 0.398260
0.706538 0.730556 0.405859
0.726162 0.733761 0.413031
0.744686 0.735439 0.417517
0.762020 0.735775 0.420844
0.772885 0.729213 0.421332
0.780026 0.718959 0.419867
0.783200 0.706203 0.416754
0.647456 0.746273 0.391974
0.654108 0.745541 0.394629
0.656977 0.744900 0.396246
0.659175 0.743557 0.395941
0.662806 0.742580 0.397284
0.665156 0.741543 0.398657
0.666010 0.740932 0.398901
0.672328 0.741451 0.400183
0.684535 0.743130 0.403204
0.700710 0.745418 0.408698
0.719265 0.748043 0.414801
0.736599 0.750484 0.420111
0.751400 0.751308 0.422705
0.766384 0.751186 0.424842
0.776944 0.746609 0.426032
0.786252 0.738338 0.426062
0.791897 0.727840 0.424689
0.685969 0.764065 0.406500
0.689296 0.762661 0.407355
0.689754 0.761715 0.408331
0.689876 0.760159 0.408270
0.691646 0.759182 0.409491
0.692744 0.758480 0.410773
0.691646 0.757656 0.410773
0.693782 0.757687 0.410651
0.701320 0.758541 0.412543
0.714809 0.760311 0.417151
0.730251 0.762325 0.421942
0.746456 0.764462 0.426581
0.760342 0.765133 0.428138
0.772580 0.764279 0.429114
0.782010 0.760006 0.430915
0.789792 0.754238 0.432197
0.797208 0.745144 0.432044
0.719600 0.779019 0.420081
0.718624 0.777249 0.418891
0.716274 0.775967 0.418341
0.714992 0.773983 0.418494
0.715755 0.772885 0.419043
0.715785 0.772152 0.419654
0.713710 0.771359 0.420569
0.714565 0.771267 0.419684
0.717006 0.771389 0.420325
0.727932 0.772702 0.424109
0.740414 0.774166 0.428016
0.754910 0.775876 0.432044
0.768338 0.776425 0.433356
0.780575 0.775631 0.433783
0.788785 0.771725 0.436316
0.794827 0.765774 0.437751
0.800137 0.759060 0.438849
0.006104 0.003937 0.072786
0.046418 0.008789 0.117281
0.080873 0.012451 0.128237
0.100801 0.014343 0.130098
0.116640 0.016083 0.136416
0.128573 0.017365 0.139467
0.141390 0.018677 0.140932
0.156191 0.020203 0.143465
0.172152 0.021759 0.142214
0.186252 0.023133 0.141238
0.200046 0.024353 0.136538
0.211551 0.025299 0.130892
0.224247 0.026184 0.120882
