LUTs/36.cube
# (C) 2014 VisionColor & Patchflyer [www.vision-color.com]
# Generator: VC Patchmatch v.2.1.1 [64/53]
# All work and no play makes Jack a dull boy.
# LUT generated from: Kodak Vision3 200T 5213 (NEG)_VisionSpace
LUT_3D_SIZE 5
0.035767 0.035767 0.035767
0.110506 0.012451 0.012573
0.165988 0.017395 0.017182
0.215732 0.022370 0.022126
0.272496 0.027863 0.027863
0.165743 0.291142 0.119020
0.259037 0.328161 0.153048
0.515587 0.306401 0.140902
0.539513 0.234226 0.101076
0.558160 0.204685 0.094881
0.404028 0.546288 0.247135
0.371557 0.549096 0.244968
0.544259 0.571588 0.304173
0.667872 0.523293 0.303380
0.682582 0.431632 0.246342
0.625727 0.708492 0.361242
0.563195 0.685939 0.337743
0.614679 0.684718 0.368902
0.725673 0.693202 0.396399
0.763546 0.645930 0.393469
0.741878 0.774014 0.428168
0.695949 0.756191 0.410163
0.669825 0.747066 0.402472
0.731868 0.759670 0.421546
0.781674 0.749081 0.442847
0.004547 0.003754 0.083467
0.103365 0.014862 0.138521
0.161074 0.021149 0.156619
0.209964 0.025818 0.150881
0.258671 0.027893 0.069978
0.150576 0.383398 0.371038
0.333989 0.312169 0.341222
0.591424 0.270542 0.291844
0.591760 0.205020 0.230167
0.591699 0.136995 0.112184
0.268742 0.594873 0.360174
0.402625 0.576379 0.323247
0.602472 0.597162 0.346563
0.709712 0.541085 0.350439
0.688655 0.409232 0.278935
0.422522 0.713954 0.345556
0.536004 0.709255 0.373236
0.652094 0.716335 0.398138
0.744320 0.720150 0.413611
0.777249 0.671290 0.403296
0.673091 0.773648 0.427527
0.688991 0.775326 0.425391
0.713283 0.777005 0.426184
0.769192 0.782589 0.436072
0.807340 0.767880 0.439796
0.005890 0.005219 0.134615
0.090028 0.015351 0.191501
0.120638 0.018219 0.187655
0.162722 0.022705 0.197635
0.243229 0.029664 0.167208
0.136934 0.350500 0.528801
0.241794 0.300633 0.550378
0.427741 0.244083 0.480201
0.508141 0.200137 0.406729
0.560876 0.108492 0.264881
0.339788 0.636469 0.632349
0.383154 0.611566 0.612879
0.576501 0.573541 0.579736
0.681178 0.529976 0.534646
0.745022 0.396109 0.397910
0.386572 0.723293 0.609567
0.444892 0.708034 0.545388
0.610895 0.700618 0.562310
0.727504 0.716091 0.555077
0.786252 0.683925 0.504997
0.580133 0.759182 0.518853
0.597314 0.761288 0.512993
0.665827 0.769894 0.531884
0.739467 0.774441 0.538018
0.807919 0.768490 0.513664
0.006897 0.006897 0.183230
0.089296 0.017517 0.258396
0.127413 0.021546 0.266056
0.121096 0.020142 0.242679
0.209445 0.029358 0.257786
0.106691 0.323583 0.558953
0.199557 0.292943 0.584314
0.336599 0.239811 0.605524
0.392767 0.171420 0.520012
0.510918 0.128969 0.467506
0.315190 0.606409 0.681208
0.358221 0.591424 0.692866
0.499779 0.566125 0.683864
0.603998 0.515450 0.655116
0.687160 0.439292 0.620752
0.411658 0.732448 0.738460
0.463325 0.724178 0.725307
0.597406 0.714717 0.713710
0.707301 0.706142 0.706691
0.742000 0.685969 0.684352
0.498604 0.768490 0.706874
0.530571 0.763882 0.686824
0.608392 0.760159 0.678553
0.705562 0.761410 0.681941
0.784268 0.772610 0.681300
0.008453 0.008637 0.225528
0.064698 0.016938 0.314275
0.139162 0.025788 0.359289
0.150790 0.026642 0.351293
0.174807 0.028077 0.321386
0.104646 0.330938 0.568627
0.136782 0.271397 0.603449
0.257053 0.264073 0.666957
0.356939 0.219821 0.596826
0.431067 0.154238 0.551476
0.300481 0.615076 0.709010
0.345129 0.571954 0.702388
0.478416 0.575708 0.729244
0.570336 0.540200 0.701015
0.624964 0.492912 0.697841
0.420844 0.724178 0.766690
0.502617 0.719234 0.765927
0.610254 0.709407 0.753353
0.697719 0.708064 0.738521
0.720546 0.700465 0.731991
0.495552 0.776699 0.779171
0.555901 0.771786 0.775113
0.650416 0.769131 0.771756
0.717922 0.766812 0.766629
0.776516 0.774075 0.774502
