LUTs/36.cube
# (C) 2014 VisionColor & Patchflyer [www.vision-color.com]
# Generator: VC Patchmatch v.2.1.1 [64/53]
# All work and no play makes Jack a dull boy.
# LUT generated from: Kodak Vision3 200T 5213 (NEG)_VisionSpace
LUT_3D_SIZE 9
0.035767 0.035767 0.035767
0.070649 0.013794 0.018372
0.110506 0.012451 0.012573
0.135103 0.014282 0.014191
0.165988 0.017395 0.017182
0.192386 0.019837 0.019715
0.215732 0.022370 0.022126
0.238102 0.024384 0.024353
0.272496 0.027863 0.027863
0.083803 0.167758 0.057771
0.126314 0.175723 0.067781
0.266728 0.163607 0.069398
0.345708 0.155825 0.066224
0.383825 0.151369 0.067933
0.406806 0.138369 0.066346
0.430365 0.126741 0.065156
0.434363 0.111055 0.061433
0.424781 0.084382 0.053956
0.165743 0.291142 0.119020
0.185977 0.316136 0.130373
0.259037 0.328161 0.153048
0.419257 0.340154 0.171511
0.515587 0.306401 0.140902
0.541863 0.263584 0.113405
0.539513 0.234226 0.101076
0.555840 0.225772 0.100069
0.558160 0.204685 0.094881
0.286503 0.422705 0.185916
0.283665 0.434424 0.187961
0.293767 0.447944 0.197604
0.396002 0.463508 0.227420
0.539574 0.466102 0.249699
0.603235 0.421927 0.223102
0.632868 0.373709 0.182681
0.647211 0.347265 0.163027
0.653681 0.315496 0.143526
0.404028 0.546288 0.247135
0.391363 0.547631 0.247044
0.371557 0.549096 0.244968
0.421485 0.555413 0.263066
0.544259 0.571588 0.304173
0.634272 0.560555 0.320073
0.667872 0.523293 0.303380
0.680140 0.480186 0.277012
0.682582 0.431632 0.246342
0.520775 0.641840 0.303349
0.502525 0.634455 0.299260
0.461250 0.627039 0.291112
0.490883 0.627161 0.306676
0.562066 0.635035 0.334691
0.654200 0.642603 0.364477
0.701442 0.629175 0.372320
0.719081 0.600946 0.366522
0.721675 0.552850 0.341344
0.625727 0.708492 0.361242
0.608759 0.699092 0.350866
0.563195 0.685939 0.337743
0.566888 0.680476 0.346929
0.614679 0.684718 0.368902
0.672175 0.694453 0.384100
0.725673 0.693202 0.396399
0.754269 0.677028 0.399664
0.763546 0.645930 0.393469
0.695705 0.747707 0.406836
0.675166 0.738796 0.394171
0.643397 0.727626 0.379400
0.625391 0.719539 0.377722
0.648493 0.719844 0.388678
0.691524 0.728420 0.397894
0.736263 0.736355 0.415076
0.770504 0.731167 0.427710
0.785611 0.709651 0.425025
0.741878 0.774014 0.428168
0.716182 0.762509 0.418036
0.695949 0.756191 0.410163
0.674098 0.749935 0.402808
0.669825 0.747066 0.402472
0.695613 0.752285 0.406531
0.731868 0.759670 0.421546
0.762020 0.761807 0.438941
0.781674 0.749081 0.442847
0.010254 0.005127 0.066316
0.095064 0.013672 0.116274
0.130343 0.017090 0.126040
0.148836 0.018555 0.115023
0.180667 0.021424 0.106142
0.205844 0.023255 0.087343
0.222202 0.024018 0.062135
0.227451 0.023682 0.036194
0.246464 0.025238 0.025757
0.072511 0.211246 0.204593
0.176455 0.159731 0.198093
0.328893 0.136416 0.165408
0.382666 0.132082 0.147127
0.436011 0.122225 0.127779
0.477974 0.105165 0.101167
0.484047 0.084718 0.072114
0.453162 0.061585 0.050263
0.396857 0.048737 0.042664
0.141665 0.341436 0.207065
0.216617 0.328618 0.167941
0.333410 0.350530 0.192508
0.466102 0.331640 0.205936
0.542107 0.305089 0.200626
0.580560 0.272007 0.177584
0.598047 0.236942 0.144533
0.614466 0.216312 0.109621
0.599451 0.209751 0.099580
0.218021 0.463691 0.200137
0.296727 0.458259 0.214511
0.380438 0.477791 0.240635
0.475959 0.492134 0.259098
0.583947 0.472602 0.269566
0.629206 0.431662 0.254093
0.644831 0.377371 0.218021
0.652735 0.334386 0.177005
0.667750 0.316564 0.143069
0.343236 0.569085 0.263554
0.380987 0.569696 0.271611
0.449928 0.577844 0.287938
0.512657 0.588281 0.300420
0.595361 0.590875 0.318273
0.666224 0.573129 0.325414
0.688472 0.532326 0.304662
0.691981 0.473472 0.261799
0.691798 0.420096 0.215702
0.441566 0.648676 0.309545
0.470008 0.649256 0.317235
0.521843 0.648035 0.329290
0.567864 0.653773 0.339452
0.612299 0.654627 0.348180
0.679408 0.657038 0.369299
0.722622 0.648737 0.376074
0.734951 0.616236 0.354955
0.732631 0.566278 0.321050
0.551873 0.704829 0.356237
0.570336 0.703059 0.360174
0.591760 0.698787 0.363531
0.613306 0.700008 0.369085
0.648951 0.703670 0.378454
0.692622 0.708919 0.394598
0.740047 0.713619 0.409308
0.764279 0.701839 0.409766
0.768795 0.672267 0.398749
0.647456 0.746273 0.391974
0.656977 0.744900 0.396246
0.662806 0.742580 0.397284
0.666010 0.740932 0.398901
0.684535 0.743130 0.403204
0.719265 0.748043 0.414801
0.751400 0.751308 0.422705
0.776944 0.746609 0.426032
0.791897 0.727840 0.424689
0.719600 0.779019 0.420081
0.716274 0.775967 0.418341
0.715755 0.772885 0.419043
0.713710 0.771359 0.420569
0.717006 0.771389 0.420325
0.740414 0.774166 0.428016
0.768338 0.776425 0.433356
0.788785 0.771725 0.436316
0.800137 0.759060 0.438849
0.004547 0.003754 0.083467
0.063661 0.010803 0.132021
0.103365 0.014862 0.138521
0.129183 0.017731 0.148196
0.161074 0.021149 0.156619
0.188449 0.023896 0.157809
0.209964 0.025818 0.150881
0.232364 0.027192 0.125643
0.258671 0.027893 0.069978
0.055207 0.162936 0.265965
0.121675 0.133944 0.294438
0.249180 0.083314 0.253971
0.319463 0.073610 0.249790
0.380102 0.076570 0.243626
0.414343 0.076417 0.224338
0.438941 0.058717 0.188693
0.428656 0.046754 0.130343
0.411322 0.043122 0.074861
0.150576 0.383398 0.371038
0.200046 0.354009 0.363500
0.333989 0.312169 0.341222
0.503197 0.291295 0.313115
0.591424 0.270542 0.291844
0.602045 0.244236 0.270329
0.591760 0.205020 0.230167
0.586511 0.161074 0.170901
0.591699 0.136995 0.112184
0.226291 0.505455 0.377111
0.238621 0.485939 0.341131
0.366522 0.455177 0.325200
0.476875 0.475074 0.312413
0.610498 0.455756 0.316136
0.662867 0.425467 0.313207
0.676936 0.369497 0.288273
0.656519 0.315801 0.252171
0.651026 0.287816 0.209537
0.268742 0.594873 0.360174
0.285740 0.588067 0.317540
0.402625 0.576379 0.323247
0.511131 0.589075 0.331579
0.602472 0.597162 0.346563
0.679896 0.579324 0.359045
0.709712 0.541085 0.350439
0.705135 0.473259 0.320806
0.688655 0.409232 0.278935
0.306279 0.670130 0.333318
0.359869 0.661250 0.321263
0.460914 0.657496 0.344182
0.556970 0.660792 0.361822
0.630457 0.671473 0.376745
0.688167 0.671321 0.387030
0.734646 0.654871 0.391180
0.749447 0.618982 0.380346
0.734676 0.555322 0.354131
0.422522 0.713954 0.345556
0.466163 0.709773 0.351049
0.536004 0.709255 0.373236
0.601007 0.709468 0.389380
0.652094 0.716335 0.398138
0.704524 0.722347 0.408972
0.744320 0.720150 0.413611
0.774563 0.704768 0.414099
0.777249 0.671290 0.403296
0.568750 0.744900 0.385229
0.590387 0.745602 0.389838
0.619898 0.747585 0.402045
0.649592 0.747951 0.412909
0.680385 0.751095 0.417334
0.719539 0.755856 0.425025
0.758083 0.759060 0.431464
0.784482 0.754543 0.430854
0.797330 0.733242 0.426673
0.673091 0.773648 0.427527
0.681544 0.774014 0.423072
0.688991 0.775326 0.425391
0.701656 0.775570 0.428046
0.713283 0.777005 0.426184
0.735592 0.779843 0.428962
0.769192 0.782589 0.436072
0.796628 0.779202 0.440558
0.807340 0.767880 0.439796
0.004730 0.004334 0.106752
0.047242 0.009644 0.146944
0.091188 0.014343 0.159365
0.112703 0.016541 0.161166
0.137057 0.019257 0.170657
0.165377 0.022339 0.179355
0.185763 0.024292 0.177371
0.209201 0.026184 0.164157
0.256779 0.029633 0.127932
0.044312 0.132113 0.308080
0.102663 0.114809 0.346654
0.213443 0.080537 0.322667
0.274876 0.048585 0.302983
0.325963 0.058381 0.301122
0.360845 0.058137 0.284550
0.382452 0.047181 0.254520
0.376165 0.044038 0.203708
0.390784 0.043702 0.150179
0.152102 0.363409 0.458900
0.198917 0.331212 0.449836
0.264561 0.302403 0.479316
0.416449 0.270787 0.436377
0.502739 0.259251 0.400458
0.541802 0.237766 0.367834
0.546899 0.201022 0.323857
0.554894 0.150088 0.260838
0.573877 0.108919 0.179873
0.258915 0.547021 0.529168
0.286503 0.511681 0.518853
0.340490 0.487037 0.496132
0.463325 0.452827 0.470130
0.586389 0.437415 0.445777
0.654994 0.405509 0.418692
0.697475 0.349874 0.376028
0.693507 0.290242 0.315480
0.675349 0.251926 0.247410
0.311833 0.617761 0.531090
0.314702 0.608179 0.506310
0.367956 0.589960 0.464942
0.497108 0.570367 0.463294
0.587121 0.584131 0.451606
0.675258 0.573114 0.443305
0.719142 0.538643 0.421286
0.742214 0.468040 0.375601
0.735500 0.400229 0.322393
0.335943 0.674769 0.517952
0.338994 0.668574 0.457816
0.406531 0.657618 0.438422
0.519066 0.650721 0.451423
0.613336 0.660243 0.455940
0.676875 0.668391 0.452308
0.733486 0.656123 0.448341
0.761074 0.622339 0.425330
0.765560 0.560540 0.383734
0.377661 0.717983 0.473533
0.405219 0.709987 0.428717
0.468574 0.705470 0.429755
0.558282 0.706142 0.452094
0.634760 0.710536 0.465522
0.694362 0.719692 0.467964
0.739712 0.720211 0.463233
0.776852 0.705898 0.453773
0.790066 0.677394 0.429847
0.494911 0.741665 0.444709
0.518669 0.742275 0.434699
0.557305 0.742824 0.439826
0.615747 0.745541 0.463081
0.665064 0.748348 0.477363
0.709010 0.753964 0.481300
0.753140 0.757382 0.482795
0.784848 0.751583 0.466072
0.802792 0.732845 0.448341
0.627131 0.767727 0.457527
0.634668 0.768826 0.450507
0.646784 0.770535 0.454627
0.672633 0.773037 0.467750
0.697780 0.774624 0.475624
0.721035 0.777066 0.474983
0.756344 0.779141 0.474525
0.792966 0.776547 0.465217
0.810727 0.767941 0.455634
0.005890 0.005219 0.134615
0.049134 0.010864 0.178836
0.090028 0.015351 0.191501
0.112856 0.017670 0.194095
0.120638 0.018219 0.187655
0.140291 0.020386 0.194522
0.162722 0.022705 0.197635
0.190799 0.025269 0.191714
0.243229 0.029664 0.167208
0.040772 0.117800 0.332891
0.080781 0.090028 0.398108
0.182559 0.073091 0.394812
0.248142 0.057862 0.369818
0.264378 0.044709 0.325200
0.307866 0.046296 0.327062
0.329107 0.042451 0.295781
0.325628 0.040406 0.245396
0.369390 0.043519 0.208652
0.136934 0.350500 0.528801
0.186801 0.324163 0.516533
0.241794 0.300633 0.550378
0.354223 0.269108 0.537560
0.427741 0.244083 0.480201
0.488960 0.231418 0.453727
0.508141 0.200137 0.406729
0.524865 0.151980 0.346761
0.560876 0.108492 0.264881
0.256901 0.525017 0.592218
0.282841 0.492226 0.580316
0.308843 0.473915 0.592218
0.402991 0.444617 0.578973
0.523644 0.419654 0.546868
0.602930 0.395590 0.525154
0.648035 0.353536 0.488945
0.651362 0.303761 0.423606
0.654017 0.256382 0.334981
0.339788 0.636469 0.632349
0.348272 0.621546 0.626734
0.383154 0.611566 0.612879
0.478859 0.592615 0.593683
0.576501 0.573541 0.579736
0.638758 0.563531 0.563684
0.681178 0.529976 0.534646
0.714168 0.468376 0.480583
0.745022 0.396109 0.397910
0.365972 0.685176 0.631769
0.370245 0.680659 0.608865
0.410010 0.671748 0.585580
0.490394 0.655879 0.570092
0.600671 0.646876 0.578973
0.661219 0.658412 0.572045
0.717250 0.651972 0.556909
0.747311 0.623896 0.526635
0.762722 0.571160 0.470283
0.386572 0.723293 0.609567
0.404852 0.717159 0.573114
0.444892 0.708034 0.545388
0.517906 0.698970 0.545251
0.610895 0.700618 0.562310
0.678492 0.710018 0.566155
0.727504 0.716091 0.555077
0.767788 0.706630 0.539117
0.786252 0.683925 0.504997
0.460883 0.742611 0.563272
0.488106 0.742123 0.567956
0.511498 0.735836 0.521996
0.568841 0.735378 0.531243
0.633967 0.740139 0.549279
0.692470 0.745937 0.559380
0.740902 0.752316 0.556268
0.777890 0.749538 0.537224
0.800626 0.738735 0.513939
0.580133 0.759182 0.518853
0.583246 0.759274 0.519554
0.597314 0.761288 0.512993
0.625757 0.764675 0.519005
0.665827 0.769894 0.531884
0.703273 0.772427 0.540948
0.739467 0.774441 0.538018
0.780972 0.773526 0.524712
0.807919 0.768490 0.513664
0.006256 0.005982 0.158663
0.041321 0.010864 0.201266
0.087678 0.016144 0.222080
0.112032 0.018738 0.227695
0.123232 0.019776 0.225559
0.123232 0.019409 0.214450
0.139864 0.021118 0.217014
0.168948 0.023987 0.216709
0.228519 0.029725 0.212100
0.039002 0.109102 0.352300
0.056947 0.083375 0.431220
0.158694 0.072023 0.438331
0.220798 0.062623 0.421546
0.250889 0.048432 0.394720
0.252506 0.036866 0.351385
0.279911 0.039002 0.338659
0.294774 0.039246 0.301610
0.356634 0.044495 0.274998
0.110964 0.338598 0.570336
0.162203 0.317357 0.557946
0.223575 0.296422 0.577508
0.307088 0.264714 0.597742
0.381094 0.243565 0.552514
0.416510 0.207645 0.509575
0.461616 0.195743 0.482612
0.493477 0.160403 0.441382
0.540673 0.116579 0.364446
0.233677 0.502007 0.623682
0.271336 0.482856 0.614221
0.298558 0.464576 0.627710
0.366140 0.441779 0.647639
0.467247 0.411353 0.619928
0.540520 0.382193 0.601068
0.599145 0.359213 0.582513
0.612360 0.320806 0.527367
0.626184 0.273228 0.444617
0.330877 0.617365 0.663294
0.346502 0.605615 0.662013
0.364050 0.600244 0.667384
0.430564 0.586816 0.661677
0.534096 0.567559 0.635370
0.599390 0.549020 0.618463
0.648951 0.525368 0.609400
0.683284 0.478264 0.581323
0.713954 0.415946 0.522667
0.384466 0.692714 0.695399
0.392218 0.688441 0.692226
0.427802 0.682979 0.682979
0.497444 0.672847 0.670588
0.591669 0.660822 0.659052
0.652857 0.652979 0.654292
0.691524 0.646510 0.644465
0.712673 0.623438 0.622431
0.727108 0.580148 0.579324
0.401801 0.729946 0.694545
0.415930 0.723720 0.674250
0.448859 0.718044 0.659083
0.506676 0.710903 0.648219
0.591455 0.702998 0.645716
0.669978 0.701259 0.654749
0.715694 0.710628 0.650172
0.750484 0.704494 0.637171
0.766629 0.686519 0.612421
0.444862 0.750637 0.668635
0.465370 0.748562 0.659815
0.488350 0.741543 0.628321
0.538903 0.736965 0.621942
0.605737 0.731960 0.627863
0.671382 0.735958 0.638911
0.727413 0.744991 0.641169
0.764645 0.747372 0.627161
0.788205 0.741360 0.612116
0.533776 0.758907 0.620661
0.542565 0.758144 0.618738
0.561181 0.754665 0.604181
0.592248 0.754086 0.603326
0.627405 0.757900 0.602502
0.671595 0.764492 0.608057
0.723476 0.769528 0.613489
0.767575 0.773709 0.604852
0.798306 0.772580 0.595056
0.006897 0.006897 0.183230
0.030579 0.010437 0.220066
0.089296 0.017517 0.258396
0.114778 0.020294 0.266178
0.127413 0.021546 0.266056
0.128847 0.021424 0.258000
0.121096 0.020142 0.242679
0.143648 0.022309 0.241123
0.209445 0.029358 0.257786
0.041413 0.116182 0.370886
0.037324 0.085237 0.439734
0.130800 0.065583 0.477180
0.204196 0.057160 0.477302
0.239628 0.046601 0.465980
0.251347 0.039521 0.430640
0.236393 0.035706 0.367712
0.260777 0.037537 0.350103
0.342168 0.045838 0.347906
0.106691 0.323583 0.558953
0.129183 0.312566 0.585351
0.199557 0.292943 0.584314
0.265782 0.263706 0.624567
0.336599 0.239811 0.605524
0.377600 0.212100 0.558160
0.392767 0.171420 0.520012
0.444770 0.157321 0.502617
0.510918 0.128969 0.467506
0.212314 0.499855 0.648402
0.250645 0.478431 0.635706
0.288548 0.455848 0.637842
0.334096 0.444495 0.685084
0.414664 0.407446 0.674311
0.493172 0.381979 0.659541
0.535119 0.347768 0.635065
0.572992 0.330907 0.597955
0.600641 0.293950 0.542138
0.315190 0.606409 0.681208
0.344671 0.597070 0.678035
0.358221 0.591424 0.692866
0.405722 0.580316 0.701442
0.499779 0.566125 0.683864
0.565118 0.542184 0.658595
0.603998 0.515450 0.655116
0.648127 0.489891 0.648676
0.687160 0.439292 0.620752
0.384955 0.679530 0.711849
0.388251 0.676417 0.716030
0.411841 0.673640 0.717769
0.467964 0.666407 0.712764
0.555413 0.657374 0.702296
0.629541 0.650233 0.687709
0.660792 0.637995 0.677394
0.691096 0.626917 0.673213
0.713771 0.595819 0.652308
0.411658 0.732448 0.738460
0.427283 0.727382 0.730861
0.463325 0.724178 0.725307
0.520653 0.719875 0.719387
0.597406 0.714717 0.713710
0.665095 0.710170 0.709224
0.707301 0.706142 0.706691
0.729976 0.699947 0.698482
0.742000 0.685969 0.684352
0.444434 0.756008 0.733608
0.454871 0.752255 0.718685
0.481117 0.748470 0.708614
0.530785 0.745663 0.702724
0.595270 0.741848 0.700496
0.657923 0.737636 0.699916
0.714229 0.738277 0.703639
0.752529 0.744503 0.701167
0.770596 0.739895 0.694423
0.498604 0.768490 0.706874
0.510155 0.766506 0.696803
0.530571 0.763882 0.686824
0.565759 0.761929 0.682795
0.608392 0.760159 0.678553
0.654536 0.757626 0.677577
0.705562 0.761410 0.681941
0.755093 0.769924 0.684749
0.784268 0.772610 0.681300
0.007752 0.007874 0.207065
0.016846 0.009552 0.234958
0.081544 0.017853 0.291936
0.118441 0.022065 0.309056
0.133639 0.023651 0.311742
0.136751 0.023774 0.306157
0.132540 0.022950 0.294255
0.122316 0.021149 0.269261
0.174136 0.026581 0.279423
0.048432 0.139193 0.400702
0.036316 0.091432 0.429450
0.086152 0.053498 0.518517
0.171664 0.053132 0.529168
0.220096 0.044526 0.526146
0.243381 0.041169 0.494118
0.242649 0.038819 0.441749
0.235019 0.036316 0.389654
0.318791 0.045991 0.403632
0.105470 0.329870 0.566217
0.101198 0.301762 0.593225
0.160220 0.281010 0.594293
0.231479 0.266789 0.611292
0.288426 0.243107 0.652705
0.341497 0.220951 0.597162
0.367773 0.184726 0.560998
0.380865 0.143465 0.534936
0.471595 0.136049 0.521996
0.200320 0.509239 0.664302
0.219821 0.468971 0.648585
0.262730 0.443244 0.645075
0.317845 0.444007 0.681025
0.373739 0.417334 0.708644
0.443793 0.389303 0.697749
0.497810 0.362539 0.677516
0.517174 0.329213 0.639124
0.576043 0.314061 0.603113
0.306645 0.611322 0.697261
0.336461 0.593530 0.690120
0.356023 0.582238 0.701228
0.395010 0.576501 0.721126
0.480369 0.571313 0.713985
0.538262 0.546487 0.691005
0.581170 0.525246 0.685512
0.603204 0.495140 0.680690
0.658106 0.467002 0.673518
0.380041 0.675105 0.724056
0.390234 0.671229 0.730831
0.418006 0.669001 0.738674
0.470069 0.662013 0.737453
0.547143 0.656306 0.727749
0.619501 0.651942 0.712367
0.647608 0.639185 0.699153
0.662043 0.626032 0.696193
0.695155 0.613519 0.693233
0.413153 0.724422 0.752407
0.425574 0.721035 0.750027
0.463966 0.718624 0.749599
0.519249 0.714290 0.746578
0.588891 0.711299 0.739742
0.652705 0.708064 0.732326
0.697047 0.704524 0.724910
0.711940 0.698940 0.721248
0.730709 0.694087 0.718257
0.451240 0.756802 0.763851
0.464851 0.754757 0.756680
0.499367 0.751736 0.752255
0.556909 0.749447 0.750576
0.616449 0.746822 0.747890
0.669886 0.744564 0.744778
0.713008 0.746120 0.745876
0.746639 0.743374 0.743343
0.758450 0.739712 0.739101
0.488685 0.773861 0.752895
0.502007 0.772488 0.749477
0.526024 0.770199 0.745113
0.571893 0.768734 0.743587
0.617273 0.767208 0.740139
0.658320 0.765103 0.735866
0.701381 0.763729 0.734249
0.746578 0.764950 0.738460
0.773739 0.769955 0.742794
0.008453 0.008637 0.225528
0.010529 0.009277 0.245121
0.064698 0.016938 0.314275
0.115877 0.023133 0.348943
0.139162 0.025788 0.359289
0.146731 0.026459 0.357610
0.150790 0.026642 0.351293
0.169314 0.028473 0.349584
0.174807 0.028077 0.321386
0.051575 0.148898 0.420233
0.042329 0.111269 0.454505
0.062531 0.066194 0.536126
0.133425 0.066835 0.555566
0.190860 0.060273 0.553674
0.229831 0.056001 0.532799
0.247257 0.051087 0.500694
0.255711 0.046418 0.467018
0.302892 0.047913 0.448524
0.104646 0.330938 0.568627
0.096193 0.293034 0.589929
0.136782 0.271397 0.603449
0.204227 0.273716 0.618738
0.257053 0.264073 0.666957
0.317174 0.244388 0.640833
0.356939 0.219821 0.596826
0.375921 0.179904 0.572076
0.431067 0.154238 0.551476
0.190494 0.510307 0.671138
0.188968 0.456428 0.659541
0.232914 0.426062 0.648249
0.305943 0.436774 0.676661
0.359426 0.433021 0.723018
0.419593 0.410513 0.720302
0.478553 0.387259 0.704677
0.513115 0.359945 0.681697
0.544091 0.333684 0.642603
0.300481 0.615076 0.709010
0.320806 0.589746 0.701289
0.345129 0.571954 0.702388
0.388907 0.571893 0.727474
0.478416 0.575708 0.729244
0.532708 0.559823 0.711482
0.570336 0.540200 0.701015
0.595911 0.522805 0.701045
0.624964 0.492912 0.697841
0.380041 0.676661 0.736965
0.401007 0.673426 0.744198
0.427436 0.669276 0.753353
0.480049 0.661555 0.751003
0.558648 0.658289 0.740810
0.624201 0.658320 0.727016
0.644770 0.648859 0.714443
0.661402 0.640772 0.711360
0.674220 0.626184 0.709499
0.420844 0.724178 0.766690
0.440650 0.722896 0.767910
0.502617 0.719234 0.765927
0.553857 0.713100 0.760159
0.610254 0.709407 0.753353
0.661250 0.707240 0.746151
0.697719 0.708064 0.738521
0.710842 0.704494 0.733486
0.720546 0.700465 0.731991
0.461677 0.752651 0.777798
0.473518 0.752529 0.774685
0.523644 0.749386 0.771084
0.586755 0.745388 0.767697
0.633783 0.742885 0.763577
0.677241 0.741299 0.759823
0.715663 0.740780 0.755611
0.743221 0.742214 0.753384
0.752224 0.743160 0.752560
0.495552 0.776699 0.779171
0.523827 0.774472 0.777523
0.555901 0.771786 0.775113
0.609949 0.770199 0.774166
0.650416 0.769131 0.771756
0.681819 0.767849 0.769070
0.717922 0.766812 0.766629
0.753292 0.770047 0.769558
0.776516 0.774075 0.774502
