LUTs/39.cube
# (C) 2014 VisionColor & Patchflyer [www.vision-color.com]
# Generator: VC Patchmatch v.2.1.1 [64/53]
# All work and no play makes Jack a dull boy.
# LUT generated from: Kodak Vision3 250D 5207 (NEG)_VisionSpace
LUT_3D_SIZE 17
0.027771 0.030426 0.028229
0.103639 0.037415 0.033265
0.164553 0.051881 0.040558
0.194247 0.054505 0.043275
0.207279 0.051911 0.043397
0.211856 0.048402 0.042115
0.214786 0.048554 0.041840
0.224155 0.052247 0.042908
0.229984 0.052216 0.041993
0.244022 0.053956 0.042390
0.253880 0.049195 0.040406
0.267765 0.046754 0.039796
0.283482 0.044251 0.039307
0.300481 0.043702 0.039429
0.312230 0.041474 0.039307
0.331609 0.042023 0.040070
0.352819 0.042512 0.041077
0.041871 0.075715 0.036255
0.101961 0.084260 0.044678
0.181827 0.098848 0.051423
0.257084 0.118959 0.059754
0.312566 0.130190 0.065156
0.342931 0.126955 0.064576
0.340185 0.118441 0.061860
0.344518 0.114107 0.060578
0.347936 0.113710 0.058991
0.356085 0.110658 0.057343
0.367224 0.106111 0.055818
0.379248 0.097444 0.054444
0.389899 0.087312 0.053162
0.399268 0.077699 0.051484
0.400519 0.064179 0.048249
0.404974 0.057191 0.046815
0.406561 0.049042 0.045075
0.080140 0.154971 0.064546
0.115267 0.162142 0.068635
0.180117 0.170932 0.078401
0.256687 0.187930 0.089448
0.325505 0.202640 0.095613
0.370794 0.202945 0.092836
0.389624 0.192630 0.086793
0.402350 0.185641 0.083314
0.416999 0.181460 0.081849
0.432319 0.174807 0.079683
0.446723 0.167758 0.077302
0.464179 0.159060 0.076051
0.472145 0.146883 0.073518
0.480293 0.135225 0.071229
0.480568 0.118044 0.066865
0.478462 0.100771 0.062348
0.475074 0.081056 0.057008
0.129854 0.224002 0.093507
0.153170 0.231815 0.097261
0.187015 0.245304 0.106935
0.250370 0.249302 0.119417
0.327031 0.265751 0.130129
0.382910 0.267124 0.128450
0.415198 0.256321 0.118990
0.440284 0.245975 0.108583
0.458228 0.236332 0.102968
0.476295 0.227817 0.097505
0.492042 0.216068 0.093446
0.507500 0.205905 0.091310
0.520989 0.197818 0.090272
0.531304 0.189639 0.088960
0.537469 0.181582 0.087373
0.534325 0.162478 0.082216
0.530571 0.143984 0.077241
0.186770 0.279973 0.121523
0.204593 0.289525 0.124086
0.223148 0.300786 0.131533
0.248722 0.306249 0.139559
0.303777 0.309453 0.151003
0.373724 0.318700 0.158083
0.422461 0.314458 0.153750
0.464057 0.307378 0.145937
0.489326 0.292485 0.131960
0.514549 0.281529 0.121126
0.527276 0.261357 0.110811
0.540948 0.249058 0.105165
0.551476 0.242161 0.104158
0.562860 0.237461 0.103761
0.571435 0.234134 0.103670
0.574121 0.220981 0.100465
0.572168 0.204623 0.096071
0.248753 0.331426 0.147097
0.257755 0.339178 0.146456
0.268254 0.346441 0.152132
0.277562 0.351141 0.157961
0.305608 0.355688 0.165927
0.353307 0.358862 0.175540
0.418128 0.364172 0.180819
0.471656 0.364233 0.180758
0.509911 0.356146 0.173831
0.541039 0.347448 0.162844
0.560265 0.323461 0.142611
0.574853 0.305882 0.130312
0.586511 0.293065 0.121675
0.597528 0.289738 0.120668
0.604791 0.287144 0.121096
0.607172 0.275364 0.118105
0.607294 0.261692 0.114778
0.311406 0.382788 0.170413
0.314794 0.388067 0.169223
0.316289 0.392279 0.172091
0.315770 0.394446 0.175601
0.331212 0.397803 0.181735
0.363684 0.401129 0.189517
0.409003 0.404608 0.198123
0.471687 0.409369 0.204410
0.519158 0.407843 0.205905
0.560845 0.404761 0.203128
0.582666 0.387900 0.189364
0.600458 0.371649 0.174380
0.612421 0.356909 0.161074
0.623285 0.348394 0.151400
0.630976 0.342473 0.147585
0.634913 0.329412 0.140444
0.636957 0.315099 0.133913
0.370336 0.433021 0.191501
0.368536 0.434974 0.192355
0.368231 0.440223 0.194400
0.358129 0.439246 0.193515
0.363348 0.438972 0.197177
0.385626 0.440742 0.204288
0.425574 0.445869 0.212863
0.477913 0.450935 0.223056
0.528283 0.452827 0.229587
0.575097 0.453376 0.233921
0.601251 0.446296 0.230869
0.620813 0.436103 0.222812
0.634180 0.421759 0.208499
0.644434 0.410590 0.195865
0.650690 0.399573 0.187808
0.655238 0.384283 0.175998
0.656367 0.368627 0.168551
0.429175 0.484657 0.211093
0.424475 0.482826 0.211154
0.419287 0.485420 0.213626
0.405707 0.483467 0.212375
0.401709 0.480568 0.214023
0.414923 0.480171 0.220401
0.443214 0.484443 0.228183
0.486763 0.488411 0.237858
0.536446 0.493751 0.249912
0.585748 0.496681 0.257816
0.617151 0.495918 0.262394
0.639399 0.491432 0.262119
0.654505 0.480980 0.252995
0.663783 0.467765 0.242374
0.669306 0.455726 0.233219
0.672175 0.439033 0.219364
0.673304 0.421241 0.206149
0.486061 0.539239 0.231235
0.481636 0.534874 0.232761
0.474342 0.534966 0.235111
0.457343 0.530846 0.232883
0.444709 0.524590 0.232456
0.453162 0.521996 0.238956
0.477760 0.525933 0.247288
0.509300 0.530602 0.256565
0.553155 0.536065 0.268589
0.598566 0.538750 0.279423
0.631220 0.540246 0.287419
0.655879 0.540307 0.293339
0.673030 0.535821 0.292973
0.682948 0.525872 0.287022
0.688838 0.513787 0.280339
0.691157 0.495674 0.266026
0.691798 0.475929 0.252293
0.547784 0.594141 0.256291
0.542229 0.586694 0.255009
0.529717 0.581323 0.254765
0.508293 0.574365 0.253056
0.490272 0.567468 0.252201
0.495338 0.565393 0.259068
0.518914 0.568994 0.269078
0.547997 0.573816 0.279820
0.577325 0.578271 0.290623
0.614313 0.581201 0.301213
0.645380 0.582971 0.311254
0.670985 0.584833 0.319371
0.690394 0.584466 0.324041
0.701808 0.578241 0.323247
0.708186 0.567376 0.319066
0.710689 0.550835 0.309606
0.710140 0.529412 0.295842
0.602625 0.641962 0.283482
0.597375 0.634241 0.279149
0.585473 0.626368 0.276036
0.562676 0.617670 0.273869
0.542290 0.609400 0.273350
0.541314 0.605341 0.278843
0.557641 0.606104 0.289433
0.583642 0.610254 0.301305
0.609308 0.614496 0.312810
0.634424 0.618341 0.323278
0.662440 0.620600 0.333379
0.685878 0.622950 0.343786
0.705440 0.623041 0.350256
0.717861 0.620142 0.353338
0.725917 0.614221 0.353643
0.728847 0.600183 0.346410
0.729335 0.583612 0.336614
0.650080 0.681086 0.312413
0.645380 0.675319 0.306920
0.635035 0.667018 0.300816
0.615808 0.657771 0.295354
0.593652 0.648341 0.293034
0.585718 0.641962 0.297002
0.598413 0.641505 0.307286
0.616419 0.642878 0.319646
0.639612 0.646967 0.331640
0.660121 0.650172 0.343359
0.681086 0.653529 0.353521
0.700587 0.656062 0.364141
0.719997 0.658106 0.373785
0.732998 0.656733 0.378637
0.742092 0.653254 0.380591
0.746059 0.643702 0.377356
0.747127 0.629847 0.370398
0.686152 0.707332 0.338628
0.680598 0.704005 0.332036
0.672236 0.696681 0.323400
0.657343 0.688075 0.315160
0.637720 0.678614 0.311498
0.624475 0.670527 0.313176
0.628717 0.667597 0.321691
0.642115 0.667781 0.333562
0.658534 0.669520 0.344762
0.677119 0.672633 0.357610
0.696620 0.676875 0.368688
0.712673 0.680781 0.380499
0.730190 0.683864 0.390417
0.747738 0.688075 0.398779
0.757198 0.686091 0.401770
0.762173 0.679988 0.401617
0.763058 0.670375 0.398566
0.716274 0.728511 0.358892
0.708247 0.725032 0.352850
0.697292 0.717006 0.343877
0.686427 0.709987 0.333257
0.669825 0.701503 0.328008
0.656367 0.693782 0.328222
0.654597 0.689845 0.333013
0.661982 0.688411 0.343572
0.675807 0.689418 0.354559
0.691279 0.692226 0.368688
0.709621 0.696864 0.380652
0.726070 0.701930 0.394568
0.742000 0.707057 0.404273
0.758450 0.711910 0.412177
0.767971 0.711513 0.415717
0.772427 0.705318 0.415198
0.772976 0.696162 0.412085
0.739101 0.743191 0.378515
0.730404 0.739651 0.371038
0.717128 0.731044 0.360967
0.708766 0.725734 0.351507
0.696925 0.719753 0.346960
0.683986 0.713558 0.344091
0.678187 0.709041 0.346410
0.677943 0.706355 0.352392
0.686366 0.705989 0.361913
0.700099 0.708644 0.375769
0.715480 0.712551 0.388037
0.731075 0.717403 0.402075
0.745937 0.722713 0.411261
0.760311 0.727413 0.418311
0.768643 0.727260 0.421210
0.777157 0.725063 0.423468
0.778408 0.716609 0.420996
0.758328 0.756466 0.394354
0.749752 0.752346 0.387823
0.732387 0.742153 0.376043
0.726223 0.738430 0.368566
0.718441 0.734462 0.365026
0.709316 0.729976 0.362188
0.699702 0.725185 0.360510
0.696834 0.722377 0.364172
0.696468 0.720455 0.368841
0.708766 0.722927 0.382025
0.720516 0.725704 0.393317
0.735286 0.730312 0.407416
0.748562 0.734951 0.415412
0.761593 0.739223 0.422187
0.770504 0.740688 0.425361
0.775906 0.737026 0.426032
0.779202 0.730495 0.425025
0.029633 0.033783 0.082063
0.088838 0.038788 0.087434
0.162417 0.047425 0.094423
0.195010 0.048920 0.098238
0.205051 0.046723 0.096773
0.207553 0.044465 0.088746
0.208591 0.044251 0.084871
0.216587 0.046601 0.079286
0.222812 0.046052 0.074556
0.234257 0.047425 0.066377
0.243198 0.044800 0.060121
0.253819 0.044312 0.051026
0.268254 0.043854 0.047395
0.281193 0.043915 0.041810
0.291325 0.041138 0.040040
0.308934 0.041382 0.039368
0.329015 0.041627 0.039918
0.037781 0.076204 0.087678
0.081300 0.085481 0.090364
0.203861 0.096193 0.081636
0.266819 0.115480 0.087800
0.308263 0.124117 0.091279
0.337194 0.127321 0.089967
0.347845 0.127413 0.087282
0.358007 0.128389 0.083711
0.360204 0.126772 0.080049
0.363104 0.123049 0.076814
0.369787 0.116915 0.073213
0.378393 0.109133 0.064759
0.385840 0.097169 0.059510
0.391669 0.084565 0.052674
0.385412 0.068696 0.048493
0.382330 0.056916 0.045594
0.381506 0.048249 0.043732
0.067445 0.159915 0.110109
0.089143 0.166262 0.088991
0.195773 0.177676 0.099367
0.274479 0.191592 0.110323
0.337835 0.203037 0.116640
0.383764 0.204257 0.115419
0.410285 0.197635 0.109377
0.434638 0.193729 0.103426
0.453193 0.189731 0.098360
0.471595 0.186648 0.095857
0.480354 0.183383 0.095460
0.493080 0.178592 0.089418
0.499855 0.170840 0.086183
0.506218 0.161410 0.079835
0.504723 0.148684 0.076478
0.496956 0.128511 0.070710
0.483192 0.100954 0.062593
0.114137 0.241032 0.123873
0.137697 0.239506 0.108370
0.209018 0.253483 0.123323
0.277378 0.264408 0.133944
0.351965 0.276249 0.143252
0.408331 0.275914 0.143862
0.443854 0.265263 0.136690
0.470863 0.254185 0.127810
0.493843 0.245670 0.119936
0.514702 0.237522 0.114565
0.529412 0.231815 0.113985
0.541161 0.223453 0.106630
0.550713 0.217441 0.103639
0.557763 0.209751 0.097017
0.560052 0.203983 0.094972
0.556970 0.190219 0.091066
0.549981 0.169558 0.085267
0.172183 0.305913 0.133486
0.197147 0.302403 0.139040
0.249210 0.315007 0.146517
0.287602 0.326940 0.152255
0.346593 0.334234 0.161715
0.417151 0.339544 0.167117
0.465888 0.332860 0.163546
0.504601 0.323552 0.158236
0.527764 0.309209 0.147494
0.548486 0.296208 0.139834
0.562341 0.282139 0.132876
0.572198 0.269566 0.123598
0.578973 0.258640 0.118257
0.587732 0.252018 0.111666
0.591821 0.247715 0.109499
0.593866 0.241367 0.107362
0.591943 0.228305 0.103731
0.240513 0.359167 0.155520
0.254429 0.360265 0.164309
0.297063 0.370672 0.169497
0.322759 0.380407 0.170901
0.356878 0.385534 0.175814
0.408087 0.389075 0.184024
0.470161 0.390295 0.187167
0.519890 0.386236 0.186374
0.553521 0.376257 0.179660
0.576074 0.362249 0.171450
0.590387 0.341680 0.158480
0.599207 0.323735 0.146181
0.605982 0.305974 0.135470
0.611933 0.295598 0.127077
0.615900 0.289982 0.123873
0.619837 0.284947 0.121645
0.621515 0.277226 0.119448
0.302312 0.411109 0.177554
0.312535 0.413123 0.187655
0.346929 0.422553 0.193027
0.365698 0.430854 0.190677
0.386114 0.433387 0.190982
0.416815 0.432044 0.196048
0.464179 0.434669 0.204898
0.522271 0.435340 0.207889
0.566857 0.432776 0.207889
0.595850 0.422675 0.202304
0.613153 0.405142 0.190219
0.623621 0.385077 0.175296
0.630091 0.364965 0.162448
0.635126 0.348852 0.150118
0.639155 0.337255 0.141634
0.643305 0.329778 0.137057
0.646052 0.322637 0.134249
0.361761 0.462074 0.198672
0.362829 0.465187 0.208896
0.394141 0.472175 0.217502
0.411688 0.480690 0.213352
0.422675 0.480140 0.207034
0.438575 0.475135 0.209018
0.472236 0.474189 0.215335
0.516564 0.475319 0.224338
0.566522 0.476600 0.228397
0.606744 0.474342 0.231083
0.629633 0.463661 0.224338
0.643397 0.448203 0.212711
0.652308 0.428489 0.196963
0.658167 0.410880 0.182467
0.661402 0.395575 0.171298
0.663417 0.382818 0.164126
0.664851 0.372168 0.159335
0.418769 0.511101 0.219455
0.417792 0.514458 0.228916
0.442420 0.518578 0.238132
0.458961 0.526574 0.235080
0.464973 0.525628 0.226352
0.469032 0.515343 0.223087
0.480842 0.507134 0.225376
0.512230 0.503990 0.232212
0.560510 0.508751 0.245670
0.606287 0.511650 0.251469
0.640925 0.513298 0.255192
0.659419 0.506004 0.249363
0.671687 0.492424 0.237827
0.678431 0.475212 0.222751
0.681819 0.458305 0.208835
0.683742 0.442893 0.198459
0.683192 0.426276 0.189487
0.474556 0.560479 0.242130
0.470893 0.560876 0.249454
0.487160 0.561730 0.258152
0.501915 0.568048 0.257053
0.504082 0.566857 0.246586
0.506127 0.557000 0.242344
0.513085 0.547631 0.242191
0.521630 0.537285 0.245365
0.559716 0.539025 0.256168
0.604486 0.544305 0.269322
0.645197 0.551354 0.277470
0.672480 0.556146 0.282780
0.688533 0.551598 0.280339
0.696559 0.539086 0.270176
0.700954 0.524712 0.260166
0.702449 0.507836 0.249882
0.701442 0.489693 0.240970
0.528679 0.605890 0.267674
0.527642 0.605676 0.272099
0.536370 0.602625 0.277287
0.544884 0.603845 0.274144
0.541741 0.602136 0.265110
0.542596 0.596826 0.262547
0.551568 0.589929 0.262638
0.560876 0.582147 0.267552
0.577844 0.577783 0.274418
0.612573 0.580560 0.285649
0.652338 0.587671 0.300206
0.681971 0.596521 0.309026
0.703243 0.600702 0.314855
0.713710 0.595605 0.313024
0.718776 0.583581 0.306279
0.721340 0.569726 0.299138
0.720424 0.552544 0.291752
0.578607 0.643885 0.295537
0.579797 0.642206 0.294530
0.581537 0.637140 0.297215
0.585473 0.635950 0.291966
0.579004 0.633570 0.282414
0.576257 0.628595 0.278508
0.585901 0.627192 0.280827
0.596490 0.621912 0.287449
0.613733 0.620325 0.296544
0.631495 0.618860 0.306218
0.664485 0.623926 0.319585
0.692500 0.631098 0.332677
0.715114 0.637720 0.342046
0.727901 0.638056 0.347173
0.734493 0.631525 0.347509
0.738033 0.620661 0.343297
0.739101 0.608301 0.338445
0.625299 0.679042 0.325902
0.628046 0.676783 0.320714
0.627375 0.671199 0.319677
0.627802 0.668116 0.312139
0.619165 0.664576 0.302068
0.613184 0.661067 0.297704
0.621363 0.660517 0.298528
0.633936 0.660273 0.308904
0.650568 0.660090 0.318853
0.667292 0.660456 0.330724
0.684993 0.661067 0.341680
0.707820 0.666621 0.354437
0.726192 0.668788 0.364599
0.739345 0.670253 0.371679
0.746914 0.665858 0.375341
0.751827 0.658961 0.375982
0.753628 0.648341 0.372717
0.664790 0.706325 0.354376
0.669001 0.704433 0.345068
0.666682 0.699702 0.341222
0.666102 0.697108 0.333867
0.658778 0.693935 0.322972
0.651484 0.690333 0.316228
0.653193 0.689204 0.314244
0.663264 0.688807 0.323949
0.677180 0.689967 0.335515
0.692500 0.690547 0.348241
0.708095 0.691737 0.360784
0.721462 0.692592 0.372503
0.736110 0.694545 0.382940
0.748898 0.695827 0.391669
0.757198 0.693355 0.397742
0.762905 0.688380 0.400641
0.766140 0.681300 0.401099
0.698421 0.729152 0.377478
0.700496 0.726314 0.366735
0.696529 0.722042 0.361761
0.695521 0.719570 0.355383
0.690394 0.717250 0.344213
0.683436 0.714168 0.335515
0.680781 0.712154 0.330297
0.686702 0.711208 0.336675
0.698177 0.711818 0.346532
0.710292 0.712367 0.359808
0.724300 0.713314 0.372839
0.736294 0.713863 0.385840
0.746883 0.714748 0.397223
0.757961 0.715602 0.407050
0.765408 0.713985 0.411048
0.771908 0.710201 0.413825
0.776303 0.704890 0.414466
0.729946 0.748409 0.393194
0.726925 0.744686 0.385504
0.720790 0.740353 0.380529
0.717433 0.736904 0.374212
0.714839 0.735744 0.364569
0.709987 0.733913 0.354040
0.705531 0.731624 0.347143
0.706508 0.730098 0.347662
0.714168 0.729885 0.354955
0.725124 0.730434 0.367315
0.736843 0.731197 0.380774
0.748348 0.731746 0.394293
0.758511 0.733028 0.407752
0.766934 0.733303 0.418463
0.773434 0.731991 0.422004
0.777920 0.727932 0.423224
0.782956 0.723018 0.423529
0.756161 0.764065 0.403906
0.748653 0.760250 0.402930
0.740627 0.755581 0.398230
0.734005 0.750607 0.391424
0.731899 0.749538 0.383062
0.729488 0.748714 0.374212
0.724941 0.746853 0.365362
0.724910 0.745510 0.363256
0.726772 0.744442 0.363653
0.736660 0.745022 0.375128
0.746792 0.745724 0.386206
0.758053 0.746731 0.400122
0.767544 0.747829 0.413031
0.776150 0.748714 0.426398
0.781796 0.747829 0.429450
0.784817 0.743496 0.430457
0.786679 0.737118 0.429145
0.030457 0.034730 0.118471
0.070192 0.038422 0.137545
0.141543 0.043336 0.151156
0.179995 0.043305 0.163333
0.199100 0.042176 0.168704
0.208438 0.040803 0.165621
0.214847 0.040314 0.159121
0.224308 0.040742 0.155886
0.232609 0.040101 0.149447
0.244877 0.040436 0.141360
0.255802 0.040253 0.127047
0.267369 0.040589 0.114260
0.276066 0.041230 0.095705
0.284672 0.041627 0.077638
0.288396 0.040040 0.060060
0.300694 0.040406 0.048005
0.316869 0.040772 0.040284
0.040467 0.085023 0.146029
0.063325 0.085573 0.159854
0.171695 0.085481 0.165133
0.236240 0.092103 0.160555
0.277134 0.096956 0.161288
0.306004 0.100771 0.159121
0.321080 0.101503 0.154513
0.331395 0.099763 0.149172
0.333806 0.095583 0.141634
0.337591 0.092500 0.134981
0.344182 0.090486 0.123537
0.352178 0.086458 0.109194
0.359747 0.081147 0.092256
0.366705 0.073091 0.073426
0.369390 0.061891 0.058137
0.373022 0.053681 0.048585
0.376898 0.047822 0.043763
0.061616 0.159579 0.171756
0.090944 0.171115 0.181186
0.183352 0.166751 0.178103
0.289433 0.166262 0.162112
0.350378 0.171084 0.154482
0.383337 0.177859 0.154757
0.406989 0.182010 0.154513
0.433509 0.184604 0.153506
0.449531 0.183383 0.150515
0.461555 0.180667 0.145724
0.465187 0.175235 0.138918
0.468116 0.167269 0.127321
0.471748 0.156558 0.113405
0.472938 0.143282 0.096742
0.475135 0.124758 0.079500
0.471321 0.105806 0.067414
0.463905 0.086610 0.057954
0.100923 0.247715 0.197726
0.123262 0.251225 0.188876
0.201266 0.251865 0.169467
0.285496 0.259220 0.158175
0.351324 0.262058 0.169741
0.400427 0.262699 0.175479
0.439063 0.259648 0.177859
0.475837 0.255619 0.176333
0.501244 0.252171 0.174289
0.521691 0.245792 0.170047
0.537316 0.240970 0.164034
0.542779 0.230442 0.154086
0.549218 0.222110 0.142641
0.549798 0.211185 0.128237
0.555291 0.201053 0.110689
0.557519 0.186984 0.097536
0.556909 0.172641 0.087129
0.145113 0.318303 0.203403
0.153628 0.322515 0.175692
0.238743 0.319097 0.167544
0.300877 0.329778 0.178073
0.355047 0.333898 0.188174
0.416541 0.333776 0.193820
0.464973 0.330327 0.197177
0.509941 0.325628 0.199466
0.536736 0.317968 0.197726
0.557488 0.308904 0.194095
0.571984 0.298253 0.186252
0.577996 0.284642 0.176425
0.584649 0.272190 0.164218
0.587427 0.261875 0.150942
0.593896 0.253635 0.134920
0.600702 0.246677 0.122194
0.604364 0.237186 0.110933
0.193179 0.379797 0.186221
0.215457 0.381109 0.184787
0.288670 0.376684 0.190829
0.337011 0.385321 0.201541
0.375982 0.393866 0.205417
0.421180 0.394659 0.208377
0.478401 0.392859 0.213352
0.528161 0.389838 0.218082
0.562463 0.384344 0.220157
0.585321 0.374395 0.217777
0.600092 0.359258 0.210452
0.606043 0.341314 0.199985
0.611139 0.323888 0.185885
0.613703 0.309392 0.171725
0.619318 0.299626 0.155550
0.625940 0.292332 0.142641
0.633478 0.288396 0.132265
0.255192 0.429358 0.191135
0.278355 0.432715 0.200504
0.335607 0.430121 0.216281
0.376043 0.435157 0.224796
0.406836 0.444617 0.224491
0.443488 0.448280 0.225315
0.482338 0.445930 0.225986
0.537530 0.444770 0.232792
0.577966 0.441749 0.237736
0.605982 0.434669 0.238804
0.622797 0.421393 0.233188
0.630945 0.402075 0.224460
0.635920 0.381720 0.209842
0.638117 0.361547 0.194797
0.640925 0.345708 0.175937
0.646052 0.335241 0.161410
0.651759 0.328038 0.148379
0.328679 0.475166 0.220462
0.338231 0.480079 0.231266
0.378637 0.480598 0.241642
0.414466 0.482338 0.244968
0.438087 0.489601 0.241825
0.470741 0.496620 0.243900
0.504601 0.496498 0.244388
0.539422 0.491493 0.244572
0.584070 0.490303 0.251652
0.620020 0.487709 0.257115
0.642054 0.478889 0.255802
0.653223 0.463615 0.249821
0.659419 0.442374 0.236484
0.661524 0.420737 0.220676
0.662531 0.399207 0.200076
0.664179 0.381109 0.182162
0.667628 0.369146 0.167269
0.385840 0.523064 0.242710
0.390906 0.526482 0.252445
0.420813 0.528283 0.263401
0.453346 0.528069 0.267216
0.474434 0.533410 0.263462
0.501122 0.538476 0.262791
0.529290 0.541680 0.263676
0.557733 0.536828 0.262943
0.587182 0.531853 0.263981
0.626123 0.532280 0.271427
0.656641 0.532158 0.276799
0.672206 0.522728 0.274479
0.681331 0.506294 0.264530
0.684535 0.483452 0.249546
0.684962 0.459190 0.227573
0.685115 0.436606 0.208011
0.683436 0.411582 0.187594
0.437507 0.569696 0.265934
0.440406 0.571130 0.272770
0.462043 0.572778 0.283879
0.492164 0.571160 0.289097
0.510643 0.574487 0.284855
0.533135 0.578027 0.282597
0.558465 0.581170 0.282750
0.576104 0.577295 0.280644
0.603113 0.573846 0.281651
0.630793 0.570886 0.284184
0.666346 0.575067 0.293187
0.688441 0.575189 0.298283
0.701656 0.567651 0.294560
0.707179 0.550561 0.283055
0.708217 0.529900 0.265538
0.706783 0.504875 0.245670
0.703548 0.477302 0.224796
0.488563 0.611170 0.288731
0.494118 0.612390 0.294011
0.507866 0.613428 0.302953
0.532158 0.611109 0.309453
0.548302 0.612024 0.305455
0.562341 0.613703 0.300420
0.587488 0.617823 0.301152
0.602441 0.614466 0.299016
0.618219 0.610986 0.298955
0.638758 0.607507 0.300847
0.672908 0.611200 0.309667
0.697841 0.615808 0.317571
0.717861 0.619013 0.323156
0.727047 0.610925 0.317754
0.729000 0.593042 0.302068
0.729000 0.573693 0.287510
0.725582 0.547295 0.266972
0.539544 0.645075 0.311833
0.545525 0.645838 0.314946
0.553063 0.645350 0.322545
0.569970 0.642847 0.329870
0.581537 0.641962 0.325017
0.591852 0.642023 0.318730
0.607904 0.644648 0.315831
0.622950 0.643091 0.314580
0.638972 0.642054 0.315343
0.654078 0.640558 0.317235
0.684688 0.644343 0.325261
0.708675 0.651240 0.334600
0.730587 0.658167 0.343938
0.743648 0.657649 0.346227
0.746914 0.647486 0.338872
0.747738 0.632471 0.329015
0.745876 0.613581 0.316655
0.591241 0.676905 0.337346
0.597223 0.676905 0.338018
0.602106 0.675624 0.342077
0.611200 0.672694 0.348577
0.617761 0.670985 0.343450
0.622248 0.670039 0.335454
0.634180 0.671870 0.330663
0.647028 0.673487 0.330755
0.664454 0.674922 0.333318
0.680537 0.676265 0.337652
0.696925 0.676692 0.343816
0.717891 0.682063 0.352331
0.739864 0.688807 0.363409
0.754330 0.690883 0.368261
0.759182 0.683253 0.365911
0.761227 0.672389 0.361791
0.761105 0.658412 0.353277
0.638697 0.702693 0.363012
0.644221 0.702968 0.360845
0.647364 0.702388 0.361669
0.650813 0.699886 0.367529
0.654505 0.698390 0.363134
0.656641 0.697292 0.355261
0.660090 0.697017 0.346410
0.670527 0.698726 0.345129
0.684321 0.701228 0.347112
0.700648 0.703792 0.352300
0.716274 0.705776 0.359472
0.731106 0.708064 0.366339
0.746761 0.712032 0.375769
0.762203 0.716670 0.385138
0.767971 0.710903 0.386481
0.771237 0.702235 0.386511
0.772549 0.692042 0.384680
0.677089 0.725093 0.386877
0.681788 0.724727 0.382330
0.683558 0.724056 0.380499
0.684169 0.722255 0.381384
0.687037 0.721431 0.379736
0.688197 0.720455 0.372198
0.687922 0.719753 0.362341
0.693416 0.720455 0.357977
0.704219 0.722469 0.357488
0.717159 0.724605 0.362799
0.731167 0.726040 0.369146
0.743221 0.726467 0.376562
0.753750 0.726711 0.384771
0.765927 0.728847 0.393713
0.772915 0.727169 0.401831
0.777371 0.721004 0.404944
0.780087 0.713710 0.406683
0.711391 0.745418 0.407263
0.713375 0.743923 0.402625
0.713893 0.743099 0.399420
0.713314 0.741543 0.397620
0.714809 0.740841 0.394812
0.715572 0.740353 0.389471
0.713741 0.739528 0.379278
0.715297 0.739559 0.372564
0.721889 0.740688 0.369696
0.732876 0.742458 0.373571
0.744472 0.743770 0.379095
0.755459 0.743648 0.386664
0.764401 0.742855 0.394842
0.772549 0.741909 0.402686
0.778134 0.739528 0.411597
0.782345 0.735531 0.416754
0.785794 0.729671 0.421027
0.740627 0.762631 0.423804
0.739193 0.760647 0.420294
0.737667 0.759274 0.416785
0.736446 0.757809 0.412879
0.737331 0.757076 0.409979
0.737392 0.756436 0.405432
0.735348 0.755764 0.395666
0.735561 0.755459 0.388830
0.737575 0.755703 0.382300
0.746731 0.757076 0.384863
0.756100 0.758053 0.387701
0.765927 0.758022 0.395300
0.774411 0.757107 0.402289
0.781826 0.755611 0.410681
0.785794 0.752407 0.420508
0.788479 0.747890 0.426581
0.790555 0.742428 0.430365
0.029908 0.031525 0.136477
0.063844 0.034333 0.161257
0.118410 0.039368 0.175875
0.150393 0.039704 0.176944
0.174380 0.039887 0.186007
0.191959 0.039429 0.191531
0.205600 0.039063 0.192874
0.219120 0.039277 0.193820
0.229435 0.038575 0.190005
0.241917 0.038727 0.186252
0.254826 0.038819 0.179416
0.266423 0.039124 0.172152
0.280400 0.039734 0.160189
