LUTs/39.cube
# (C) 2014 VisionColor & Patchflyer [www.vision-color.com]
# Generator: VC Patchmatch v.2.1.1 [64/53]
# All work and no play makes Jack a dull boy.
# LUT generated from: Kodak Vision3 250D 5207 (NEG)_VisionSpace
LUT_3D_SIZE 9
0.027771 0.030426 0.028229
0.164553 0.051881 0.040558
0.207279 0.051911 0.043397
0.214786 0.048554 0.041840
0.229984 0.052216 0.041993
0.253880 0.049195 0.040406
0.283482 0.044251 0.039307
0.312230 0.041474 0.039307
0.352819 0.042512 0.041077
0.080140 0.154971 0.064546
0.180117 0.170932 0.078401
0.325505 0.202640 0.095613
0.389624 0.192630 0.086793
0.416999 0.181460 0.081849
0.446723 0.167758 0.077302
0.472145 0.146883 0.073518
0.480568 0.118044 0.066865
0.475074 0.081056 0.057008
0.186770 0.279973 0.121523
0.223148 0.300786 0.131533
0.303777 0.309453 0.151003
0.422461 0.314458 0.153750
0.489326 0.292485 0.131960
0.527276 0.261357 0.110811
0.551476 0.242161 0.104158
0.571435 0.234134 0.103670
0.572168 0.204623 0.096071
0.311406 0.382788 0.170413
0.316289 0.392279 0.172091
0.331212 0.397803 0.181735
0.409003 0.404608 0.198123
0.519158 0.407843 0.205905
0.582666 0.387900 0.189364
0.612421 0.356909 0.161074
0.630976 0.342473 0.147585
0.636957 0.315099 0.133913
0.429175 0.484657 0.211093
0.419287 0.485420 0.213626
0.401709 0.480568 0.214023
0.443214 0.484443 0.228183
0.536446 0.493751 0.249912
0.617151 0.495918 0.262394
0.654505 0.480980 0.252995
0.669306 0.455726 0.233219
0.673304 0.421241 0.206149
0.547784 0.594141 0.256291
0.529717 0.581323 0.254765
0.490272 0.567468 0.252201
0.518914 0.568994 0.269078
0.577325 0.578271 0.290623
0.645380 0.582971 0.311254
0.690394 0.584466 0.324041
0.708186 0.567376 0.319066
0.710140 0.529412 0.295842
0.650080 0.681086 0.312413
0.635035 0.667018 0.300816
0.593652 0.648341 0.293034
0.598413 0.641505 0.307286
0.639612 0.646967 0.331640
0.681086 0.653529 0.353521
0.719997 0.658106 0.373785
0.742092 0.653254 0.380591
0.747127 0.629847 0.370398
0.716274 0.728511 0.358892
0.697292 0.717006 0.343877
0.669825 0.701503 0.328008
0.654597 0.689845 0.333013
0.675807 0.689418 0.354559
0.709621 0.696864 0.380652
0.742000 0.707057 0.404273
0.767971 0.711513 0.415717
0.772976 0.696162 0.412085
0.758328 0.756466 0.394354
0.732387 0.742153 0.376043
0.718441 0.734462 0.365026
0.699702 0.725185 0.360510
0.696468 0.720455 0.368841
0.720516 0.725704 0.393317
0.748562 0.734951 0.415412
0.770504 0.740688 0.425361
0.779202 0.730495 0.425025
0.030457 0.034730 0.118471
0.141543 0.043336 0.151156
0.199100 0.042176 0.168704
0.214847 0.040314 0.159121
0.232609 0.040101 0.149447
0.255802 0.040253 0.127047
0.276066 0.041230 0.095705
0.288396 0.040040 0.060060
0.316869 0.040772 0.040284
0.061616 0.159579 0.171756
0.183352 0.166751 0.178103
0.350378 0.171084 0.154482
0.406989 0.182010 0.154513
0.449531 0.183383 0.150515
0.465187 0.175235 0.138918
0.471748 0.156558 0.113405
0.475135 0.124758 0.079500
0.463905 0.086610 0.057954
0.145113 0.318303 0.203403
0.238743 0.319097 0.167544
0.355047 0.333898 0.188174
0.464973 0.330327 0.197177
0.536736 0.317968 0.197726
0.571984 0.298253 0.186252
0.584649 0.272190 0.164218
0.593896 0.253635 0.134920
0.604364 0.237186 0.110933
0.255192 0.429358 0.191135
0.335607 0.430121 0.216281
0.406836 0.444617 0.224491
0.482338 0.445930 0.225986
0.577966 0.441749 0.237736
0.622797 0.421393 0.233188
0.635920 0.381720 0.209842
0.640925 0.345708 0.175937
0.651759 0.328038 0.148379
0.385840 0.523064 0.242710
0.420813 0.528283 0.263401
0.474434 0.533410 0.263462
0.529290 0.541680 0.263676
0.587182 0.531853 0.263981
0.656641 0.532158 0.276799
0.681331 0.506294 0.264530
0.684962 0.459190 0.227573
0.683436 0.411582 0.187594
0.488563 0.611170 0.288731
0.507866 0.613428 0.302953
0.548302 0.612024 0.305455
0.587488 0.617823 0.301152
0.618219 0.610986 0.298955
0.672908 0.611200 0.309667
0.717861 0.619013 0.323156
0.729000 0.593042 0.302068
0.725582 0.547295 0.266972
0.591241 0.676905 0.337346
0.602106 0.675624 0.342077
0.617761 0.670985 0.343450
0.634180 0.671870 0.330663
0.664454 0.674922 0.333318
0.696925 0.676692 0.343816
0.739864 0.688807 0.363409
0.759182 0.683253 0.365911
0.761105 0.658412 0.353277
0.677089 0.725093 0.386877
0.683558 0.724056 0.380499
0.687037 0.721431 0.379736
0.687922 0.719753 0.362341
0.704219 0.722469 0.357488
0.731167 0.726040 0.369146
0.753750 0.726711 0.384771
0.772915 0.727169 0.401831
0.780087 0.713710 0.406683
0.740627 0.762631 0.423804
0.737667 0.759274 0.416785
0.737331 0.757076 0.409979
0.735348 0.755764 0.395666
0.737575 0.755703 0.382300
0.756100 0.758053 0.387701
0.774411 0.757107 0.402289
0.785794 0.752407 0.420508
0.790555 0.742428 0.430365
0.028077 0.029541 0.148348
0.091279 0.035401 0.181399
0.151705 0.037568 0.188235
0.186343 0.037934 0.199374
0.218692 0.038025 0.205203
0.246799 0.038727 0.203250
0.268223 0.039521 0.194583
0.293950 0.040284 0.165713
0.328466 0.041016 0.095674
0.095064 0.185763 0.281163
0.149966 0.160403 0.304875
0.277806 0.140841 0.266056
0.343175 0.139925 0.249454
0.390570 0.137057 0.240665
0.407538 0.125002 0.227756
0.419196 0.107515 0.203342
0.433967 0.083650 0.155947
0.455695 0.065827 0.093416
0.140261 0.335668 0.326757
0.199619 0.333623 0.333623
0.337896 0.317113 0.318608
0.493294 0.310796 0.296544
0.596460 0.297642 0.282353
0.630549 0.277287 0.267643
0.620905 0.246647 0.238560
0.582055 0.219059 0.200107
0.578302 0.200504 0.149996
0.215335 0.457984 0.332677
0.254826 0.453864 0.305150
0.382086 0.440040 0.300938
0.481331 0.452399 0.288670
0.605859 0.448920 0.304601
0.658839 0.437263 0.311650
0.677180 0.398093 0.293797
0.657740 0.352087 0.265721
0.648676 0.324529 0.224948
0.265171 0.556359 0.295598
0.328038 0.549310 0.283848
0.429816 0.546166 0.298161
0.525963 0.560021 0.314061
0.599725 0.564782 0.329686
0.674922 0.563287 0.345251
0.706294 0.542947 0.343114
0.701381 0.487968 0.321050
0.687037 0.425589 0.276707
0.356405 0.637446 0.295720
0.418555 0.629816 0.304936
0.494148 0.632898 0.325841
0.577203 0.637995 0.347753
0.642603 0.650721 0.364263
0.687617 0.649470 0.371344
0.731472 0.646662 0.381353
0.743587 0.621424 0.375647
0.730922 0.559289 0.340795
0.486656 0.688167 0.335454
0.518822 0.686061 0.343542
0.572931 0.690578 0.358465
0.625757 0.692531 0.373968
0.670832 0.700008 0.384558
0.713680 0.705409 0.395483
0.744228 0.705043 0.402777
0.768338 0.699458 0.408118
0.769436 0.671687 0.393347
0.616754 0.726162 0.380041
0.631678 0.727352 0.383581
0.651576 0.731594 0.389013
0.675837 0.734188 0.397253
0.702235 0.737514 0.402960
0.735348 0.743191 0.411872
0.763241 0.745449 0.420600
0.780270 0.742367 0.423987
0.788357 0.726406 0.413550
0.703883 0.761624 0.411902
0.712032 0.760800 0.413306
0.716945 0.761776 0.415167
0.726284 0.762448 0.417945
0.735409 0.763241 0.420905
0.753414 0.766018 0.426978
0.776822 0.768277 0.430976
0.792966 0.765835 0.432441
0.799527 0.757290 0.426429
0.026001 0.027527 0.168490
0.059144 0.029908 0.186770
0.128847 0.034424 0.211887
0.158206 0.034974 0.212924
0.185519 0.036225 0.219150
0.218112 0.037629 0.227451
0.241611 0.038697 0.224826
0.268284 0.039887 0.209995
0.324559 0.042054 0.163302
0.081788 0.173098 0.323766
0.130831 0.154177 0.340887
0.242649 0.137270 0.318303
0.297765 0.113222 0.292576
0.339666 0.108278 0.287327
0.359045 0.092927 0.273838
0.370489 0.071717 0.249912
0.393286 0.058778 0.215518
0.438788 0.056062 0.165713
0.154452 0.341833 0.421546
0.202457 0.322545 0.423713
0.283970 0.310094 0.437446
0.413672 0.287816 0.407538
0.506218 0.277073 0.385260
0.553185 0.261723 0.360449
0.560845 0.234318 0.324346
0.550103 0.199466 0.270542
0.568261 0.170718 0.202945
0.237339 0.489723 0.475196
0.264500 0.470802 0.476570
0.339910 0.463081 0.464942
0.452888 0.446265 0.452796
0.586603 0.444190 0.438483
0.659571 0.425834 0.419120
0.702327 0.382284 0.381491
0.720913 0.329000 0.323873
0.687617 0.301823 0.268650
0.291508 0.579248 0.477058
0.304875 0.576349 0.458228
0.374243 0.563073 0.429389
0.491188 0.556970 0.437598
0.586084 0.569909 0.423346
0.682643 0.574273 0.427832
0.729641 0.559091 0.418814
0.749233 0.505196 0.386496
0.740108 0.439994 0.337224
0.321782 0.650202 0.456840
0.349432 0.642481 0.400656
0.420935 0.640101 0.398444
0.523369 0.642969 0.415869
0.621027 0.653376 0.422339
0.682795 0.660822 0.419898
0.742061 0.661128 0.426886
0.768246 0.641718 0.419379
0.767300 0.588891 0.388190
0.395361 0.700710 0.420249
0.433539 0.694423 0.381384
0.493080 0.696010 0.389654
0.576257 0.701350 0.414221
0.648859 0.706294 0.428443
0.707332 0.716335 0.432166
0.747890 0.717708 0.430854
0.781826 0.712245 0.434089
0.791043 0.692226 0.422675
0.532830 0.734157 0.403876
0.556451 0.735073 0.395300
0.590661 0.736843 0.402167
0.640040 0.741360 0.424353
0.686641 0.745266 0.438239
0.726070 0.751675 0.443305
0.763973 0.754757 0.447150
0.789548 0.749783 0.439124
0.801450 0.736568 0.433936
0.661158 0.763394 0.418402
0.667994 0.763333 0.412909
0.677272 0.765011 0.417212
0.699214 0.768002 0.429328
0.720272 0.770291 0.436835
0.740658 0.772488 0.439002
0.769955 0.774197 0.441901
0.796475 0.770901 0.441382
0.807858 0.764645 0.440772
0.024659 0.026062 0.199435
0.054261 0.026917 0.222171
0.115328 0.031159 0.244236
0.147616 0.033143 0.248447
0.158968 0.033722 0.241794
0.181430 0.035126 0.246372
0.208103 0.036835 0.247318
0.244450 0.039063 0.240909
0.309453 0.042298 0.209110
0.057191 0.152499 0.354559
0.114656 0.138003 0.366735
0.207919 0.122042 0.367132
0.266117 0.108064 0.340612
0.289677 0.083192 0.320897
0.315373 0.073945 0.316625
0.334905 0.059907 0.293767
0.355596 0.050538 0.258885
0.422461 0.055207 0.224887
0.138888 0.331060 0.483406
0.197055 0.317479 0.479744
0.254765 0.308141 0.534478
0.362646 0.285771 0.511711
0.429969 0.262333 0.465400
0.480995 0.252384 0.436545
0.502708 0.226474 0.397147
0.510277 0.190677 0.341146
0.553887 0.164736 0.272953
0.233219 0.472450 0.553063
0.270817 0.457710 0.550164
0.302464 0.452308 0.572900
0.394263 0.438819 0.567742
0.504570 0.419959 0.533989
0.594965 0.405905 0.518654
0.646937 0.373495 0.487572
0.676722 0.330953 0.430442
0.695186 0.295872 0.345754
0.317937 0.595728 0.596765
0.330114 0.587427 0.596002
0.368078 0.586694 0.590784
0.456092 0.579217 0.583032
0.568658 0.571435 0.578515
0.647120 0.576379 0.574365
0.691402 0.558846 0.554269
0.721645 0.511788 0.506142
0.750759 0.451225 0.426078
0.350378 0.659175 0.595270
0.360876 0.658991 0.575113
0.400977 0.655909 0.556283
0.476295 0.648035 0.549935
0.600122 0.648005 0.570626
0.666499 0.661097 0.561410
0.729488 0.666712 0.559792
0.760555 0.654627 0.542031
0.774624 0.616571 0.492958
0.382086 0.706233 0.573007
0.403906 0.701503 0.530724
0.444495 0.696773 0.504372
0.516594 0.695644 0.514260
0.618036 0.703151 0.539925
0.689693 0.713741 0.546304
0.736782 0.720241 0.534798
0.777096 0.720699 0.531533
0.794736 0.708064 0.506340
0.472389 0.732479 0.527565
0.500877 0.736446 0.548608
0.527947 0.732845 0.478996
0.587854 0.735653 0.495628
0.651698 0.742763 0.516335
0.707942 0.749020 0.528191
0.753017 0.755611 0.524681
0.785397 0.754513 0.511406
0.806210 0.750393 0.497261
0.612543 0.760861 0.472068
0.614099 0.761379 0.475639
0.628504 0.762325 0.470771
0.653529 0.766018 0.476570
0.692103 0.771206 0.489845
0.722225 0.773922 0.498299
0.753872 0.775570 0.495583
0.788754 0.774594 0.487648
0.812589 0.773434 0.485969
0.023041 0.024445 0.233463
0.043549 0.025360 0.253147
0.099733 0.029175 0.276860
0.136416 0.031708 0.284733
0.151858 0.032776 0.282170
0.155154 0.033082 0.270268
0.173800 0.034241 0.272435
0.211093 0.037049 0.269810
0.289708 0.042603 0.260960
0.048188 0.131502 0.384802
0.089784 0.126162 0.395087
0.175662 0.106905 0.407416
0.232334 0.096437 0.394018
0.261814 0.078828 0.378210
0.261723 0.058320 0.350896
0.288731 0.052461 0.346624
0.322240 0.049622 0.328222
0.406897 0.056947 0.302953
0.120577 0.324681 0.530694
0.177005 0.314946 0.524651
0.237430 0.307225 0.564477
0.317174 0.283543 0.594324
0.379080 0.263920 0.545007
0.404730 0.230320 0.495766
0.440497 0.216861 0.467720
0.468635 0.187411 0.425086
0.532128 0.159884 0.356054
0.216403 0.457527 0.590570
0.262119 0.450935 0.589624
0.292058 0.444465 0.613947
0.357351 0.437140 0.642664
0.444694 0.412695 0.615656
0.515160 0.385946 0.597314
0.585046 0.369619 0.581079
0.622522 0.337469 0.538293
0.649531 0.306065 0.459937
0.310277 0.578332 0.633021
0.331426 0.574975 0.637842
0.349645 0.576135 0.650233
0.407126 0.573541 0.655848
0.515236 0.566247 0.642329
0.591821 0.549050 0.621546
0.650202 0.538033 0.619379
0.687037 0.503395 0.596918
0.720333 0.455558 0.545800
0.368750 0.664942 0.667597
0.377050 0.665583 0.669917
0.407507 0.666865 0.667720
0.468025 0.665187 0.664118
0.576532 0.661799 0.661555
0.658961 0.663203 0.664851
0.704860 0.668666 0.666255
0.729702 0.658778 0.653773
0.743801 0.630518 0.620920
0.391424 0.711727 0.673213
0.405158 0.708583 0.655665
0.433356 0.706783 0.643153
0.486244 0.705745 0.639063
0.584497 0.704067 0.644129
0.678157 0.709865 0.662562
0.725093 0.721401 0.660243
0.762509 0.724971 0.657008
0.780819 0.716426 0.641382
0.437568 0.739010 0.652094
0.457313 0.740627 0.651148
0.479866 0.733974 0.608118
0.537469 0.732876 0.608423
0.612360 0.734371 0.618830
0.685115 0.742153 0.637781
0.738857 0.752651 0.641962
0.773404 0.757107 0.629267
0.797604 0.757992 0.622400
0.546075 0.753353 0.603876
0.556634 0.753841 0.606470
0.576806 0.753170 0.583520
0.609094 0.756191 0.583764
0.646876 0.762264 0.583246
0.691951 0.769558 0.589136
0.737972 0.774197 0.595148
0.775906 0.778592 0.584131
0.805051 0.781033 0.581567
0.022522 0.023926 0.267613
0.034546 0.024506 0.284489
0.091341 0.028351 0.322179
0.128847 0.031037 0.331945
0.147433 0.032319 0.332128
0.151766 0.032624 0.322148
0.145907 0.032258 0.303380
0.172488 0.034241 0.300389
0.251133 0.040803 0.313329
0.046998 0.124422 0.415137
0.062806 0.122042 0.427283
0.146181 0.103639 0.452949
0.207492 0.089540 0.450874
0.236820 0.075044 0.444678
0.248997 0.058198 0.427985
0.244907 0.046265 0.394568
0.276371 0.046448 0.389838
0.378851 0.058900 0.393561
0.110445 0.321599 0.555932
0.145296 0.313085 0.549187
0.211704 0.305974 0.567407
0.273045 0.285893 0.621424
0.331853 0.263005 0.606348
0.366857 0.234531 0.563500
0.369574 0.195560 0.507042
0.409918 0.179568 0.486213
0.495216 0.157443 0.455238
0.201999 0.460029 0.613855
0.242679 0.447669 0.610132
0.282261 0.438514 0.622522
0.325383 0.440223 0.673854
0.394095 0.414191 0.672602
0.458778 0.389181 0.658015
0.503014 0.356008 0.636652
0.563470 0.340826 0.610620
0.608789 0.316320 0.555871
0.296880 0.569787 0.652491
0.330022 0.568719 0.655390
0.344610 0.569238 0.674128
0.385214 0.570153 0.692409
0.477836 0.568597 0.688594
0.550286 0.547158 0.662806
0.593103 0.520333 0.657557
0.643824 0.502022 0.654688
0.689570 0.463645 0.635431
0.370581 0.654200 0.686915
0.375952 0.656031 0.695644
0.392523 0.658717 0.702724
0.438300 0.659571 0.706020
0.530846 0.659785 0.704768
0.628412 0.661006 0.698634
0.665888 0.651148 0.687160
0.700008 0.648676 0.689143
0.724727 0.629938 0.676295
0.399084 0.712154 0.716915
0.410651 0.711025 0.713283
0.437507 0.712215 0.712489
0.487221 0.713497 0.712184
0.574212 0.714687 0.712856
0.664881 0.717494 0.716060
0.719203 0.722957 0.722774
0.746731 0.724727 0.722011
0.760739 0.719326 0.715358
0.431128 0.743282 0.718837
0.439551 0.741085 0.705715
0.459480 0.739437 0.698573
0.507866 0.740963 0.697169
0.584802 0.741634 0.700282
0.663417 0.742641 0.706081
0.725978 0.749386 0.716609
0.763180 0.759243 0.718929
0.784421 0.761074 0.718898
0.483772 0.760983 0.699428
0.497505 0.760555 0.688777
0.519371 0.758968 0.680110
0.561944 0.759030 0.679744
0.614832 0.759854 0.679927
0.668605 0.761471 0.681697
0.719478 0.769436 0.688441
0.765286 0.778622 0.693874
0.793698 0.783932 0.694331
0.022461 0.023926 0.301396
0.025818 0.023957 0.312871
0.072999 0.027192 0.363287
0.121126 0.030762 0.386755
0.143648 0.032715 0.390143
0.149966 0.033173 0.383337
0.146120 0.032624 0.367559
0.135988 0.031525 0.333196
0.193912 0.036316 0.338842
0.052613 0.142916 0.463050
0.046601 0.113069 0.455146
0.108858 0.102602 0.481453
0.177035 0.095033 0.493965
0.211612 0.077852 0.493568
0.232670 0.060639 0.488228
0.241062 0.048859 0.469276
0.243778 0.044251 0.440162
0.339239 0.057465 0.455726
0.110201 0.331456 0.578576
0.113130 0.302617 0.567407
0.175051 0.296971 0.572045
0.237797 0.292882 0.602441
0.281987 0.271305 0.645747
0.328527 0.244785 0.616602
0.346960 0.211093 0.559136
0.350835 0.169741 0.522301
0.446815 0.160433 0.514275
0.189456 0.470741 0.632044
0.211154 0.437781 0.618372
0.256748 0.428199 0.625086
0.310094 0.443824 0.666346
0.357015 0.429328 0.701534
0.414099 0.403067 0.696040
0.462501 0.376242 0.682490
0.489693 0.340932 0.656703
0.574182 0.331090 0.615351
0.289219 0.577752 0.668971
0.321294 0.566796 0.667659
0.343328 0.563653 0.682368
0.376272 0.570062 0.709651
0.458488 0.578058 0.714961
0.520775 0.559060 0.698360
0.566278 0.537331 0.685817
0.589532 0.505837 0.682399
0.654719 0.483665 0.678096
0.365881 0.652338 0.700648
0.379309 0.654444 0.712215
0.400793 0.658778 0.724819
0.442420 0.659663 0.730343
0.524315 0.662409 0.729061
0.616449 0.665766 0.721859
0.651392 0.656245 0.707912
0.666438 0.642817 0.703243
0.702235 0.636225 0.704829
0.402014 0.707942 0.732601
0.410925 0.706783 0.733242
0.439429 0.709682 0.737606
0.487617 0.711330 0.740261
0.565850 0.714168 0.739590
0.650904 0.718013 0.738277
0.706264 0.721401 0.738369
0.722164 0.716915 0.733944
0.744595 0.718349 0.736965
0.436927 0.743496 0.747585
0.445258 0.743099 0.741604
0.470161 0.742306 0.739956
0.525383 0.744808 0.743374
0.599023 0.746212 0.744991
0.668574 0.748989 0.747311
0.719875 0.756863 0.755093
0.761166 0.762905 0.761593
0.776913 0.764401 0.761959
0.470497 0.763516 0.741634
0.481758 0.763882 0.739467
0.501274 0.763027 0.736812
0.553368 0.764431 0.738735
0.610986 0.765805 0.739071
0.663142 0.767391 0.739284
0.711391 0.770596 0.742672
0.758816 0.777615 0.752773
0.787198 0.785641 0.761044
0.022461 0.023957 0.326665
0.022889 0.023835 0.337163
0.052796 0.025940 0.391119
0.106844 0.030243 0.433417
0.139010 0.033112 0.447944
0.150423 0.034180 0.445899
0.154971 0.034516 0.436011
0.177066 0.036530 0.430213
0.179477 0.036164 0.382483
0.055451 0.151919 0.494972
0.050874 0.125277 0.488777
0.087373 0.113191 0.508446
0.143587 0.113313 0.522698
0.186404 0.098970 0.524865
0.217868 0.083894 0.520989
0.236423 0.069856 0.512810
0.248386 0.059876 0.499672
0.305882 0.058625 0.494362
0.110842 0.335790 0.596613
0.104097 0.295720 0.582177
0.152163 0.287022 0.580743
0.212772 0.302068 0.601831
0.255467 0.299504 0.651270
0.301183 0.271702 0.680507
0.338323 0.247471 0.621546
0.348241 0.208499 0.571496
0.399451 0.180270 0.549096
0.180697 0.474891 0.645808
0.182437 0.425055 0.626886
0.228000 0.414466 0.626673
0.299351 0.440894 0.662867
0.347066 0.448951 0.709224
0.393530 0.430961 0.717983
0.441627 0.406485 0.706416
0.478431 0.377401 0.693080
0.534356 0.351141 0.663874
0.282933 0.583337 0.679835
0.305272 0.563043 0.676448
0.332982 0.556130 0.683314
0.374716 0.569375 0.713649
0.457877 0.587152 0.729915
0.515099 0.577462 0.719814
0.554162 0.558694 0.704219
0.582025 0.538918 0.699214
0.616388 0.511055 0.697902
0.367803 0.657221 0.713680
0.390539 0.661646 0.725978
0.411170 0.664179 0.739590
0.455970 0.663508 0.744289
0.540673 0.668544 0.743069
0.623438 0.674708 0.736507
0.649042 0.668696 0.726223
0.666529 0.661067 0.718379
0.679805 0.647089 0.715969
0.410864 0.711666 0.747158
0.426459 0.713649 0.751308
0.478645 0.716854 0.756313
0.527642 0.715389 0.755795
0.596735 0.717464 0.754147
0.663874 0.720851 0.752621
0.707057 0.725338 0.751431
0.720790 0.723659 0.747189
0.731167 0.720516 0.745296
0.450141 0.743465 0.761715
0.453864 0.743648 0.759548
0.496040 0.744564 0.760647
0.566339 0.745144 0.762203
0.625025 0.746426 0.762325
0.679255 0.749722 0.763607
0.724178 0.755032 0.765682
0.756436 0.761624 0.769314
0.766720 0.763485 0.769985
0.476204 0.765438 0.763943
0.500420 0.765927 0.765072
0.530632 0.764950 0.764492
0.597192 0.767300 0.767880
0.647395 0.768948 0.768765
0.683650 0.770352 0.769375
0.723415 0.774044 0.772061
0.763760 0.782925 0.781064
0.793088 0.792752 0.791348
