LUTs/39.cube
# (C) 2014 VisionColor & Patchflyer [www.vision-color.com]
# Generator: VC Patchmatch v.2.1.1 [64/53]
# All work and no play makes Jack a dull boy.
# LUT generated from: Kodak Vision3 250D 5207 (NEG)_VisionSpace
LUT_3D_SIZE 5
0.027771 0.030426 0.028229
0.207279 0.051911 0.043397
0.229984 0.052216 0.041993
0.283482 0.044251 0.039307
0.352819 0.042512 0.041077
0.186770 0.279973 0.121523
0.303777 0.309453 0.151003
0.489326 0.292485 0.131960
0.551476 0.242161 0.104158
0.572168 0.204623 0.096071
0.429175 0.484657 0.211093
0.401709 0.480568 0.214023
0.536446 0.493751 0.249912
0.654505 0.480980 0.252995
0.673304 0.421241 0.206149
0.650080 0.681086 0.312413
0.593652 0.648341 0.293034
0.639612 0.646967 0.331640
0.719997 0.658106 0.373785
0.747127 0.629847 0.370398
0.758328 0.756466 0.394354
0.718441 0.734462 0.365026
0.696468 0.720455 0.368841
0.748562 0.734951 0.415412
0.779202 0.730495 0.425025
0.028077 0.029541 0.148348
0.151705 0.037568 0.188235
0.218692 0.038025 0.205203
0.268223 0.039521 0.194583
0.328466 0.041016 0.095674
0.140261 0.335668 0.326757
0.337896 0.317113 0.318608
0.596460 0.297642 0.282353
0.620905 0.246647 0.238560
0.578302 0.200504 0.149996
0.265171 0.556359 0.295598
0.429816 0.546166 0.298161
0.599725 0.564782 0.329686
0.706294 0.542947 0.343114
0.687037 0.425589 0.276707
0.486656 0.688167 0.335454
0.572931 0.690578 0.358465
0.670832 0.700008 0.384558
0.744228 0.705043 0.402777
0.769436 0.671687 0.393347
0.703883 0.761624 0.411902
0.716945 0.761776 0.415167
0.735409 0.763241 0.420905
0.776822 0.768277 0.430976
0.799527 0.757290 0.426429
0.024659 0.026062 0.199435
0.115328 0.031159 0.244236
0.158968 0.033722 0.241794
0.208103 0.036835 0.247318
0.309453 0.042298 0.209110
0.138888 0.331060 0.483406
0.254765 0.308141 0.534478
0.429969 0.262333 0.465400
0.502708 0.226474 0.397147
0.553887 0.164736 0.272953
0.317937 0.595728 0.596765
0.368078 0.586694 0.590784
0.568658 0.571435 0.578515
0.691402 0.558846 0.554269
0.750759 0.451225 0.426078
0.382086 0.706233 0.573007
0.444495 0.696773 0.504372
0.618036 0.703151 0.539925
0.736782 0.720241 0.534798
0.794736 0.708064 0.506340
0.612543 0.760861 0.472068
0.628504 0.762325 0.470771
0.692103 0.771206 0.489845
0.753872 0.775570 0.495583
0.812589 0.773434 0.485969
0.022522 0.023926 0.267613
0.091341 0.028351 0.322179
0.147433 0.032319 0.332128
0.145907 0.032258 0.303380
0.251133 0.040803 0.313329
0.110445 0.321599 0.555932
0.211704 0.305974 0.567407
0.331853 0.263005 0.606348
0.369574 0.195560 0.507042
0.495216 0.157443 0.455238
0.296880 0.569787 0.652491
0.344610 0.569238 0.674128
0.477836 0.568597 0.688594
0.593103 0.520333 0.657557
0.689570 0.463645 0.635431
0.399084 0.712154 0.716915
0.437507 0.712215 0.712489
0.574212 0.714687 0.712856
0.719203 0.722957 0.722774
0.760739 0.719326 0.715358
0.483772 0.760983 0.699428
0.519371 0.758968 0.680110
0.614832 0.759854 0.679927
0.719478 0.769436 0.688441
0.793698 0.783932 0.694331
0.022461 0.023957 0.326665
0.052796 0.025940 0.391119
0.139010 0.033112 0.447944
0.154971 0.034516 0.436011
0.179477 0.036164 0.382483
0.110842 0.335790 0.596613
0.152163 0.287022 0.580743
0.255467 0.299504 0.651270
0.338323 0.247471 0.621546
0.399451 0.180270 0.549096
0.282933 0.583337 0.679835
0.332982 0.556130 0.683314
0.457877 0.587152 0.729915
0.554162 0.558694 0.704219
0.616388 0.511055 0.697902
0.410864 0.711666 0.747158
0.478645 0.716854 0.756313
0.596735 0.717464 0.754147
0.707057 0.725338 0.751431
0.731167 0.720516 0.745296
0.476204 0.765438 0.763943
0.530632 0.764950 0.764492
0.647395 0.768948 0.768765
0.723415 0.774044 0.772061
0.793088 0.792752 0.791348
