LUTs/41.cube
# (C) 2014 VisionColor & Patchflyer [www.vision-color.com]
# Generator: VC Patchmatch v.2.1.1 [64/53]
# All work and no play makes Jack a dull boy.
# LUT generated from: Kodak Vision3 500T 5219 (NEG)_FPE
LUT_3D_SIZE 17
0.034241 0.038178 0.038697
0.075807 0.039796 0.033539
0.170901 0.045075 0.033814
0.284520 0.052247 0.039338
0.371862 0.058900 0.043214
0.446082 0.063630 0.046448
0.503471 0.067323 0.049714
0.537835 0.066407 0.052064
0.561364 0.062776 0.053101
0.572076 0.061738 0.054200
0.586145 0.059205 0.055055
0.590143 0.057862 0.056458
0.585657 0.055695 0.061158
0.568872 0.053590 0.063447
0.550866 0.052918 0.069337
0.537774 0.051575 0.069123
0.529992 0.050324 0.065431
0.051759 0.055512 0.034211
0.085237 0.055970 0.033509
0.183841 0.061036 0.033539
0.307225 0.071565 0.039490
0.392065 0.085451 0.044129
0.457435 0.097383 0.047456
0.517021 0.106111 0.050538
0.560693 0.104707 0.052857
0.586572 0.098848 0.054536
0.608576 0.093141 0.055818
0.631922 0.099733 0.057038
0.639948 0.096254 0.057404
0.640192 0.089479 0.057038
0.629175 0.075715 0.056123
0.611902 0.066560 0.055299
0.598535 0.061097 0.054932
0.581323 0.057740 0.054322
0.044251 0.098512 0.033570
0.107729 0.120363 0.033112
0.204746 0.119905 0.035035
0.340154 0.132174 0.042420
0.430701 0.143496 0.046754
0.502190 0.156405 0.050355
0.564630 0.167941 0.053376
0.610285 0.177951 0.055726
0.651514 0.185946 0.057984
0.690059 0.195926 0.060670
0.700832 0.191592 0.061585
0.704402 0.183169 0.061463
0.705196 0.170901 0.061677
0.696742 0.155917 0.060609
0.678798 0.136110 0.059419
0.674830 0.129274 0.059052
0.672267 0.122866 0.059022
0.032136 0.126558 0.036042
0.073457 0.158663 0.034424
0.267247 0.215610 0.037720
0.363928 0.197787 0.043397
0.462654 0.211734 0.049165
0.540825 0.227604 0.053254
0.610224 0.242527 0.056977
0.663874 0.256107 0.059937
0.707942 0.267094 0.063264
0.748531 0.280674 0.067720
0.767971 0.286107 0.070039
0.775051 0.282628 0.070558
0.770565 0.268162 0.069490
0.763821 0.255680 0.068391
0.757534 0.244633 0.067079
0.756191 0.240818 0.066743
0.753292 0.235477 0.066133
0.032227 0.158022 0.036011
0.070893 0.206058 0.036316
0.273701 0.275364 0.040833
0.459968 0.315801 0.051606
0.502342 0.283055 0.053254
0.581079 0.299046 0.058991
0.646265 0.310582 0.063478
0.702174 0.317510 0.067323
0.746487 0.327794 0.071473
0.785946 0.341222 0.076265
0.804898 0.345617 0.078676
0.813993 0.345220 0.079774
0.818418 0.341650 0.079927
0.813199 0.335515 0.078798
0.811429 0.332647 0.078492
0.810330 0.327459 0.078157
0.808042 0.322698 0.077699
0.034089 0.207004 0.036408
0.102602 0.262425 0.038819
0.302388 0.330877 0.044160
0.486656 0.375158 0.055879
0.590265 0.384863 0.065736
0.622599 0.358434 0.066468
0.683818 0.367987 0.071962
0.739727 0.375250 0.077089
0.780621 0.380163 0.081147
0.817411 0.392584 0.086152
0.835386 0.400031 0.089143
0.844480 0.401099 0.090242
0.848936 0.399420 0.090455
0.851377 0.399145 0.090608
0.852171 0.400488 0.091157
0.851102 0.397803 0.090761
0.849943 0.396551 0.090700
0.039277 0.272312 0.040314
0.140124 0.339513 0.042634
0.355795 0.391913 0.048981
0.515541 0.425330 0.061128
0.627832 0.441291 0.073976
0.695323 0.436439 0.080873
0.725750 0.417060 0.081727
0.782483 0.428290 0.088563
0.819638 0.435492 0.093568
0.851591 0.446265 0.098878
0.867216 0.453925 0.102144
0.874022 0.456214 0.103304
0.878325 0.456641 0.103975
0.878599 0.458259 0.104219
0.881254 0.462562 0.105318
0.881621 0.461128 0.105074
0.882841 0.459449 0.104707
0.044648 0.331609 0.044465
0.200397 0.412055 0.049104
0.422873 0.456703 0.059449
0.549477 0.476997 0.069306
0.639597 0.485390 0.080049
0.731273 0.496071 0.093263
0.793286 0.497444 0.101564
0.824262 0.479225 0.102296
0.858244 0.486946 0.107210
0.882750 0.496254 0.111910
0.896483 0.505272 0.115480
0.902464 0.510063 0.117311
0.905669 0.511833 0.118135
0.904448 0.514549 0.118624
0.905516 0.517784 0.119448
0.906035 0.518334 0.119631
0.907317 0.517693 0.119722
0.053712 0.384894 0.051392
0.260853 0.468971 0.056306
0.484123 0.509819 0.069429
0.592264 0.526497 0.080903
0.693980 0.541695 0.096101
0.754833 0.543221 0.104341
0.840558 0.570382 0.121370
0.881605 0.567880 0.127230
0.887877 0.542947 0.122713
0.908141 0.551659 0.127169
0.916106 0.556573 0.129335
0.921569 0.563775 0.131594
0.924529 0.567193 0.132753
0.927184 0.573327 0.134463
0.928527 0.575586 0.135073
0.930449 0.575860 0.135348
0.928985 0.573083 0.134585
0.061219 0.431373 0.061067
0.323186 0.522423 0.065553
0.535363 0.555047 0.081422
0.644404 0.575860 0.095918
0.766995 0.605310 0.116701
0.825315 0.609796 0.125887
0.866972 0.618341 0.134829
0.925811 0.649592 0.151278
0.932036 0.635142 0.149233
0.929503 0.603723 0.141543
0.933867 0.605676 0.142824
0.935943 0.608881 0.143923
0.936828 0.612573 0.144961
0.937957 0.616419 0.146059
0.938720 0.617884 0.146517
0.940246 0.619043 0.147097
0.939849 0.619684 0.147250
0.072541 0.466529 0.080934
0.361547 0.562982 0.075319
0.574731 0.588495 0.091035
0.694331 0.609644 0.107362
0.804471 0.637659 0.126925
0.874937 0.658228 0.142733
0.903471 0.661860 0.149630
0.935576 0.676692 0.159670
0.942046 0.681910 0.162295
0.942809 0.664759 0.158541
0.943084 0.647547 0.154482
0.945068 0.649775 0.155337
0.945678 0.651301 0.155795
0.946410 0.652735 0.156222
0.946288 0.652064 0.156008
0.946410 0.653407 0.156374
0.946014 0.654322 0.156497
0.089326 0.498054 0.097017
0.415778 0.600702 0.087953
0.633051 0.623529 0.104036
0.742367 0.638086 0.118593
0.835477 0.660060 0.135561
0.894682 0.675654 0.149264
0.921233 0.683040 0.156771
0.938750 0.688228 0.162875
0.943877 0.692744 0.165286
0.947997 0.696712 0.167117
0.948699 0.685512 0.164584
0.948577 0.677333 0.162631
0.948425 0.676753 0.162448
0.948394 0.676265 0.162325
0.948394 0.675837 0.162234
0.948547 0.676783 0.162478
0.948058 0.675471 0.162081
0.133883 0.534600 0.117769
0.461982 0.630854 0.104219
0.688899 0.663081 0.117220
0.805264 0.673671 0.133486
0.866300 0.678981 0.143771
0.912718 0.688899 0.155154
0.930236 0.691676 0.160555
0.941558 0.695613 0.164950
0.945922 0.699672 0.167208
0.948394 0.701991 0.168429
0.950042 0.704646 0.169436
0.949798 0.700801 0.168460
0.949554 0.696376 0.167361
0.949218 0.693843 0.166720
0.949676 0.692592 0.166506
0.949706 0.692897 0.166598
0.949523 0.690486 0.165988
0.177523 0.559197 0.126802
0.502068 0.652674 0.115908
0.731807 0.692561 0.128847
0.860868 0.708247 0.148104
0.905180 0.706477 0.156069
0.926177 0.699702 0.160586
0.936095 0.697871 0.163424
0.944793 0.701869 0.167147
0.947936 0.704067 0.168734
0.949859 0.704372 0.169314
0.950347 0.705135 0.169589
0.948669 0.702449 0.168612
0.947967 0.699763 0.167819
0.949279 0.701900 0.168612
0.950164 0.701228 0.168643
0.950103 0.700252 0.168399
0.949981 0.700496 0.168429
0.225345 0.582879 0.134737
0.534478 0.667750 0.128878
0.757259 0.712001 0.138338
0.891600 0.729061 0.157321
0.927337 0.724666 0.164767
0.937682 0.711513 0.166293
0.939574 0.700740 0.165225
0.946441 0.706447 0.169009
0.949981 0.710292 0.171237
0.950378 0.707057 0.170260
0.950378 0.706661 0.170108
0.949950 0.704524 0.169375
0.949035 0.703059 0.168826
0.950072 0.704707 0.169436
0.950378 0.705165 0.169619
0.949523 0.702144 0.168734
0.948333 0.700587 0.168093
0.271214 0.604486 0.144045
0.577111 0.683131 0.137575
0.790219 0.725643 0.145937
0.909880 0.739956 0.162997
0.937713 0.732631 0.169345
0.942138 0.716640 0.168917
0.942168 0.702632 0.166629
0.945342 0.704005 0.168307
0.949554 0.709957 0.171176
0.950378 0.708705 0.170809
0.949920 0.706416 0.170016
0.949615 0.703975 0.169162
0.950378 0.705165 0.169619
0.950378 0.705165 0.169619
0.949615 0.703975 0.169162
0.950378 0.705165 0.169619
0.948943 0.702907 0.168795
0.323644 0.626856 0.155489
0.622736 0.696986 0.144717
0.821866 0.735348 0.152377
0.922301 0.747341 0.167056
0.941283 0.736110 0.171542
0.945373 0.720821 0.171084
0.945220 0.705409 0.168246
0.947112 0.706538 0.169406
0.948180 0.707301 0.170230
0.949859 0.708980 0.170871
0.949248 0.706477 0.169986
0.947540 0.700679 0.167941
0.949248 0.703365 0.168948
0.949798 0.704250 0.169284
0.947997 0.701350 0.168215
0.948943 0.702907 0.168795
0.950378 0.705165 0.169619
0.033722 0.033478 0.052461
0.056336 0.036744 0.054871
0.142641 0.039734 0.066224
0.248173 0.041505 0.063630
0.323705 0.043214 0.067109
0.378668 0.045350 0.078096
0.426764 0.049012 0.089143
0.480903 0.052674 0.104433
0.525383 0.056367 0.118471
0.566705 0.059083 0.136782
0.572045 0.055421 0.143679
0.552819 0.053742 0.140810
0.534508 0.051942 0.146365
0.522087 0.051392 0.153384
0.513664 0.050965 0.152712
0.514885 0.050935 0.144564
0.517357 0.051179 0.132631
0.034455 0.049744 0.056092
0.063935 0.066041 0.060487
0.169650 0.073732 0.056947
0.298497 0.086458 0.054871
0.386755 0.096681 0.058198
0.451301 0.102510 0.062409
0.508110 0.108003 0.066773
0.550866 0.108949 0.070954
0.580316 0.106050 0.075807
0.604578 0.100984 0.085328
0.620111 0.093568 0.095460
0.627008 0.083925 0.105226
0.624048 0.073732 0.114778
0.611109 0.061280 0.120912
0.587701 0.055909 0.122560
0.565820 0.053529 0.123445
0.549065 0.053254 0.117067
0.030091 0.087770 0.058381
0.065156 0.111818 0.050050
0.197726 0.131624 0.045014
0.354406 0.149569 0.046540
0.448188 0.154452 0.049104
0.513726 0.159701 0.051972
0.573663 0.166873 0.054810
0.628290 0.168124 0.057252
0.663294 0.168276 0.059205
0.685939 0.161440 0.061097
0.703120 0.161196 0.063020
0.705745 0.147341 0.063386
0.694514 0.126253 0.063142
0.678004 0.103975 0.062104
0.651514 0.080476 0.064393
0.629267 0.065919 0.064729
0.617945 0.063539 0.064027
0.030610 0.125124 0.054017
0.050019 0.162173 0.053223
0.239322 0.227756 0.045319
0.385321 0.228641 0.046540
0.487068 0.239902 0.051179
0.560998 0.246677 0.055421
0.628199 0.256809 0.059419
0.684199 0.264439 0.062715
0.719081 0.270573 0.065431
0.748379 0.272770 0.067933
0.766659 0.263188 0.069551
0.774929 0.252506 0.069642
0.775265 0.238285 0.069215
0.764462 0.214969 0.067475
0.743099 0.177890 0.064515
0.724483 0.151644 0.063661
0.712947 0.138521 0.063783
0.033265 0.162600 0.063966
0.051301 0.214725 0.061860
0.252934 0.299382 0.050660
0.465675 0.345830 0.054261
0.535576 0.323705 0.058198
0.608011 0.325597 0.063386
0.673335 0.332097 0.067933
0.709590 0.331548 0.070008
0.743679 0.332921 0.072145
0.773251 0.332006 0.074434
0.802396 0.335515 0.078218
0.814359 0.329809 0.079133
0.818845 0.322087 0.078828
0.818967 0.310521 0.078279
0.817624 0.296727 0.077638
0.803738 0.269322 0.074647
0.792721 0.253483 0.072816
0.035065 0.196414 0.078431
0.057771 0.267735 0.064851
0.289296 0.368841 0.052186
0.499840 0.413947 0.061341
0.622141 0.425238 0.074708
0.642710 0.390600 0.071992
0.704860 0.392523 0.077211
0.747921 0.390692 0.080232
0.782742 0.388464 0.082856
0.811673 0.388067 0.085451
0.830869 0.388800 0.087678
0.845884 0.388403 0.089143
0.855894 0.389502 0.090364
0.858579 0.387274 0.090425
0.860868 0.382910 0.090730
0.861784 0.377844 0.090730
0.852689 0.360845 0.087892
0.037903 0.252842 0.096010
0.070100 0.327276 0.067659
0.339254 0.430732 0.056794
0.537942 0.471473 0.070069
0.663539 0.488350 0.085328
0.718853 0.475837 0.089540
0.739879 0.447395 0.087922
0.786389 0.446296 0.092195
0.818860 0.443946 0.095003
0.847532 0.446021 0.098756
0.866117 0.452277 0.102296
0.870665 0.451118 0.102358
0.879515 0.454383 0.103944
0.881254 0.451026 0.103487
0.884337 0.452186 0.104128
0.887694 0.452094 0.104768
0.889952 0.450355 0.104921
0.040436 0.310735 0.117525
0.094545 0.390753 0.061372
0.410025 0.494270 0.064363
0.589899 0.528893 0.082856
0.666545 0.524620 0.090120
0.758160 0.537346 0.103761
0.806592 0.527367 0.108583
0.826337 0.502922 0.106935
0.855985 0.499336 0.109163
0.879545 0.499001 0.111940
0.894194 0.507652 0.115877
0.898650 0.508232 0.116640
0.903685 0.509544 0.117525
0.904387 0.507927 0.117525
0.905486 0.511681 0.118471
0.905730 0.510552 0.118257
0.909331 0.512505 0.119265
0.042390 0.355505 0.124697
0.127764 0.449302 0.062013
0.447913 0.526818 0.071260
0.607904 0.558373 0.089052
0.701793 0.568200 0.101747
0.791791 0.585458 0.117098
0.857008 0.596643 0.128756
0.884825 0.583566 0.130800
0.888518 0.563424 0.127138
0.906065 0.559487 0.128725
0.913634 0.560510 0.130129
0.920653 0.563043 0.131624
0.924956 0.564446 0.132540
0.925536 0.565301 0.132692
0.925811 0.569879 0.133577
0.923919 0.568322 0.132845
0.921874 0.563989 0.131685
0.044739 0.393317 0.139498
0.175784 0.501518 0.068147
0.480354 0.555322 0.077974
0.625666 0.584283 0.095216
0.733486 0.605585 0.112276
0.821225 0.623255 0.127901
0.877653 0.635218 0.139437
0.921935 0.644892 0.148989
0.928038 0.632700 0.147799
0.929625 0.614649 0.144076
0.932006 0.608759 0.143252
0.935027 0.608637 0.143832
0.937438 0.609003 0.144350
0.936492 0.608911 0.144106
0.936461 0.609613 0.144228
0.935485 0.610101 0.144137
0.934783 0.608423 0.143740
0.048341 0.426978 0.171939
0.222110 0.545830 0.092744
0.523583 0.598993 0.089113
0.652583 0.610407 0.102693
0.764187 0.635493 0.120974
0.845640 0.651972 0.136110
0.891417 0.661585 0.146609
0.925292 0.671046 0.155703
0.938598 0.677119 0.160403
0.943236 0.668086 0.159426
0.941833 0.650690 0.154940
0.943999 0.649836 0.155123
0.944213 0.648280 0.154665
0.943786 0.647242 0.154269
0.943786 0.646510 0.154086
0.942840 0.644739 0.153445
0.943023 0.644862 0.153567
0.051881 0.456733 0.196933
0.273960 0.586419 0.130556
0.559838 0.626520 0.097627
0.670253 0.622919 0.106813
0.778805 0.647028 0.124910
0.859709 0.664240 0.140078
0.900206 0.675746 0.150423
0.928527 0.684016 0.158846
0.940490 0.688441 0.163302
0.947662 0.692988 0.166140
0.947265 0.681788 0.163394
0.947112 0.675410 0.161837
0.946960 0.672480 0.161074
0.947875 0.674159 0.161715
0.948058 0.673762 0.161654
0.946899 0.672236 0.161044
0.946014 0.672694 0.161074
0.067170 0.490517 0.219181
0.337499 0.627131 0.172854
0.580499 0.653101 0.107271
0.727413 0.657404 0.119936
0.809812 0.665400 0.132723
0.878752 0.677241 0.145449
0.913115 0.686519 0.154757
0.931151 0.694606 0.161624
0.942596 0.697719 0.165896
0.947234 0.698085 0.167269
0.948486 0.700923 0.168246
0.948363 0.696956 0.167239
0.949859 0.695949 0.167330
0.949737 0.693446 0.166720
0.948669 0.690913 0.165896
0.949310 0.689845 0.165774
0.948180 0.689082 0.165438
0.084657 0.518975 0.231907
0.390082 0.659388 0.213748
0.606195 0.675685 0.120119
0.768917 0.684993 0.131380
0.852140 0.689570 0.143404
0.893095 0.688899 0.150790
0.923095 0.694972 0.159060
0.935332 0.699977 0.164157
0.943694 0.708186 0.169070
0.946807 0.704494 0.168887
0.948058 0.702571 0.168612
0.948058 0.701534 0.168276
0.948577 0.701411 0.168338
0.949798 0.703395 0.169070
0.948272 0.701503 0.168307
0.948486 0.700832 0.168185
0.949859 0.700862 0.168521
0.105013 0.541650 0.245762
0.434241 0.679377 0.238590
0.646845 0.705409 0.148531
0.814786 0.710109 0.142702
0.878111 0.704128 0.150546
0.909026 0.698482 0.155825
0.928374 0.697475 0.161135
0.940490 0.714626 0.169436
0.949493 0.729610 0.176394
0.950744 0.732387 0.178012
0.951446 0.723812 0.175692
0.949706 0.705318 0.169619
0.949279 0.703853 0.169131
0.949950 0.704494 0.169375
0.949950 0.704494 0.169375
0.949523 0.703792 0.169100
0.950011 0.703883 0.169253
0.126528 0.562493 0.254551
0.474037 0.696773 0.261265
0.680537 0.727047 0.172702
0.841978 0.728695 0.155184
0.903197 0.721279 0.158358
0.921294 0.707912 0.160433
0.933959 0.702358 0.163729
0.943603 0.720424 0.172000
0.952911 0.745174 0.181643
0.953948 0.752255 0.183932
0.953521 0.742977 0.181796
0.951110 0.718288 0.173983
0.949371 0.704555 0.169345
0.949371 0.703578 0.169039
0.949371 0.703578 0.169039
0.950378 0.705165 0.169619
0.950317 0.705104 0.169589
0.155550 0.588037 0.267948
0.504692 0.707668 0.269688
0.708217 0.737789 0.186313
0.860319 0.739132 0.158968
0.916777 0.733303 0.164034
0.937774 0.723781 0.167605
0.938842 0.709834 0.167025
0.946563 0.726802 0.174685
0.954101 0.750607 0.183597
0.954986 0.762173 0.186587
0.954437 0.757870 0.185336
0.951629 0.730190 0.177554
0.949462 0.713222 0.172274
0.947845 0.701808 0.168368
0.947845 0.701808 0.168368
0.948730 0.702693 0.168704
0.950042 0.704646 0.169436
0.030060 0.030213 0.101900
0.032013 0.030396 0.104280
0.080598 0.033204 0.116701
0.197360 0.037446 0.132906
0.269535 0.040223 0.136751
0.323888 0.042603 0.145388
0.371954 0.044617 0.163027
0.423621 0.046540 0.188418
0.476295 0.049195 0.213901
0.533532 0.052155 0.236088
0.543114 0.052399 0.233494
0.517632 0.051423 0.211917
0.485542 0.050019 0.196414
0.479347 0.049775 0.185855
0.483711 0.049805 0.176150
0.490059 0.049989 0.164675
0.495430 0.050111 0.155337
0.029969 0.035981 0.109590
0.035340 0.045655 0.116152
0.106111 0.052461 0.122042
0.243565 0.065736 0.137850
0.326299 0.072267 0.143313
0.390326 0.076905 0.152010
0.439399 0.078859 0.164065
0.483223 0.073426 0.174502
0.516594 0.070375 0.185794
0.543389 0.065278 0.193637
0.553613 0.058198 0.203769
0.550378 0.053681 0.202945
0.538231 0.052125 0.198856
0.527001 0.051545 0.194614
0.521447 0.051331 0.188327
0.513756 0.050996 0.176730
0.502922 0.050568 0.159030
0.031556 0.085451 0.137026
0.033753 0.097719 0.136568
0.136110 0.136843 0.135439
0.279728 0.158816 0.134737
0.377508 0.167422 0.135561
0.446784 0.174350 0.140597
0.504692 0.177768 0.146883
0.557977 0.181216 0.152895
0.593378 0.174441 0.156802
0.623682 0.166415 0.159609
0.640436 0.154574 0.160372
0.648188 0.137667 0.158572
0.651453 0.122927 0.161746
0.647730 0.101717 0.161624
0.634089 0.083528 0.156832
0.620783 0.075654 0.146517
0.604852 0.070466 0.129976
0.031586 0.130861 0.156100
0.032136 0.145388 0.151034
0.144045 0.210452 0.145632
0.320562 0.235752 0.119631
0.440558 0.249119 0.103304
0.514214 0.250126 0.091859
0.580163 0.251804 0.084047
0.646204 0.257847 0.091768
0.680720 0.250797 0.094514
0.705318 0.238407 0.093355
0.718593 0.223514 0.095369
0.725032 0.207492 0.093843
0.724880 0.192630 0.097597
0.720668 0.176272 0.100832
0.709407 0.153231 0.103731
0.695644 0.136324 0.100862
0.679530 0.121614 0.093050
0.032898 0.168917 0.164736
0.034577 0.202518 0.159091
0.153811 0.287602 0.155459
0.366125 0.334386 0.118441
0.480385 0.330358 0.089021
0.570520 0.338628 0.083467
0.642878 0.338689 0.077913
0.703883 0.334630 0.085573
0.744930 0.333471 0.090333
0.776577 0.328527 0.090944
0.791592 0.315770 0.090822
0.796658 0.299413 0.087160
0.799069 0.287510 0.086854
0.796506 0.271885 0.087373
0.787961 0.253910 0.086397
0.776242 0.233890 0.086732
0.763638 0.219303 0.082399
0.035523 0.206485 0.182254
0.038544 0.253269 0.174472
0.173831 0.350225 0.161440
0.403357 0.408179 0.117922
0.556451 0.431312 0.094789
0.631571 0.419074 0.089509
0.705760 0.420081 0.086610
0.765377 0.416114 0.094301
0.797360 0.408331 0.096010
0.828885 0.404303 0.096956
0.841031 0.394995 0.096101
0.846342 0.378866 0.092073
0.852842 0.374212 0.092195
0.857023 0.365698 0.091432
0.851987 0.350240 0.089631
0.847257 0.340398 0.089204
0.836851 0.323812 0.086397
0.037690 0.243931 0.202853
0.041932 0.301488 0.187167
0.203006 0.409766 0.159976
0.440055 0.471458 0.112184
0.609262 0.507057 0.099855
0.719371 0.516426 0.103517
0.760784 0.492805 0.099702
0.821103 0.491463 0.107790
0.850736 0.483223 0.108461
0.876005 0.475441 0.109621
0.887327 0.466926 0.108949
0.895903 0.465370 0.109834
0.902617 0.464363 0.110658
0.906706 0.463081 0.111208
0.903624 0.446952 0.108095
0.901152 0.438758 0.107210
0.898528 0.432868 0.105379
0.039521 0.287083 0.229343
0.044892 0.354162 0.192020
0.244968 0.471107 0.154635
0.481056 0.537377 0.111940
0.648966 0.575647 0.117708
0.789075 0.602777 0.127871
0.858122 0.595300 0.132662
0.867185 0.559197 0.126162
0.891875 0.548394 0.125490
0.907683 0.538827 0.125429
0.917754 0.537057 0.126253
0.923705 0.535561 0.127321
0.922484 0.530648 0.126497
0.927489 0.531548 0.127901
0.928832 0.528634 0.127382
0.927947 0.521614 0.125826
0.927275 0.516335 0.124514
0.041382 0.327703 0.244175
0.047913 0.394812 0.188479
0.279484 0.520577 0.140139
0.515358 0.582330 0.114260
0.678447 0.617914 0.122896
0.808911 0.642329 0.133608
0.895262 0.657832 0.147707
0.908293 0.632166 0.144930
0.911254 0.608362 0.140841
0.925780 0.602365 0.142245
0.932403 0.600061 0.143038
0.938079 0.598444 0.144106
0.940459 0.597131 0.144442
0.943969 0.595422 0.144808
0.945312 0.597284 0.144991
0.945190 0.596155 0.144350
0.945556 0.593225 0.143587
0.042725 0.360967 0.258488
0.058015 0.436561 0.178378
0.314092 0.560479 0.120241
0.551720 0.617853 0.114137
0.708797 0.650599 0.126680
0.832914 0.674525 0.140658
0.907927 0.688228 0.154818
0.927672 0.683742 0.159365
0.932464 0.669184 0.158511
0.935821 0.651820 0.155428
0.939605 0.645502 0.154910
0.943023 0.640772 0.155337
0.946105 0.640833 0.155856
0.947417 0.638788 0.155703
0.949859 0.643030 0.157168
0.948791 0.640650 0.156008
0.948272 0.636378 0.154696
0.044221 0.387152 0.269810
0.072877 0.479438 0.190829
0.358801 0.598260 0.125856
0.581598 0.643915 0.116976
0.736690 0.673823 0.130739
0.833066 0.685359 0.141024
0.904265 0.699062 0.155367
0.927794 0.701930 0.162295
0.939391 0.706264 0.168093
0.945678 0.697292 0.167727
0.947204 0.683619 0.164889
0.949645 0.678370 0.165255
0.950896 0.677974 0.165560
0.950713 0.675288 0.164767
0.951202 0.677699 0.165591
0.951415 0.676081 0.164950
0.949798 0.670405 0.163058
0.045991 0.413855 0.287938
0.107698 0.519829 0.200961
0.396429 0.618799 0.120211
0.607111 0.655543 0.114137
0.760555 0.686091 0.131624
0.859281 0.700862 0.146456
0.911192 0.709041 0.159030
0.931640 0.710872 0.165042
0.941009 0.712184 0.169345
0.946105 0.711482 0.171298
0.947417 0.701381 0.169558
0.949401 0.698024 0.169314
0.950530 0.697871 0.169741
0.950072 0.695674 0.169162
0.949462 0.698878 0.170047
0.949859 0.697597 0.169528
0.950164 0.692348 0.168063
0.051270 0.452644 0.307561
0.147189 0.563958 0.235752
0.438331 0.647272 0.146365
0.637110 0.669001 0.119295
0.767178 0.686793 0.132692
0.869505 0.707576 0.149447
0.916533 0.715572 0.161013
0.937194 0.720211 0.167758
0.944457 0.720333 0.171664
0.947082 0.717433 0.172763
0.949340 0.717067 0.173648
0.951049 0.713527 0.173068
0.950378 0.710964 0.172488
0.949615 0.707088 0.171420
0.949950 0.706752 0.171542
0.949798 0.708797 0.171939
0.950652 0.706722 0.171450
0.057588 0.485847 0.319585
0.203433 0.609064 0.274540
0.488014 0.670741 0.162753
0.671443 0.681117 0.126436
0.804471 0.698482 0.138582
0.887358 0.712154 0.153414
0.923980 0.719997 0.162692
0.939025 0.722347 0.168368
0.946166 0.724147 0.172854
0.947265 0.719600 0.173251
0.948608 0.715389 0.172946
0.949828 0.711452 0.171695
0.949065 0.710567 0.171389
0.948028 0.711482 0.171633
0.949310 0.709499 0.171481
0.950347 0.711238 0.172244
0.950835 0.713680 0.173037
0.068544 0.514122 0.331823
0.262516 0.644160 0.308904
0.530907 0.685634 0.167422
0.710231 0.695003 0.134157
0.811856 0.691829 0.138125
0.885557 0.701106 0.151156
0.917113 0.706447 0.159487
0.936980 0.719600 0.168124
0.946929 0.727047 0.174197
0.951385 0.743282 0.180392
0.950744 0.731991 0.177890
0.948028 0.710964 0.171420
0.949584 0.709621 0.171084
0.949615 0.709773 0.171115
0.949615 0.709773 0.171115
0.950652 0.712673 0.172244
0.951171 0.716396 0.173434
0.076875 0.536278 0.341192
0.306523 0.666987 0.333989
0.566918 0.700679 0.181003
0.741512 0.706233 0.138827
0.835996 0.702937 0.143709
0.891752 0.701381 0.152590
0.920165 0.704890 0.160250
0.935088 0.718624 0.168307
0.947906 0.732723 0.175967
0.952300 0.752590 0.182712
0.954376 0.755825 0.184939
0.951293 0.732692 0.178164
0.948425 0.711849 0.171633
0.949615 0.709865 0.171115
0.949615 0.708827 0.170779
0.949798 0.709743 0.171054
0.950225 0.713497 0.172305
0.087526 0.559289 0.355383
0.333715 0.675044 0.342321
0.596918 0.713527 0.195254
0.765774 0.714290 0.141726
0.856748 0.710781 0.148562
0.906157 0.711971 0.157717
0.928557 0.711666 0.163912
0.939696 0.724117 0.171023
0.949218 0.737881 0.177584
0.953552 0.761074 0.184817
0.955139 0.766445 0.187106
0.954742 0.754238 0.184878
0.951812 0.733211 0.178470
0.948943 0.713497 0.172152
0.948943 0.711269 0.171420
0.947967 0.706325 0.169863
0.948363 0.707088 0.170138
0.032532 0.032532 0.147829
0.032563 0.032563 0.148348
0.041016 0.032441 0.152499
0.124422 0.032685 0.165774
0.230228 0.037903 0.180270
0.286320 0.040864 0.188449
0.331731 0.043000 0.201755
0.377997 0.044862 0.220920
0.429084 0.046662 0.244724
0.475746 0.048157 0.260258
0.492775 0.049439 0.255894
0.481788 0.049470 0.235904
0.451575 0.048707 0.207889
