LUTs/41.cube
# (C) 2014 VisionColor & Patchflyer [www.vision-color.com]
# Generator: VC Patchmatch v.2.1.1 [64/53]
# All work and no play makes Jack a dull boy.
# LUT generated from: Kodak Vision3 500T 5219 (NEG)_FPE
LUT_3D_SIZE 5
0.034241 0.038178 0.038697
0.371862 0.058900 0.043214
0.561364 0.062776 0.053101
0.585657 0.055695 0.061158
0.529992 0.050324 0.065431
0.032227 0.158022 0.036011
0.502342 0.283055 0.053254
0.746487 0.327794 0.071473
0.818418 0.341650 0.079927
0.808042 0.322698 0.077699
0.053712 0.384894 0.051392
0.693980 0.541695 0.096101
0.887877 0.542947 0.122713
0.924529 0.567193 0.132753
0.928985 0.573083 0.134585
0.133883 0.534600 0.117769
0.866300 0.678981 0.143771
0.945922 0.699672 0.167208
0.949554 0.696376 0.167361
0.949523 0.690486 0.165988
0.323644 0.626856 0.155489
0.941283 0.736110 0.171542
0.948180 0.707301 0.170230
0.949248 0.703365 0.168948
0.950378 0.705165 0.169619
0.033875 0.033875 0.173709
0.165469 0.033845 0.191867
0.380468 0.044526 0.245060
0.416236 0.047059 0.203952
0.449744 0.048341 0.165988
0.036347 0.164767 0.266636
0.353491 0.333288 0.313146
0.617975 0.344274 0.301671
0.729091 0.311650 0.264256
0.721920 0.258671 0.172122
0.042145 0.312657 0.369940
0.451820 0.601587 0.373571
0.829755 0.638315 0.289067
0.915953 0.610300 0.240833
0.922728 0.552804 0.160555
0.045502 0.395636 0.418219
0.573724 0.731136 0.342290
0.925231 0.797543 0.267063
0.952819 0.779538 0.232624
0.955139 0.759976 0.199557
0.055512 0.482094 0.470832
0.702724 0.751797 0.241749
0.941314 0.801541 0.224933
0.955749 0.801389 0.208057
0.955139 0.781277 0.191806
0.034607 0.034607 0.189670
0.061311 0.033997 0.178622
0.342107 0.041230 0.243503
0.310796 0.042267 0.191318
0.381201 0.045624 0.194369
0.039734 0.144106 0.304692
0.121096 0.241764 0.360449
0.432349 0.234318 0.353582
0.508232 0.154818 0.310338
0.520287 0.133181 0.259556
0.044190 0.274601 0.435157
0.139864 0.469642 0.524742
0.626032 0.602167 0.564385
0.791928 0.592325 0.520699
0.860380 0.576730 0.476982
0.050080 0.370459 0.535027
0.206882 0.641474 0.618921
0.727993 0.792599 0.646784
0.905852 0.807248 0.608774
0.947753 0.779843 0.549126
0.053040 0.423407 0.572381
0.323186 0.738186 0.632578
0.801541 0.856809 0.704005
0.944701 0.881010 0.671946
0.961822 0.874907 0.610880
0.035004 0.035004 0.198795
0.033143 0.033143 0.157992
0.087694 0.032258 0.156863
0.226658 0.037629 0.191714
0.320928 0.042664 0.199344
0.040558 0.096834 0.306127
0.045045 0.152499 0.362676
0.218860 0.126024 0.337163
0.375158 0.087175 0.315312
0.412833 0.057755 0.288579
0.051575 0.320592 0.532769
0.058869 0.352468 0.558740
0.463951 0.525521 0.625849
0.677089 0.536812 0.598779
0.786099 0.533028 0.578302
0.052552 0.361791 0.562585
0.077455 0.504784 0.674311
0.510536 0.716030 0.745144
0.811826 0.779049 0.754269
0.913787 0.795865 0.750759
0.054749 0.415900 0.610437
0.106065 0.619837 0.735958
0.598428 0.818051 0.808499
0.872526 0.873106 0.820829
0.939483 0.882933 0.806760
0.035462 0.035462 0.206394
0.034485 0.034485 0.186587
0.033783 0.033753 0.173281
0.104189 0.034546 0.194583
0.257725 0.038697 0.214664
0.041321 0.089326 0.330053
0.044373 0.129427 0.386175
0.071733 0.075013 0.321050
0.266117 0.050813 0.325841
0.357992 0.046876 0.303258
0.049165 0.271366 0.509514
0.052430 0.295827 0.560021
0.365316 0.489281 0.662348
0.553429 0.482872 0.638300
0.733303 0.509010 0.630732
0.054383 0.362860 0.586297
0.062440 0.442359 0.666072
0.419577 0.668421 0.760067
0.754910 0.752194 0.792172
0.858579 0.762905 0.786679
0.055085 0.409674 0.616022
0.075196 0.537957 0.711055
0.467094 0.770932 0.804257
0.801633 0.847807 0.852354
0.916838 0.880186 0.868254
