LUTs/41.cube
# (C) 2014 VisionColor & Patchflyer [www.vision-color.com]
# Generator: VC Patchmatch v.2.1.1 [64/53]
# All work and no play makes Jack a dull boy.
# LUT generated from: Kodak Vision3 500T 5219 (NEG)_FPE
LUT_3D_SIZE 9
0.034241 0.038178 0.038697
0.170901 0.045075 0.033814
0.371862 0.058900 0.043214
0.503471 0.067323 0.049714
0.561364 0.062776 0.053101
0.586145 0.059205 0.055055
0.585657 0.055695 0.061158
0.550866 0.052918 0.069337
0.529992 0.050324 0.065431
0.044251 0.098512 0.033570
0.204746 0.119905 0.035035
0.430701 0.143496 0.046754
0.564630 0.167941 0.053376
0.651514 0.185946 0.057984
0.700832 0.191592 0.061585
0.705196 0.170901 0.061677
0.678798 0.136110 0.059419
0.672267 0.122866 0.059022
0.032227 0.158022 0.036011
0.273701 0.275364 0.040833
0.502342 0.283055 0.053254
0.646265 0.310582 0.063478
0.746487 0.327794 0.071473
0.804898 0.345617 0.078676
0.818418 0.341650 0.079927
0.811429 0.332647 0.078492
0.808042 0.322698 0.077699
0.039277 0.272312 0.040314
0.355795 0.391913 0.048981
0.627832 0.441291 0.073976
0.725750 0.417060 0.081727
0.819638 0.435492 0.093568
0.867216 0.453925 0.102144
0.878325 0.456641 0.103975
0.881254 0.462562 0.105318
0.882841 0.459449 0.104707
0.053712 0.384894 0.051392
0.484123 0.509819 0.069429
0.693980 0.541695 0.096101
0.840558 0.570382 0.121370
0.887877 0.542947 0.122713
0.916106 0.556573 0.129335
0.924529 0.567193 0.132753
0.928527 0.575586 0.135073
0.928985 0.573083 0.134585
0.072541 0.466529 0.080934
0.574731 0.588495 0.091035
0.804471 0.637659 0.126925
0.903471 0.661860 0.149630
0.942046 0.681910 0.162295
0.943084 0.647547 0.154482
0.945678 0.651301 0.155795
0.946288 0.652064 0.156008
0.946014 0.654322 0.156497
0.133883 0.534600 0.117769
0.688899 0.663081 0.117220
0.866300 0.678981 0.143771
0.930236 0.691676 0.160555
0.945922 0.699672 0.167208
0.950042 0.704646 0.169436
0.949554 0.696376 0.167361
0.949676 0.692592 0.166506
0.949523 0.690486 0.165988
0.225345 0.582879 0.134737
0.757259 0.712001 0.138338
0.927337 0.724666 0.164767
0.939574 0.700740 0.165225
0.949981 0.710292 0.171237
0.950378 0.706661 0.170108
0.949035 0.703059 0.168826
0.950378 0.705165 0.169619
0.948333 0.700587 0.168093
0.323644 0.626856 0.155489
0.821866 0.735348 0.152377
0.941283 0.736110 0.171542
0.945220 0.705409 0.168246
0.948180 0.707301 0.170230
0.949248 0.706477 0.169986
0.949248 0.703365 0.168948
0.947997 0.701350 0.168215
0.950378 0.705165 0.169619
0.030060 0.030213 0.101900
0.080598 0.033204 0.116701
0.269535 0.040223 0.136751
0.371954 0.044617 0.163027
0.476295 0.049195 0.213901
0.543114 0.052399 0.233494
0.485542 0.050019 0.196414
0.483711 0.049805 0.176150
0.495430 0.050111 0.155337
0.031556 0.085451 0.137026
0.136110 0.136843 0.135439
0.377508 0.167422 0.135561
0.504692 0.177768 0.146883
0.593378 0.174441 0.156802
0.640436 0.154574 0.160372
0.651453 0.122927 0.161746
0.634089 0.083528 0.156832
0.604852 0.070466 0.129976
0.032898 0.168917 0.164736
0.153811 0.287602 0.155459
0.480385 0.330358 0.089021
0.642878 0.338689 0.077913
0.744930 0.333471 0.090333
0.791592 0.315770 0.090822
0.799069 0.287510 0.086854
0.787961 0.253910 0.086397
0.763638 0.219303 0.082399
0.037690 0.243931 0.202853
0.203006 0.409766 0.159976
0.609262 0.507057 0.099855
0.760784 0.492805 0.099702
0.850736 0.483223 0.108461
0.887327 0.466926 0.108949
0.902617 0.464363 0.110658
0.903624 0.446952 0.108095
0.898528 0.432868 0.105379
0.041382 0.327703 0.244175
0.279484 0.520577 0.140139
0.678447 0.617914 0.122896
0.895262 0.657832 0.147707
0.911254 0.608362 0.140841
0.932403 0.600061 0.143038
0.940459 0.597131 0.144442
0.945312 0.597284 0.144991
0.945556 0.593225 0.143587
0.044221 0.387152 0.269810
0.358801 0.598260 0.125856
0.736690 0.673823 0.130739
0.904265 0.699062 0.155367
0.939391 0.706264 0.168093
0.947204 0.683619 0.164889
0.950896 0.677974 0.165560
0.951202 0.677699 0.165591
0.949798 0.670405 0.163058
0.051270 0.452644 0.307561
0.438331 0.647272 0.146365
0.767178 0.686793 0.132692
0.916533 0.715572 0.161013
0.944457 0.720333 0.171664
0.949340 0.717067 0.173648
0.950378 0.710964 0.172488
0.949950 0.706752 0.171542
0.950652 0.706722 0.171450
0.068544 0.514122 0.331823
0.530907 0.685634 0.167422
0.811856 0.691829 0.138125
0.917113 0.706447 0.159487
0.946929 0.727047 0.174197
0.950744 0.731991 0.177890
0.949584 0.709621 0.171084
0.949615 0.709773 0.171115
0.951171 0.716396 0.173434
0.087526 0.559289 0.355383
0.596918 0.713527 0.195254
0.856748 0.710781 0.148562
0.928557 0.711666 0.163912
0.949218 0.737881 0.177584
0.955139 0.766445 0.187106
0.951812 0.733211 0.178470
0.948943 0.711269 0.171420
0.948363 0.707088 0.170138
0.033875 0.033875 0.173709
0.033570 0.033295 0.171389
0.165469 0.033845 0.191867
0.304936 0.041169 0.219730
0.380468 0.044526 0.245060
0.417334 0.046448 0.236271
0.416236 0.047059 0.203952
0.432319 0.047730 0.179416
0.449744 0.048341 0.165988
0.034852 0.061372 0.208469
0.045563 0.100832 0.228519
0.270665 0.126253 0.249271
0.390967 0.093019 0.251347
0.458778 0.081910 0.252018
0.499275 0.072694 0.244114
0.510948 0.060822 0.220981
0.493263 0.051118 0.186007
0.462135 0.050568 0.142763
0.036347 0.164767 0.266636
0.042756 0.220218 0.300023
0.353491 0.333288 0.313146
0.510552 0.349859 0.313115
0.617975 0.344274 0.301671
0.689632 0.329564 0.292760
0.729091 0.311650 0.264256
0.735927 0.286809 0.229129
0.721920 0.258671 0.172122
0.039490 0.246281 0.335363
0.048554 0.330236 0.350317
0.409308 0.485512 0.360510
0.616175 0.505699 0.326055
0.738079 0.493874 0.297124
0.810910 0.473655 0.271489
0.844144 0.452384 0.235279
0.850767 0.422522 0.180209
0.847562 0.397498 0.136446
0.042145 0.312657 0.369940
0.078981 0.431891 0.374578
0.451820 0.601587 0.373571
0.709484 0.658412 0.322210
0.829755 0.638315 0.289067
0.888823 0.624369 0.276265
0.915953 0.610300 0.240833
0.925841 0.585184 0.198337
0.922728 0.552804 0.160555
0.042634 0.355840 0.383337
0.097200 0.507988 0.356664
0.512718 0.688106 0.370977
0.770657 0.742550 0.308141
0.904448 0.764981 0.276905
0.934661 0.737179 0.259632
0.946349 0.723568 0.248737
0.949401 0.704890 0.216434
0.949126 0.686366 0.188479
0.045502 0.395636 0.418219
0.135378 0.567163 0.321569
0.573724 0.731136 0.342290
0.820279 0.776394 0.286076
0.925231 0.797543 0.267063
0.950713 0.794797 0.240833
0.952819 0.779538 0.232624
0.955139 0.771756 0.215915
0.955139 0.759976 0.199557
0.050294 0.445777 0.456397
0.269810 0.648585 0.313573
0.643214 0.747616 0.284688
0.860502 0.784817 0.257984
0.935088 0.802182 0.253330
0.952697 0.801724 0.225696
0.955077 0.793545 0.206394
0.955657 0.787717 0.200748
0.954742 0.783566 0.197513
0.055512 0.482094 0.470832
0.382239 0.689662 0.341985
0.702724 0.751797 0.241749
0.889982 0.789944 0.232013
0.941314 0.801541 0.224933
0.953826 0.810483 0.228779
0.955749 0.801389 0.208057
0.955169 0.785122 0.193973
0.955139 0.781277 0.191806
0.034546 0.034546 0.188418
0.034089 0.034089 0.182406
0.093019 0.033936 0.190921
0.243809 0.037964 0.218784
0.319982 0.041230 0.233921
0.332189 0.042969 0.209628
0.354925 0.044404 0.190616
0.391241 0.045991 0.185824
0.411200 0.046784 0.180026
0.035126 0.044923 0.210147
0.036591 0.061494 0.239078
0.131777 0.063966 0.237339
0.285527 0.049928 0.241825
0.351385 0.042634 0.232059
0.393164 0.045075 0.226841
0.399329 0.045594 0.207065
0.387213 0.045380 0.171756
0.361944 0.044312 0.132662
0.038514 0.149416 0.292638
0.040375 0.181277 0.323980
0.228336 0.294347 0.354040
0.419684 0.307683 0.360082
0.516655 0.282231 0.349493
0.585901 0.267674 0.340795
0.616480 0.244053 0.315465
0.628260 0.226383 0.278172
0.609461 0.202976 0.229191
0.040467 0.235355 0.365698
0.044495 0.276799 0.393561
0.238376 0.424048 0.428962
0.511894 0.483223 0.453132
0.629297 0.481086 0.435370
0.716365 0.474525 0.412726
0.756985 0.456764 0.376730
0.792294 0.442023 0.335363
0.808103 0.437598 0.309789
0.043946 0.294377 0.422217
0.048005 0.352483 0.455146
0.263096 0.543725 0.481209
0.553399 0.615290 0.494301
0.715480 0.623621 0.479835
0.807431 0.615030 0.456870
0.857816 0.594705 0.408957
0.878691 0.559335 0.351339
0.887236 0.533761 0.292103
0.047578 0.339727 0.462226
0.051026 0.421210 0.485054
0.304112 0.637385 0.503288
0.620478 0.717525 0.516045
0.801968 0.755032 0.499336
0.872175 0.739498 0.480858
0.913207 0.720943 0.453132
0.934203 0.703853 0.401648
0.939269 0.683284 0.363134
0.049134 0.385351 0.491585
0.056123 0.477668 0.477668
0.362829 0.696315 0.506767
0.679683 0.781430 0.532647
0.833616 0.807828 0.507744
0.917998 0.824399 0.492699
0.940520 0.805783 0.453300
0.953735 0.792355 0.423056
0.956970 0.780118 0.394736
0.050813 0.418433 0.519371
0.081514 0.565423 0.478523
0.426490 0.728115 0.501732
0.728389 0.816007 0.547021
0.866026 0.841825 0.525872
0.930297 0.850584 0.499168
0.956054 0.852628 0.455924
0.959167 0.844480 0.436820
0.961242 0.829801 0.418021
0.052125 0.434852 0.544091
0.162264 0.647364 0.501549
0.500511 0.754971 0.492058
0.758724 0.825589 0.549783
0.883940 0.851133 0.541939
0.941070 0.862852 0.524605
0.957458 0.859220 0.480034
0.961120 0.854734 0.431907
0.962310 0.848447 0.412650
0.034607 0.034607 0.189670
0.034211 0.034211 0.180545
0.061311 0.033997 0.178622
0.237369 0.037049 0.215793
0.342107 0.041230 0.243503
0.277470 0.040314 0.199588
0.310796 0.042267 0.191318
0.352300 0.044312 0.193942
0.381201 0.045624 0.194369
0.034272 0.035035 0.202396
0.035492 0.047333 0.218448
0.049775 0.040406 0.208835
0.185000 0.040284 0.227451
0.283330 0.039124 0.223087
0.310887 0.041810 0.199619
0.315373 0.042451 0.179324
0.311559 0.042329 0.157382
0.304570 0.041901 0.143587
0.039734 0.144106 0.304692
0.040406 0.155398 0.316655
0.121096 0.241764 0.360449
0.302251 0.251469 0.358343
0.432349 0.234318 0.353582
0.485145 0.176135 0.335027
0.508232 0.154818 0.310338
0.524315 0.147402 0.287663
0.520287 0.133181 0.259556
0.041688 0.230228 0.385473
0.044099 0.251530 0.399939
0.125216 0.355688 0.446510
0.411444 0.446601 0.482582
0.540703 0.454932 0.479286
0.619715 0.434562 0.452628
0.668544 0.426215 0.428595
0.705348 0.402502 0.395895
0.735378 0.403204 0.384466
0.044190 0.274601 0.435157
0.046693 0.309636 0.461463
0.139864 0.469642 0.524742
0.429450 0.558556 0.553002
0.626032 0.602167 0.564385
0.726009 0.597009 0.549050
0.791928 0.592325 0.520699
0.834653 0.580514 0.487633
0.860380 0.576730 0.476982
0.048371 0.310735 0.493050
0.051911 0.366308 0.536645
0.168429 0.567041 0.593256
0.460975 0.670680 0.611505
0.681453 0.718441 0.615717
0.801434 0.726345 0.608087
0.862303 0.705470 0.561822
0.897734 0.689082 0.525475
0.911986 0.666102 0.491493
0.050080 0.370459 0.535027
0.056550 0.428779 0.592706
0.206882 0.641474 0.618921
0.525200 0.751766 0.645319
0.727993 0.792599 0.646784
0.854963 0.816983 0.644923
0.905852 0.807248 0.608774
0.934417 0.788663 0.571878
0.947753 0.779843 0.549126
0.051789 0.410681 0.560510
0.063539 0.500877 0.619074
0.262119 0.701045 0.627253
0.570733 0.792477 0.661616
0.776211 0.839231 0.687221
0.881575 0.860319 0.676158
0.940093 0.866178 0.644694
0.950286 0.850706 0.607401
0.960174 0.846616 0.593973
0.053040 0.423407 0.572381
0.080201 0.574823 0.641321
0.323186 0.738186 0.632578
0.611475 0.813596 0.674830
0.801541 0.856809 0.704005
0.902968 0.879881 0.704921
0.944701 0.881010 0.671946
0.959533 0.882292 0.640818
0.961822 0.874907 0.610880
0.034760 0.034760 0.193240
0.034180 0.034180 0.179812
0.036866 0.033356 0.166110
0.113481 0.033295 0.179232
0.245319 0.037140 0.206210
0.267308 0.039094 0.202853
0.272221 0.040070 0.198428
0.321630 0.042756 0.197940
0.350042 0.044160 0.196750
0.034730 0.035370 0.205783
0.034913 0.039368 0.201755
0.034882 0.034424 0.186252
0.099825 0.035248 0.202243
0.204425 0.035706 0.208957
0.260288 0.039216 0.195499
0.242100 0.038849 0.163943
0.238987 0.038819 0.149508
0.281682 0.040711 0.169741
0.040345 0.124086 0.306676
0.040284 0.130251 0.306523
0.068513 0.192767 0.361761
0.172229 0.189929 0.343236
0.335348 0.187762 0.351385
0.401770 0.134081 0.327550
0.424063 0.099474 0.305211
0.445426 0.091264 0.291173
0.452903 0.077256 0.272923
0.044160 0.230594 0.409766
0.044495 0.232547 0.409735
0.082399 0.301350 0.460914
0.300404 0.399405 0.502281
0.441825 0.400839 0.485603
0.551873 0.409171 0.482368
0.602731 0.376181 0.450721
0.656840 0.368093 0.434974
0.699168 0.371084 0.429999
0.046479 0.281041 0.465797
0.047913 0.292180 0.482582
0.085176 0.400717 0.550317
0.318288 0.502205 0.579828
0.536233 0.556435 0.597925
0.649073 0.565530 0.587457
0.733577 0.561654 0.566491
0.778958 0.550576 0.540887
0.815381 0.556680 0.537011
0.048707 0.299748 0.499794
0.051270 0.325200 0.531518
0.097810 0.490700 0.614679
0.334066 0.610407 0.650172
0.574044 0.671138 0.667903
0.733150 0.706905 0.675258
0.810727 0.700648 0.650843
0.865507 0.702358 0.634302
0.895201 0.703944 0.628351
0.051728 0.358740 0.552605
0.056703 0.392584 0.613672
0.119081 0.573632 0.677241
0.378347 0.704402 0.709499
0.616251 0.759213 0.724056
0.780880 0.794308 0.725460
0.862821 0.796780 0.705623
0.906523 0.788235 0.679561
0.926848 0.777707 0.655085
0.052522 0.403632 0.580865
0.062776 0.470863 0.664363
0.151446 0.643320 0.703700
0.424826 0.763424 0.740047
0.666026 0.817502 0.754330
0.818723 0.849271 0.764218
0.895659 0.858976 0.749203
0.931365 0.855131 0.728511
0.943297 0.845121 0.705592
0.053986 0.419165 0.596429
0.070344 0.523217 0.686183
0.175433 0.686946 0.722805
0.479332 0.795132 0.751858
0.706462 0.844633 0.780728
0.838560 0.868101 0.786862
0.907866 0.880156 0.774960
0.942351 0.886198 0.761501
0.948913 0.878447 0.731563
0.035004 0.035004 0.198795
0.034363 0.034363 0.184237
0.033143 0.033143 0.157992
0.033661 0.032288 0.148501
0.087694 0.032258 0.156863
0.173190 0.034943 0.163210
0.226658 0.037629 0.191714
0.287266 0.040772 0.203372
0.320928 0.042664 0.199344
0.034424 0.034424 0.205234
0.034333 0.035035 0.194430
0.033478 0.033478 0.173251
0.039094 0.033692 0.172854
0.109941 0.033539 0.182620
0.193179 0.035676 0.183902
0.212619 0.037140 0.168917
0.190372 0.036011 0.157656
0.259770 0.039399 0.191196
0.040558 0.096834 0.306127
0.039826 0.107576 0.296269
0.045045 0.152499 0.362676
0.077195 0.129564 0.335302
0.218860 0.126024 0.337163
0.327764 0.113512 0.336126
0.375158 0.087175 0.315312
0.385672 0.060182 0.291936
0.412833 0.057755 0.288579
0.046387 0.232364 0.437415
0.044038 0.210758 0.407233
0.051514 0.257954 0.470436
0.221271 0.368429 0.527489
0.339864 0.356008 0.500725
0.459327 0.357839 0.490852
0.560021 0.362631 0.483467
0.607401 0.322988 0.454475
0.650553 0.327047 0.449805
0.051575 0.320592 0.532769
0.048646 0.284489 0.499794
0.058869 0.352468 0.558740
0.234546 0.464042 0.605188
0.463951 0.525521 0.625849
0.569207 0.527810 0.612177
0.677089 0.536812 0.598779
0.742306 0.526772 0.581262
0.786099 0.533028 0.578302
0.051270 0.327794 0.535973
0.052277 0.329381 0.554681
0.069947 0.438270 0.624567
0.249134 0.565789 0.671504
0.483726 0.622980 0.692012
0.662745 0.665217 0.697261
0.754604 0.676448 0.686976
0.823117 0.676295 0.677852
0.860105 0.682429 0.678920
0.052552 0.361791 0.562585
0.056825 0.387915 0.620478
0.077455 0.504784 0.674311
0.270558 0.651789 0.722377
0.510536 0.716030 0.745144
0.701076 0.759091 0.758999
0.811826 0.779049 0.754269
0.880400 0.792386 0.751614
0.913787 0.795865 0.750759
0.053712 0.398505 0.593500
0.062348 0.457679 0.671839
0.091035 0.571466 0.713405
0.321706 0.720180 0.762631
0.554879 0.781918 0.786954
0.736751 0.818418 0.799008
0.855711 0.845670 0.799893
0.904387 0.852506 0.793545
0.927703 0.840604 0.771603
0.054749 0.415900 0.610437
0.063996 0.478004 0.675532
0.106065 0.619837 0.735958
0.354940 0.757565 0.782254
0.598428 0.818051 0.808499
0.782284 0.859495 0.824338
0.872526 0.873106 0.820829
0.921874 0.884733 0.818265
0.939483 0.882933 0.806760
0.035218 0.035218 0.202579
0.034638 0.034638 0.190921
0.033783 0.033783 0.170993
0.033112 0.033112 0.158236
0.034455 0.032563 0.153567
0.094423 0.032624 0.163973
0.169802 0.034302 0.180667
0.243290 0.038087 0.210849
0.295750 0.040986 0.204471
0.035431 0.035431 0.212406
0.033570 0.033600 0.188235
0.033570 0.033570 0.168338
0.033265 0.033234 0.165438
0.045747 0.033570 0.165530
0.099855 0.032685 0.164828
0.140261 0.033448 0.153384
0.173770 0.034760 0.164584
0.247715 0.038270 0.212497
0.040528 0.085084 0.310338
0.040192 0.101808 0.300847
0.043244 0.137331 0.373144
0.042329 0.090852 0.320867
0.125109 0.096468 0.326452
0.252995 0.085512 0.335088
0.318547 0.068788 0.320226
0.358587 0.057893 0.303960
0.387442 0.048920 0.298009
0.045686 0.216037 0.441047
0.044495 0.200778 0.412451
0.047578 0.230747 0.473610
0.142931 0.326711 0.533898
0.243214 0.307515 0.508690
0.392523 0.320485 0.509758
0.495216 0.327047 0.505119
0.576776 0.324788 0.490028
0.623667 0.296773 0.470161
0.051301 0.311009 0.545800
0.048676 0.267704 0.500908
0.053132 0.319936 0.561547
0.173022 0.423880 0.611109
0.399374 0.497154 0.641749
0.489326 0.486900 0.621790
0.611902 0.511696 0.618311
0.706844 0.517189 0.609522
0.759182 0.509224 0.601465
0.052522 0.336736 0.558862
0.052430 0.317510 0.561761
0.059724 0.402960 0.629053
0.187304 0.526452 0.677150
0.419150 0.588556 0.700008
0.613870 0.648493 0.718288
0.699428 0.649653 0.707210
0.787533 0.661219 0.702846
0.836728 0.662501 0.700557
0.053651 0.367681 0.579126
0.054719 0.373571 0.606195
0.068360 0.475532 0.675013
0.225208 0.622980 0.730037
0.456077 0.685847 0.754482
0.647166 0.729061 0.770748
0.786007 0.769924 0.780819
0.844846 0.770443 0.775540
0.887968 0.775051 0.772213
0.054078 0.393866 0.596948
0.060304 0.440436 0.663020
0.076570 0.529473 0.706142
0.234913 0.674586 0.756649
0.479973 0.747372 0.785702
0.685374 0.796414 0.808286
0.805692 0.829190 0.823972
0.887816 0.853208 0.831815
0.917174 0.847837 0.820645
0.054902 0.411078 0.612940
0.060609 0.453498 0.663813
0.084627 0.572442 0.724361
0.277211 0.718502 0.776455
0.522011 0.794522 0.812345
0.720317 0.836515 0.836545
0.838285 0.863645 0.848753
0.904479 0.880369 0.851865
0.924804 0.877440 0.843473
0.035462 0.035462 0.206394
0.034913 0.034913 0.197024
0.034485 0.034485 0.186587
0.034211 0.034211 0.180575
0.033783 0.033753 0.173281
0.044068 0.033967 0.177798
0.104189 0.034546 0.194583
0.189120 0.035859 0.211246
0.257725 0.038697 0.214664
0.036408 0.036408 0.222293
0.034607 0.037568 0.207034
0.033539 0.033570 0.175204
0.033539 0.033539 0.171115
0.034668 0.033417 0.166506
0.044923 0.033112 0.160983
0.074617 0.032624 0.153689
0.126955 0.032776 0.165743
0.216190 0.036927 0.212070
0.041321 0.089326 0.330053
0.040650 0.099001 0.309514
0.044373 0.129427 0.386175
0.041199 0.069520 0.318364
0.071733 0.075013 0.321050
0.180240 0.059754 0.328283
0.266117 0.050813 0.325841
0.327916 0.049317 0.317113
0.357992 0.046876 0.303258
0.046296 0.199954 0.438727
0.045167 0.195834 0.420813
0.048798 0.214755 0.479652
0.121965 0.312581 0.549096
0.186389 0.284657 0.517632
0.325872 0.292897 0.522210
0.450874 0.303578 0.524407
0.540612 0.306142 0.512871
0.596994 0.293873 0.493019
0.049165 0.271366 0.509514
0.048829 0.258427 0.505333
0.052430 0.295827 0.560021
0.139300 0.400839 0.617670
0.365316 0.489281 0.662348
0.432135 0.463310 0.639826
0.553429 0.482872 0.638300
0.660456 0.498070 0.632624
0.733303 0.509010 0.630732
0.052522 0.322423 0.555230
0.051575 0.298497 0.555566
0.057374 0.377111 0.624689
0.158251 0.493904 0.675349
0.391440 0.575006 0.711482
0.586709 0.636988 0.736416
0.647044 0.622980 0.718135
0.744350 0.641688 0.721828
0.813687 0.653742 0.718868
0.054383 0.362860 0.586297
0.054414 0.355474 0.595331
0.062440 0.442359 0.666072
0.181292 0.589166 0.723476
0.419577 0.668421 0.760067
0.611154 0.710201 0.773312
0.754910 0.752194 0.792172
0.803830 0.752285 0.788968
0.858579 0.762905 0.786679
0.054749 0.391730 0.606012
0.055573 0.402869 0.624689
0.069123 0.499886 0.696864
0.205921 0.650813 0.749996
0.446555 0.730892 0.787442
0.642222 0.775265 0.807034
0.781247 0.808286 0.827939
0.861326 0.830137 0.838346
0.896727 0.834836 0.834104
0.055085 0.409674 0.616022
0.057527 0.430274 0.641321
0.075196 0.537957 0.711055
0.225238 0.689937 0.766934
0.467094 0.770932 0.804257
0.683177 0.818967 0.834134
0.801633 0.847807 0.852354
0.878111 0.868254 0.863737
0.916838 0.880186 0.868254
