LUTs/44.cube
# (C) 2014 VisionColor & Patchflyer [www.vision-color.com]
# Generator: VC Patchmatch v.2.1.1 [64/53]
# All work and no play makes Jack a dull boy.
# LUT generated from: Kodak Vision3 50D 5203 (NEG)_FPE
LUT_3D_SIZE 17
0.032380 0.034272 0.034455
0.058503 0.038911 0.034302
0.107546 0.045716 0.037293
0.160678 0.050813 0.039277
0.212070 0.052369 0.039887
0.256962 0.051911 0.040742
0.293706 0.051148 0.041901
0.325902 0.050843 0.043336
0.357183 0.051453 0.044953
0.387518 0.052644 0.046601
0.418158 0.054810 0.048188
0.445258 0.056519 0.049744
0.468971 0.058259 0.051148
0.489632 0.059785 0.052399
0.506340 0.060761 0.053193
0.521599 0.061952 0.053895
0.535790 0.063508 0.054505
0.034058 0.055329 0.042451
0.082887 0.071870 0.037995
0.155245 0.086885 0.038178
0.217075 0.095705 0.039857
0.275975 0.106172 0.041901
0.328435 0.113649 0.043671
0.369024 0.115877 0.045197
0.403174 0.115969 0.046754
0.436103 0.117830 0.048554
0.468360 0.120272 0.050263
0.504387 0.130892 0.052308
0.538781 0.144137 0.054658
0.565270 0.151644 0.056397
0.589380 0.159976 0.058198
0.604761 0.159976 0.059449
0.617914 0.158541 0.060365
0.623865 0.150240 0.060700
0.031617 0.102815 0.057862
0.064759 0.123903 0.050874
0.164187 0.155612 0.044038
0.257877 0.174868 0.042359
0.323186 0.185122 0.043336
0.381750 0.196139 0.045686
0.431617 0.203800 0.047883
0.476539 0.210910 0.050690
0.512932 0.217044 0.052705
0.552911 0.229221 0.055940
0.590326 0.244694 0.059144
0.626734 0.262516 0.063233
0.658320 0.278264 0.066438
0.686976 0.294591 0.070436
0.702296 0.296269 0.071717
0.713893 0.293950 0.072663
0.712184 0.275425 0.071107
0.032746 0.151797 0.065736
0.056672 0.177707 0.055634
0.134096 0.212467 0.048402
0.249332 0.244205 0.045228
0.348180 0.267338 0.047547
0.415473 0.278325 0.049226
0.475135 0.289952 0.051911
0.531670 0.304662 0.056062
0.576699 0.316625 0.060060
0.623133 0.332341 0.065461
0.661280 0.347814 0.070588
0.698177 0.365423 0.076631
0.729702 0.383093 0.082551
0.758358 0.400977 0.089113
0.773983 0.404242 0.091615
0.784604 0.401404 0.092500
0.781125 0.379095 0.088563
0.034730 0.191379 0.067933
0.058747 0.225956 0.056336
0.126864 0.262303 0.049531
0.226841 0.295109 0.047211
0.335332 0.323491 0.048615
0.430121 0.348028 0.054353
0.500237 0.363043 0.058869
0.562402 0.378546 0.064118
0.615076 0.393500 0.069917
0.665949 0.409949 0.076173
0.705684 0.424262 0.082582
0.742367 0.439216 0.089509
0.772824 0.453285 0.096651
0.799008 0.467414 0.103548
0.813535 0.469245 0.106600
0.822995 0.465400 0.107729
0.819577 0.443183 0.103426
0.036805 0.224002 0.069245
0.056611 0.261570 0.057496
0.121889 0.300175 0.050752
0.214694 0.333806 0.049165
0.317327 0.364660 0.050568
0.415412 0.390234 0.055299
0.500908 0.412634 0.063539
0.571405 0.431525 0.071565
0.629145 0.444312 0.078645
0.681208 0.458595 0.085634
0.724514 0.469551 0.092134
0.762020 0.482521 0.099062
0.793484 0.494392 0.106172
0.819852 0.506310 0.113161
0.834012 0.506462 0.115877
0.844236 0.502708 0.117128
0.842374 0.482612 0.112734
0.038422 0.251530 0.072755
0.055634 0.287572 0.061158
0.111666 0.327367 0.054108
0.201724 0.361944 0.052216
0.301335 0.393469 0.053651
0.395972 0.420081 0.057923
0.482368 0.442206 0.064485
0.561395 0.464698 0.074678
0.629664 0.481697 0.084474
0.685206 0.494270 0.092073
0.729610 0.502770 0.098726
0.767971 0.509514 0.104372
0.798733 0.517174 0.110536
0.825437 0.523857 0.116304
0.841184 0.523919 0.118990
0.852262 0.520226 0.120333
0.854215 0.504845 0.117464
0.039460 0.275944 0.080323
0.049714 0.306157 0.067750
0.094820 0.348913 0.060121
0.184665 0.384070 0.056153
0.284153 0.415686 0.057313
0.377508 0.442573 0.061006
0.462165 0.464729 0.066987
0.538994 0.483803 0.074769
0.613123 0.503624 0.086183
0.678782 0.521111 0.096468
0.727718 0.528954 0.103700
0.768032 0.534844 0.109712
0.801450 0.537469 0.114534
0.829252 0.542046 0.119814
0.844999 0.538903 0.121675
0.856748 0.533318 0.122560
0.859831 0.517723 0.119692
0.040223 0.297368 0.089601
0.047547 0.322454 0.077272
0.083589 0.362982 0.070222
0.163394 0.401984 0.065064
0.265690 0.432959 0.062898
0.358679 0.459602 0.065309
0.442603 0.482094 0.070466
0.519585 0.501396 0.077577
0.590906 0.518120 0.086213
0.660807 0.537377 0.097780
0.719661 0.550286 0.107973
0.764279 0.556115 0.114351
0.800534 0.558770 0.119448
0.830991 0.558831 0.123323
0.846830 0.554253 0.124697
0.859129 0.546563 0.124971
0.864622 0.530724 0.122072
0.041016 0.318364 0.099428
0.043702 0.336614 0.088441
0.070283 0.378302 0.081209
0.144167 0.419867 0.074250
0.244221 0.449989 0.069978
0.338003 0.476051 0.070832
0.423728 0.498085 0.074678
0.500679 0.517296 0.080598
0.572732 0.534142 0.089082
0.640070 0.550011 0.097993
0.705531 0.566278 0.110506
0.760922 0.578973 0.120729
0.803464 0.583734 0.128420
0.836698 0.585321 0.133394
0.856077 0.580713 0.133486
0.868772 0.573327 0.133333
0.873594 0.556603 0.129152
0.041657 0.335424 0.110262
0.044373 0.353002 0.101045
0.066926 0.388922 0.094301
0.131868 0.432441 0.088869
0.225223 0.465156 0.082460
0.322286 0.490211 0.079713
0.408499 0.512352 0.082460
0.487572 0.532189 0.086763
0.563088 0.550469 0.094820
0.631861 0.566857 0.104005
0.696223 0.582269 0.115236
0.754879 0.597467 0.126497
0.804837 0.608026 0.136629
0.840391 0.609491 0.141360
0.862028 0.606195 0.142824
0.878569 0.600732 0.142855
0.884398 0.586328 0.139467
0.042390 0.352026 0.123323
0.044160 0.368017 0.117739
0.060090 0.398932 0.113252
0.119936 0.445472 0.108675
0.212497 0.480293 0.100404
0.310185 0.505577 0.093751
0.401343 0.528283 0.092927
0.482139 0.548608 0.096681
0.559335 0.567102 0.103090
0.631617 0.585504 0.114199
0.697627 0.601923 0.126345
0.754513 0.617029 0.138399
0.809476 0.632593 0.154879
0.852049 0.642115 0.165682
0.874388 0.639460 0.162722
0.891234 0.635126 0.162142
0.899016 0.624018 0.155581
0.043641 0.370275 0.142428
0.046723 0.388342 0.142672
0.063050 0.417578 0.142641
0.118563 0.458442 0.139590
0.210483 0.498939 0.129824
0.309148 0.524590 0.118685
0.404028 0.547723 0.114290
0.489586 0.569543 0.117800
0.568032 0.588281 0.123323
0.638376 0.606928 0.136110
0.708217 0.625666 0.150393
0.762325 0.640650 0.163943
0.811704 0.654383 0.175051
0.857694 0.667933 0.190646
0.883604 0.670405 0.192020
0.899992 0.667567 0.188998
0.908995 0.659022 0.183352
0.045106 0.388861 0.163180
0.050446 0.411444 0.173495
0.067292 0.440162 0.180789
0.122530 0.477943 0.179995
0.217258 0.517998 0.169009
0.319493 0.548760 0.156161
0.420066 0.571923 0.143954
0.506569 0.593927 0.146334
0.590784 0.615015 0.151614
0.657237 0.633600 0.167514
0.726436 0.652277 0.181399
0.777310 0.667262 0.198215
0.823728 0.680690 0.209934
0.862364 0.691493 0.218173
0.889525 0.697108 0.222843
0.907835 0.698909 0.223972
0.917388 0.693904 0.215915
0.048035 0.410712 0.188846
0.059052 0.440406 0.206424
0.090669 0.475593 0.223789
0.158999 0.512596 0.231022
0.260105 0.551232 0.222568
0.364782 0.582422 0.208438
0.458778 0.603601 0.190860
0.540612 0.624018 0.190280
0.621241 0.644373 0.195071
0.680171 0.661982 0.213901
0.745296 0.679835 0.228305
0.791257 0.693324 0.245243
0.833219 0.705837 0.257359
0.868772 0.715969 0.265660
0.890898 0.721126 0.267216
0.909361 0.725917 0.275395
0.919676 0.724330 0.272923
0.051362 0.433204 0.216190
0.069032 0.470100 0.239261
0.117342 0.512657 0.265232
0.207523 0.552483 0.279057
0.315801 0.588281 0.275151
0.420539 0.618647 0.261570
0.511437 0.638911 0.242191
0.584710 0.656703 0.238315
0.661494 0.676753 0.243137
0.712062 0.692134 0.261997
0.767330 0.708339 0.277989
0.809293 0.720607 0.294530
0.844724 0.730831 0.305180
0.875547 0.740200 0.314183
0.893828 0.744564 0.314824
0.911620 0.748989 0.315679
0.921080 0.749081 0.318212
0.056428 0.458259 0.248234
0.084901 0.502708 0.271672
0.161227 0.554223 0.304021
0.283970 0.598718 0.324834
0.405097 0.635431 0.326726
0.507500 0.662654 0.318608
0.583825 0.680323 0.303868
0.645716 0.695644 0.300999
0.703212 0.710292 0.303136
0.747707 0.723445 0.319921
0.790311 0.735927 0.334905
0.824216 0.745724 0.349432
0.853422 0.753933 0.358862
0.878080 0.761013 0.366186
0.895171 0.765560 0.366796
0.910002 0.768734 0.365820
0.920439 0.770016 0.362341
0.031342 0.032807 0.043336
0.052338 0.037415 0.044099
0.097627 0.043580 0.047700
0.149111 0.048890 0.050568
0.200626 0.051759 0.053620
0.249210 0.052369 0.054536
0.287602 0.051820 0.054383
0.320500 0.051453 0.052796
0.350988 0.051423 0.053162
0.380011 0.051698 0.052399
0.408759 0.052308 0.053864
0.434577 0.052979 0.054749
0.457374 0.054108 0.056001
0.477485 0.055268 0.056825
0.493904 0.056245 0.057710
0.509056 0.057130 0.058564
0.522148 0.058045 0.059449
0.031403 0.049836 0.059205
0.058045 0.061128 0.060883
0.151797 0.065217 0.044190
0.211490 0.066072 0.045075
0.259007 0.064637 0.045747
0.299992 0.062501 0.046174
0.335210 0.061341 0.047028
0.368658 0.060700 0.048280
0.400641 0.062104 0.049958
0.430671 0.064515 0.051637
0.458289 0.067201 0.053376
0.479744 0.068727 0.054688
0.499184 0.070497 0.055695
0.515740 0.071687 0.056825
0.530236 0.073213 0.057893
0.543572 0.074495 0.058900
0.555138 0.075502 0.060060
0.030671 0.098634 0.088808
0.041840 0.127138 0.079866
0.185336 0.176089 0.060182
0.294621 0.175021 0.049775
0.351171 0.169223 0.049622
0.394324 0.165072 0.049897
0.432715 0.162936 0.050874
0.466255 0.161685 0.052308
0.502831 0.170443 0.054902
0.534203 0.177493 0.057221
0.563378 0.186618 0.059388
0.587243 0.193698 0.061524
0.607385 0.197269 0.062928
0.620844 0.195560 0.064088
0.626917 0.185641 0.064576
0.629267 0.172152 0.064790
0.628412 0.155795 0.065034
0.032258 0.152041 0.106081
0.042786 0.193149 0.080385
0.151217 0.249638 0.064668
0.292546 0.285344 0.058778
0.402502 0.289982 0.055268
0.467201 0.291539 0.056092
0.519036 0.294011 0.057801
0.561791 0.296880 0.060395
0.600458 0.305699 0.064729
0.634028 0.314733 0.069337
0.664271 0.327611 0.073915
0.690303 0.339208 0.078859
0.710506 0.345068 0.082063
0.722377 0.342046 0.083589
0.718807 0.319280 0.080079
0.710811 0.291417 0.076722
0.699611 0.259770 0.073182
0.034546 0.199557 0.116213
0.044251 0.240848 0.079774
0.137484 0.300084 0.064454
0.270939 0.343053 0.059236
0.389197 0.372137 0.061616
0.489570 0.385412 0.067140
0.559960 0.394873 0.071748
0.617639 0.402869 0.075166
0.660243 0.411170 0.080262
0.696162 0.418372 0.085420
0.725551 0.426673 0.091402
0.750576 0.435279 0.097902
0.771267 0.441138 0.102968
0.782467 0.437751 0.104952
0.780728 0.416968 0.100649
0.770504 0.383795 0.093599
0.755673 0.345495 0.086946
0.037140 0.240940 0.119051
0.043000 0.271366 0.086061
0.118379 0.330632 0.069978
0.253117 0.375769 0.062379
0.365026 0.409064 0.064424
0.465553 0.434760 0.070130
0.555901 0.451484 0.079896
0.626947 0.463416 0.087831
0.677943 0.469429 0.092470
0.717494 0.475410 0.098054
0.753506 0.482704 0.104372
0.780819 0.492348 0.112032
0.803891 0.498177 0.117617
0.816190 0.496071 0.119875
0.816312 0.477394 0.115877
0.810697 0.450538 0.108919
0.797238 0.411810 0.100069
0.038849 0.271427 0.122805
0.042725 0.296605 0.094881
0.100923 0.352148 0.079164
0.233158 0.399512 0.068544
0.346349 0.433692 0.068421
0.441291 0.460029 0.073610
0.527794 0.481666 0.080934
0.611414 0.499001 0.092958
0.677089 0.511040 0.102388
0.722530 0.513512 0.106966
0.760555 0.517571 0.112673
0.790616 0.519707 0.117433
0.814237 0.523491 0.122652
0.829496 0.522301 0.125551
0.833432 0.508873 0.123384
0.830320 0.485664 0.117342
0.822232 0.455390 0.109560
0.040040 0.296849 0.128603
0.042512 0.317998 0.106783
0.078981 0.365179 0.092958
0.202396 0.417517 0.079133
0.328618 0.451545 0.074220
0.421424 0.478614 0.078584
0.504906 0.500633 0.085145
0.580865 0.519005 0.093324
0.654917 0.534569 0.105196
0.716793 0.543816 0.114900
0.760067 0.545525 0.121096
0.792294 0.544915 0.123934
0.818540 0.542840 0.126375
0.834379 0.540124 0.128817
0.840543 0.526268 0.126009
0.842008 0.508629 0.121920
0.838132 0.484901 0.115938
0.040955 0.317510 0.138552
0.042939 0.337591 0.120577
0.071626 0.378485 0.108095
0.178622 0.431952 0.094301
0.308080 0.466499 0.083528
0.407385 0.493721 0.085267
0.491218 0.516991 0.091279
0.567987 0.536309 0.099031
0.638010 0.553368 0.111116
0.706706 0.566766 0.124422
0.761166 0.575708 0.134463
0.794583 0.570581 0.132753
0.821958 0.566583 0.133852
0.838773 0.557794 0.132265
0.845853 0.543450 0.128969
0.849180 0.526177 0.124666
0.850767 0.510185 0.121523
0.041840 0.337224 0.147799
0.044587 0.358007 0.141573
0.064057 0.391241 0.132204
0.155810 0.446204 0.118349
0.288136 0.481147 0.102205
0.394705 0.508812 0.098695
0.485008 0.533440 0.104860
0.564126 0.554864 0.112490
0.634867 0.573266 0.127443
0.698299 0.589197 0.140444
0.760891 0.603601 0.158511
0.802365 0.605432 0.157168
0.832029 0.600153 0.155123
0.850523 0.591943 0.149996
0.857633 0.574731 0.140414
0.861021 0.556023 0.134554
0.862486 0.538170 0.129580
0.042695 0.354192 0.160616
0.046906 0.377783 0.163912
0.065217 0.409064 0.159701
0.145815 0.456062 0.146029
0.268147 0.496681 0.128878
0.385733 0.524712 0.115511
0.480125 0.550561 0.122866
0.563577 0.573388 0.131411
0.638712 0.594568 0.148775
0.700740 0.610773 0.162142
0.761135 0.627161 0.177676
0.805997 0.632685 0.178256
0.842954 0.635157 0.179294
0.861723 0.626245 0.172488
0.870939 0.611109 0.162020
0.874754 0.591699 0.149447
0.875700 0.572442 0.143282
0.043702 0.371038 0.176394
0.050568 0.400427 0.192813
0.073121 0.433783 0.200015
0.141390 0.474586 0.190799
0.263569 0.516594 0.171176
0.384909 0.546410 0.153475
0.486839 0.571527 0.150698
0.570779 0.594965 0.161563
0.646799 0.617090 0.180514
0.710140 0.635309 0.200595
0.770352 0.652247 0.218143
0.810636 0.662898 0.227054
0.849760 0.669764 0.233677
0.872557 0.667079 0.225406
0.886442 0.654505 0.201328
0.891691 0.635676 0.181674
0.892332 0.614923 0.163546
0.045350 0.389899 0.196689
0.055299 0.423651 0.220371
0.084657 0.460365 0.236698
0.154757 0.497322 0.234562
0.269276 0.538750 0.218112
0.395758 0.570703 0.193912
0.495964 0.594842 0.187411
0.581674 0.617456 0.194766
0.658427 0.640497 0.215091
0.718441 0.658381 0.236484
0.779263 0.676722 0.257725
0.815427 0.686549 0.266850
0.855100 0.696681 0.274907
0.878721 0.697505 0.270970
0.893339 0.691951 0.257969
0.903258 0.678859 0.230747
0.904326 0.658289 0.208530
0.047517 0.410101 0.221530
0.062806 0.450507 0.250553
0.103426 0.493599 0.278019
0.185214 0.531456 0.285801
0.302876 0.569665 0.272404
0.427070 0.602228 0.252293
0.522560 0.624109 0.236942
0.605280 0.645747 0.243076
0.678462 0.666712 0.259861
0.732845 0.683192 0.282658
0.786282 0.699489 0.303685
0.821714 0.709743 0.315984
0.856748 0.718929 0.324285
0.880369 0.724605 0.326452
0.895903 0.723568 0.319066
0.906889 0.716457 0.300694
0.913817 0.702235 0.267826
0.051362 0.432410 0.250126
0.071839 0.477485 0.279942
0.135073 0.527581 0.312261
0.239048 0.568475 0.331395
0.359197 0.606134 0.328984
0.477516 0.637171 0.312657
0.564599 0.657374 0.298161
0.636469 0.675563 0.299351
0.704677 0.694789 0.312993
0.748653 0.707668 0.332647
0.795377 0.721798 0.352667
0.827024 0.730770 0.364965
0.857786 0.739162 0.372778
0.881315 0.744961 0.375219
0.896819 0.747005 0.372076
0.908263 0.745113 0.365393
0.915801 0.737209 0.346044
0.055207 0.454536 0.280339
0.083192 0.504570 0.309636
0.164645 0.558923 0.342107
0.290105 0.601923 0.366522
0.419684 0.640894 0.374121
0.528130 0.670466 0.370123
0.610285 0.689967 0.357763
0.669154 0.705165 0.358953
0.726436 0.720760 0.368017
0.766903 0.732265 0.385260
0.803464 0.742855 0.401526
0.833158 0.751156 0.413520
0.857481 0.757259 0.419104
0.879820 0.762783 0.421393
0.895232 0.765408 0.418799
0.908598 0.766781 0.415259
0.916564 0.764218 0.409125
0.060212 0.477180 0.312016
0.100160 0.529595 0.337865
0.191226 0.582330 0.365454
0.326848 0.625605 0.391882
0.457923 0.663905 0.404913
0.561517 0.694026 0.411322
0.636469 0.713802 0.408148
0.690425 0.728603 0.412390
0.737758 0.741299 0.417304
0.775692 0.751675 0.431952
0.807279 0.760281 0.443946
0.833555 0.767544 0.454688
0.855528 0.772763 0.459052
0.876005 0.777401 0.461402
0.891936 0.781003 0.459907
0.905272 0.783139 0.457465
0.916747 0.784085 0.454475
0.030121 0.033478 0.069917
0.047333 0.036988 0.070710
0.086885 0.042695 0.074006
0.137636 0.047578 0.079377
0.190982 0.050721 0.083589
0.242618 0.051728 0.085298
0.286076 0.051789 0.083894
0.321569 0.051667 0.081086
0.351995 0.051789 0.077821
0.381567 0.051972 0.075380
0.409796 0.052186 0.074647
0.435554 0.052918 0.072175
0.458259 0.053681 0.072053
0.477943 0.054597 0.070710
0.494179 0.055512 0.070130
0.509239 0.056397 0.069642
0.522087 0.057160 0.069276
0.030457 0.046693 0.093812
0.037873 0.043305 0.097414
0.112154 0.055024 0.099916
0.188174 0.060914 0.088411
0.246342 0.061128 0.080079
0.291234 0.059876 0.073396
0.327947 0.059144 0.068299
0.359564 0.057984 0.063661
0.389471 0.057862 0.062501
0.417212 0.058167 0.061402
0.443214 0.059266 0.062165
0.464332 0.060304 0.062287
0.483467 0.061128 0.063081
0.500053 0.062287 0.063752
0.513848 0.063569 0.064546
0.526726 0.064942 0.065309
0.539391 0.066957 0.066590
0.031678 0.085512 0.125460
0.036774 0.110689 0.152895
0.129976 0.131899 0.137636
0.247471 0.123507 0.091127
0.306249 0.110292 0.074434
0.346166 0.100496 0.066194
0.379004 0.091859 0.060212
0.409583 0.088655 0.059236
0.437354 0.086641 0.058381
0.463386 0.086030 0.058930
0.487617 0.087282 0.060029
0.506310 0.087037 0.061006
0.523095 0.087770 0.062318
0.537377 0.088106 0.063386
0.549706 0.088411 0.064210
0.561028 0.089021 0.065461
0.573693 0.091707 0.067292
0.032898 0.148775 0.159335
0.037232 0.188052 0.151369
0.111452 0.228458 0.129488
0.285466 0.268467 0.128939
0.395605 0.260227 0.091737
0.449653 0.246281 0.076722
0.488167 0.233829 0.066590
0.519524 0.227420 0.065705
0.547143 0.224979 0.064942
0.571344 0.222965 0.065827
0.595422 0.226596 0.067811
0.612482 0.225925 0.069184
0.626581 0.223819 0.070771
0.635218 0.216770 0.071656
0.632990 0.196109 0.071565
0.634516 0.181552 0.071870
0.638178 0.170291 0.072908
0.034211 0.201755 0.178286
0.038880 0.243595 0.140169
0.125216 0.309300 0.108156
0.325536 0.366918 0.091829
0.402899 0.371984 0.112551
0.495094 0.370672 0.096162
0.554833 0.365972 0.085969
0.603113 0.363592 0.082887
0.633997 0.360327 0.081788
0.661219 0.357946 0.083101
0.685725 0.361212 0.087160
0.702571 0.359594 0.090059
0.715572 0.355871 0.092317
0.720516 0.343389 0.092622
0.710079 0.309941 0.085512
0.701381 0.280369 0.082521
0.699580 0.261570 0.082277
0.036713 0.248478 0.187686
0.040650 0.281559 0.142519
0.107393 0.346532 0.110536
0.306767 0.408392 0.087312
0.419562 0.433783 0.095705
0.490517 0.446540 0.114107
0.571344 0.449226 0.106600
0.632593 0.451240 0.107820
0.675898 0.449104 0.102968
0.708705 0.448066 0.102724
0.739254 0.451698 0.106386
0.758755 0.452308 0.110231
0.773434 0.448981 0.113527
0.778592 0.435889 0.112551
0.769131 0.403143 0.104250
0.759365 0.370611 0.097536
0.751949 0.344213 0.095888
0.038911 0.285405 0.190127
0.041932 0.311284 0.148379
0.083833 0.367254 0.122011
0.271092 0.431464 0.095521
0.411505 0.466468 0.091432
0.497200 0.488228 0.104494
0.560784 0.502525 0.122957
0.635706 0.509880 0.129915
0.692470 0.512871 0.128939
0.731807 0.508385 0.123384
0.764492 0.508598 0.123842
0.786496 0.504021 0.123903
0.802365 0.501610 0.127260
0.808896 0.490303 0.126528
0.804166 0.463752 0.119539
0.797086 0.434516 0.113191
0.794247 0.412818 0.111116
0.040528 0.313939 0.191470
0.042512 0.334020 0.161196
0.073396 0.380407 0.142184
0.227024 0.445441 0.116548
0.391608 0.483009 0.097932
0.487404 0.510185 0.107027
0.556161 0.529046 0.126009
0.618738 0.545312 0.143526
0.682841 0.550683 0.144991
0.735958 0.551354 0.143526
0.771908 0.545708 0.140902
0.795560 0.536645 0.134432
0.813657 0.528649 0.133455
0.822507 0.519310 0.133150
0.822629 0.498054 0.127108
0.822080 0.479103 0.123720
0.821286 0.461280 0.123476
0.041657 0.335882 0.198795
0.043702 0.354467 0.176181
0.070954 0.399207 0.174044
0.196231 0.456001 0.148531
0.360784 0.498085 0.124269
0.482307 0.528008 0.120790
0.560235 0.551843 0.138643
0.626612 0.570245 0.155581
0.677241 0.583917 0.176425
0.734798 0.587457 0.173709
0.779873 0.587335 0.169497
0.805142 0.571435 0.151186
0.824094 0.560143 0.145693
0.832547 0.543877 0.138582
0.835782 0.526329 0.133730
0.839200 0.511955 0.131563
0.843961 0.504204 0.134829
0.042939 0.357336 0.205539
0.046571 0.376806 0.199130
0.076295 0.422492 0.212772
0.168353 0.469062 0.192813
0.337240 0.515068 0.161135
0.468162 0.546197 0.150271
0.560891 0.571649 0.163149
0.634668 0.594324 0.180667
0.688411 0.609827 0.203464
0.734676 0.621180 0.217136
0.785275 0.624506 0.217960
0.816556 0.615717 0.194034
0.837888 0.601648 0.178073
0.848600 0.585321 0.163394
0.848875 0.560906 0.146700
0.853605 0.546014 0.142763
0.859525 0.537652 0.144320
0.044068 0.375128 0.218967
0.049897 0.399573 0.223697
0.083619 0.446967 0.250706
0.168215 0.487648 0.236271
0.313466 0.531975 0.209110
0.461906 0.565393 0.180545
0.559609 0.591546 0.192996
0.638788 0.614984 0.210788
0.700450 0.634974 0.238468
0.747219 0.647303 0.253300
0.792752 0.658930 0.265873
0.825864 0.653284 0.240116
0.851164 0.646082 0.225711
0.862882 0.627802 0.201816
0.866148 0.605280 0.178775
0.867826 0.584802 0.162234
0.873960 0.576196 0.163455
0.045563 0.392920 0.235477
0.055909 0.424170 0.251469
0.100221 0.477485 0.290654
0.186526 0.516472 0.290837
0.327626 0.558953 0.267674
0.470085 0.591852 0.241825
0.567391 0.614954 0.236149
0.646342 0.638056 0.255528
0.710811 0.658228 0.283024
0.761410 0.673213 0.303288
0.807980 0.685756 0.318029
0.830869 0.689998 0.318578
0.858122 0.686732 0.303746
0.873808 0.676478 0.278965
0.883909 0.655421 0.231785
0.886717 0.633783 0.203464
0.889586 0.619043 0.186954
0.047639 0.411810 0.257328
0.061219 0.447486 0.278019
0.117067 0.505913 0.323613
0.218997 0.547692 0.336370
0.343618 0.584344 0.324620
0.482994 0.617823 0.297826
0.578103 0.640223 0.288823
0.654658 0.659998 0.297368
0.719265 0.680262 0.325475
0.765896 0.694179 0.345739
0.811460 0.707637 0.365209
0.835264 0.712795 0.368048
0.861540 0.718105 0.369116
0.879149 0.711696 0.346380
0.889586 0.700008 0.317205
0.897612 0.681361 0.272618
0.900145 0.664118 0.249668
0.050385 0.432288 0.283574
0.068391 0.471992 0.305669
0.140078 0.535668 0.353918
0.258213 0.580011 0.377508
0.387701 0.616175 0.375097
0.509880 0.646387 0.361913
0.600916 0.667994 0.348272
0.670649 0.685817 0.355077
0.731258 0.702632 0.372168
0.773342 0.715236 0.392248
0.812497 0.726894 0.409857
0.838163 0.733944 0.417273
0.861784 0.738613 0.418585
0.880919 0.740902 0.414862
0.891966 0.735103 0.395056
0.900786 0.724117 0.364446
0.908354 0.708888 0.324437
0.054078 0.452827 0.311009
0.076478 0.494636 0.332860
0.157717 0.559106 0.376837
0.295018 0.605585 0.405951
0.425605 0.642359 0.418006
0.539147 0.671595 0.413153
0.626551 0.694179 0.405829
0.687861 0.709621 0.408515
0.742672 0.724361 0.421393
0.779751 0.734676 0.436927
0.813993 0.744503 0.451606
0.838193 0.750912 0.458747
0.860471 0.756191 0.461158
0.879515 0.759091 0.458686
0.891997 0.759579 0.453834
0.902037 0.754971 0.438758
0.911009 0.747066 0.416510
0.058656 0.474434 0.339910
0.084657 0.516136 0.359991
0.174960 0.578027 0.397833
0.312627 0.623987 0.426581
0.445869 0.660578 0.444709
0.553246 0.690517 0.455177
0.638819 0.713802 0.452552
0.695888 0.729519 0.456794
0.745937 0.742367 0.463539
0.782589 0.752163 0.476326
0.812772 0.760403 0.487984
0.836545 0.766659 0.495430
0.857359 0.771267 0.497810
0.877043 0.775540 0.497963
0.890684 0.777249 0.494606
0.902556 0.777859 0.491341
0.911894 0.774685 0.481819
0.064729 0.497139 0.369207
0.097200 0.536522 0.385565
0.187137 0.594171 0.418250
0.320317 0.638514 0.444648
0.450202 0.673640 0.465003
0.553704 0.702480 0.480842
0.638117 0.727596 0.489265
0.695033 0.744015 0.496376
0.744015 0.757748 0.500786
0.780148 0.766995 0.510887
0.809323 0.774533 0.518547
0.833127 0.780972 0.527367
0.853941 0.785672 0.530388
0.873350 0.789853 0.532158
0.888334 0.792966 0.530480
0.901549 0.794980 0.529259
0.912993 0.795834 0.527489
0.030640 0.033997 0.102388
0.043030 0.036225 0.102815
0.078950 0.040711 0.107942
0.128878 0.045106 0.111330
0.185306 0.048280 0.117037
0.240238 0.049683 0.119966
0.287327 0.050233 0.119387
0.324254 0.050507 0.116976
0.355901 0.050721 0.113771
0.385809 0.051026 0.111818
0.414343 0.051392 0.108583
0.439918 0.052216 0.105501
0.462287 0.053193 0.101137
