LUTs/44.cube
# (C) 2014 VisionColor & Patchflyer [www.vision-color.com]
# Generator: VC Patchmatch v.2.1.1 [64/53]
# All work and no play makes Jack a dull boy.
# LUT generated from: Kodak Vision3 50D 5203 (NEG)_FPE
LUT_3D_SIZE 9
0.032380 0.034272 0.034455
0.107546 0.045716 0.037293
0.212070 0.052369 0.039887
0.293706 0.051148 0.041901
0.357183 0.051453 0.044953
0.418158 0.054810 0.048188
0.468971 0.058259 0.051148
0.506340 0.060761 0.053193
0.535790 0.063508 0.054505
0.031617 0.102815 0.057862
0.164187 0.155612 0.044038
0.323186 0.185122 0.043336
0.431617 0.203800 0.047883
0.512932 0.217044 0.052705
0.590326 0.244694 0.059144
0.658320 0.278264 0.066438
0.702296 0.296269 0.071717
0.712184 0.275425 0.071107
0.034730 0.191379 0.067933
0.126864 0.262303 0.049531
0.335332 0.323491 0.048615
0.500237 0.363043 0.058869
0.615076 0.393500 0.069917
0.705684 0.424262 0.082582
0.772824 0.453285 0.096651
0.813535 0.469245 0.106600
0.819577 0.443183 0.103426
0.038422 0.251530 0.072755
0.111666 0.327367 0.054108
0.301335 0.393469 0.053651
0.482368 0.442206 0.064485
0.629664 0.481697 0.084474
0.729610 0.502770 0.098726
0.798733 0.517174 0.110536
0.841184 0.523919 0.118990
0.854215 0.504845 0.117464
0.040223 0.297368 0.089601
0.083589 0.362982 0.070222
0.265690 0.432959 0.062898
0.442603 0.482094 0.070466
0.590906 0.518120 0.086213
0.719661 0.550286 0.107973
0.800534 0.558770 0.119448
0.846830 0.554253 0.124697
0.864622 0.530724 0.122072
0.041657 0.335424 0.110262
0.066926 0.388922 0.094301
0.225223 0.465156 0.082460
0.408499 0.512352 0.082460
0.563088 0.550469 0.094820
0.696223 0.582269 0.115236
0.804837 0.608026 0.136629
0.862028 0.606195 0.142824
0.884398 0.586328 0.139467
0.043641 0.370275 0.142428
0.063050 0.417578 0.142641
0.210483 0.498939 0.129824
0.404028 0.547723 0.114290
0.568032 0.588281 0.123323
0.708217 0.625666 0.150393
0.811704 0.654383 0.175051
0.883604 0.670405 0.192020
0.908995 0.659022 0.183352
0.048035 0.410712 0.188846
0.090669 0.475593 0.223789
0.260105 0.551232 0.222568
0.458778 0.603601 0.190860
0.621241 0.644373 0.195071
0.745296 0.679835 0.228305
0.833219 0.705837 0.257359
0.890898 0.721126 0.267216
0.919676 0.724330 0.272923
0.056428 0.458259 0.248234
0.161227 0.554223 0.304021
0.405097 0.635431 0.326726
0.583825 0.680323 0.303868
0.703212 0.710292 0.303136
0.790311 0.735927 0.334905
0.853422 0.753933 0.358862
0.895171 0.765560 0.366796
0.920439 0.770016 0.362341
0.030121 0.033478 0.069917
0.086885 0.042695 0.074006
0.190982 0.050721 0.083589
0.286076 0.051789 0.083894
0.351995 0.051789 0.077821
0.409796 0.052186 0.074647
0.458259 0.053681 0.072053
0.494179 0.055512 0.070130
0.522087 0.057160 0.069276
0.031678 0.085512 0.125460
0.129976 0.131899 0.137636
0.306249 0.110292 0.074434
0.379004 0.091859 0.060212
0.437354 0.086641 0.058381
0.487617 0.087282 0.060029
0.523095 0.087770 0.062318
0.549706 0.088411 0.064210
0.573693 0.091707 0.067292
0.034211 0.201755 0.178286
0.125216 0.309300 0.108156
0.402899 0.371984 0.112551
0.554833 0.365972 0.085969
0.633997 0.360327 0.081788
0.685725 0.361212 0.087160
0.715572 0.355871 0.092317
0.710079 0.309941 0.085512
0.699580 0.261570 0.082277
0.038911 0.285405 0.190127
0.083833 0.367254 0.122011
0.411505 0.466468 0.091432
0.560784 0.502525 0.122957
0.692470 0.512871 0.128939
0.764492 0.508598 0.123842
0.802365 0.501610 0.127260
0.804166 0.463752 0.119539
0.794247 0.412818 0.111116
0.041657 0.335882 0.198795
0.070954 0.399207 0.174044
0.360784 0.498085 0.124269
0.560235 0.551843 0.138643
0.677241 0.583917 0.176425
0.779873 0.587335 0.169497
0.824094 0.560143 0.145693
0.835782 0.526329 0.133730
0.843961 0.504204 0.134829
0.044068 0.375128 0.218967
0.083619 0.446967 0.250706
0.313466 0.531975 0.209110
0.559609 0.591546 0.192996
0.700450 0.634974 0.238468
0.792752 0.658930 0.265873
0.851164 0.646082 0.225711
0.866148 0.605280 0.178775
0.873960 0.576196 0.163455
0.047639 0.411810 0.257328
0.117067 0.505913 0.323613
0.343618 0.584344 0.324620
0.578103 0.640223 0.288823
0.719265 0.680262 0.325475
0.811460 0.707637 0.365209
0.861540 0.718105 0.369116
0.889586 0.700008 0.317205
0.900145 0.664118 0.249668
0.054078 0.452827 0.311009
0.157717 0.559106 0.376837
0.425605 0.642359 0.418006
0.626551 0.694179 0.405829
0.742672 0.724361 0.421393
0.813993 0.744503 0.451606
0.860471 0.756191 0.461158
0.891997 0.759579 0.453834
0.911009 0.747066 0.416510
0.064729 0.497139 0.369207
0.187137 0.594171 0.418250
0.450202 0.673640 0.465003
0.638117 0.727596 0.489265
0.744015 0.757748 0.500786
0.809323 0.774533 0.518547
0.853941 0.785672 0.530388
0.888334 0.792966 0.530480
0.912993 0.795834 0.527489
0.031250 0.034150 0.132815
0.078126 0.039277 0.140749
0.181552 0.045624 0.146975
0.292760 0.048432 0.154177
0.363714 0.049653 0.149935
0.420478 0.050568 0.144472
0.466712 0.052583 0.136416
0.500328 0.054566 0.121584
0.526696 0.056947 0.106294
0.035004 0.067628 0.193606
0.047730 0.057832 0.196170
0.285496 0.085115 0.218845
0.367803 0.070314 0.169924
0.421698 0.067659 0.137148
0.467475 0.066682 0.112459
0.501884 0.068299 0.096406
0.529076 0.071168 0.090639
0.558892 0.079072 0.093568
0.037354 0.179171 0.265782
0.049226 0.260166 0.316503
0.338476 0.333135 0.327611
0.490761 0.282994 0.247623
0.537041 0.223331 0.167758
0.551202 0.167819 0.110567
0.559960 0.131930 0.087068
0.581140 0.125216 0.086671
0.629480 0.157931 0.100252
0.039429 0.289158 0.311223
0.061433 0.365881 0.256901
0.338476 0.462318 0.302983
0.553735 0.501060 0.338720
0.653864 0.473610 0.258274
0.705501 0.426596 0.172839
0.714473 0.368032 0.122072
0.717464 0.327642 0.113252
0.745693 0.339696 0.137484
0.043488 0.363012 0.334936
0.075135 0.430426 0.295476
0.332784 0.533562 0.326345
0.607141 0.592035 0.305043
0.678157 0.601404 0.365347
0.763424 0.578744 0.275715
0.799069 0.526986 0.181018
0.808316 0.489815 0.160128
0.828946 0.493889 0.190341
0.048035 0.414679 0.348058
0.094270 0.483558 0.355566
0.377050 0.591882 0.404913
0.641672 0.651698 0.378973
0.744472 0.674708 0.399481
0.781460 0.680385 0.429480
0.834897 0.647211 0.319280
0.857725 0.603113 0.234379
0.875059 0.600397 0.248814
0.054902 0.455360 0.370184
0.123293 0.530785 0.403906
0.437339 0.641749 0.479774
0.653605 0.695552 0.474678
0.767941 0.722469 0.485847
0.820401 0.735470 0.501640
0.848600 0.736782 0.501030
0.878233 0.707515 0.409583
0.898070 0.688838 0.363012
0.074739 0.506432 0.418036
0.143801 0.568505 0.443336
0.444068 0.669886 0.519402
0.636988 0.721035 0.546227
0.749630 0.751797 0.556268
0.815610 0.767452 0.565362
0.857084 0.777523 0.573327
0.884764 0.779629 0.569665
0.904448 0.767025 0.531548
0.111025 0.566918 0.472663
0.184298 0.608087 0.484657
0.439399 0.691676 0.546136
0.611048 0.735927 0.584527
0.727474 0.771969 0.608606
0.800351 0.791562 0.615656
0.847959 0.803311 0.624994
0.883452 0.811978 0.631739
0.908629 0.815335 0.631952
0.033234 0.035187 0.184756
0.081147 0.039063 0.200412
0.206851 0.042512 0.213993
0.304967 0.045472 0.212100
0.381872 0.048371 0.212528
0.436622 0.050965 0.207919
0.477668 0.053040 0.197665
0.508019 0.054475 0.175540
0.532067 0.056703 0.148775
0.036652 0.059632 0.238560
0.038666 0.045899 0.232944
0.220554 0.058015 0.273045
0.394537 0.062379 0.272221
0.444526 0.063691 0.239231
0.479683 0.064302 0.200351
0.509117 0.066316 0.162722
0.533318 0.069276 0.137301
0.563104 0.078370 0.138613
0.039948 0.153872 0.309026
0.041749 0.149081 0.326848
0.186679 0.204929 0.345495
0.473732 0.257725 0.380102
0.519188 0.188449 0.308659
0.529198 0.131044 0.218921
0.538659 0.101472 0.148440
0.564996 0.104158 0.128878
0.621881 0.144686 0.159701
0.043519 0.263951 0.371344
0.050263 0.352422 0.427893
0.220310 0.431128 0.438422
0.510033 0.487037 0.466224
0.614893 0.442237 0.409125
0.647425 0.354116 0.298787
0.640497 0.251728 0.182879
0.644678 0.214374 0.145388
0.721675 0.305257 0.206638
0.047211 0.365576 0.420203
0.072541 0.441566 0.406867
0.325811 0.536706 0.420768
0.513008 0.571008 0.471748
0.655665 0.599481 0.493324
0.737148 0.573251 0.421775
0.773709 0.507698 0.294087
0.780850 0.450706 0.222187
0.817960 0.491295 0.288258
0.053651 0.441230 0.451850
0.089143 0.492866 0.422065
0.368566 0.605127 0.486213
0.590448 0.659968 0.528374
0.729824 0.687556 0.518914
0.766934 0.689326 0.543328
0.821012 0.654902 0.438209
0.850889 0.610803 0.329351
0.871366 0.620569 0.370275
0.070619 0.498054 0.471870
0.112856 0.538109 0.457832
0.402518 0.647700 0.534874
0.643488 0.711940 0.581353
0.761898 0.739101 0.579217
0.814237 0.746303 0.574243
0.838010 0.750576 0.595087
0.872679 0.720699 0.496681
0.893339 0.711574 0.478950
0.115450 0.560601 0.505089
0.154177 0.587762 0.499702
0.406912 0.672541 0.561730
0.627710 0.732418 0.618158
0.737301 0.762661 0.632502
0.811185 0.780453 0.635584
0.853208 0.790860 0.644770
0.879332 0.794095 0.648188
0.900572 0.781582 0.606195
0.180301 0.624079 0.546258
0.241032 0.643732 0.545800
0.458900 0.708034 0.594507
0.625422 0.752346 0.636683
0.723659 0.779202 0.659388
0.794827 0.800687 0.672511
0.845762 0.813962 0.682246
0.880125 0.822995 0.691585
0.906004 0.826291 0.690394
0.034577 0.036469 0.221530
0.073854 0.039918 0.241978
0.216007 0.041810 0.267277
0.335790 0.045167 0.272282
0.396490 0.047944 0.264103
0.452583 0.051545 0.263798
0.491218 0.054200 0.256504
0.517906 0.055787 0.234684
0.540520 0.057221 0.202640
0.038453 0.053956 0.267613
0.037934 0.044709 0.259373
0.158328 0.050904 0.300999
0.386084 0.058686 0.332341
0.468544 0.062440 0.322332
0.503319 0.065400 0.292210
0.522759 0.067292 0.243107
0.543267 0.070069 0.204318
0.572808 0.080568 0.204532
0.040955 0.126406 0.327977
0.041260 0.090364 0.319799
0.089540 0.109499 0.326085
0.357092 0.153750 0.385748
0.524285 0.174014 0.396216
0.546746 0.132784 0.331960
0.550378 0.102693 0.243397
0.574182 0.104799 0.207462
0.630671 0.147250 0.246662
0.044495 0.235966 0.394812
0.046418 0.248417 0.422675
0.101534 0.292546 0.433570
0.389013 0.386206 0.475319
0.603876 0.441932 0.508019
0.642725 0.355276 0.437797
0.633967 0.238148 0.314717
0.637354 0.198322 0.240833
0.711086 0.291981 0.305470
0.048341 0.333959 0.452522
0.059571 0.423041 0.504387
0.193484 0.503319 0.517784
0.445518 0.556756 0.541283
0.621759 0.593561 0.566888
0.701045 0.554177 0.523079
0.735042 0.472190 0.412863
0.746303 0.404135 0.312215
0.798703 0.475273 0.381735
0.054322 0.435126 0.500206
0.121340 0.530724 0.519188
0.320958 0.594446 0.528740
0.566735 0.652430 0.569390
0.661219 0.669673 0.588006
0.741573 0.682765 0.600488
0.802609 0.657069 0.539635
0.837705 0.617334 0.447395
0.863035 0.634363 0.487037
0.081270 0.515923 0.533379
0.203586 0.600885 0.548882
0.371786 0.646540 0.569635
0.625483 0.712703 0.625025
0.730770 0.741756 0.645563
0.806149 0.751156 0.623346
0.829282 0.755428 0.649958
0.864713 0.734005 0.582116
0.887785 0.729244 0.576623
0.162600 0.597162 0.567987
0.264698 0.643458 0.573877
0.405020 0.680232 0.597406
0.622217 0.737789 0.652399
0.731533 0.768215 0.678584
0.805234 0.787839 0.684108
0.849790 0.797726 0.688899
0.875181 0.802487 0.698848
0.897826 0.791745 0.665370
0.264652 0.666651 0.600946
0.333059 0.681514 0.601129
0.493568 0.724514 0.634943
0.638148 0.762356 0.670741
0.731197 0.788052 0.695094
0.794949 0.807614 0.710536
0.844388 0.821073 0.720699
0.878416 0.830259 0.729854
0.905882 0.834318 0.731441
0.036316 0.037842 0.252934
0.072084 0.040772 0.276341
0.222995 0.042817 0.312566
0.350500 0.045289 0.323552
0.423499 0.049439 0.323735
0.465003 0.052155 0.314977
0.505669 0.055146 0.314488
0.530510 0.056947 0.300969
0.549340 0.058412 0.272374
0.039948 0.050294 0.289769
0.038972 0.044923 0.282139
0.123049 0.048920 0.320592
0.342123 0.055055 0.364599
0.476905 0.063783 0.382147
0.525567 0.068055 0.374243
0.545037 0.069978 0.343084
0.557610 0.071931 0.295415
0.584405 0.083558 0.279545
0.041657 0.096376 0.336278
0.041779 0.066346 0.321447
0.056336 0.068208 0.318608
0.234028 0.082918 0.367681
0.472007 0.116976 0.416388
0.565515 0.136568 0.420050
0.577356 0.115267 0.364233
0.591638 0.114382 0.311650
0.644495 0.159274 0.340612
0.044984 0.205539 0.408576
0.044068 0.156664 0.392340
0.054871 0.152728 0.387274
0.193317 0.198474 0.416373
0.490929 0.292241 0.489769
0.642847 0.357137 0.516564
0.653132 0.267659 0.441169
0.654566 0.218601 0.367773
0.720699 0.309667 0.418708
0.049256 0.308171 0.469886
0.051606 0.330617 0.496986
0.077470 0.347204 0.495262
0.260197 0.426459 0.525582
0.529778 0.507012 0.568338
0.693965 0.569345 0.604608
0.732418 0.494408 0.543450
0.738552 0.406729 0.451728
0.788418 0.473777 0.493751
0.052674 0.398291 0.522087
0.072175 0.483680 0.565118
0.191440 0.558221 0.581201
0.430716 0.618433 0.605646
0.599512 0.649378 0.627894
0.710201 0.676295 0.649622
0.774746 0.644739 0.616144
0.811795 0.601999 0.547402
0.847074 0.629145 0.576028
0.070527 0.496803 0.563470
0.210758 0.607538 0.601862
0.388159 0.657069 0.615839
0.575738 0.698878 0.641718
0.708583 0.735195 0.671138
0.770474 0.749691 0.682185
0.809293 0.750515 0.683833
0.853574 0.735714 0.651820
0.880949 0.733242 0.652949
0.142092 0.586145 0.596307
0.371862 0.682521 0.636408
0.466682 0.703151 0.644953
0.615564 0.740108 0.677607
0.729610 0.771969 0.706691
0.799008 0.793088 0.722866
0.844846 0.799649 0.714504
0.869108 0.805020 0.729183
0.895598 0.796841 0.712795
0.273075 0.674098 0.631586
0.421241 0.713680 0.653040
0.532433 0.740139 0.671687
0.647669 0.769406 0.698054
0.734585 0.793423 0.720668
0.795071 0.812894 0.737728
0.842557 0.826078 0.748196
0.877195 0.834836 0.754818
0.904387 0.839963 0.760098
0.038087 0.039216 0.277989
0.065156 0.040833 0.300420
0.216648 0.044221 0.345373
0.346960 0.045960 0.361852
0.436347 0.050660 0.372686
0.489143 0.054261 0.373480
0.519432 0.056458 0.367956
0.545098 0.058167 0.363500
0.562310 0.059266 0.345647
0.040925 0.048768 0.307500
0.040131 0.045686 0.300969
0.101137 0.048280 0.333318
0.287282 0.053803 0.380224
0.444694 0.060548 0.406470
0.532677 0.069856 0.421424
0.565332 0.075532 0.418402
0.580499 0.078370 0.392370
0.602625 0.091737 0.368200
0.042573 0.075929 0.342748
0.042512 0.059449 0.329717
0.046693 0.058350 0.325200
0.165118 0.063600 0.366583
0.395377 0.080537 0.416968
0.549615 0.111574 0.451575
0.609400 0.147616 0.461646
0.625788 0.147707 0.427344
0.667292 0.187564 0.433265
0.044770 0.162692 0.405859
0.043702 0.103365 0.372625
0.046204 0.086122 0.358434
0.093919 0.098817 0.372778
0.334249 0.138231 0.436576
0.572198 0.233387 0.503929
0.676081 0.322408 0.537255
0.686580 0.278752 0.488960
0.736843 0.348486 0.514153
0.048981 0.279957 0.479377
0.047150 0.229297 0.457679
0.048981 0.187457 0.431846
0.103258 0.222553 0.448325
0.325536 0.288731 0.495964
0.610407 0.431846 0.584405
0.736110 0.527687 0.625116
0.754025 0.466026 0.576410
0.795651 0.512489 0.593500
0.052552 0.372595 0.533013
0.056001 0.395819 0.550774
0.072297 0.399420 0.545129
0.188678 0.461555 0.567712
0.442649 0.533867 0.606104
0.639918 0.599207 0.649012
0.767941 0.663478 0.685878
0.807279 0.626703 0.653071
0.841398 0.642267 0.657008
0.059358 0.455451 0.577173
0.099245 0.542748 0.612787
0.209262 0.604730 0.630213
0.416739 0.662989 0.657191
0.599741 0.702327 0.685054
0.705318 0.724880 0.704250
0.784298 0.746242 0.723110
0.837491 0.724636 0.702235
0.873137 0.728237 0.703975
0.090547 0.547539 0.610895
0.246586 0.647517 0.646143
0.453254 0.705715 0.677546
0.588739 0.736782 0.698909
0.697688 0.764187 0.720546
0.784451 0.789944 0.741268
0.836057 0.805051 0.751308
0.861814 0.806638 0.755123
0.892576 0.798337 0.749630
0.172580 0.634028 0.637415
0.406836 0.714443 0.678370
0.552941 0.750759 0.704555
0.648402 0.774014 0.722835
0.727657 0.795285 0.740414
0.790494 0.814603 0.756619
0.840391 0.830411 0.770199
0.874907 0.837949 0.775692
0.902861 0.846128 0.786435
0.039307 0.040528 0.297276
0.057404 0.041230 0.316442
0.180789 0.044617 0.359869
0.321752 0.047028 0.385809
0.417945 0.049653 0.398413
0.493477 0.054841 0.410956
0.535729 0.058106 0.415137
0.558190 0.059785 0.412360
0.576318 0.060975 0.404364
0.041596 0.048371 0.322576
0.041047 0.046998 0.318608
0.098024 0.049409 0.349645
0.249058 0.054200 0.391882
0.411749 0.059846 0.422156
0.513420 0.068940 0.441962
0.572015 0.079072 0.454444
0.601526 0.087953 0.456977
0.630396 0.111727 0.451545
0.043305 0.067079 0.350744
0.043183 0.058534 0.342229
0.047517 0.059205 0.342290
0.143679 0.063325 0.379156
0.346303 0.077333 0.427527
0.515862 0.103914 0.465888
0.610132 0.150149 0.496559
0.663813 0.210452 0.518517
0.701473 0.252415 0.522118
0.044648 0.120851 0.395544
0.044190 0.081666 0.369635
0.046723 0.075013 0.362799
0.080781 0.081025 0.375372
0.268147 0.103182 0.428321
0.502831 0.168154 0.493202
0.647608 0.271489 0.549249
0.724605 0.386786 0.594507
0.757900 0.416693 0.596155
0.047517 0.225238 0.464454
0.045747 0.153063 0.422461
0.048005 0.126772 0.405737
0.080964 0.133700 0.409186
0.224506 0.155444 0.446296
0.504921 0.267948 0.534874
0.691402 0.433646 0.616999
0.771969 0.542977 0.662440
0.804410 0.563363 0.663813
0.051789 0.339269 0.532830
0.050874 0.295293 0.511437
0.055879 0.271519 0.496254
0.111543 0.299290 0.509514
0.287922 0.332891 0.533837
0.519234 0.404135 0.588891
0.726223 0.581369 0.679225
0.805722 0.658686 0.715541
0.842313 0.675563 0.718654
0.056489 0.420386 0.578302
0.064088 0.449683 0.592462
0.096193 0.475105 0.597070
0.203998 0.525963 0.618708
0.427482 0.594629 0.657252
0.619944 0.640604 0.689204
0.745327 0.689021 0.725521
0.829129 0.740749 0.757107
0.866911 0.743709 0.755306
0.071534 0.509606 0.621088
0.135714 0.597070 0.649500
0.261326 0.651148 0.670466
0.421500 0.697749 0.697200
0.597757 0.740780 0.729976
0.715358 0.770138 0.754940
0.785031 0.793454 0.776822
0.851408 0.811460 0.794583
0.893095 0.803555 0.791897
0.108797 0.590753 0.647334
0.283207 0.679652 0.680629
0.488441 0.738582 0.717403
0.621973 0.771695 0.743374
0.707881 0.793973 0.760464
0.774990 0.813504 0.774899
0.830625 0.830808 0.787289
0.874144 0.843503 0.799985
0.901854 0.853422 0.815091
0.040375 0.041810 0.314794
0.057008 0.042451 0.334936
0.157290 0.045289 0.371618
0.296147 0.048402 0.403235
0.401617 0.050355 0.419562
0.477607 0.054261 0.431647
0.534997 0.058412 0.443091
0.570520 0.061799 0.449042
0.588830 0.062928 0.447242
0.042054 0.048554 0.337041
0.042939 0.049378 0.338201
0.099641 0.052613 0.368933
0.229953 0.056764 0.406744
0.391608 0.065553 0.439918
0.500999 0.076692 0.461585
0.568383 0.090486 0.479072
0.618372 0.112398 0.495430
0.655726 0.147921 0.510124
0.043885 0.063905 0.360937
0.044221 0.060487 0.357916
0.059419 0.064668 0.368536
0.162722 0.071443 0.403876
0.336812 0.089784 0.448615
0.503288 0.124819 0.490639
0.608576 0.180758 0.527489
0.679377 0.254490 0.561852
0.731197 0.342473 0.596765
0.044587 0.092653 0.389685
0.045563 0.077760 0.378637
0.056184 0.083925 0.383246
0.151278 0.098665 0.417060
0.324086 0.131044 0.466560
0.515923 0.207919 0.528923
0.650568 0.315435 0.585657
0.727626 0.416175 0.630701
0.778347 0.497444 0.664668
0.046754 0.162753 0.439643
0.046540 0.123171 0.415534
0.062348 0.135073 0.424109
0.158404 0.152468 0.446510
0.333394 0.188144 0.495247
0.538491 0.295262 0.568383
0.687984 0.448096 0.641993
0.766598 0.552331 0.690364
0.811399 0.603510 0.712825
0.049409 0.273228 0.508324
0.050416 0.230747 0.485542
0.072938 0.262638 0.504692
0.195041 0.299855 0.528527
0.370321 0.326818 0.559564
0.562173 0.394125 0.610071
0.711025 0.552499 0.687434
0.793790 0.654047 0.736812
0.837736 0.687160 0.752773
0.054627 0.381476 0.572076
0.059266 0.380285 0.570306
0.099001 0.434424 0.592493
0.263905 0.510918 0.631434
0.456260 0.555230 0.660212
0.617319 0.587686 0.688594
0.729122 0.640803 0.726528
0.812131 0.723232 0.771115
0.859464 0.751553 0.787381
0.061982 0.463020 0.616236
0.085145 0.516930 0.635767
0.174380 0.586389 0.660121
0.366262 0.652186 0.695979
0.546212 0.698543 0.729213
0.676844 0.730892 0.757137
0.761410 0.759213 0.781613
0.832517 0.791409 0.807614
0.882048 0.809934 0.821744
0.088411 0.561791 0.658564
0.182376 0.640681 0.682277
0.328283 0.694697 0.707271
0.503441 0.744045 0.741146
0.646860 0.781674 0.773556
0.742855 0.808896 0.799039
0.801328 0.827604 0.816342
0.859007 0.850462 0.839567
0.909606 0.869871 0.861723
