LUTs/44.cube
# (C) 2014 VisionColor & Patchflyer [www.vision-color.com]
# Generator: VC Patchmatch v.2.1.1 [64/53]
# All work and no play makes Jack a dull boy.
# LUT generated from: Kodak Vision3 50D 5203 (NEG)_FPE
LUT_3D_SIZE 5
0.032380 0.034272 0.034455
0.212070 0.052369 0.039887
0.357183 0.051453 0.044953
0.468971 0.058259 0.051148
0.535790 0.063508 0.054505
0.034730 0.191379 0.067933
0.335332 0.323491 0.048615
0.615076 0.393500 0.069917
0.772824 0.453285 0.096651
0.819577 0.443183 0.103426
0.040223 0.297368 0.089601
0.265690 0.432959 0.062898
0.590906 0.518120 0.086213
0.800534 0.558770 0.119448
0.864622 0.530724 0.122072
0.043641 0.370275 0.142428
0.210483 0.498939 0.129824
0.568032 0.588281 0.123323
0.811704 0.654383 0.175051
0.908995 0.659022 0.183352
0.056428 0.458259 0.248234
0.405097 0.635431 0.326726
0.703212 0.710292 0.303136
0.853422 0.753933 0.358862
0.920439 0.770016 0.362341
0.031250 0.034150 0.132815
0.181552 0.045624 0.146975
0.363714 0.049653 0.149935
0.466712 0.052583 0.136416
0.526696 0.056947 0.106294
0.037354 0.179171 0.265782
0.338476 0.333135 0.327611
0.537041 0.223331 0.167758
0.559960 0.131930 0.087068
0.629480 0.157931 0.100252
0.043488 0.363012 0.334936
0.332784 0.533562 0.326345
0.678157 0.601404 0.365347
0.799069 0.526986 0.181018
0.828946 0.493889 0.190341
0.054902 0.455360 0.370184
0.437339 0.641749 0.479774
0.767941 0.722469 0.485847
0.848600 0.736782 0.501030
0.898070 0.688838 0.363012
0.111025 0.566918 0.472663
0.439399 0.691676 0.546136
0.727474 0.771969 0.608606
0.847959 0.803311 0.624994
0.908629 0.815335 0.631952
0.034577 0.036469 0.221530
0.216007 0.041810 0.267277
0.396490 0.047944 0.264103
0.491218 0.054200 0.256504
0.540520 0.057221 0.202640
0.040955 0.126406 0.327977
0.089540 0.109499 0.326085
0.524285 0.174014 0.396216
0.550378 0.102693 0.243397
0.630671 0.147250 0.246662
0.048341 0.333959 0.452522
0.193484 0.503319 0.517784
0.621759 0.593561 0.566888
0.735042 0.472190 0.412863
0.798703 0.475273 0.381735
0.081270 0.515923 0.533379
0.371786 0.646540 0.569635
0.730770 0.741756 0.645563
0.829282 0.755428 0.649958
0.887785 0.729244 0.576623
0.264652 0.666651 0.600946
0.493568 0.724514 0.634943
0.731197 0.788052 0.695094
0.844388 0.821073 0.720699
0.905882 0.834318 0.731441
0.038087 0.039216 0.277989
0.216648 0.044221 0.345373
0.436347 0.050660 0.372686
0.519432 0.056458 0.367956
0.562310 0.059266 0.345647
0.042573 0.075929 0.342748
0.046693 0.058350 0.325200
0.395377 0.080537 0.416968
0.609400 0.147616 0.461646
0.667292 0.187564 0.433265
0.048981 0.279957 0.479377
0.048981 0.187457 0.431846
0.325536 0.288731 0.495964
0.736110 0.527687 0.625116
0.795651 0.512489 0.593500
0.059358 0.455451 0.577173
0.209262 0.604730 0.630213
0.599741 0.702327 0.685054
0.784298 0.746242 0.723110
0.873137 0.728237 0.703975
0.172580 0.634028 0.637415
0.552941 0.750759 0.704555
0.727657 0.795285 0.740414
0.840391 0.830411 0.770199
0.902861 0.846128 0.786435
0.040375 0.041810 0.314794
0.157290 0.045289 0.371618
0.401617 0.050355 0.419562
0.534997 0.058412 0.443091
0.588830 0.062928 0.447242
0.043885 0.063905 0.360937
0.059419 0.064668 0.368536
0.336812 0.089784 0.448615
0.608576 0.180758 0.527489
0.731197 0.342473 0.596765
0.046754 0.162753 0.439643
0.062348 0.135073 0.424109
0.333394 0.188144 0.495247
0.687984 0.448096 0.641993
0.811399 0.603510 0.712825
0.054627 0.381476 0.572076
0.099001 0.434424 0.592493
0.456260 0.555230 0.660212
0.729122 0.640803 0.726528
0.859464 0.751553 0.787381
0.088411 0.561791 0.658564
0.328283 0.694697 0.707271
0.646860 0.781674 0.773556
0.801328 0.827604 0.816342
0.909606 0.869871 0.861723
