LUTs/45.cube
# (C) 2014 VisionColor & Patchflyer [www.vision-color.com]
# Generator: VC Patchmatch v.2.1.1 [64/53]
# All work and no play makes Jack a dull boy.
# LUT generated from: Kodak Vision3 50D 5203 (NEG)_VisionSpace
LUT_3D_SIZE 17
0.023774 0.023774 0.023774
0.084230 0.031800 0.030091
0.135592 0.040497 0.040497
0.184665 0.049531 0.049866
0.228763 0.057252 0.057313
0.265873 0.063355 0.063111
0.296757 0.069001 0.068116
0.324987 0.075319 0.073304
0.353521 0.082948 0.079316
0.382055 0.090730 0.085389
0.411872 0.100160 0.092714
0.439277 0.109285 0.099855
0.463966 0.118074 0.107149
0.486244 0.125978 0.114260
0.504509 0.132692 0.120790
0.521599 0.138979 0.127108
0.536736 0.145480 0.133059
0.047883 0.087739 0.042176
0.107546 0.095827 0.047547
0.168368 0.112551 0.056916
0.215610 0.124269 0.066835
0.257084 0.136995 0.076204
0.294224 0.147890 0.084108
0.325292 0.155276 0.089967
0.353338 0.160861 0.095369
0.382452 0.169345 0.102235
0.411414 0.177890 0.109316
0.443641 0.193210 0.119875
0.473060 0.209262 0.131075
0.497292 0.221256 0.140322
0.518090 0.232700 0.149508
0.534234 0.237278 0.155550
0.548699 0.240360 0.160922
0.559472 0.237675 0.163577
0.073243 0.174044 0.079255
0.118441 0.180850 0.080079
0.182040 0.193301 0.083528
0.237461 0.205325 0.088167
0.278264 0.214725 0.095033
0.316960 0.226688 0.103914
0.352483 0.236698 0.111788
0.386267 0.246403 0.119875
0.417151 0.255955 0.128298
0.449714 0.269657 0.139376
0.480873 0.286198 0.151980
0.509331 0.304265 0.165774
0.534295 0.320378 0.177829
0.555291 0.336370 0.190249
0.568963 0.340490 0.196109
0.580743 0.341833 0.200809
0.585962 0.330541 0.199069
0.098238 0.245121 0.107576
0.138125 0.254856 0.104250
0.189425 0.265507 0.108339
0.244388 0.275456 0.111879
0.292241 0.285496 0.117525
0.332311 0.294347 0.124331
0.372442 0.306371 0.133822
0.412909 0.321355 0.145754
0.448188 0.334539 0.157198
0.484627 0.351049 0.171206
0.514763 0.367590 0.185428
0.542840 0.386145 0.201022
0.566827 0.404089 0.215854
0.588067 0.422156 0.230869
0.600702 0.427008 0.237766
0.610651 0.426886 0.241703
0.612696 0.410132 0.235813
0.116060 0.302190 0.125338
0.159365 0.315129 0.123476
0.206180 0.325414 0.127413
0.252903 0.335729 0.132753
0.299901 0.344610 0.137484
0.343938 0.354742 0.145724
0.385718 0.366064 0.155825
0.428229 0.380957 0.168948
0.467201 0.396460 0.183291
0.505699 0.413458 0.198459
0.537346 0.429908 0.213596
0.565423 0.447395 0.229435
0.588586 0.463966 0.244816
0.608911 0.480293 0.259770
0.621241 0.484565 0.267124
0.630304 0.483253 0.270665
0.631556 0.465309 0.263737
0.131807 0.349279 0.139895
0.173831 0.362463 0.139467
0.220310 0.373083 0.143709
0.263462 0.383886 0.149752
0.307469 0.394873 0.156222
0.350164 0.404334 0.162539
0.391974 0.414984 0.173587
0.434272 0.429267 0.187716
0.474830 0.442115 0.201938
0.513451 0.457527 0.217014
0.546349 0.470985 0.231449
0.574884 0.486824 0.246799
0.598657 0.501579 0.261692
0.619379 0.516594 0.276585
0.631678 0.519493 0.283482
0.641413 0.518517 0.287785
0.642817 0.501060 0.280888
0.146242 0.389593 0.155093
0.184665 0.402502 0.154574
0.229374 0.412818 0.158999
0.271733 0.423194 0.165316
0.313542 0.434913 0.172457
0.354376 0.445563 0.179629
0.393347 0.454719 0.186709
0.435645 0.467842 0.201480
0.477028 0.479683 0.216220
0.515343 0.491890 0.230655
0.548028 0.502342 0.244022
0.576684 0.511955 0.256046
0.600000 0.522789 0.268894
0.620783 0.532341 0.281010
0.634058 0.535515 0.288304
0.644465 0.534813 0.293004
0.648035 0.522087 0.289189
0.160037 0.427527 0.173465
0.191196 0.440681 0.170840
0.235691 0.450843 0.175509
0.278508 0.458961 0.181216
0.318730 0.469825 0.188663
0.357946 0.480537 0.196139
0.395453 0.489845 0.203311
0.431373 0.498390 0.211002
0.473426 0.509972 0.226139
0.513207 0.522210 0.241611
0.546838 0.529503 0.254307
0.575647 0.536553 0.265782
0.600427 0.541772 0.275639
0.621729 0.549035 0.286687
0.635157 0.548760 0.292088
0.645685 0.546441 0.295750
0.649439 0.533654 0.291722
0.172641 0.462226 0.191928
0.198245 0.475227 0.187778
0.239384 0.485481 0.191836
0.283055 0.492531 0.197604
0.323522 0.500267 0.204166
0.360723 0.509117 0.211429
0.396521 0.518059 0.218509
0.431586 0.526177 0.226017
0.468025 0.533745 0.235447
0.508568 0.545373 0.251347
0.544823 0.552911 0.264897
0.574731 0.557977 0.275669
0.600244 0.561944 0.285100
0.622095 0.564691 0.292882
0.635676 0.562890 0.297185
0.646723 0.558099 0.299321
0.651026 0.545312 0.294865
0.185336 0.497078 0.210941
0.204013 0.510277 0.205722
0.244327 0.521263 0.210056
0.288579 0.526970 0.215671
0.328038 0.531945 0.221164
0.364599 0.538964 0.227939
0.399023 0.545281 0.234043
0.432227 0.552270 0.240879
0.468666 0.559411 0.250523
0.503594 0.566491 0.260014
0.542718 0.574731 0.275517
0.576440 0.581689 0.289219
0.604608 0.585168 0.300114
0.627771 0.588678 0.309117
0.643366 0.587579 0.312779
0.655146 0.583154 0.314855
0.659205 0.569726 0.309087
0.196170 0.525200 0.228153
0.213962 0.537194 0.224094
0.247257 0.548943 0.224948
0.292180 0.555261 0.232334
0.332219 0.559350 0.237552
0.368078 0.563622 0.243107
0.402411 0.569238 0.249149
0.435492 0.575097 0.255558
0.471992 0.581842 0.265415
0.507958 0.588891 0.276066
0.545800 0.596368 0.290013
0.580285 0.604059 0.304356
0.610193 0.609339 0.316716
0.633173 0.611780 0.324559
0.649683 0.610986 0.328832
0.663813 0.608637 0.332311
0.669520 0.597009 0.327916
0.207218 0.551507 0.245792
0.222721 0.561578 0.243320
0.248325 0.574243 0.240665
0.295018 0.581018 0.249149
0.337194 0.584741 0.255222
0.373510 0.588220 0.260197
0.409003 0.592218 0.265812
0.442908 0.597559 0.272557
0.479377 0.603540 0.281682
0.517266 0.610925 0.294347
0.555779 0.618616 0.308934
0.588281 0.625299 0.322881
0.620417 0.632074 0.336400
0.645899 0.637263 0.347265
0.662104 0.637842 0.352544
0.676570 0.636988 0.356451
0.683986 0.630396 0.355047
0.219944 0.576165 0.266270
0.236301 0.585321 0.267247
0.255192 0.598077 0.262516
0.290227 0.607935 0.260929
0.342901 0.609949 0.272435
0.379858 0.612573 0.276707
0.420356 0.615656 0.284947
0.457374 0.620386 0.292363
0.493996 0.625910 0.301152
0.531243 0.632807 0.312444
0.571221 0.640986 0.328435
0.601740 0.647150 0.341039
0.630274 0.652888 0.353521
0.656733 0.658961 0.363897
0.674891 0.661524 0.369696
0.688991 0.661952 0.373999
0.697566 0.657435 0.373877
0.233921 0.598810 0.287297
0.252415 0.607843 0.293980
0.261448 0.622736 0.285100
0.283177 0.636561 0.270207
0.339361 0.637873 0.281498
0.387762 0.637995 0.292851
0.436042 0.639277 0.305577
0.475563 0.643946 0.314000
0.515679 0.649226 0.323827
0.551843 0.655940 0.333288
0.590600 0.663020 0.347845
0.619165 0.668605 0.359045
0.646296 0.673884 0.370428
0.667842 0.677791 0.377966
0.687282 0.681971 0.383825
0.702724 0.684535 0.389136
0.711269 0.683070 0.391394
0.250462 0.619867 0.309972
0.269047 0.631037 0.317113
0.272221 0.649836 0.304723
0.296696 0.662257 0.293095
0.350500 0.665461 0.295659
0.404791 0.664912 0.307408
0.456916 0.665278 0.318059
0.498878 0.668513 0.328557
0.540032 0.673121 0.339391
0.573358 0.678340 0.350500
0.609735 0.684535 0.363775
0.636408 0.689052 0.374456
0.661433 0.693660 0.385077
0.681910 0.697169 0.392523
0.696254 0.698848 0.396460
0.712917 0.702907 0.400519
0.723507 0.703670 0.401007
0.267796 0.640253 0.333410
0.285649 0.654017 0.338903
0.287724 0.675624 0.325383
0.320134 0.687068 0.318090
0.368109 0.692561 0.313481
0.428717 0.690791 0.324254
0.483864 0.690425 0.335912
0.526757 0.691859 0.348333
0.569757 0.696254 0.360845
0.599817 0.700313 0.372625
0.631067 0.705562 0.383001
0.655665 0.709316 0.392370
0.676692 0.712703 0.398688
0.696040 0.715816 0.404822
0.708705 0.717037 0.407813
0.721523 0.718502 0.410681
0.732326 0.719997 0.414160
0.286839 0.658595 0.358465
0.297948 0.677302 0.353857
0.302342 0.702022 0.337469
0.358129 0.709102 0.345373
0.417884 0.712215 0.349493
0.474983 0.713252 0.355383
0.524804 0.714778 0.359960
0.563867 0.716640 0.369268
0.599573 0.719081 0.379004
0.626490 0.721736 0.391150
0.651850 0.724605 0.401679
0.672511 0.726925 0.411536
0.690486 0.729030 0.417823
0.706783 0.730831 0.423255
0.718746 0.731868 0.425849
0.729671 0.732723 0.427863
0.738674 0.733211 0.429023
0.030091 0.020752 0.050752
0.071992 0.028901 0.052094
0.124025 0.037903 0.063996
0.170535 0.046265 0.072908
0.213718 0.053590 0.082063
0.253269 0.060151 0.089418
0.286473 0.065858 0.094209
0.316869 0.071901 0.097414
0.346136 0.078401 0.101472
0.375036 0.084779 0.104829
0.404883 0.091402 0.110292
0.432776 0.097780 0.115114
0.457771 0.104524 0.121096
0.480323 0.111330 0.126711
0.498573 0.117922 0.132479
0.515709 0.124208 0.137819
0.530358 0.130007 0.142794
0.044556 0.068025 0.078737
0.092500 0.079591 0.078889
0.179751 0.079561 0.064454
0.228885 0.080415 0.071839
0.267521 0.083497 0.077668
0.301213 0.087984 0.082368
0.330968 0.093660 0.087190
0.360632 0.100221 0.092714
0.389899 0.109041 0.099580
0.418158 0.118441 0.107057
0.445167 0.127810 0.114626
0.467506 0.135012 0.121340
0.488045 0.142031 0.127901
0.506096 0.148013 0.134005
0.521691 0.154055 0.139864
0.536095 0.159640 0.145327
0.548943 0.164218 0.150271
0.072724 0.157778 0.120150
0.090791 0.202182 0.101289
0.203281 0.213840 0.107820
0.266514 0.206241 0.105440
0.305119 0.203128 0.109071
0.337713 0.203220 0.113100
0.367987 0.205753 0.117952
0.397223 0.209628 0.123415
0.429267 0.221500 0.133455
0.457710 0.231998 0.142733
0.483467 0.244053 0.152285
0.504540 0.253727 0.160800
0.523583 0.260899 0.167971
0.537804 0.263371 0.173037
0.548852 0.259373 0.175174
0.558221 0.252384 0.176028
0.566186 0.242924 0.176089
0.095796 0.235660 0.149203
0.126802 0.289738 0.126894
0.211032 0.304662 0.135012
0.278080 0.312230 0.141665
0.332647 0.307286 0.142763
0.373724 0.309239 0.148409
0.410895 0.314275 0.155459
0.445075 0.320409 0.163149
0.476631 0.331426 0.174411
0.504204 0.342168 0.185550
0.529351 0.355657 0.197513
0.549554 0.367529 0.208713
0.566461 0.374975 0.217105
0.578241 0.375158 0.221317
0.581811 0.359625 0.216831
0.584436 0.340826 0.211185
0.586175 0.319371 0.204623
0.115755 0.302800 0.170779
0.152193 0.352422 0.147372
0.225895 0.367559 0.154879
0.287877 0.380987 0.163943
0.339757 0.388952 0.172549
0.390082 0.390723 0.180209
0.433936 0.397589 0.189944
0.475990 0.406836 0.200412
0.508965 0.417090 0.212314
0.537224 0.426337 0.223575
0.561028 0.437415 0.235843
0.580621 0.448035 0.247471
0.596979 0.455879 0.257176
0.607569 0.455695 0.261601
0.610010 0.439002 0.255711
0.608454 0.413275 0.244755
0.606470 0.384894 0.233524
0.135531 0.363745 0.186618
0.165042 0.398993 0.164462
0.233066 0.413062 0.172152
0.295048 0.425635 0.180789
0.343877 0.438605 0.191226
0.389410 0.448585 0.200748
0.436103 0.453956 0.211856
0.480232 0.461738 0.223423
0.518181 0.469978 0.235233
0.548486 0.478492 0.246799
0.575525 0.488319 0.259098
0.596551 0.500145 0.272099
0.614466 0.508324 0.282689
0.625177 0.508537 0.287999
0.628046 0.492744 0.282597
0.627283 0.469398 0.272190
0.623133 0.437659 0.257664
0.152499 0.410590 0.201907
0.177523 0.438087 0.183322
0.237583 0.452125 0.188632
0.299901 0.462684 0.196506
0.347784 0.475257 0.206638
0.390265 0.486213 0.216892
0.430976 0.495583 0.226261
0.476783 0.502647 0.239170
0.517113 0.509697 0.251652
0.550774 0.514305 0.261845
0.578698 0.520592 0.272648
0.600336 0.525536 0.281529
0.618524 0.532097 0.291356
0.631098 0.533532 0.297642
0.636194 0.522545 0.295476
0.636744 0.502068 0.286900
0.634821 0.475746 0.275059
0.168582 0.451789 0.217868
0.190768 0.472694 0.205631
0.237461 0.487922 0.205173
0.301213 0.496986 0.212772
0.350500 0.504936 0.220371
0.390906 0.516045 0.230442
0.429816 0.525444 0.240116
0.467964 0.533532 0.250278
0.510033 0.540124 0.263035
0.547478 0.543938 0.274083
0.578424 0.546624 0.284215
0.600977 0.548760 0.291569
0.619989 0.549737 0.297734
0.633173 0.549676 0.303441
0.638819 0.538689 0.300481
0.641657 0.523644 0.295018
0.641657 0.502586 0.286076
0.181460 0.484474 0.234928
0.202579 0.503410 0.225925
0.239109 0.519646 0.220157
0.302434 0.526879 0.229129
0.352605 0.532311 0.235111
0.393652 0.540459 0.243839
0.431983 0.549920 0.254276
0.469856 0.558160 0.264683
0.509422 0.566247 0.277836
0.548882 0.570703 0.290440
0.581598 0.574212 0.301427
0.603662 0.572351 0.305089
0.622827 0.571313 0.309667
0.635584 0.565698 0.310002
0.641260 0.554437 0.306249
0.644678 0.540032 0.300511
0.647456 0.526390 0.295872
0.194919 0.516930 0.251408
0.215549 0.531304 0.249210
0.235599 0.549859 0.234134
0.300481 0.555261 0.243839
0.352239 0.558434 0.249119
0.397436 0.564172 0.258732
0.438666 0.572259 0.269749
0.476478 0.580957 0.280583
0.517174 0.589593 0.294469
0.553429 0.596857 0.306554
0.588891 0.601373 0.317235
0.612818 0.601770 0.326085
0.632807 0.599756 0.329992
0.646265 0.595392 0.331304
0.651423 0.583337 0.324956
0.653895 0.567803 0.317021
0.655512 0.552636 0.309758
0.207004 0.543023 0.268254
0.228519 0.557000 0.272099
0.242557 0.574945 0.257053
0.293980 0.583276 0.255406
0.353948 0.584497 0.266484
0.402197 0.586816 0.274418
0.446357 0.594598 0.286778
0.486244 0.602441 0.297795
0.528923 0.611841 0.313085
0.563745 0.618738 0.324346
0.598779 0.625910 0.338567
0.623285 0.627771 0.348272
0.644221 0.628534 0.353643
0.657801 0.624384 0.352453
0.664149 0.614191 0.347631
0.666377 0.600000 0.339422
0.666835 0.583459 0.329381
0.219791 0.566430 0.286046
0.244205 0.579980 0.297581
0.253697 0.598627 0.286046
0.282200 0.613306 0.265721
0.348241 0.613428 0.276555
0.404395 0.613825 0.285954
0.457130 0.617548 0.300603
0.498238 0.625147 0.311406
0.541497 0.634028 0.325475
0.578668 0.641230 0.339178
0.613977 0.648493 0.353246
0.637140 0.652064 0.360662
0.659693 0.655055 0.366064
0.675196 0.655024 0.368292
0.681910 0.648188 0.370947
0.683894 0.635523 0.365576
0.682765 0.620722 0.357397
0.233829 0.589258 0.306249
0.258915 0.603174 0.320653
0.265812 0.622705 0.311192
0.284672 0.639124 0.286046
0.345190 0.642084 0.286473
0.411566 0.639673 0.301213
0.469337 0.642145 0.316289
0.512993 0.647272 0.328130
0.556664 0.655940 0.341527
0.592065 0.662074 0.355627
0.628199 0.669886 0.369390
0.649592 0.672847 0.376837
0.671626 0.676570 0.382666
0.687556 0.677729 0.387396
0.697536 0.675105 0.386816
0.701991 0.667872 0.384619
0.700801 0.653834 0.375677
0.249241 0.610224 0.328557
0.274296 0.626276 0.342657
0.278843 0.648493 0.335332
0.303838 0.662745 0.319280
0.355749 0.668940 0.308385
0.422217 0.667994 0.315038
0.484779 0.668299 0.327184
0.531365 0.671992 0.341680
0.575250 0.677821 0.355383
0.608240 0.683009 0.370581
0.640528 0.688960 0.382818
0.662287 0.691951 0.392096
0.682795 0.695125 0.398230
0.698451 0.696895 0.402380
0.710597 0.697292 0.400824
0.717739 0.693874 0.398779
0.718837 0.685603 0.395178
0.266117 0.629267 0.352239
0.289677 0.646815 0.363317
0.294774 0.671412 0.353246
0.337774 0.681697 0.354589
0.390448 0.688869 0.346136
0.454994 0.689387 0.348760
0.512108 0.691035 0.353826
0.555993 0.693233 0.366613
0.597833 0.698085 0.379400
0.624689 0.701503 0.392706
0.653468 0.706050 0.404669
0.673426 0.708339 0.414130
0.691859 0.710811 0.420020
0.707118 0.712459 0.423987
0.717464 0.713100 0.424140
0.727047 0.712978 0.422889
0.731289 0.708766 0.419501
0.282902 0.647303 0.376745
0.302281 0.667048 0.381811
0.309148 0.692653 0.368566
0.367498 0.699763 0.380224
0.432288 0.704402 0.385473
0.489845 0.707729 0.385412
0.543389 0.710109 0.387549
0.581109 0.712703 0.394690
0.618006 0.715755 0.406165
0.642603 0.718532 0.418402
0.665309 0.721279 0.429633
0.684230 0.723232 0.438880
0.699550 0.724636 0.443702
0.713680 0.725948 0.447120
0.723934 0.726619 0.447364
0.733059 0.727077 0.447059
0.739559 0.726101 0.447486
0.299901 0.663600 0.401892
0.310094 0.685878 0.397681
0.326604 0.707576 0.387304
0.394018 0.712489 0.405249
0.463813 0.715877 0.417395
0.521660 0.719783 0.423926
0.568841 0.722988 0.425879
0.602014 0.726070 0.431769
0.631342 0.728725 0.438392
0.654200 0.730953 0.449500
0.673579 0.732876 0.458595
0.690394 0.734554 0.466682
0.704189 0.735714 0.470375
0.717067 0.736751 0.472663
0.727626 0.737575 0.473274
0.736751 0.738155 0.473060
0.744778 0.738552 0.472724
0.031312 0.023896 0.096406
0.066773 0.028138 0.095125
0.111269 0.034730 0.097658
0.158938 0.043427 0.109102
0.203861 0.051545 0.118471
0.245243 0.058961 0.126162
0.280735 0.065492 0.130709
0.311772 0.071473 0.133791
0.341436 0.077729 0.135653
0.370459 0.083803 0.138247
0.400366 0.090303 0.141238
0.428443 0.096620 0.143618
0.453834 0.102815 0.147097
0.476356 0.109010 0.150027
0.494545 0.115023 0.153323
0.511803 0.120943 0.156558
0.526452 0.126467 0.159457
0.042084 0.062379 0.127321
0.062135 0.050141 0.142702
0.144625 0.062501 0.134554
0.207156 0.069215 0.125368
0.252293 0.074556 0.122072
0.289158 0.079896 0.120912
0.321630 0.085664 0.120912
0.352331 0.091432 0.120851
0.381842 0.097841 0.123720
0.410224 0.104585 0.126558
0.437659 0.111391 0.131044
0.460456 0.117769 0.135195
0.481239 0.123903 0.140200
0.499428 0.129732 0.144778
0.514611 0.135439 0.149477
0.528679 0.141024 0.154025
0.542077 0.146944 0.158999
0.064729 0.134127 0.155032
0.089998 0.164431 0.189242
0.177890 0.165652 0.176486
0.283116 0.147677 0.126619
0.315648 0.140291 0.122438
0.341436 0.136904 0.120333
0.365026 0.135622 0.119112
0.391974 0.138643 0.121523
0.418067 0.143374 0.125154
0.443458 0.148775 0.129915
0.467658 0.155550 0.135958
0.487709 0.160159 0.141360
0.505943 0.165377 0.147097
0.521691 0.169863 0.152438
0.534997 0.174105 0.157259
0.547784 0.177707 0.162020
0.560662 0.183169 0.167880
0.091341 0.223514 0.192660
0.121523 0.271641 0.191928
0.166690 0.299535 0.147921
0.282383 0.297185 0.165530
0.343450 0.283024 0.166995
0.379156 0.274052 0.163790
0.408118 0.268223 0.160586
0.435096 0.266545 0.162112
0.460121 0.267948 0.165286
0.483009 0.269749 0.169345
0.505425 0.276219 0.176516
0.522637 0.279057 0.181918
0.538018 0.280766 0.186954
0.550072 0.278447 0.190066
0.557519 0.265965 0.188663
0.566369 0.258366 0.189364
0.575586 0.253574 0.191653
0.112673 0.294987 0.218845
0.146822 0.349126 0.197513
0.219669 0.383825 0.177340
0.318761 0.394659 0.191379
0.355657 0.384588 0.203525
0.405798 0.377966 0.204257
0.444312 0.374884 0.204654
0.479896 0.375616 0.207614
0.504662 0.376410 0.210819
0.527123 0.378027 0.215366
0.547753 0.384009 0.223514
0.563165 0.385840 0.229099
0.574945 0.384863 0.233249
0.583612 0.377661 0.233890
0.583490 0.353216 0.224399
0.586542 0.333318 0.218753
0.592676 0.321691 0.217838
0.133974 0.358953 0.238102
0.166781 0.406378 0.214115
0.232120 0.439887 0.196597
0.326787 0.450965 0.208988
0.376440 0.454414 0.220981
0.412665 0.454261 0.235355
0.458076 0.451637 0.238529
0.497932 0.452033 0.243137
0.528740 0.453376 0.247074
0.553246 0.455360 0.251621
0.575677 0.461433 0.260044
0.591058 0.463996 0.266239
0.603357 0.463203 0.271031
0.609522 0.453223 0.269810
0.608057 0.427070 0.258549
0.607263 0.402014 0.248722
0.609888 0.383673 0.244266
0.154635 0.414099 0.252293
0.184024 0.452766 0.231205
0.231052 0.484169 0.211063
0.325536 0.492348 0.224521
0.384070 0.499428 0.234379
0.425483 0.505669 0.248753
0.460700 0.509361 0.264195
0.504845 0.510185 0.269413
0.539666 0.510552 0.276616
0.566796 0.510124 0.279026
0.589715 0.513726 0.285496
0.605097 0.511864 0.288273
0.617975 0.511711 0.293523
0.624872 0.502892 0.293278
0.624414 0.479164 0.283268
0.624048 0.455146 0.273838
0.626764 0.438148 0.269413
0.174594 0.462348 0.265690
0.197910 0.489265 0.251286
0.222202 0.521385 0.219760
0.319097 0.524956 0.239689
0.384527 0.527489 0.246311
0.429786 0.537743 0.260197
0.466957 0.545159 0.274022
0.503441 0.552209 0.289830
0.539849 0.551202 0.296605
0.570306 0.548882 0.300114
0.594995 0.547051 0.302739
0.610224 0.541833 0.302831
0.623346 0.536950 0.303990
0.631617 0.530114 0.304875
0.632990 0.511467 0.296941
0.635431 0.494911 0.291600
0.638941 0.480598 0.288792
0.190066 0.497871 0.280888
0.211582 0.519219 0.270146
0.231266 0.547509 0.249699
0.303563 0.556268 0.247776
0.379309 0.556176 0.260655
0.435767 0.561730 0.274083
0.477699 0.572625 0.288670
0.515496 0.580774 0.304234
0.546807 0.586267 0.315190
0.578180 0.584405 0.321569
0.603876 0.582849 0.326513
0.617670 0.572839 0.321752
0.630243 0.565454 0.320043
0.636866 0.553063 0.314672
0.639735 0.538170 0.308629
0.643763 0.526055 0.305150
0.650568 0.519951 0.306798
0.207370 0.533501 0.295476
0.226719 0.545617 0.292790
0.247654 0.570916 0.286900
0.284245 0.587762 0.256565
0.373205 0.584863 0.274723
0.435981 0.588312 0.286076
0.487190 0.596338 0.300908
0.528344 0.606653 0.316991
0.562066 0.613123 0.329778
0.589441 0.616968 0.339818
0.616754 0.615747 0.344030
0.632654 0.609033 0.342565
0.644617 0.600397 0.342016
0.651179 0.588922 0.340124
0.650599 0.570092 0.327977
0.653925 0.557794 0.322881
0.660029 0.551354 0.322911
0.220798 0.558801 0.311803
0.242496 0.570642 0.315740
0.260441 0.595605 0.316594
0.282109 0.614679 0.279393
0.359716 0.615656 0.281956
0.438819 0.613184 0.298253
0.496193 0.619989 0.314824
0.539300 0.628534 0.329961
0.578393 0.637507 0.344121
0.606134 0.641810 0.353155
0.631830 0.645930 0.360174
0.648310 0.640894 0.360540
0.661585 0.635645 0.363989
0.667109 0.624018 0.363043
0.667353 0.607355 0.352056
0.667201 0.592126 0.344152
0.673091 0.585260 0.340856
0.234806 0.580896 0.329107
0.258183 0.593042 0.338537
0.273960 0.620172 0.344335
0.298283 0.637110 0.319677
0.369268 0.640528 0.311223
0.440986 0.640528 0.315526
0.506249 0.642878 0.327794
0.550774 0.650263 0.345495
0.592523 0.657862 0.363745
0.623377 0.663478 0.376867
0.650263 0.667994 0.385809
0.664393 0.668605 0.388586
0.679377 0.666163 0.388434
0.688411 0.660334 0.380163
0.688563 0.646876 0.373846
0.687129 0.631830 0.367926
0.688380 0.622187 0.366857
0.249302 0.601221 0.349371
0.273686 0.614404 0.360601
0.288365 0.642878 0.366949
0.324132 0.656764 0.357763
0.377295 0.665064 0.339696
0.452674 0.665156 0.337957
0.515862 0.667475 0.345495
0.562707 0.670954 0.361639
0.604822 0.677791 0.380133
0.633295 0.682216 0.393988
0.661494 0.686763 0.405646
0.676478 0.687892 0.409461
0.692287 0.689235 0.412390
0.702327 0.685786 0.407538
0.706447 0.678523 0.398840
0.706844 0.666865 0.387701
0.706661 0.655299 0.383093
0.265202 0.620111 0.372107
0.288853 0.634516 0.382055
0.302647 0.664790 0.386297
0.351263 0.675929 0.391821
0.411536 0.682277 0.383764
0.475837 0.685359 0.377844
0.533410 0.688472 0.375402
0.579065 0.691402 0.388220
0.619074 0.695399 0.403357
0.644923 0.698940 0.418524
0.669367 0.702358 0.431159
0.686030 0.704463 0.437140
0.700740 0.705653 0.440009
0.712795 0.706081 0.440223
0.719295 0.702876 0.430976
0.722438 0.696223 0.420966
0.723842 0.687007 0.407630
0.281285 0.636774 0.395361
0.301457 0.652216 0.402319
0.313512 0.682338 0.401190
0.377539 0.689998 0.418616
0.445136 0.695399 0.425971
0.505364 0.699794 0.421424
0.557702 0.704128 0.417670
0.596307 0.707057 0.423804
0.631891 0.710353 0.435859
0.655024 0.712856 0.447822
0.676326 0.715480 0.459083
0.691798 0.717159 0.464912
0.705745 0.718532 0.467414
0.717647 0.719142 0.467506
0.726101 0.719326 0.465278
0.731624 0.716731 0.458595
0.735714 0.712184 0.449104
0.297856 0.653040 0.419409
0.312779 0.669001 0.422309
0.328191 0.695644 0.420722
0.393408 0.702388 0.439429
0.466773 0.705806 0.455940
0.525902 0.710719 0.462104
0.575494 0.715633 0.458808
0.608606 0.719387 0.461769
0.639521 0.722347 0.468482
0.662074 0.724727 0.478553
0.680751 0.726833 0.487221
0.695796 0.728389 0.493141
0.708553 0.729427 0.495064
0.720668 0.730495 0.495644
0.729793 0.731014 0.494057
0.737819 0.731289 0.492592
0.743191 0.729397 0.488991
0.314519 0.668727 0.443854
0.321508 0.684871 0.441352
0.341833 0.706783 0.442145
0.404822 0.712978 0.459205
0.477852 0.715328 0.478950
0.538170 0.718807 0.492195
0.585077 0.724300 0.494148
0.616846 0.728481 0.498421
0.644160 0.732174 0.500389
0.666072 0.734462 0.508598
0.683528 0.736568 0.514000
0.698390 0.738247 0.520439
0.710811 0.739406 0.522423
0.722499 0.740414 0.523491
0.732387 0.741268 0.522637
0.740963 0.741939 0.521874
0.748653 0.742336 0.521233
0.034394 0.028260 0.139345
0.064729 0.030365 0.136782
0.107118 0.035431 0.137911
0.150515 0.041413 0.140688
0.198428 0.050172 0.152255
0.242435 0.058534 0.160647
0.279911 0.066041 0.165591
0.311315 0.072389 0.168673
0.340734 0.078462 0.170901
0.369238 0.084321 0.173953
0.399023 0.090822 0.175967
0.426612 0.097078 0.178012
0.451850 0.103212 0.178958
