LUTs/45.cube
# (C) 2014 VisionColor & Patchflyer [www.vision-color.com]
# Generator: VC Patchmatch v.2.1.1 [64/53]
# All work and no play makes Jack a dull boy.
# LUT generated from: Kodak Vision3 50D 5203 (NEG)_VisionSpace
LUT_3D_SIZE 9
0.023774 0.023774 0.023774
0.135592 0.040497 0.040497
0.228763 0.057252 0.057313
0.296757 0.069001 0.068116
0.353521 0.082948 0.079316
0.411872 0.100160 0.092714
0.463966 0.118074 0.107149
0.504509 0.132692 0.120790
0.536736 0.145480 0.133059
0.073243 0.174044 0.079255
0.182040 0.193301 0.083528
0.278264 0.214725 0.095033
0.352483 0.236698 0.111788
0.417151 0.255955 0.128298
0.480873 0.286198 0.151980
0.534295 0.320378 0.177829
0.568963 0.340490 0.196109
0.585962 0.330541 0.199069
0.116060 0.302190 0.125338
0.206180 0.325414 0.127413
0.299901 0.344610 0.137484
0.385718 0.366064 0.155825
0.467201 0.396460 0.183291
0.537346 0.429908 0.213596
0.588586 0.463966 0.244816
0.621241 0.484565 0.267124
0.631556 0.465309 0.263737
0.146242 0.389593 0.155093
0.229374 0.412818 0.158999
0.313542 0.434913 0.172457
0.393347 0.454719 0.186709
0.477028 0.479683 0.216220
0.548028 0.502342 0.244022
0.600000 0.522789 0.268894
0.634058 0.535515 0.288304
0.648035 0.522087 0.289189
0.172641 0.462226 0.191928
0.239384 0.485481 0.191836
0.323522 0.500267 0.204166
0.396521 0.518059 0.218509
0.468025 0.533745 0.235447
0.544823 0.552911 0.264897
0.600244 0.561944 0.285100
0.635676 0.562890 0.297185
0.651026 0.545312 0.294865
0.196170 0.525200 0.228153
0.247257 0.548943 0.224948
0.332219 0.559350 0.237552
0.402411 0.569238 0.249149
0.471992 0.581842 0.265415
0.545800 0.596368 0.290013
0.610193 0.609339 0.316716
0.649683 0.610986 0.328832
0.669520 0.597009 0.327916
0.219944 0.576165 0.266270
0.255192 0.598077 0.262516
0.342901 0.609949 0.272435
0.420356 0.615656 0.284947
0.493996 0.625910 0.301152
0.571221 0.640986 0.328435
0.630274 0.652888 0.353521
0.674891 0.661524 0.369696
0.697566 0.657435 0.373877
0.250462 0.619867 0.309972
0.272221 0.649836 0.304723
0.350500 0.665461 0.295659
0.456916 0.665278 0.318059
0.540032 0.673121 0.339391
0.609735 0.684535 0.363775
0.661433 0.693660 0.385077
0.696254 0.698848 0.396460
0.723507 0.703670 0.401007
0.286839 0.658595 0.358465
0.302342 0.702022 0.337469
0.417884 0.712215 0.349493
0.524804 0.714778 0.359960
0.599573 0.719081 0.379004
0.651850 0.724605 0.401679
0.690486 0.729030 0.417823
0.718746 0.731868 0.425849
0.738674 0.733211 0.429023
0.031312 0.023896 0.096406
0.111269 0.034730 0.097658
0.203861 0.051545 0.118471
0.280735 0.065492 0.130709
0.341436 0.077729 0.135653
0.400366 0.090303 0.141238
0.453834 0.102815 0.147097
0.494545 0.115023 0.153323
0.526452 0.126467 0.159457
0.064729 0.134127 0.155032
0.177890 0.165652 0.176486
0.315648 0.140291 0.122438
0.365026 0.135622 0.119112
0.418067 0.143374 0.125154
0.467658 0.155550 0.135958
0.505943 0.165377 0.147097
0.534997 0.174105 0.157259
0.560662 0.183169 0.167880
0.112673 0.294987 0.218845
0.219669 0.383825 0.177340
0.355657 0.384588 0.203525
0.444312 0.374884 0.204654
0.504662 0.376410 0.210819
0.547753 0.384009 0.223514
0.574945 0.384863 0.233249
0.583490 0.353216 0.224399
0.592676 0.321691 0.217838
0.154635 0.414099 0.252293
0.231052 0.484169 0.211063
0.384070 0.499428 0.234379
0.460700 0.509361 0.264195
0.539666 0.510552 0.276616
0.589715 0.513726 0.285496
0.617975 0.511711 0.293523
0.624414 0.479164 0.283268
0.626764 0.438148 0.269413
0.190066 0.497871 0.280888
0.231266 0.547509 0.249699
0.379309 0.556176 0.260655
0.477699 0.572625 0.288670
0.546807 0.586267 0.315190
0.603876 0.582849 0.326513
0.630243 0.565454 0.320043
0.639735 0.538170 0.308629
0.650568 0.519951 0.306798
0.220798 0.558801 0.311803
0.260441 0.595605 0.316594
0.359716 0.615656 0.281956
0.496193 0.619989 0.314824
0.578393 0.637507 0.344121
0.631830 0.645930 0.360174
0.661585 0.635645 0.363989
0.667353 0.607355 0.352056
0.673091 0.585260 0.340856
0.249302 0.601221 0.349371
0.288365 0.642878 0.366949
0.377295 0.665064 0.339696
0.515862 0.667475 0.345495
0.604822 0.677791 0.380133
0.661494 0.686763 0.405646
0.692287 0.689235 0.412390
0.706447 0.678523 0.398840
0.706661 0.655299 0.383093
0.281285 0.636774 0.395361
0.313512 0.682338 0.401190
0.445136 0.695399 0.425971
0.557702 0.704128 0.417670
0.631891 0.710353 0.435859
0.676326 0.715480 0.459083
0.705745 0.718532 0.467414
0.726101 0.719326 0.465278
0.735714 0.712184 0.449104
0.314519 0.668727 0.443854
0.341833 0.706783 0.442145
0.477852 0.715328 0.478950
0.585077 0.724300 0.494148
0.644160 0.732174 0.500389
0.683528 0.736568 0.514000
0.710811 0.739406 0.522423
0.732387 0.741268 0.522637
0.748653 0.742336 0.521233
0.037110 0.032349 0.178256
0.110933 0.038178 0.176761
0.195010 0.049287 0.180636
0.281865 0.066529 0.196994
0.343786 0.079957 0.202457
0.400488 0.092073 0.206882
0.451362 0.104189 0.208896
0.490913 0.115602 0.205020
0.523064 0.126589 0.199252
0.057160 0.111482 0.233219
0.097749 0.087373 0.267399
0.281529 0.113619 0.257572
0.347478 0.111879 0.222354
0.401343 0.118044 0.202548
0.452583 0.127474 0.189731
0.492592 0.138155 0.183108
0.522759 0.148623 0.183871
0.552758 0.164218 0.193973
0.098543 0.257023 0.285557
0.173831 0.324834 0.339208
0.338842 0.340246 0.349157
0.488014 0.293034 0.284703
0.529931 0.256077 0.232761
0.531121 0.226230 0.198550
0.534997 0.207584 0.185794
0.559228 0.208438 0.191012
0.592035 0.241856 0.214786
0.150607 0.396857 0.335729
0.219211 0.468605 0.301823
0.342901 0.498146 0.308476
0.484627 0.493019 0.338140
0.564385 0.469734 0.307195
0.586206 0.434760 0.280766
0.586114 0.392859 0.258701
0.597436 0.366186 0.251408
0.626642 0.379065 0.269688
0.206058 0.504265 0.377020
0.256229 0.555932 0.346075
0.354742 0.596765 0.329915
0.522820 0.601587 0.338247
0.579065 0.593957 0.373968
0.624811 0.571832 0.344884
0.631189 0.531594 0.324071
0.638025 0.501060 0.312261
0.665003 0.505730 0.324468
0.248539 0.576349 0.404883
0.285435 0.610681 0.399084
0.406775 0.646632 0.409552
0.557671 0.656825 0.392828
0.626276 0.660609 0.411322
0.651118 0.657069 0.433448
0.672969 0.632502 0.381262
0.677546 0.601068 0.358434
0.698329 0.600366 0.363622
0.282414 0.619471 0.433356
0.310887 0.650172 0.439704
0.467170 0.676204 0.492622
0.584894 0.688350 0.478798
0.653040 0.695735 0.483955
0.684779 0.699214 0.494820
0.702022 0.697200 0.494850
0.712764 0.679164 0.440864
0.724117 0.668208 0.416968
0.313970 0.656123 0.476478
0.329625 0.680354 0.475166
0.484901 0.698116 0.536889
0.599176 0.707362 0.556786
0.655756 0.718044 0.552819
0.691981 0.722988 0.554620
0.716304 0.726070 0.558892
0.733028 0.726345 0.555627
0.743130 0.720211 0.523033
0.344396 0.692927 0.522972
0.361456 0.705318 0.517723
0.492439 0.717189 0.565667
0.600610 0.721401 0.600092
0.658076 0.732876 0.609094
0.693629 0.740719 0.605219
0.719570 0.744595 0.608484
0.739620 0.747494 0.610834
0.754757 0.748806 0.610224
0.042298 0.040223 0.246860
0.120790 0.045350 0.247807
0.218967 0.057038 0.250828
0.288853 0.068147 0.249424
0.353643 0.083284 0.255589
0.409552 0.096406 0.259159
0.455299 0.108125 0.258000
0.491127 0.118502 0.247196
0.521630 0.128695 0.233310
0.058442 0.104524 0.293187
0.079286 0.075349 0.316411
0.237095 0.093751 0.319951
0.361913 0.115633 0.311437
0.410132 0.122835 0.286687
0.451606 0.129763 0.261357
0.488502 0.138552 0.238163
0.518364 0.148196 0.224704
0.548394 0.164584 0.232639
0.092958 0.229313 0.338293
0.124208 0.218692 0.374273
0.246799 0.234897 0.444587
0.451514 0.268681 0.425818
0.494362 0.226963 0.357580
0.504753 0.192111 0.283436
0.519402 0.177340 0.232883
0.549676 0.186770 0.224063
0.605158 0.225803 0.255131
0.132357 0.355566 0.380011
0.219272 0.435950 0.444892
0.299107 0.457191 0.469520
0.474037 0.473823 0.477668
0.567926 0.433936 0.434730
0.622797 0.362051 0.342763
0.624750 0.290608 0.259632
0.613367 0.273594 0.241611
0.665248 0.344396 0.290532
0.207279 0.489052 0.440345
0.272374 0.543694 0.441230
0.369726 0.580255 0.428611
0.491600 0.574060 0.481224
0.582574 0.581903 0.492592
0.638361 0.558694 0.429557
0.659693 0.503212 0.344320
0.656550 0.460197 0.315160
0.693446 0.496239 0.355779
0.274632 0.581994 0.490883
0.299840 0.608026 0.463783
0.423255 0.644526 0.500542
0.560479 0.652338 0.538689
0.633539 0.662013 0.511284
0.657343 0.655665 0.533501
0.684932 0.632654 0.446540
0.695766 0.601282 0.385809
0.718013 0.609033 0.413428
0.317754 0.633906 0.521172
0.324376 0.649409 0.499306
0.460792 0.676936 0.552789
0.608301 0.689998 0.592401
0.664240 0.701289 0.572656
0.690669 0.701900 0.561334
0.706813 0.701747 0.581292
0.720546 0.684291 0.498665
0.734554 0.679225 0.484901
0.346502 0.673732 0.552392
0.349218 0.682979 0.537255
0.473762 0.698634 0.582055
0.611811 0.709346 0.628290
0.666957 0.720638 0.631525
0.700679 0.727718 0.622919
0.722866 0.731258 0.625635
0.737758 0.732326 0.627283
0.747829 0.726101 0.591211
0.380377 0.708614 0.587213
0.401068 0.710750 0.578820
0.512078 0.719753 0.611139
0.616358 0.726589 0.643702
0.671351 0.733944 0.659663
0.702998 0.743893 0.660792
0.727382 0.748959 0.661189
0.744656 0.752285 0.663874
0.758633 0.753628 0.661280
0.047028 0.047120 0.304570
0.119265 0.051301 0.306035
0.230961 0.064576 0.311742
0.314946 0.078157 0.310857
0.364660 0.088197 0.303319
0.419348 0.102296 0.307622
0.461952 0.114412 0.307256
0.493172 0.123873 0.294041
0.521111 0.132998 0.273533
0.060761 0.098451 0.340978
0.076204 0.075929 0.360449
0.198856 0.087251 0.366766
0.355718 0.117678 0.375219
0.424872 0.132448 0.361791
0.462257 0.140871 0.337530
0.490150 0.145266 0.301732
0.516564 0.152956 0.275883
0.545129 0.170230 0.282383
0.088167 0.200137 0.375006
0.100313 0.155703 0.396857
0.167819 0.156069 0.447120
0.354253 0.196475 0.450660
0.478645 0.225711 0.438697
0.499580 0.202853 0.375967
0.514641 0.182498 0.306600
0.543359 0.189853 0.284337
0.588434 0.231510 0.322637
0.126284 0.324559 0.417456
0.166598 0.331090 0.458595
0.232486 0.341314 0.500938
0.399390 0.387915 0.539391
0.555016 0.421729 0.538933
0.604822 0.354818 0.480125
0.611963 0.274983 0.370901
0.617060 0.256413 0.314260
0.686610 0.326513 0.368734
0.181216 0.444953 0.464240
0.270512 0.522271 0.529381
0.324926 0.547295 0.551659
0.455604 0.556817 0.563043
0.574609 0.575128 0.574914
0.622950 0.544045 0.544533
0.664668 0.470481 0.446891
0.686366 0.414542 0.361685
0.708705 0.481315 0.423392
0.272221 0.570855 0.531823
0.330632 0.617426 0.557763
0.403815 0.631159 0.552850
0.554620 0.642542 0.584039
0.612879 0.645441 0.597131
0.651606 0.648737 0.599390
0.685603 0.630182 0.542046
0.706569 0.599084 0.462623
0.725185 0.615351 0.503044
0.336217 0.637812 0.577264
0.372808 0.666987 0.583642
0.450568 0.674525 0.592157
0.605615 0.688777 0.632563
0.664912 0.701442 0.644556
0.692653 0.702449 0.610590
0.708583 0.703273 0.634485
0.724575 0.690059 0.574273
0.739498 0.687648 0.570764
0.378607 0.683436 0.609583
0.411200 0.694911 0.605951
0.479469 0.700099 0.617395
0.611444 0.712398 0.654047
0.677058 0.722530 0.674495
0.707637 0.731197 0.668757
0.727382 0.734401 0.665553
0.741024 0.736507 0.671382
0.751186 0.730770 0.644343
0.426429 0.717128 0.634058
0.454292 0.717159 0.628168
0.537713 0.722957 0.644465
0.626429 0.730190 0.668330
0.682429 0.738033 0.687984
0.712581 0.747005 0.693477
0.734005 0.752773 0.694362
0.749355 0.756283 0.695674
0.762264 0.757961 0.693904
0.051514 0.052949 0.356329
0.121309 0.057496 0.359899
0.241856 0.072541 0.371313
0.330053 0.087953 0.371527
0.388067 0.100465 0.367041
0.427619 0.109712 0.358495
0.468574 0.123445 0.361242
0.496071 0.132876 0.352544
0.519524 0.139773 0.331090
0.063386 0.094575 0.384894
0.077150 0.078645 0.398260
0.174838 0.087007 0.407630
0.327184 0.114961 0.422889
0.427680 0.142000 0.426642
0.472328 0.156069 0.417090
0.495766 0.160739 0.388373
0.515801 0.163210 0.349950
0.542473 0.179385 0.341588
0.083955 0.169436 0.409064
0.091005 0.126192 0.422095
0.127199 0.118593 0.436530
0.261006 0.139467 0.444862
0.425772 0.189609 0.461952
0.500786 0.218082 0.459266
0.518914 0.204715 0.408057
0.541100 0.204807 0.366827
0.582574 0.245426 0.398230
0.122713 0.292012 0.450660
0.130495 0.237385 0.460517
0.163485 0.219867 0.480537
0.264790 0.237140 0.551583
0.471550 0.307149 0.561318
0.591974 0.358419 0.565423
0.601831 0.303410 0.495247
0.598474 0.277287 0.422827
0.663386 0.340673 0.472114
0.170047 0.411734 0.492164
0.214405 0.425315 0.528984
0.250965 0.412894 0.547387
0.342275 0.445335 0.599542
0.514260 0.499413 0.604791
0.621851 0.547127 0.613306
0.658289 0.479881 0.570581
0.680110 0.410208 0.494453
0.702541 0.476707 0.531914
0.240757 0.529747 0.544121
0.320470 0.586938 0.593591
0.360723 0.611109 0.615198
0.469673 0.623011 0.625635
0.579828 0.630732 0.632197
0.644404 0.644923 0.643671
0.674220 0.623682 0.622553
0.697536 0.590326 0.567239
0.717067 0.617029 0.595102
0.325841 0.625544 0.599237
0.390570 0.665644 0.634852
0.465583 0.673945 0.636194
0.575097 0.681788 0.646571
0.659480 0.696773 0.667689
0.688594 0.702510 0.671260
0.703304 0.700252 0.667781
0.723812 0.691402 0.642786
0.740230 0.691127 0.646540
0.379736 0.677821 0.634699
0.470954 0.702358 0.656733
0.519554 0.704982 0.656092
0.609918 0.713619 0.674128
0.678859 0.724636 0.693904
0.714321 0.734432 0.702266
0.729702 0.735714 0.688258
0.742428 0.738521 0.697932
0.753750 0.734371 0.685756
0.437049 0.718288 0.662257
0.504112 0.722957 0.667109
0.565240 0.726650 0.673152
0.634546 0.733089 0.688441
0.685969 0.740963 0.704128
0.719265 0.750179 0.715206
0.738827 0.756069 0.716701
0.752804 0.759518 0.716060
0.765560 0.761868 0.716884
0.055879 0.058228 0.400122
0.118990 0.062470 0.405676
0.242313 0.078920 0.422126
0.331365 0.095644 0.425666
0.397955 0.111452 0.426154
0.443153 0.123995 0.422248
0.473304 0.133944 0.416999
0.498665 0.145235 0.414008
0.518791 0.151247 0.399084
0.066346 0.093996 0.422309
0.080354 0.082338 0.429999
0.160464 0.088411 0.436805
0.293217 0.111574 0.453590
0.403784 0.140261 0.461616
0.471748 0.165560 0.465644
0.500481 0.179904 0.462440
0.519219 0.184543 0.438697
0.542077 0.197910 0.419379
0.081697 0.146334 0.439216
0.089662 0.117800 0.446326
0.112673 0.109102 0.456397
0.216098 0.120150 0.462226
0.371237 0.158572 0.478767
0.482063 0.205692 0.491310
0.528679 0.240208 0.497688
0.547875 0.242008 0.468513
0.585138 0.272282 0.479957
0.114900 0.247868 0.472450
0.111543 0.181674 0.467750
0.125032 0.155093 0.474159
0.181216 0.157412 0.495308
0.339467 0.198779 0.510887
0.517571 0.281529 0.552941
0.615259 0.341344 0.590112
0.615503 0.321386 0.538903
0.662318 0.371313 0.564355
0.167239 0.378836 0.517479
0.165896 0.318288 0.514855
0.172778 0.265461 0.512474
0.228656 0.275685 0.571450
0.364797 0.312703 0.602365
0.566796 0.426017 0.627253
0.655848 0.505196 0.641627
0.674952 0.457053 0.609155
0.698360 0.504067 0.619013
0.227268 0.498299 0.560021
0.262638 0.503166 0.581750
0.280797 0.478584 0.587243
0.333104 0.501091 0.630426
0.472313 0.536278 0.652094
0.599756 0.580804 0.659113
0.676509 0.633021 0.671901
0.697292 0.605402 0.653346
0.716731 0.623285 0.657008
0.297673 0.593286 0.603754
0.354986 0.635370 0.642817
0.390936 0.655024 0.660761
0.483803 0.668269 0.671748
0.593347 0.678431 0.679438
0.657038 0.686641 0.686549
0.697688 0.697841 0.696681
0.717983 0.686549 0.686183
0.736049 0.690883 0.688411
0.359594 0.661952 0.644526
0.420874 0.692561 0.673426
0.517418 0.704982 0.684901
0.596307 0.712367 0.691859
0.661250 0.721065 0.702144
0.710048 0.732937 0.715053
0.733181 0.740078 0.718135
0.742672 0.740017 0.717922
0.755978 0.736538 0.715297
0.401007 0.708247 0.673060
0.501701 0.722652 0.689601
0.581262 0.729397 0.698146
0.637110 0.735286 0.705745
0.683436 0.742336 0.716152
0.719142 0.751217 0.727291
0.743038 0.758968 0.733577
0.755642 0.761715 0.732296
0.768856 0.766232 0.736934
0.060731 0.063355 0.435523
0.115602 0.066590 0.439033
0.222080 0.080476 0.453315
0.315831 0.099031 0.461067
0.386297 0.116091 0.462867
0.443946 0.133608 0.464363
0.479072 0.147799 0.464546
0.500175 0.157198 0.462409
0.518547 0.164828 0.456825
0.069978 0.096010 0.451728
0.086549 0.087953 0.459510
0.161898 0.093660 0.464454
0.271305 0.112459 0.477119
0.381292 0.141024 0.486519
0.456428 0.167056 0.491157
0.499519 0.190036 0.495735
0.523186 0.206607 0.497780
0.547295 0.228061 0.493629
0.082094 0.135775 0.464881
0.093782 0.118654 0.471077
0.117403 0.113588 0.483345
0.205325 0.121798 0.486580
0.340932 0.154360 0.500175
0.458686 0.200656 0.513146
0.523491 0.246311 0.527733
0.571618 0.288243 0.552941
0.611994 0.314977 0.565728
0.105043 0.205875 0.486183
0.106905 0.157992 0.483314
0.123110 0.142580 0.493446
0.166323 0.142519 0.505486
0.294270 0.170230 0.514855
0.457862 0.240787 0.544305
0.574670 0.317082 0.588708
0.651942 0.391669 0.636927
0.675990 0.420356 0.634363
0.148898 0.319326 0.522911
0.137697 0.239429 0.508568
0.149996 0.205234 0.513817
0.189181 0.197330 0.547814
0.279774 0.208133 0.556115
0.483467 0.300938 0.602502
0.628962 0.428443 0.652033
0.681697 0.522271 0.671077
0.702358 0.545419 0.669825
0.213870 0.454963 0.569146
0.206302 0.391089 0.559472
0.217929 0.349355 0.560174
0.261753 0.352941 0.601831
0.354894 0.358862 0.654322
0.508675 0.408011 0.654566
0.654108 0.561105 0.681300
0.701015 0.628656 0.695308
0.721553 0.645716 0.697566
0.274296 0.558038 0.607019
0.307591 0.558984 0.621088
0.323003 0.553552 0.636500
0.369574 0.569207 0.665217
0.483619 0.599329 0.685878
0.602029 0.624506 0.688014
0.675441 0.656580 0.702571
0.721279 0.695003 0.719020
0.739528 0.699397 0.719692
0.345006 0.638911 0.646510
0.379522 0.674311 0.679988
0.428016 0.688258 0.693355
0.503227 0.699458 0.703975
0.604212 0.711849 0.714473
0.673548 0.722377 0.722683
0.712642 0.734310 0.733639
0.743954 0.743709 0.742947
0.760800 0.741787 0.743709
0.381872 0.692531 0.679194
0.449592 0.714290 0.700099
0.547570 0.726192 0.713558
0.624170 0.734920 0.722347
0.673823 0.742428 0.728695
0.712062 0.751003 0.736294
0.741329 0.759731 0.744595
0.759823 0.765835 0.748745
0.772946 0.771603 0.755795
0.066468 0.068910 0.466560
0.121462 0.072572 0.469612
0.209354 0.083742 0.478553
0.301091 0.102571 0.487282
0.375341 0.120638 0.490730
0.433661 0.138033 0.491981
0.476173 0.155184 0.494057
0.502770 0.169223 0.495613
0.518517 0.177493 0.494484
0.074617 0.099489 0.477760
0.098421 0.096895 0.488594
0.169955 0.102724 0.491951
0.263066 0.118746 0.501060
0.369818 0.148745 0.509483
0.449012 0.177096 0.514672
0.495796 0.202457 0.520104
0.529137 0.229862 0.528588
0.560784 0.257633 0.544671
0.085023 0.132631 0.487892
0.104250 0.123934 0.497749
0.140963 0.124971 0.511009
0.223148 0.135470 0.513756
0.338918 0.168460 0.525139
0.453346 0.218479 0.539117
0.527733 0.268772 0.558495
0.588952 0.314916 0.594232
0.646784 0.367712 0.635431
0.099306 0.176516 0.500023
0.114504 0.153353 0.505699
0.148074 0.150637 0.526909
0.221714 0.163180 0.533379
0.336324 0.199741 0.544976
0.479286 0.269474 0.584314
0.589715 0.347478 0.630030
0.653407 0.417914 0.663935
0.688289 0.483589 0.680354
0.127504 0.254398 0.523003
0.137301 0.208438 0.522393
0.176699 0.208194 0.550225
0.243565 0.210117 0.584009
0.355489 0.239597 0.587488
0.515160 0.323919 0.635401
0.632380 0.443091 0.677150
0.680690 0.534051 0.693111
0.706325 0.580591 0.701015
0.180026 0.376898 0.561913
0.184787 0.317693 0.555993
0.233616 0.329473 0.589960
0.302922 0.339651 0.655695
0.406134 0.345892 0.670344
0.544259 0.395621 0.677394
0.648249 0.537697 0.695583
0.698299 0.627131 0.712276
0.722255 0.652613 0.718898
0.250095 0.510124 0.606439
0.268986 0.478035 0.608148
0.311742 0.503044 0.644373
0.393744 0.542748 0.686732
0.497688 0.561730 0.690974
0.597436 0.578454 0.695216
0.665400 0.618158 0.709987
0.715267 0.683070 0.729427
0.740017 0.703243 0.737942
0.315587 0.604273 0.643214
0.352483 0.617792 0.664851
0.388403 0.646113 0.696284
0.475837 0.667323 0.712886
0.574090 0.683345 0.721920
0.652399 0.697322 0.728756
0.699733 0.712703 0.736965
0.736782 0.732570 0.750484
0.759854 0.744076 0.758755
0.377234 0.677607 0.682551
0.409461 0.702632 0.706844
0.468940 0.714931 0.718807
0.558373 0.726741 0.729854
0.640833 0.738399 0.740475
0.696345 0.749020 0.749783
0.728573 0.758206 0.758022
0.758541 0.771511 0.771054
0.785031 0.783841 0.784360
