LUTs/45.cube
# (C) 2014 VisionColor & Patchflyer [www.vision-color.com]
# Generator: VC Patchmatch v.2.1.1 [64/53]
# All work and no play makes Jack a dull boy.
# LUT generated from: Kodak Vision3 50D 5203 (NEG)_VisionSpace
LUT_3D_SIZE 5
0.023774 0.023774 0.023774
0.228763 0.057252 0.057313
0.353521 0.082948 0.079316
0.463966 0.118074 0.107149
0.536736 0.145480 0.133059
0.116060 0.302190 0.125338
0.299901 0.344610 0.137484
0.467201 0.396460 0.183291
0.588586 0.463966 0.244816
0.631556 0.465309 0.263737
0.172641 0.462226 0.191928
0.323522 0.500267 0.204166
0.468025 0.533745 0.235447
0.600244 0.561944 0.285100
0.651026 0.545312 0.294865
0.219944 0.576165 0.266270
0.342901 0.609949 0.272435
0.493996 0.625910 0.301152
0.630274 0.652888 0.353521
0.697566 0.657435 0.373877
0.286839 0.658595 0.358465
0.417884 0.712215 0.349493
0.599573 0.719081 0.379004
0.690486 0.729030 0.417823
0.738674 0.733211 0.429023
0.037110 0.032349 0.178256
0.195010 0.049287 0.180636
0.343786 0.079957 0.202457
0.451362 0.104189 0.208896
0.523064 0.126589 0.199252
0.098543 0.257023 0.285557
0.338842 0.340246 0.349157
0.529931 0.256077 0.232761
0.534997 0.207584 0.185794
0.592035 0.241856 0.214786
0.206058 0.504265 0.377020
0.354742 0.596765 0.329915
0.579065 0.593957 0.373968
0.631189 0.531594 0.324071
0.665003 0.505730 0.324468
0.282414 0.619471 0.433356
0.467170 0.676204 0.492622
0.653040 0.695735 0.483955
0.702022 0.697200 0.494850
0.724117 0.668208 0.416968
0.344396 0.692927 0.522972
0.492439 0.717189 0.565667
0.658076 0.732876 0.609094
0.719570 0.744595 0.608484
0.754757 0.748806 0.610224
0.047028 0.047120 0.304570
0.230961 0.064576 0.311742
0.364660 0.088197 0.303319
0.461952 0.114412 0.307256
0.521111 0.132998 0.273533
0.088167 0.200137 0.375006
0.167819 0.156069 0.447120
0.478645 0.225711 0.438697
0.514641 0.182498 0.306600
0.588434 0.231510 0.322637
0.181216 0.444953 0.464240
0.324926 0.547295 0.551659
0.574609 0.575128 0.574914
0.664668 0.470481 0.446891
0.708705 0.481315 0.423392
0.336217 0.637812 0.577264
0.450568 0.674525 0.592157
0.664912 0.701442 0.644556
0.708583 0.703273 0.634485
0.739498 0.687648 0.570764
0.426429 0.717128 0.634058
0.537713 0.722957 0.644465
0.682429 0.738033 0.687984
0.734005 0.752773 0.694362
0.762264 0.757961 0.693904
0.055879 0.058228 0.400122
0.242313 0.078920 0.422126
0.397955 0.111452 0.426154
0.473304 0.133944 0.416999
0.518791 0.151247 0.399084
0.081697 0.146334 0.439216
0.112673 0.109102 0.456397
0.371237 0.158572 0.478767
0.528679 0.240208 0.497688
0.585138 0.272282 0.479957
0.167239 0.378836 0.517479
0.172778 0.265461 0.512474
0.364797 0.312703 0.602365
0.655848 0.505196 0.641627
0.698360 0.504067 0.619013
0.297673 0.593286 0.603754
0.390936 0.655024 0.660761
0.593347 0.678431 0.679438
0.697688 0.697841 0.696681
0.736049 0.690883 0.688411
0.401007 0.708247 0.673060
0.581262 0.729397 0.698146
0.683436 0.742336 0.716152
0.743038 0.758968 0.733577
0.768856 0.766232 0.736934
0.066468 0.068910 0.466560
0.209354 0.083742 0.478553
0.375341 0.120638 0.490730
0.476173 0.155184 0.494057
0.518517 0.177493 0.494484
0.085023 0.132631 0.487892
0.140963 0.124971 0.511009
0.338918 0.168460 0.525139
0.527733 0.268772 0.558495
0.646784 0.367712 0.635431
0.127504 0.254398 0.523003
0.176699 0.208194 0.550225
0.355489 0.239597 0.587488
0.632380 0.443091 0.677150
0.706325 0.580591 0.701015
0.250095 0.510124 0.606439
0.311742 0.503044 0.644373
0.497688 0.561730 0.690974
0.665400 0.618158 0.709987
0.740017 0.703243 0.737942
0.377234 0.677607 0.682551
0.468940 0.714931 0.718807
0.640833 0.738399 0.740475
0.728573 0.758206 0.758022
0.785031 0.783841 0.784360
