LUTs/47.cube
# (C) 2014 VisionColor & Patchflyer [www.vision-color.com]
# Generator: VC Patchmatch v.2.1.1 [64/53]
# All work and no play makes Jack a dull boy.
# LUT generated from: Lomo Color Implosion 21°_FC
LUT_3D_SIZE 9
0.041993 0.035248 0.035248
0.102937 0.037201 0.037018
0.181613 0.042329 0.041047
0.258488 0.047547 0.045136
0.335393 0.052827 0.050172
0.424720 0.058930 0.055451
0.545617 0.067536 0.062318
0.692439 0.078401 0.070466
0.845487 0.090578 0.079225
0.039185 0.079072 0.032532
0.111177 0.091798 0.035401
0.230655 0.112673 0.044800
0.366598 0.132479 0.055360
0.505257 0.150240 0.065644
0.638758 0.169497 0.075837
0.764248 0.183780 0.084627
0.874235 0.194339 0.092226
0.954528 0.206668 0.100130
0.038270 0.123598 0.031495
0.124910 0.167575 0.041688
0.259281 0.206455 0.051881
0.426596 0.250980 0.069520
0.574075 0.281834 0.084688
0.709285 0.307622 0.097810
0.827939 0.332464 0.111482
0.913603 0.349248 0.122805
0.967102 0.368963 0.134249
0.039094 0.166079 0.032319
0.140108 0.249760 0.050294
0.286137 0.313085 0.067079
0.442710 0.360311 0.080354
0.610636 0.420890 0.105196
0.747951 0.460029 0.124514
0.859251 0.488563 0.141665
0.930816 0.512291 0.156680
0.974609 0.543542 0.173190
0.042847 0.218875 0.035584
0.159762 0.356222 0.063203
0.323461 0.444480 0.088411
0.465721 0.482536 0.101320
0.616617 0.526955 0.114382
0.769589 0.583337 0.140383
0.879881 0.617914 0.160037
0.938964 0.646296 0.177401
0.982727 0.688563 0.199893
0.049165 0.300847 0.041291
0.189303 0.487587 0.079133
0.363226 0.591333 0.111910
0.501091 0.622553 0.127138
0.628199 0.645319 0.135470
0.759945 0.670100 0.142367
0.883116 0.716854 0.165957
0.943755 0.751766 0.186862
0.984863 0.801419 0.217014
0.063905 0.451545 0.054353
0.221805 0.634913 0.097993
0.400580 0.736446 0.137728
0.539269 0.768307 0.157321
0.653590 0.775387 0.162203
0.768338 0.779995 0.162600
0.867887 0.787442 0.163790
0.937774 0.824887 0.188144
0.984405 0.875517 0.224613
0.092805 0.678065 0.076936
0.262608 0.796902 0.122866
0.432197 0.853544 0.161257
0.565972 0.876402 0.182498
0.674983 0.879545 0.188022
0.781552 0.878019 0.184817
0.874998 0.880156 0.183383
0.929473 0.884978 0.187045
0.982208 0.921782 0.225010
0.128206 0.894987 0.102602
0.311498 0.926268 0.152987
0.466621 0.938293 0.184054
0.587610 0.942962 0.201175
0.691402 0.942290 0.205264
0.796536 0.941802 0.203800
0.884489 0.942473 0.201755
0.939666 0.946258 0.206638
0.981018 0.956970 0.226932
0.046784 0.039460 0.093538
0.104311 0.037507 0.084657
0.180606 0.042023 0.086824
0.249516 0.046235 0.090120
0.315740 0.050690 0.093050
0.392004 0.055421 0.096376
0.486580 0.061036 0.100404
0.599359 0.067628 0.104707
0.731502 0.074678 0.109895
0.039216 0.083070 0.082887
0.128542 0.108095 0.098360
0.248081 0.114595 0.098268
0.371435 0.123964 0.103487
0.492607 0.135653 0.111971
0.612116 0.146181 0.119875
0.739254 0.157992 0.127993
0.860929 0.170626 0.136172
0.946960 0.187839 0.145785
0.038788 0.143282 0.083925
0.125429 0.209506 0.114382
0.339971 0.283268 0.143832
0.496254 0.293614 0.145266
0.620951 0.295781 0.148348
0.741268 0.304356 0.154238
0.851926 0.318700 0.162661
0.929747 0.331487 0.170840
0.968048 0.340612 0.180545
0.041382 0.218387 0.089418
0.133700 0.304677 0.124086
0.355505 0.432242 0.183536
0.547280 0.471855 0.196292
0.696330 0.494041 0.203983
0.819425 0.504936 0.208469
0.908263 0.524651 0.220310
0.956939 0.540078 0.230930
0.981079 0.542306 0.241520
0.047364 0.311604 0.096773
0.169223 0.437278 0.150057
0.388556 0.583658 0.220249
0.562692 0.610239 0.242039
0.737743 0.650309 0.252354
0.870237 0.681407 0.264408
0.938445 0.706554 0.279026
0.973327 0.727550 0.295933
0.987671 0.737499 0.319890
0.056245 0.440742 0.109560
0.214023 0.581415 0.174533
0.427314 0.715145 0.248020
0.585229 0.740017 0.275486
0.738750 0.765316 0.289982
0.885985 0.814328 0.308843
0.950256 0.844022 0.326421
0.979858 0.860197 0.344671
0.989685 0.868437 0.373602
0.071717 0.597284 0.123964
0.260594 0.726833 0.193545
0.461036 0.816068 0.259068
0.612024 0.846281 0.293675
0.756588 0.867247 0.315099
0.882506 0.889158 0.333349
0.945647 0.903655 0.344091
0.979583 0.920928 0.369177
0.989471 0.928130 0.399481
0.095644 0.767208 0.143648
0.303929 0.860746 0.214878
0.491341 0.893400 0.266819
0.631922 0.912444 0.296788
0.765942 0.926421 0.322484
0.884031 0.939727 0.345037
0.943664 0.947356 0.357366
0.976318 0.952026 0.369146
0.988617 0.960327 0.407111
0.118166 0.913848 0.160861
0.341314 0.937163 0.239689
0.513207 0.947845 0.284581
0.638819 0.951782 0.302556
0.762554 0.958282 0.323461
0.877775 0.967102 0.347051
0.939300 0.972992 0.362463
0.975219 0.977142 0.377997
0.988281 0.982879 0.407599
0.051331 0.043854 0.158267
0.127504 0.046632 0.164279
0.197269 0.043915 0.143465
0.284520 0.049866 0.143038
0.364538 0.055238 0.143648
0.442145 0.059541 0.144839
0.527977 0.064240 0.146304
0.620325 0.068818 0.147555
0.731197 0.074220 0.150301
0.044160 0.089418 0.147433
0.114504 0.112459 0.178561
0.225254 0.105348 0.156222
0.313634 0.106081 0.147524
0.404761 0.112398 0.146975
0.511742 0.119295 0.150668
0.631586 0.126680 0.155062
0.759854 0.135775 0.161349
0.876249 0.153140 0.172244
0.039460 0.168978 0.162661
0.093965 0.201450 0.184604
0.277989 0.289372 0.252903
0.414038 0.265934 0.221866
0.547951 0.264073 0.210178
0.675959 0.263523 0.203861
0.797360 0.267887 0.204562
0.901091 0.277684 0.209323
0.954589 0.296178 0.222080
0.041718 0.272038 0.178561
0.100740 0.311864 0.193301
0.256107 0.429343 0.269596
0.498131 0.488365 0.317601
0.636332 0.465110 0.283452
0.762875 0.453391 0.266209
0.870146 0.457267 0.262547
0.936858 0.469413 0.268986
0.968170 0.483299 0.288426
0.050446 0.407614 0.196872
0.124331 0.444358 0.209506
0.284276 0.571206 0.297704
0.532143 0.661662 0.376928
0.691569 0.660502 0.377142
0.832029 0.665446 0.361776
0.918212 0.678538 0.359518
0.963561 0.698344 0.375479
0.982452 0.706004 0.396139
0.060426 0.543114 0.208103
0.157321 0.589197 0.231388
0.356512 0.731319 0.350408
0.568231 0.800107 0.418616
0.718257 0.803250 0.433356
0.861524 0.823484 0.442878
0.941405 0.846159 0.452552
0.978515 0.862303 0.469306
0.988403 0.867491 0.491890
0.068421 0.658747 0.208133
0.202426 0.742214 0.260258
0.448493 0.859495 0.390997
0.611292 0.891722 0.444282
0.740200 0.893584 0.460822
0.859800 0.900328 0.474556
0.942443 0.916777 0.490150
0.980591 0.930053 0.509300
0.988800 0.934905 0.531853
0.078676 0.773861 0.204959
0.253697 0.877317 0.286931
0.516533 0.926238 0.399725
0.653437 0.938476 0.442115
0.766140 0.943023 0.469825
0.867796 0.948699 0.492866
0.937926 0.956146 0.508812
0.976989 0.961517 0.517784
0.987823 0.965240 0.541070
0.092927 0.896666 0.210086
0.300969 0.942748 0.302525
0.552972 0.959503 0.393011
0.686183 0.966949 0.428565
0.794278 0.972320 0.465980
0.881895 0.977691 0.499794
0.942290 0.982483 0.520989
0.977996 0.984863 0.531914
0.987366 0.984833 0.545312
0.056062 0.049134 0.224125
0.140047 0.056184 0.253574
0.242893 0.058625 0.251225
0.327672 0.055634 0.207858
0.433494 0.062593 0.202701
0.522881 0.067445 0.200656
0.605188 0.071565 0.199130
0.690028 0.075471 0.196902
0.783841 0.079591 0.195926
0.049439 0.097597 0.215671
0.109316 0.112642 0.245396
0.233036 0.123964 0.267460
0.353155 0.117861 0.220676
0.441505 0.120272 0.209049
0.529778 0.122683 0.201999
0.629084 0.125887 0.198978
0.738766 0.130587 0.199619
0.851225 0.143191 0.208255
0.045045 0.184390 0.243870
0.098451 0.221988 0.277073
0.220005 0.263676 0.318334
0.370153 0.253178 0.300938
0.487785 0.244114 0.271550
0.603632 0.236545 0.251102
0.720974 0.237552 0.244877
0.835538 0.242832 0.244266
0.926696 0.258152 0.256168
0.043427 0.297948 0.269841
0.095796 0.315435 0.278721
0.179538 0.347906 0.297856
0.455894 0.506172 0.429892
0.571633 0.450584 0.383154
0.704433 0.435630 0.351522
0.823545 0.429343 0.335744
0.909850 0.440665 0.337514
0.957092 0.460899 0.356252
0.050080 0.413657 0.280034
0.111604 0.440116 0.291325
0.202670 0.489952 0.320714
0.423575 0.635843 0.446555
0.668376 0.687053 0.501503
0.783505 0.654246 0.457694
0.881010 0.645365 0.436728
0.944884 0.655344 0.439078
0.973846 0.675517 0.464225
0.059815 0.549920 0.294621
0.130312 0.568261 0.301915
0.251438 0.646220 0.356909
0.453132 0.771786 0.478065
0.697536 0.833494 0.552972
0.826719 0.822416 0.549279
0.917937 0.830503 0.545464
0.967102 0.841978 0.553460
0.986114 0.855924 0.576898
0.067262 0.664454 0.293034
0.153445 0.702235 0.312566
0.341314 0.809659 0.422522
0.552911 0.895476 0.538262
0.731228 0.917571 0.584833
0.848722 0.915923 0.593408
0.922759 0.915160 0.594568
0.973541 0.929046 0.611933
0.987854 0.937163 0.633814
0.072938 0.769955 0.279332
0.180789 0.837736 0.325383
0.438544 0.920653 0.478553
0.658320 0.954070 0.569390
0.775662 0.959014 0.597772
0.867765 0.960266 0.614557
0.929839 0.960937 0.623865
0.969390 0.963226 0.629267
0.987030 0.968109 0.650111
0.079561 0.876646 0.265904
0.220584 0.925139 0.343664
0.503532 0.968627 0.500481
0.702052 0.975891 0.555352
0.805203 0.978912 0.588983
0.881651 0.982238 0.621668
0.937407 0.984253 0.641962
0.970947 0.985748 0.651728
0.986603 0.986297 0.662013
0.061677 0.055634 0.295018
0.144594 0.064515 0.344091
0.246647 0.070466 0.361517
0.358221 0.066224 0.301366
0.468284 0.067262 0.267796
0.565515 0.072633 0.260227
0.645319 0.076570 0.254765
0.730678 0.080598 0.251682
0.822171 0.084596 0.248020
0.055299 0.107424 0.295872
0.112551 0.119265 0.317143
0.220951 0.135653 0.365545
0.339849 0.132296 0.322576
0.460151 0.129274 0.282933
0.544488 0.128481 0.265629
0.637629 0.129427 0.253788
0.739834 0.132479 0.249546
0.850767 0.144869 0.259525
0.050996 0.198215 0.331975
0.104494 0.227817 0.362676
0.186130 0.241856 0.369940
0.358618 0.270420 0.405280
0.480583 0.254368 0.362951
0.593713 0.243503 0.330190
0.701869 0.237156 0.311635
0.810758 0.237583 0.306188
0.908202 0.248020 0.313695
0.051423 0.327489 0.367285
0.104952 0.342565 0.374884
0.165743 0.326268 0.365698
0.368750 0.450019 0.480034
0.539345 0.447074 0.474693
0.656184 0.414298 0.428885
0.771206 0.397574 0.400351
0.876219 0.396750 0.392935
0.935729 0.409720 0.401053
0.050996 0.426032 0.365515
0.104982 0.423041 0.362493
0.173312 0.447471 0.375555
0.307500 0.536721 0.442130
0.633585 0.699077 0.600565
0.744778 0.644816 0.555245
0.854856 0.635508 0.534493
0.926207 0.640970 0.531197
0.965972 0.657084 0.544991
0.059846 0.546746 0.373297
0.125277 0.566522 0.386297
0.208865 0.601160 0.409125
0.338201 0.684260 0.476081
0.615946 0.820615 0.629969
0.819974 0.843992 0.665400
0.903990 0.827573 0.641749
0.955383 0.833600 0.640650
0.982116 0.850233 0.660090
0.069032 0.672969 0.380224
0.144167 0.696590 0.397986
0.261479 0.757412 0.448981
0.421637 0.839780 0.540978
0.668635 0.916564 0.671717
0.846113 0.931334 0.709773
0.922118 0.927001 0.706905
0.967590 0.933379 0.712245
0.987091 0.941100 0.728725
0.076112 0.782834 0.373205
0.161013 0.819333 0.402014
0.329320 0.890074 0.501701
0.572076 0.947509 0.636683
0.771756 0.967651 0.711986
0.873960 0.970764 0.732570
0.935302 0.970153 0.739467
0.967590 0.969360 0.739193
0.987091 0.972808 0.752407
0.081666 0.885313 0.357183
0.176486 0.909087 0.400031
0.390143 0.957427 0.542565
0.672541 0.981018 0.669123
0.822995 0.984009 0.706249
0.894194 0.986694 0.737911
0.943877 0.987823 0.759426
0.972076 0.988190 0.766598
0.987030 0.988373 0.770901
0.068147 0.062440 0.383795
0.153628 0.073579 0.449836
0.240818 0.079072 0.468299
0.338445 0.072999 0.401022
0.467094 0.073121 0.346654
0.577325 0.074830 0.325109
0.658839 0.079042 0.317021
0.741451 0.082948 0.312352
0.831876 0.086885 0.308537
0.060914 0.120180 0.395972
0.117220 0.125338 0.403906
0.219944 0.143557 0.461402
0.323430 0.142397 0.430518
0.440238 0.139040 0.380682
0.545617 0.134615 0.343023
0.636347 0.133455 0.323583
0.737789 0.135500 0.314244
0.849332 0.148531 0.323980
0.057038 0.213413 0.436255
0.109651 0.224704 0.445747
0.175875 0.228794 0.439155
0.328511 0.269413 0.496101
0.479179 0.272984 0.478492
0.595758 0.259525 0.433509
0.701259 0.248631 0.403876
0.806119 0.245548 0.390173
0.899931 0.253635 0.394415
0.058167 0.338628 0.464820
0.110109 0.336522 0.461341
0.162448 0.313054 0.443580
0.300526 0.399741 0.519951
0.519966 0.449516 0.577111
0.645960 0.423056 0.537163
0.758511 0.403006 0.501762
0.858946 0.395712 0.485237
0.924498 0.403861 0.488685
0.059358 0.448829 0.467658
0.112062 0.438605 0.458900
0.165103 0.428702 0.453681
0.256367 0.473259 0.490761
0.539040 0.640604 0.652735
0.719081 0.637858 0.651637
0.822507 0.606119 0.616571
0.900145 0.597177 0.599237
0.950286 0.606271 0.604334
0.059174 0.542290 0.453986
0.116365 0.539635 0.454475
0.185397 0.562005 0.469825
0.280644 0.625330 0.518273
0.482536 0.740414 0.623560
0.805020 0.853605 0.762020
0.888762 0.829694 0.737072
0.944854 0.833204 0.734234
0.979278 0.847883 0.745861
0.070161 0.672633 0.464240
0.140749 0.695277 0.486732
0.227176 0.726680 0.515312
0.337987 0.786465 0.568261
0.533303 0.868315 0.671321
0.818280 0.935760 0.799710
0.924681 0.938994 0.813046
0.963989 0.940429 0.812253
0.985626 0.942992 0.820035
0.079866 0.795132 0.470192
0.158053 0.820127 0.497963
0.272679 0.866209 0.553704
0.436851 0.918151 0.643885
0.668254 0.956024 0.756771
0.866484 0.975494 0.834043
0.938811 0.976715 0.842893
0.969512 0.975799 0.842863
0.987274 0.977844 0.852628
0.086946 0.898863 0.464881
0.172488 0.907897 0.499031
0.311574 0.942596 0.582238
0.557687 0.972625 0.718227
0.793286 0.985779 0.807523
0.901946 0.989075 0.846189
0.947082 0.989868 0.862058
0.974060 0.989990 0.865232
0.987549 0.990051 0.866209
0.076875 0.070893 0.505241
0.167514 0.083284 0.567315
0.239811 0.085969 0.571832
0.312901 0.079133 0.512505
0.426200 0.075471 0.441932
0.553094 0.078218 0.404364
0.654963 0.079622 0.386389
0.740139 0.083650 0.382361
0.829770 0.087922 0.379034
0.066438 0.131258 0.511528
0.122011 0.131563 0.509606
0.217166 0.147402 0.561425
0.315373 0.147311 0.534966
0.434775 0.146609 0.486458
0.544854 0.145205 0.448951
0.632471 0.137911 0.409094
0.730465 0.138125 0.394934
0.840452 0.149691 0.401129
0.063508 0.227359 0.552209
0.114626 0.220462 0.538293
0.173434 0.221714 0.527672
0.301167 0.259342 0.583093
0.462089 0.272801 0.583246
0.601312 0.275792 0.553643
0.702144 0.262730 0.512352
0.804349 0.257664 0.492073
0.896361 0.264195 0.492836
0.064027 0.337255 0.567956
0.114900 0.328740 0.559319
0.164492 0.301701 0.532738
0.269734 0.369345 0.587793
0.485008 0.429709 0.659724
0.647150 0.430533 0.649042
0.755734 0.416159 0.616693
0.855650 0.408225 0.596582
0.920348 0.413809 0.597314
0.065126 0.444312 0.567987
0.116304 0.427832 0.554467
0.165347 0.413962 0.541985
0.234928 0.438712 0.562646
0.473594 0.595041 0.700954
0.700435 0.633402 0.746120
0.815091 0.614847 0.726802
0.895109 0.604013 0.711238
0.946319 0.609018 0.711849
0.066499 0.548882 0.560876
0.121035 0.541955 0.553246
0.177127 0.544427 0.555901
0.248203 0.574243 0.579370
0.405570 0.665095 0.659632
0.732921 0.821027 0.819211
0.874113 0.821607 0.824491
0.932891 0.813794 0.814481
0.969879 0.818036 0.815335
0.068544 0.654414 0.550072
0.130434 0.664149 0.559014
0.202426 0.687037 0.577996
0.291386 0.736141 0.619013
0.452171 0.820554 0.701228
0.710460 0.908537 0.824567
0.917876 0.945830 0.887419
0.961089 0.942504 0.884031
0.985168 0.944060 0.887938
0.081514 0.793484 0.562860
0.155276 0.816220 0.589288
0.247929 0.852293 0.629419
0.362829 0.888426 0.682948
0.545937 0.930632 0.771115
0.774609 0.964324 0.863645
0.929351 0.980163 0.904570
0.970916 0.979980 0.906493
0.987274 0.980560 0.910491
0.091188 0.903685 0.567895
0.172946 0.909422 0.601648
0.279454 0.932189 0.656519
0.441306 0.958099 0.739528
0.680888 0.977478 0.842008
0.869535 0.988891 0.899443
0.945281 0.991089 0.915740
0.974456 0.991211 0.918059
0.988006 0.991211 0.918395
0.086824 0.081727 0.654292
0.182132 0.092866 0.696376
0.244541 0.092561 0.684352
0.305791 0.085756 0.629297
0.400488 0.080781 0.559380
0.516838 0.079835 0.504448
0.629786 0.082582 0.476600
0.728176 0.083742 0.461860
0.820279 0.088014 0.461036
0.071992 0.141054 0.643030
0.129641 0.139284 0.638392
0.210025 0.147433 0.663447
0.299931 0.147555 0.639033
0.426078 0.150912 0.600427
0.552697 0.154818 0.567468
0.647303 0.151095 0.529503
0.725765 0.141482 0.489754
0.829190 0.149783 0.491707
0.069886 0.239536 0.680476
0.119478 0.218143 0.640955
0.175967 0.220310 0.635767
0.283696 0.250706 0.676783
0.446891 0.269627 0.685786
0.601038 0.281743 0.667842
0.714656 0.281254 0.641718
0.800504 0.265782 0.603632
0.888884 0.269780 0.598535
0.069703 0.333135 0.681788
0.119783 0.324346 0.668666
0.168948 0.297612 0.638239
0.263706 0.356619 0.684352
0.460777 0.414633 0.747097
0.635584 0.427070 0.748653
0.762966 0.429007 0.732265
0.852811 0.417716 0.708064
0.917174 0.424155 0.706905
0.069917 0.427863 0.672908
0.121096 0.421668 0.663447
0.169528 0.406470 0.646265
0.238224 0.427451 0.662959
0.449638 0.566629 0.777249
0.678370 0.615518 0.822721
0.816068 0.614023 0.818692
0.891386 0.606546 0.807340
0.944244 0.615305 0.810178
0.071504 0.534722 0.666407
0.125368 0.536248 0.661036
0.176822 0.534417 0.655421
0.239750 0.552087 0.668086
0.379599 0.632044 0.734493
0.691112 0.798108 0.870909
0.867826 0.820294 0.888151
0.929015 0.814466 0.885252
0.968170 0.822309 0.890105
0.075135 0.655421 0.661982
0.133669 0.661585 0.663264
0.194858 0.671473 0.670588
0.269291 0.701442 0.695521
0.400961 0.772061 0.754665
0.634562 0.873671 0.855558
0.888884 0.934325 0.922057
0.955383 0.937194 0.927977
0.983703 0.936461 0.928069
0.079377 0.769436 0.656825
0.144503 0.784726 0.669398
0.219638 0.810361 0.692317
0.314885 0.853361 0.734524
0.467155 0.901518 0.801785
0.686290 0.948821 0.883146
0.883543 0.977569 0.937316
0.972442 0.984375 0.952667
0.988312 0.984131 0.952270
0.091707 0.896757 0.666438
0.169986 0.904143 0.696010
0.260899 0.921019 0.737270
0.377890 0.941772 0.787717
0.563821 0.968566 0.858610
0.788983 0.985931 0.924529
0.920287 0.990234 0.946746
0.974853 0.992309 0.955596
0.988525 0.992523 0.956634
0.096315 0.092164 0.819608
0.192477 0.100710 0.833646
0.247684 0.097383 0.799863
0.307774 0.091646 0.746059
0.393072 0.087495 0.686549
0.495491 0.084688 0.629023
0.596368 0.084413 0.587976
0.701961 0.086305 0.564019
0.805631 0.087770 0.550927
0.077546 0.151766 0.786740
0.142184 0.147372 0.781003
0.215976 0.150484 0.778317
0.289494 0.148806 0.751553
0.414816 0.155215 0.721798
0.549737 0.164218 0.695033
0.665492 0.168917 0.668055
0.748837 0.161868 0.627649
0.823331 0.153445 0.595148
0.076326 0.253544 0.813291
0.124910 0.216800 0.754635
0.181765 0.221134 0.759152
0.277592 0.240879 0.780514
0.426841 0.260014 0.783871
0.590936 0.279484 0.771939
0.725124 0.294499 0.764492
0.817502 0.288579 0.739956
0.884001 0.275059 0.710811
0.075868 0.336736 0.804135
0.125124 0.322210 0.781582
0.173220 0.295354 0.750362
0.267155 0.350271 0.788571
0.442985 0.401999 0.831113
0.626795 0.421881 0.836667
0.767819 0.437110 0.830716
0.860899 0.439033 0.820737
0.914702 0.431662 0.806668
0.075257 0.418585 0.787106
0.126619 0.420386 0.779751
0.174411 0.401495 0.759701
0.249973 0.430777 0.775509
0.448478 0.554086 0.855436
0.670436 0.604623 0.888884
0.815000 0.612467 0.889097
0.895171 0.618387 0.886992
0.941680 0.618173 0.882475
0.077089 0.521080 0.777462
0.130709 0.529381 0.773617
0.179568 0.521660 0.762448
0.243381 0.539727 0.769558
0.401602 0.640864 0.833860
0.694408 0.790570 0.923430
0.863157 0.815137 0.933288
0.929534 0.819959 0.934752
0.966094 0.818341 0.934142
0.080964 0.645685 0.774380
0.138857 0.656886 0.773434
0.192966 0.659876 0.771847
0.261082 0.684230 0.786160
0.392752 0.755154 0.834257
0.630564 0.869764 0.913054
0.880217 0.926757 0.953399
0.951415 0.934478 0.959167
0.982544 0.934997 0.959747
0.086427 0.770840 0.771511
0.149508 0.784298 0.775814
0.214389 0.797452 0.786526
0.301060 0.828855 0.814847
0.445579 0.885130 0.862364
0.658793 0.939239 0.923613
0.864317 0.968750 0.956695
0.961364 0.981109 0.970245
0.986755 0.982513 0.973083
0.089662 0.876707 0.762112
0.159060 0.887602 0.777096
0.233341 0.897826 0.801511
0.333623 0.919554 0.836118
0.494774 0.952300 0.887633
0.711437 0.981018 0.938262
0.893675 0.988403 0.964904
0.966644 0.992401 0.975586
0.990478 0.994446 0.979217
