LUTs/47.cube
# (C) 2014 VisionColor & Patchflyer [www.vision-color.com]
# Generator: VC Patchmatch v.2.1.1 [64/53]
# All work and no play makes Jack a dull boy.
# LUT generated from: Lomo Color Implosion 21°_FC
LUT_3D_SIZE 17
0.041993 0.035248 0.035248
0.071229 0.035798 0.036316
0.102937 0.037201 0.037018
0.140658 0.039551 0.038880
0.181613 0.042329 0.041047
0.221164 0.044953 0.043030
0.258488 0.047547 0.045136
0.295720 0.050141 0.047669
0.335393 0.052827 0.050172
0.376471 0.055695 0.052735
0.424720 0.058930 0.055451
0.480049 0.062409 0.058381
0.545617 0.067536 0.062318
0.616663 0.072847 0.066407
0.692439 0.078401 0.070466
0.768826 0.084352 0.074739
0.845487 0.090578 0.079225
0.040131 0.056794 0.033448
0.068177 0.057343 0.033875
0.102968 0.059144 0.035035
0.145296 0.062837 0.037507
0.198642 0.069429 0.041138
0.256748 0.076661 0.045258
0.312383 0.082979 0.049195
0.374548 0.089723 0.053468
0.432395 0.095369 0.057282
0.497353 0.101595 0.061402
0.560937 0.108827 0.065888
0.625452 0.115633 0.070039
0.690303 0.121798 0.074403
0.756161 0.127443 0.078553
0.819608 0.133425 0.082582
0.879606 0.139864 0.086732
0.932036 0.146639 0.090761
0.039185 0.079072 0.032532
0.067506 0.083406 0.033631
0.111177 0.091798 0.035401
0.166995 0.102052 0.039765
0.230655 0.112673 0.044800
0.298405 0.122896 0.049897
0.366598 0.132479 0.055360
0.438682 0.142397 0.060761
0.505257 0.150240 0.065644
0.574914 0.160891 0.071107
0.638758 0.169497 0.075837
0.702235 0.177279 0.080446
0.764248 0.183780 0.084627
0.822385 0.189334 0.088624
0.874235 0.194339 0.092226
0.920531 0.200320 0.096101
0.954528 0.206668 0.100130
0.038514 0.102113 0.031891
0.066651 0.108888 0.033600
0.117952 0.128725 0.038422
0.178347 0.143069 0.041962
0.252415 0.161166 0.048707
0.327947 0.175875 0.055268
0.402518 0.188968 0.062196
0.476951 0.201419 0.068940
0.545083 0.211490 0.074434
0.615351 0.225223 0.080751
0.681025 0.236454 0.086183
0.743832 0.246616 0.091585
0.803555 0.254520 0.096956
0.857542 0.261143 0.101930
0.898985 0.266453 0.106172
0.937560 0.273167 0.110750
0.963256 0.280156 0.115358
0.038270 0.123598 0.031495
0.069795 0.137484 0.034943
0.124910 0.167575 0.041688
0.188327 0.187778 0.046906
0.259281 0.206455 0.051881
0.345220 0.230838 0.060639
0.426596 0.250980 0.069520
0.504250 0.268681 0.077852
0.574075 0.281834 0.084688
0.644770 0.295964 0.091615
0.709285 0.307622 0.097810
0.771115 0.320897 0.104616
0.827939 0.332464 0.111482
0.878019 0.341588 0.117586
0.913603 0.349248 0.122805
0.944427 0.358587 0.128450
0.967102 0.368963 0.134249
0.038331 0.144381 0.031525
0.073396 0.168704 0.036652
0.132143 0.206973 0.045472
0.199893 0.235203 0.052461
0.270878 0.256809 0.058442
0.349187 0.279545 0.064637
0.439506 0.309819 0.076020
0.523812 0.337224 0.087373
0.596139 0.356573 0.096590
0.667903 0.375372 0.105470
0.731136 0.389227 0.113008
0.791012 0.401556 0.119905
0.845640 0.412207 0.126894
0.892027 0.421851 0.133333
0.924559 0.431250 0.139467
0.949737 0.443641 0.146517
0.970520 0.456886 0.153506
0.039094 0.166079 0.032319
0.076661 0.197665 0.038849
0.140108 0.249760 0.050294
0.213443 0.287572 0.059846
0.286137 0.313085 0.067079
0.362524 0.336004 0.073610
0.442710 0.360311 0.080354
0.532387 0.394308 0.093690
0.610636 0.420890 0.105196
0.684077 0.443336 0.115358
0.747951 0.460029 0.124514
0.806577 0.475654 0.133272
0.859251 0.488563 0.141665
0.898985 0.500969 0.149630
0.930816 0.512291 0.156680
0.956237 0.526513 0.164645
0.974609 0.543542 0.173190
0.040558 0.189090 0.033661
0.080507 0.232670 0.041962
0.150179 0.301518 0.057008
0.230137 0.349630 0.069093
0.304875 0.376638 0.077241
0.378912 0.397971 0.083925
0.455100 0.421073 0.090578
0.533394 0.446250 0.097780
0.615915 0.477104 0.110994
0.696071 0.507012 0.124300
0.761166 0.525841 0.134737
0.821012 0.543145 0.144198
0.871305 0.558007 0.153628
0.907805 0.570703 0.161593
0.934630 0.582849 0.169162
0.961120 0.599451 0.178195
0.978759 0.618326 0.187594
0.042847 0.218875 0.035584
0.085237 0.272587 0.045624
0.159762 0.356222 0.063203
0.245365 0.414359 0.078370
0.323461 0.444480 0.088411
0.395514 0.463066 0.095369
0.465721 0.482536 0.101320
0.540261 0.504829 0.108003
0.616617 0.526955 0.114382
0.699290 0.559594 0.128573
0.769589 0.583337 0.140383
0.829496 0.601984 0.150271
0.879881 0.617914 0.160037
0.913451 0.632441 0.168765
0.938964 0.646296 0.177401
0.963714 0.665217 0.187564
0.982727 0.688563 0.199893
0.045411 0.252964 0.037903
0.090944 0.319158 0.049989
0.174716 0.419898 0.071473
0.263951 0.484260 0.088533
0.344030 0.516747 0.099763
0.417151 0.534844 0.107668
0.483192 0.549584 0.113069
0.550744 0.567407 0.119051
0.623758 0.586175 0.124605
0.694957 0.605234 0.130587
0.768032 0.630732 0.142824
0.833585 0.653529 0.153841
0.883909 0.671595 0.164828
0.917998 0.687770 0.174594
0.941985 0.703670 0.184390
0.965667 0.723934 0.195956
0.983825 0.749172 0.209812
0.049165 0.300847 0.041291
0.102998 0.383215 0.057069
0.189303 0.487587 0.079133
0.280369 0.554101 0.098329
0.363226 0.591333 0.111910
0.436896 0.610773 0.121859
0.501091 0.622553 0.127138
0.564019 0.634913 0.132143
0.628199 0.645319 0.135470
0.695430 0.659632 0.139803
0.759945 0.670100 0.142367
0.827695 0.694667 0.153841
0.883116 0.716854 0.165957
0.919219 0.735103 0.176425
0.943755 0.751766 0.186862
0.966888 0.773800 0.200656
0.984863 0.801419 0.217014
0.053925 0.364416 0.045930
0.116426 0.457313 0.064729
0.204562 0.559960 0.087800
0.297978 0.627131 0.109071
0.383093 0.666133 0.124575
0.457252 0.687099 0.135653
0.520806 0.697230 0.142184
0.581231 0.705440 0.146273
0.640223 0.710414 0.147982
0.701198 0.717098 0.149874
0.763760 0.725155 0.151736
0.819120 0.730800 0.152743
0.876371 0.753689 0.165438
0.915465 0.773007 0.176730
0.941802 0.793271 0.189059
0.965942 0.816800 0.204074
0.984894 0.845792 0.223301
0.063905 0.451545 0.054353
0.132662 0.543908 0.074922
0.221805 0.634913 0.097993
0.314733 0.697108 0.120211
0.400580 0.736446 0.137728
0.475471 0.759121 0.150149
0.539269 0.768307 0.157321
0.597864 0.773831 0.161532
0.653590 0.775387 0.162203
0.710262 0.777432 0.162325
0.768338 0.779995 0.162600
0.819486 0.783658 0.163088
0.867887 0.787442 0.163790
0.908690 0.806363 0.175082
0.937774 0.824887 0.188144
0.964508 0.847562 0.204257
0.984405 0.875517 0.224613
0.076234 0.562188 0.064485
0.151186 0.643488 0.086915
0.240757 0.715846 0.109499
0.332830 0.768277 0.132052
0.417273 0.802945 0.149874
0.491829 0.825803 0.163241
0.555352 0.833432 0.171817
0.613489 0.837888 0.176120
0.666285 0.837613 0.176913
0.721950 0.838437 0.175998
0.776486 0.837827 0.174624
0.825620 0.838956 0.174197
0.871031 0.841001 0.174319
0.901946 0.842008 0.174136
0.932494 0.858122 0.187503
0.960937 0.877745 0.203311
0.983093 0.900084 0.224765
0.092805 0.678065 0.076936
0.172915 0.745785 0.100954
0.262608 0.796902 0.122866
0.351110 0.829953 0.144015
0.432197 0.853544 0.161257
0.504631 0.871519 0.174350
0.565972 0.876402 0.182498
0.622522 0.879911 0.186984
0.674983 0.879545 0.188022
0.728969 0.879484 0.186770
0.781552 0.878019 0.184817
0.831693 0.879149 0.183597
0.874998 0.880156 0.183383
0.906584 0.881346 0.183383
0.929473 0.884978 0.187045
0.959136 0.901457 0.203098
0.982208 0.921782 0.225010
0.109834 0.793881 0.089784
0.195956 0.843900 0.115297
0.286564 0.872282 0.137392
0.372351 0.889860 0.156954
0.448646 0.903471 0.172427
0.517510 0.911040 0.184909
0.577752 0.914183 0.192813
0.632166 0.915251 0.196506
0.684840 0.914702 0.198062
0.738949 0.914580 0.197055
0.790036 0.913542 0.195193
0.839780 0.914549 0.193820
0.880430 0.914763 0.193088
0.912444 0.915740 0.193027
0.934722 0.919341 0.197452
0.957794 0.923400 0.203769
0.981323 0.940551 0.225711
0.128206 0.894987 0.102602
0.219883 0.918608 0.129946
0.311498 0.926268 0.152987
0.394781 0.932372 0.170504
0.466621 0.938293 0.184054
0.530419 0.942351 0.194522
0.587610 0.942962 0.201175
0.640101 0.942840 0.203861
0.691402 0.942290 0.205264
0.745266 0.942077 0.204746
0.796536 0.941802 0.203800
0.846464 0.942107 0.202365
0.884489 0.942473 0.201755
0.916625 0.943297 0.201907
0.939666 0.946258 0.206638
0.961791 0.950744 0.214878
0.981018 0.956970 0.226932
0.044404 0.037140 0.063478
0.071321 0.036103 0.060212
0.103609 0.037293 0.060609
0.140505 0.039551 0.061524
0.179202 0.041962 0.063447
0.215885 0.044160 0.065248
0.250675 0.046357 0.067140
0.284459 0.048646 0.068910
0.321965 0.051179 0.070893
0.359533 0.053742 0.072816
0.403784 0.056519 0.075380
0.450629 0.059266 0.077882
0.506157 0.063172 0.080964
0.566155 0.067018 0.083894
0.628077 0.070863 0.086915
0.695583 0.074861 0.090089
0.767575 0.079011 0.093263
0.039918 0.056794 0.057069
0.071626 0.058442 0.057893
0.112123 0.061738 0.058991
0.156374 0.065675 0.061646
0.202976 0.069276 0.064454
0.251713 0.073548 0.067872
0.300511 0.078035 0.071138
0.352514 0.082826 0.074617
0.402152 0.086671 0.077729
0.457557 0.091920 0.081575
0.513664 0.097169 0.085389
0.575921 0.102876 0.089296
0.641779 0.108827 0.093324
0.711849 0.114931 0.097261
0.780056 0.120607 0.101137
0.847288 0.126802 0.105348
0.904662 0.135439 0.110964
0.038941 0.079225 0.055695
0.075349 0.092409 0.060121
0.136995 0.108217 0.063844
0.199039 0.115724 0.068788
0.264744 0.122164 0.072969
0.328862 0.128634 0.077241
0.392508 0.135439 0.081819
0.455070 0.141573 0.086275
0.516274 0.149752 0.091035
0.576837 0.156069 0.095521
0.636744 0.162234 0.099672
0.697444 0.168093 0.103609
0.757321 0.173678 0.107576
0.815549 0.178958 0.111330
0.867430 0.184207 0.114961
0.914275 0.189944 0.118624
0.950011 0.197665 0.123262
0.038300 0.102937 0.054047
0.074250 0.121706 0.061341
0.142885 0.154818 0.071321
0.225467 0.176638 0.077485
0.304540 0.188602 0.083986
0.379187 0.197482 0.089387
0.449210 0.205722 0.094789
0.513741 0.212284 0.099275
0.575875 0.221469 0.104311
0.636316 0.228611 0.108980
0.698207 0.235996 0.113680
0.757931 0.242618 0.118135
0.814694 0.248753 0.122347
0.867460 0.254246 0.126375
0.903838 0.258885 0.129976
0.937499 0.264378 0.133974
0.962921 0.269474 0.138155
0.038300 0.128054 0.054078
0.072877 0.149020 0.062226
0.144808 0.199985 0.077760
0.231113 0.232364 0.088899
0.325750 0.259556 0.096132
0.410819 0.276890 0.104402
0.487175 0.290379 0.111666
0.553475 0.298344 0.116579
0.614725 0.304723 0.121035
0.674495 0.310002 0.125429
0.735470 0.318517 0.130953
0.794095 0.327581 0.136568
0.845640 0.336187 0.141909
0.893492 0.343633 0.146853
0.924834 0.349462 0.150820
0.950103 0.356390 0.155123
0.968963 0.361608 0.159762
0.038849 0.154055 0.054841
0.074128 0.178714 0.064027
0.149233 0.245823 0.083589
0.240879 0.291539 0.099458
0.334356 0.323278 0.110689
0.428183 0.350347 0.117525
0.512154 0.370428 0.126864
0.586191 0.384833 0.133700
0.649607 0.394629 0.139437
0.709407 0.401801 0.144747
0.766934 0.409949 0.150790
0.824308 0.418494 0.156710
0.873991 0.426947 0.162631
0.911162 0.435950 0.168643
0.938354 0.443305 0.173587
0.959930 0.451759 0.179110
0.974517 0.457832 0.184970
0.040101 0.178958 0.055879
0.077058 0.208957 0.066560
0.155795 0.293538 0.089784
0.252964 0.352224 0.109865
0.347753 0.388083 0.123690
0.438407 0.413931 0.131868
0.526619 0.439353 0.139773
0.608438 0.460075 0.148653
0.679911 0.477470 0.156649
0.741146 0.487678 0.163638
0.799405 0.498878 0.171542
0.844755 0.510582 0.179660
0.891661 0.521660 0.187320
0.925841 0.531731 0.194308
0.948028 0.539147 0.199191
0.967285 0.547555 0.204776
0.980499 0.554360 0.211368
0.042237 0.210330 0.057862
0.081575 0.244236 0.069825
0.164675 0.346120 0.095888
0.267247 0.419638 0.121309
0.364660 0.458701 0.137545
0.452384 0.481437 0.147005
0.538613 0.504738 0.155367
0.626413 0.529885 0.163088
0.701732 0.550393 0.172030
0.768673 0.565820 0.180209
0.824735 0.577783 0.188998
0.867826 0.589944 0.197208
0.905608 0.601053 0.205356
0.935180 0.611368 0.212650
0.955200 0.620676 0.219028
0.971954 0.632578 0.227054
0.983825 0.642405 0.237369
0.044678 0.245335 0.060304
0.086854 0.285725 0.073548
0.179110 0.404868 0.103548
0.284184 0.485710 0.131716
0.380560 0.526894 0.149813
0.465141 0.547402 0.160037
0.546304 0.565499 0.167758
0.629953 0.587289 0.174929
0.714580 0.613565 0.183230
0.782986 0.632532 0.193301
0.842985 0.649378 0.203403
0.883421 0.662974 0.211826
0.918578 0.675578 0.220920
0.942748 0.686961 0.228885
0.962036 0.697917 0.236515
0.977020 0.711406 0.246494
0.986725 0.725200 0.262150
0.047578 0.292088 0.063630
0.098573 0.345068 0.081392
0.194430 0.468086 0.113161
0.301335 0.552483 0.144015
0.396094 0.594568 0.163455
0.478584 0.613886 0.174624
0.555779 0.628595 0.182467
0.631724 0.644434 0.188937
0.713664 0.667842 0.196811
0.791409 0.691920 0.204776
0.852598 0.711208 0.216922
0.893736 0.727657 0.225834
0.924956 0.740291 0.235172
0.948302 0.751980 0.243381
0.966430 0.762936 0.251560
0.979675 0.777768 0.262913
0.987762 0.792996 0.279789
0.051698 0.356146 0.068757
0.111513 0.416571 0.090639
0.210391 0.537224 0.123720
0.316320 0.617121 0.155001
0.410224 0.658686 0.175357
0.491310 0.681208 0.189395
0.566491 0.693202 0.197269
0.638224 0.706477 0.203800
0.711070 0.721370 0.209567
0.782071 0.742184 0.217105
0.849515 0.756588 0.221408
0.892515 0.776455 0.231937
0.927642 0.795102 0.243473
0.951141 0.807462 0.253178
0.969451 0.818631 0.263340
0.982269 0.832517 0.276646
0.988403 0.846128 0.296208
0.057527 0.434363 0.075532
0.127108 0.499245 0.100282
0.227481 0.605646 0.133120
0.331548 0.677394 0.163302
0.424628 0.717891 0.184298
0.505455 0.742000 0.199435
0.579980 0.756069 0.210575
0.649683 0.767941 0.217411
0.719554 0.780209 0.223239
0.783108 0.791165 0.228580
0.848203 0.803342 0.232517
0.886839 0.810330 0.235569
0.923400 0.828977 0.249149
0.949554 0.844236 0.261814
0.969116 0.858152 0.273625
0.982361 0.872862 0.287724
0.988556 0.885924 0.308324
0.067292 0.524071 0.084565
0.144228 0.593042 0.111849
0.245853 0.681880 0.144808
0.346929 0.740627 0.173037
0.437171 0.777188 0.194064
0.517449 0.802426 0.210666
0.591180 0.813993 0.222202
0.657328 0.822690 0.229679
0.725353 0.833005 0.235172
0.786435 0.840330 0.239597
0.845731 0.846891 0.241917
0.879850 0.852262 0.245060
0.915221 0.857450 0.246891
0.944274 0.872831 0.260990
0.966339 0.887053 0.276524
0.981567 0.901762 0.293523
0.988128 0.912139 0.314549
0.079133 0.622827 0.094820
0.163882 0.694575 0.125124
0.266117 0.758846 0.156954
0.363775 0.803403 0.182803
0.450599 0.833616 0.202945
0.527611 0.853971 0.218540
0.598932 0.861631 0.230320
0.664271 0.868620 0.238041
0.727825 0.872953 0.243320
0.790066 0.879179 0.247776
0.846006 0.883391 0.249821
0.879484 0.887114 0.252842
0.913329 0.890806 0.254948
0.938048 0.894377 0.257939
0.961395 0.909361 0.275578
0.978790 0.923888 0.295384
0.987518 0.934600 0.318578
0.092897 0.721706 0.105806
0.184939 0.791196 0.139651
0.287541 0.834775 0.171145
0.381018 0.855863 0.195163
0.461707 0.874266 0.212955
0.534600 0.889097 0.226719
0.599970 0.894224 0.235966
0.661830 0.898833 0.242252
0.724102 0.902647 0.247257
0.785611 0.907103 0.250492
0.840818 0.911467 0.253178
0.880369 0.915587 0.256138
0.913634 0.918181 0.259770
0.939941 0.921324 0.263676
0.958251 0.925414 0.272557
0.976959 0.938842 0.294194
0.987060 0.948913 0.319493
0.106050 0.817655 0.116670
0.205203 0.872374 0.153445
0.308476 0.896727 0.185550
0.399847 0.906340 0.208286
0.475319 0.913237 0.223362
0.541833 0.918730 0.234379
0.603723 0.922210 0.242222
0.661707 0.924224 0.246677
0.721996 0.927367 0.251164
0.782406 0.930663 0.254032
0.837705 0.934142 0.256626
0.880247 0.937987 0.259342
0.914244 0.940917 0.263401
0.941527 0.943664 0.269078
0.959960 0.947936 0.278996
0.975464 0.953643 0.292943
0.986816 0.962432 0.320073
0.119387 0.899199 0.126650
0.225986 0.922789 0.167147
0.328344 0.933715 0.199924
0.417212 0.939941 0.221317
0.489265 0.943206 0.234318
0.551446 0.944976 0.242893
0.608576 0.945251 0.248936
0.665522 0.946349 0.253056
0.723003 0.948028 0.257847
0.782223 0.950072 0.260258
0.833921 0.952422 0.264073
0.880308 0.954528 0.265904
0.912779 0.956603 0.270054
0.941558 0.958831 0.275334
0.960754 0.963256 0.286076
0.975097 0.968414 0.301885
0.986664 0.974487 0.320439
0.046784 0.039460 0.093538
0.075074 0.038636 0.090181
0.104311 0.037507 0.084657
0.142031 0.039643 0.085451
0.180606 0.042023 0.086824
0.216953 0.044221 0.088594
0.249516 0.046235 0.090120
0.281743 0.048402 0.091432
0.315740 0.050690 0.093050
0.350805 0.052918 0.094606
0.392004 0.055421 0.096376
0.435096 0.057801 0.097993
0.486580 0.061036 0.100404
0.541344 0.064302 0.102449
0.599359 0.067628 0.104707
0.662684 0.071046 0.107179
0.731502 0.074678 0.109895
0.042451 0.059205 0.087098
0.073365 0.061463 0.088991
0.109590 0.059907 0.083497
0.150179 0.062989 0.084321
0.189242 0.065400 0.085969
0.226627 0.067872 0.087556
0.263371 0.070588 0.089326
0.303105 0.073732 0.091554
0.346410 0.076722 0.094209
0.397833 0.080873 0.097475
0.451698 0.085054 0.100526
0.511742 0.089418 0.103914
0.573754 0.093996 0.107424
0.639979 0.098817 0.111208
0.707332 0.103914 0.114931
0.777798 0.109529 0.118776
0.847410 0.117952 0.124025
0.039216 0.083070 0.082887
0.068025 0.091524 0.088411
0.128542 0.108095 0.098360
0.187900 0.111086 0.097627
0.248081 0.114595 0.098268
0.309056 0.119051 0.100618
0.371435 0.123964 0.103487
0.432425 0.130617 0.108003
0.492607 0.135653 0.111971
0.553307 0.140841 0.116060
0.612116 0.146181 0.119875
0.677089 0.152071 0.123903
0.739254 0.157992 0.127993
0.804929 0.164126 0.132265
0.860929 0.170626 0.136172
0.908354 0.178470 0.140475
0.946960 0.187839 0.145785
0.038758 0.111971 0.083162
0.067964 0.124849 0.088930
0.132601 0.169100 0.113375
0.231357 0.191226 0.120180
0.308568 0.193881 0.119051
0.381903 0.197024 0.120333
0.450690 0.199924 0.121981
0.512581 0.204501 0.125307
0.572000 0.208286 0.127901
0.631922 0.212253 0.130770
0.692195 0.217594 0.134432
0.753597 0.223056 0.137881
0.810025 0.228794 0.141665
0.865782 0.234470 0.145449
0.906035 0.240299 0.149081
0.939025 0.246128 0.153140
0.961395 0.253819 0.158572
0.038788 0.143282 0.083925
0.067811 0.158022 0.089021
0.125429 0.209506 0.114382
0.234745 0.261997 0.137545
0.339971 0.283268 0.143832
0.422278 0.289067 0.144228
0.496254 0.293614 0.145266
0.561135 0.294987 0.147066
0.620951 0.295781 0.148348
0.681147 0.299443 0.150820
0.741268 0.304356 0.154238
0.801846 0.311650 0.158206
0.851926 0.318700 0.162661
0.900969 0.326268 0.167208
0.929747 0.331487 0.170840
0.952911 0.335271 0.174929
0.968048 0.340612 0.180545
0.039612 0.179904 0.086397
0.069490 0.195224 0.091585
0.126345 0.252811 0.117769
0.239719 0.328069 0.150759
0.344457 0.357336 0.164797
0.445686 0.378332 0.169924
0.527260 0.388312 0.171756
0.598459 0.395819 0.174990
0.663188 0.397925 0.174990
0.723934 0.399817 0.176150
0.781491 0.402350 0.178317
0.841031 0.408392 0.181888
0.887236 0.417426 0.188022
0.923705 0.425971 0.193576
0.946868 0.432410 0.198367
0.963806 0.435645 0.203250
0.974578 0.437964 0.209476
0.041382 0.218387 0.089418
0.072724 0.235630 0.095064
0.133700 0.304677 0.124086
0.249790 0.396628 0.163149
0.355505 0.432242 0.183536
0.453712 0.452842 0.192477
0.547280 0.471855 0.196292
0.624247 0.484520 0.201663
0.696330 0.494041 0.203983
0.760739 0.499428 0.205264
0.819425 0.504936 0.208469
0.865202 0.515251 0.213870
0.908263 0.524651 0.220310
0.939879 0.534279 0.226383
0.956939 0.540078 0.230930
0.971222 0.542245 0.235477
0.981079 0.542306 0.241520
0.044190 0.265171 0.093324
0.078004 0.280446 0.099031
0.148287 0.366262 0.135653
0.264286 0.467124 0.176974
0.370153 0.509926 0.203189
0.465599 0.526864 0.215152
0.554635 0.542336 0.220310
0.642222 0.561166 0.223484
0.719097 0.574472 0.227024
0.791226 0.587961 0.231388
0.850065 0.595712 0.235447
0.892638 0.607309 0.241611
0.921660 0.617472 0.249577
0.950225 0.628519 0.257481
0.966125 0.636728 0.263981
0.976532 0.641886 0.272343
0.984741 0.642649 0.280674
0.047364 0.311604 0.096773
0.083253 0.330129 0.104738
0.169223 0.437278 0.150057
0.284245 0.537514 0.191836
0.388556 0.583658 0.220249
0.479484 0.600137 0.235203
0.562692 0.610239 0.242039
0.647166 0.626474 0.245884
0.737743 0.650309 0.252354
0.810575 0.667140 0.258366
0.870237 0.681407 0.264408
0.910399 0.695171 0.270787
0.938445 0.706554 0.279026
0.957977 0.718120 0.287480
0.973327 0.727550 0.295933
0.982635 0.734051 0.306981
0.987671 0.737499 0.319890
0.051453 0.373693 0.103487
0.093812 0.388983 0.113039
0.193240 0.509941 0.163394
0.306432 0.605554 0.205539
0.408911 0.653040 0.236271
0.496254 0.669947 0.252811
0.573510 0.676936 0.260563
0.652415 0.688533 0.265965
0.739269 0.709804 0.272984
0.823377 0.737102 0.282231
0.881926 0.753399 0.289525
0.919524 0.769818 0.297368
0.945586 0.780896 0.305211
0.963989 0.792187 0.313939
0.976562 0.801312 0.322423
0.984863 0.809400 0.334600
0.988922 0.814038 0.348516
0.056245 0.440742 0.109560
0.105470 0.458778 0.122408
0.214023 0.581415 0.174533
0.325811 0.669154 0.216678
0.427314 0.715145 0.248020
0.511620 0.735805 0.267491
0.585229 0.740017 0.275486
0.660517 0.750179 0.282597
0.738750 0.765316 0.289982
0.817273 0.790036 0.299474
0.885985 0.814328 0.308843
0.923369 0.832425 0.317784
0.950256 0.844022 0.326421
0.967987 0.853208 0.334844
0.979858 0.860197 0.344671
0.986572 0.864775 0.357458
0.989685 0.868437 0.373602
0.061677 0.510918 0.114626
0.123781 0.542199 0.134218
0.239933 0.653132 0.183200
0.349218 0.726955 0.223941
0.446967 0.769589 0.255100
0.528679 0.791287 0.275273
0.599298 0.798550 0.287114
0.672786 0.807584 0.295476
0.748211 0.820279 0.304326
0.818738 0.834226 0.313817
0.884978 0.853971 0.323156
0.922362 0.864988 0.330510
0.949645 0.877134 0.340002
0.968231 0.887449 0.350103
0.980041 0.896269 0.361028
0.986725 0.901610 0.374334
0.989868 0.905974 0.391089
0.071717 0.597284 0.123964
0.140902 0.634577 0.146395
0.260594 0.726833 0.193545
0.367773 0.783169 0.231052
0.461036 0.816068 0.259068
0.542382 0.838682 0.280644
0.612024 0.846281 0.293675
0.683528 0.856657 0.305974
0.756588 0.867247 0.315099
0.823087 0.878965 0.325750
0.882506 0.889158 0.333349
0.919036 0.898589 0.340154
0.945647 0.903655 0.344091
0.965637 0.913481 0.355596
0.979583 0.920928 0.369177
0.986328 0.925353 0.383520
0.989471 0.928130 0.399481
0.082277 0.681544 0.132723
0.159854 0.725704 0.158480
0.283299 0.798306 0.203525
0.388159 0.838468 0.237400
0.478004 0.861784 0.262699
0.556023 0.876860 0.282078
0.624964 0.884978 0.297276
0.695033 0.893248 0.310430
0.764614 0.901152 0.322545
0.828763 0.911894 0.334295
0.884367 0.920470 0.342870
0.919219 0.926635 0.348547
0.943420 0.930205 0.352453
0.961639 0.933013 0.356176
0.977356 0.940398 0.371862
0.985748 0.944610 0.388373
0.988983 0.947173 0.405676
0.095644 0.767208 0.143648
0.178012 0.807034 0.169619
0.303929 0.860746 0.214878
0.405280 0.877623 0.245457
0.491341 0.893400 0.266819
0.566155 0.905119 0.284092
0.631922 0.912444 0.296788
0.698146 0.919188 0.309728
0.765942 0.926421 0.322484
0.830655 0.932250 0.335088
0.884031 0.939727 0.345037
0.920745 0.944274 0.352209
0.943664 0.947356 0.357366
0.961395 0.949706 0.361975
0.976318 0.952026 0.369146
0.985016 0.956939 0.387579
0.988617 0.960327 0.407111
0.107118 0.847593 0.152926
0.195041 0.876280 0.180148
0.324132 0.905791 0.227420
0.421912 0.916045 0.256748
0.503197 0.922332 0.275181
0.573022 0.928344 0.288487
0.636378 0.934478 0.299382
0.699168 0.938567 0.309697
0.763928 0.944732 0.323003
0.829709 0.950225 0.334936
0.880980 0.955230 0.346258
0.918608 0.959289 0.354040
0.942535 0.961852 0.360296
0.960021 0.963653 0.365698
0.975464 0.966033 0.373968
0.984558 0.969085 0.386481
0.988403 0.972778 0.407599
0.118166 0.913848 0.160861
0.213077 0.921904 0.191012
0.341314 0.937163 0.239689
0.435340 0.944976 0.268101
0.513207 0.947845 0.284581
0.579919 0.950042 0.295384
0.638819 0.951782 0.302556
0.701137 0.954925 0.311894
0.762554 0.958282 0.323461
0.829068 0.963439 0.334752
0.877775 0.967102 0.347051
0.916655 0.971130 0.355505
0.939300 0.972992 0.362463
0.959197 0.974640 0.368444
0.975219 0.977142 0.377997
0.982940 0.979797 0.391546
0.988281 0.982879 0.407599
0.049073 0.041566 0.126406
0.078157 0.041657 0.124361
0.115938 0.041291 0.121035
0.145998 0.039948 0.112825
0.187076 0.042664 0.113039
0.225772 0.045167 0.113924
0.260807 0.047395 0.114870
0.296391 0.049805 0.115450
0.330114 0.051972 0.116426
0.367895 0.054261 0.117800
0.407050 0.056550 0.119387
0.448798 0.058747 0.120638
0.495583 0.061555 0.122103
0.545373 0.064271 0.123445
