LUTs/47.cube
# (C) 2014 VisionColor & Patchflyer [www.vision-color.com]
# Generator: VC Patchmatch v.2.1.1 [64/53]
# All work and no play makes Jack a dull boy.
# LUT generated from: Lomo Color Implosion 21°_FC
LUT_3D_SIZE 5
0.041993 0.035248 0.035248
0.181613 0.042329 0.041047
0.335393 0.052827 0.050172
0.545617 0.067536 0.062318
0.845487 0.090578 0.079225
0.038270 0.123598 0.031495
0.259281 0.206455 0.051881
0.574075 0.281834 0.084688
0.827939 0.332464 0.111482
0.967102 0.368963 0.134249
0.042847 0.218875 0.035584
0.323461 0.444480 0.088411
0.616617 0.526955 0.114382
0.879881 0.617914 0.160037
0.982727 0.688563 0.199893
0.063905 0.451545 0.054353
0.400580 0.736446 0.137728
0.653590 0.775387 0.162203
0.867887 0.787442 0.163790
0.984405 0.875517 0.224613
0.128206 0.894987 0.102602
0.466621 0.938293 0.184054
0.691402 0.942290 0.205264
0.884489 0.942473 0.201755
0.981018 0.956970 0.226932
0.051331 0.043854 0.158267
0.197269 0.043915 0.143465
0.364538 0.055238 0.143648
0.527977 0.064240 0.146304
0.731197 0.074220 0.150301
0.039460 0.168978 0.162661
0.277989 0.289372 0.252903
0.547951 0.264073 0.210178
0.797360 0.267887 0.204562
0.954589 0.296178 0.222080
0.050446 0.407614 0.196872
0.284276 0.571206 0.297704
0.691569 0.660502 0.377142
0.918212 0.678538 0.359518
0.982452 0.706004 0.396139
0.068421 0.658747 0.208133
0.448493 0.859495 0.390997
0.740200 0.893584 0.460822
0.942443 0.916777 0.490150
0.988800 0.934905 0.531853
0.092927 0.896666 0.210086
0.552972 0.959503 0.393011
0.794278 0.972320 0.465980
0.942290 0.982483 0.520989
0.987366 0.984833 0.545312
0.061677 0.055634 0.295018
0.246647 0.070466 0.361517
0.468284 0.067262 0.267796
0.645319 0.076570 0.254765
0.822171 0.084596 0.248020
0.050996 0.198215 0.331975
0.186130 0.241856 0.369940
0.480583 0.254368 0.362951
0.701869 0.237156 0.311635
0.908202 0.248020 0.313695
0.050996 0.426032 0.365515
0.173312 0.447471 0.375555
0.633585 0.699077 0.600565
0.854856 0.635508 0.534493
0.965972 0.657084 0.544991
0.069032 0.672969 0.380224
0.261479 0.757412 0.448981
0.668635 0.916564 0.671717
0.922118 0.927001 0.706905
0.987091 0.941100 0.728725
0.081666 0.885313 0.357183
0.390143 0.957427 0.542565
0.822995 0.984009 0.706249
0.943877 0.987823 0.759426
0.987030 0.988373 0.770901
0.076875 0.070893 0.505241
0.239811 0.085969 0.571832
0.426200 0.075471 0.441932
0.654963 0.079622 0.386389
0.829770 0.087922 0.379034
0.063508 0.227359 0.552209
0.173434 0.221714 0.527672
0.462089 0.272801 0.583246
0.702144 0.262730 0.512352
0.896361 0.264195 0.492836
0.065126 0.444312 0.567987
0.165347 0.413962 0.541985
0.473594 0.595041 0.700954
0.815091 0.614847 0.726802
0.946319 0.609018 0.711849
0.068544 0.654414 0.550072
0.202426 0.687037 0.577996
0.452171 0.820554 0.701228
0.917876 0.945830 0.887419
0.985168 0.944060 0.887938
0.091188 0.903685 0.567895
0.279454 0.932189 0.656519
0.680888 0.977478 0.842008
0.945281 0.991089 0.915740
0.988006 0.991211 0.918395
0.096315 0.092164 0.819608
0.247684 0.097383 0.799863
0.393072 0.087495 0.686549
0.596368 0.084413 0.587976
0.805631 0.087770 0.550927
0.076326 0.253544 0.813291
0.181765 0.221134 0.759152
0.426841 0.260014 0.783871
0.725124 0.294499 0.764492
0.884001 0.275059 0.710811
0.075257 0.418585 0.787106
0.174411 0.401495 0.759701
0.448478 0.554086 0.855436
0.815000 0.612467 0.889097
0.941680 0.618173 0.882475
0.080964 0.645685 0.774380
0.192966 0.659876 0.771847
0.392752 0.755154 0.834257
0.880217 0.926757 0.953399
0.982544 0.934997 0.959747
0.089662 0.876707 0.762112
0.233341 0.897826 0.801511
0.494774 0.952300 0.887633
0.893675 0.988403 0.964904
0.990478 0.994446 0.979217
