LUTs/48.cube
# (C) 2014 VisionColor & Patchflyer [www.vision-color.com]
# Generator: VC Patchmatch v.2.1.1 [64/53]
# All work and no play makes Jack a dull boy.
# LUT generated from: Lomo Color Implosion 21°_FPE
LUT_3D_SIZE 5
0.038239 0.042695 0.043214
0.136324 0.057984 0.046021
0.251469 0.068849 0.050568
0.386481 0.072328 0.056123
0.541985 0.079988 0.062806
0.036347 0.090059 0.051575
0.314580 0.227329 0.064698
0.592752 0.316564 0.082918
0.743984 0.359167 0.104982
0.833768 0.378363 0.121401
0.036927 0.151553 0.062135
0.434897 0.428275 0.102358
0.720470 0.522774 0.134829
0.880613 0.589075 0.181277
0.943938 0.628504 0.216953
0.048219 0.282780 0.081331
0.530694 0.594171 0.162661
0.788876 0.670558 0.200839
0.916106 0.692226 0.201846
0.957275 0.745388 0.260807
0.090608 0.481483 0.130251
0.592828 0.696986 0.222721
0.812802 0.758328 0.250675
0.929992 0.786770 0.249241
0.959258 0.810575 0.276463
0.038453 0.048585 0.099855
0.156405 0.063142 0.113069
0.286564 0.073823 0.119722
0.389410 0.074098 0.120455
0.493202 0.072419 0.119020
0.035798 0.136660 0.163027
0.325505 0.322942 0.283940
0.543328 0.306157 0.226902
0.677974 0.299199 0.203983
0.778958 0.315129 0.212222
0.039429 0.281865 0.234287
0.311452 0.505318 0.351812
0.747417 0.641291 0.450507
0.893889 0.652750 0.426261
0.937163 0.663554 0.450401
0.047120 0.392248 0.268193
0.504356 0.685084 0.450324
0.796841 0.779293 0.537133
0.937804 0.822141 0.573327
0.967712 0.839445 0.605188
0.056519 0.465950 0.274418
0.627192 0.770871 0.466011
0.837491 0.841031 0.544518
0.943358 0.880430 0.602655
0.972381 0.893492 0.625910
0.040986 0.054414 0.162966
0.213413 0.087251 0.248142
0.371099 0.078187 0.211185
0.474189 0.079377 0.206607
0.549859 0.078065 0.200961
0.039887 0.166049 0.266148
0.174655 0.259434 0.329168
0.492988 0.307652 0.353307
0.617029 0.278111 0.305547
0.718379 0.274296 0.297124
0.043000 0.308965 0.356939
0.130312 0.400061 0.382177
0.670848 0.665278 0.595895
0.818509 0.631235 0.547372
0.901518 0.639902 0.550881
0.048829 0.414954 0.399237
0.218784 0.579980 0.465126
0.696101 0.788937 0.662135
0.908354 0.846036 0.724208
0.962158 0.860777 0.741207
0.053193 0.470039 0.394293
0.364050 0.723873 0.546044
0.821958 0.874968 0.712917
0.930144 0.907988 0.768429
0.970062 0.921904 0.786557
0.048554 0.064912 0.240055
0.207187 0.092805 0.326329
0.358831 0.085176 0.302800
0.493812 0.079042 0.290867
0.567559 0.079927 0.287541
0.044709 0.191440 0.362768
0.136904 0.234653 0.379858
0.475334 0.327123 0.469276
0.636225 0.314122 0.442847
0.733669 0.303960 0.429175
0.049378 0.332708 0.453254
0.106508 0.377539 0.455940
0.498192 0.581430 0.604303
0.776455 0.625895 0.649897
0.867430 0.614939 0.639063
0.052003 0.418372 0.486824
0.128267 0.532921 0.524956
0.455222 0.692561 0.635859
0.884733 0.863096 0.819333
0.953033 0.867918 0.828550
0.058625 0.492103 0.511437
0.180911 0.660426 0.583429
0.667399 0.849088 0.766339
0.913512 0.922240 0.859892
0.965057 0.934997 0.879393
0.057038 0.081788 0.337377
0.213962 0.098817 0.398871
0.337041 0.088960 0.388861
0.476143 0.082582 0.381506
0.570214 0.077363 0.375067
0.048127 0.212192 0.448371
0.128237 0.226535 0.448096
0.426108 0.301701 0.530388
0.662715 0.351293 0.572808
0.739040 0.317998 0.540825
0.052186 0.321141 0.512657
0.098817 0.367254 0.527092
0.440452 0.543862 0.653269
0.763302 0.623819 0.729152
0.863584 0.632181 0.738735
0.056733 0.427558 0.569848
0.102022 0.514427 0.599268
0.355154 0.648920 0.679774
0.836301 0.841825 0.855833
0.939635 0.863737 0.878935
0.061769 0.491859 0.593866
0.121736 0.618341 0.643397
0.455863 0.783139 0.751644
0.852995 0.909972 0.892607
0.963989 0.945830 0.934264
