LUTs/48.cube
# (C) 2014 VisionColor & Patchflyer [www.vision-color.com]
# Generator: VC Patchmatch v.2.1.1 [64/53]
# All work and no play makes Jack a dull boy.
# LUT generated from: Lomo Color Implosion 21°_FPE
LUT_3D_SIZE 9
0.038239 0.042695 0.043214
0.075349 0.047517 0.042115
0.136324 0.057984 0.046021
0.195712 0.065248 0.048157
0.251469 0.068849 0.050568
0.311376 0.070466 0.052766
0.386481 0.072328 0.056123
0.468513 0.076295 0.059998
0.541985 0.079988 0.062806
0.037385 0.062684 0.045808
0.108034 0.091157 0.049928
0.233280 0.125704 0.055543
0.357488 0.152346 0.059602
0.460624 0.170230 0.063966
0.546075 0.187045 0.069215
0.611139 0.196262 0.073030
0.661006 0.199954 0.075441
0.707424 0.204562 0.077852
0.036347 0.090059 0.051575
0.140871 0.161135 0.061372
0.314580 0.227329 0.064698
0.480674 0.283482 0.073365
0.592752 0.316564 0.082918
0.679652 0.340795 0.092653
0.743984 0.359167 0.104982
0.790799 0.368444 0.113344
0.833768 0.378363 0.121401
0.035431 0.117678 0.056550
0.166018 0.232059 0.071473
0.376303 0.328740 0.080781
0.539681 0.386511 0.089387
0.676585 0.441871 0.113954
0.768338 0.473732 0.133669
0.830472 0.494209 0.150454
0.875181 0.509026 0.163729
0.913176 0.527886 0.177981
0.036927 0.151553 0.062135
0.191501 0.312551 0.083619
0.434897 0.428275 0.102358
0.596628 0.484092 0.120455
0.720470 0.522774 0.134829
0.823850 0.566644 0.163058
0.880613 0.589075 0.181277
0.916167 0.604913 0.196201
0.943938 0.628504 0.216953
0.040528 0.200504 0.068147
0.230747 0.398657 0.097108
0.490425 0.520897 0.128634
0.643488 0.570336 0.151980
0.763546 0.605798 0.169039
0.847562 0.623529 0.174380
0.907286 0.651942 0.195621
0.932921 0.670161 0.213474
0.954009 0.697810 0.244968
0.048219 0.282780 0.081331
0.272343 0.480903 0.116854
0.530694 0.594171 0.162661
0.682185 0.644984 0.190677
0.788876 0.670558 0.200839
0.874296 0.689632 0.205478
0.916106 0.692226 0.201846
0.940154 0.712459 0.222538
0.957275 0.745388 0.260807
0.065339 0.388830 0.102968
0.328161 0.558312 0.148501
0.561028 0.649165 0.193912
0.702571 0.696376 0.222202
0.804166 0.721187 0.231418
0.881621 0.736324 0.230076
0.926940 0.748318 0.230137
0.943725 0.749874 0.228824
0.958709 0.779965 0.267887
0.090608 0.481483 0.130251
0.394659 0.629358 0.187076
0.592828 0.696986 0.222721
0.717830 0.735500 0.244358
0.812802 0.758328 0.250675
0.886473 0.774838 0.250095
0.929992 0.786770 0.249241
0.948730 0.797635 0.255772
0.959258 0.810575 0.276463
0.036896 0.044282 0.065888
0.077211 0.049928 0.067903
0.139162 0.059388 0.073487
0.195285 0.066499 0.078157
0.245762 0.070130 0.080232
0.298863 0.071901 0.081880
0.357244 0.072419 0.082979
0.420020 0.072267 0.083528
0.486549 0.072297 0.084627
0.033295 0.070314 0.079408
0.121401 0.113405 0.103914
0.238132 0.132204 0.103304
0.341558 0.145083 0.103761
0.429084 0.155764 0.106508
0.502647 0.161135 0.107729
0.570611 0.167239 0.110262
0.631098 0.174228 0.113100
0.683314 0.185794 0.118196
0.034119 0.110262 0.095125
0.121248 0.198734 0.137118
0.403235 0.315648 0.172763
0.533532 0.331518 0.160769
0.617365 0.334997 0.153017
0.682338 0.338811 0.153567
0.738918 0.346075 0.157626
0.784390 0.350683 0.160647
0.817044 0.353735 0.165713
0.034791 0.159213 0.112490
0.122621 0.269291 0.155642
0.440833 0.438148 0.228489
0.627512 0.489815 0.238560
0.733806 0.507897 0.238865
0.804105 0.515312 0.237766
0.857298 0.526970 0.245823
0.892607 0.534081 0.251987
0.913085 0.532799 0.259037
0.037446 0.216495 0.129610
0.164187 0.368338 0.190707
0.479973 0.536171 0.276188
0.662531 0.588220 0.305425
0.798962 0.625681 0.315221
0.877714 0.645808 0.323003
0.920043 0.660090 0.334203
0.941955 0.670344 0.348363
0.950469 0.674739 0.369940
0.041413 0.284215 0.151278
0.224521 0.463722 0.221988
0.523980 0.611078 0.311528
0.685420 0.659663 0.346563
0.815763 0.698146 0.369116
0.907286 0.730861 0.387182
0.943877 0.747341 0.400641
0.958526 0.756954 0.415808
0.963439 0.763882 0.442145
0.047578 0.356970 0.170687
0.292058 0.545464 0.246464
0.561151 0.661555 0.325994
0.710994 0.712947 0.367834
0.829984 0.750118 0.397436
0.909606 0.781460 0.421088
0.945922 0.793210 0.427466
0.962676 0.807157 0.450538
0.967102 0.814939 0.477729
0.058991 0.428138 0.193271
0.355535 0.614954 0.275181
0.593072 0.702235 0.335515
0.729305 0.749325 0.371588
0.838834 0.785916 0.404211
0.911650 0.814267 0.432807
0.946624 0.830381 0.447517
0.962737 0.835416 0.455726
0.968688 0.846128 0.490913
0.069917 0.483986 0.212985
0.396826 0.663508 0.304784
0.610803 0.737118 0.354284
0.734585 0.773465 0.375372
0.837430 0.805783 0.401923
0.909606 0.832822 0.430640
0.945312 0.850004 0.449195
0.963287 0.861723 0.466926
0.969543 0.870542 0.495735
0.038453 0.048585 0.099855
0.098390 0.059815 0.120974
0.156405 0.063142 0.113069
0.227298 0.071046 0.117372
0.286564 0.073823 0.119722
0.338323 0.073945 0.120241
0.389410 0.074098 0.120455
0.439429 0.073365 0.119661
0.493202 0.072419 0.119020
0.036011 0.078462 0.121370
0.097353 0.116274 0.157900
0.213962 0.125521 0.149935
0.289403 0.129122 0.143008
0.357916 0.134859 0.141146
0.428962 0.138247 0.141085
0.496529 0.137789 0.139651
0.560388 0.139528 0.140627
0.623407 0.152316 0.147982
0.035798 0.136660 0.163027
0.067628 0.187503 0.194766
0.325505 0.322942 0.283940
0.447425 0.309331 0.248905
0.543328 0.306157 0.226902
0.617304 0.300450 0.211002
0.677974 0.299199 0.203983
0.731014 0.303258 0.203464
0.778958 0.315129 0.212222
0.035828 0.203983 0.197269
0.064118 0.265629 0.221256
0.286931 0.416236 0.315190
0.574334 0.512078 0.377111
0.670207 0.492683 0.333532
0.747219 0.481437 0.304128
0.805783 0.480751 0.292134
0.851713 0.485023 0.292409
0.876707 0.490532 0.308736
0.039429 0.281865 0.234287
0.083986 0.353948 0.253666
0.311452 0.505318 0.351812
0.607584 0.619440 0.442847
0.747417 0.641291 0.450507
0.836271 0.645869 0.430991
0.893889 0.652750 0.426261
0.924620 0.661204 0.435599
0.937163 0.663554 0.450401
0.044007 0.348974 0.260410
0.116457 0.441901 0.285924
0.396338 0.602228 0.405921
0.642359 0.695491 0.485115
0.776883 0.725338 0.509911
0.873686 0.750118 0.523919
0.930449 0.766171 0.531365
0.955077 0.777310 0.543664
0.961120 0.781399 0.560265
0.047120 0.392248 0.268193
0.166140 0.523919 0.318578
0.504356 0.685084 0.450324
0.681910 0.750698 0.511620
0.796841 0.779293 0.537133
0.878080 0.800839 0.556817
0.937804 0.822141 0.573327
0.963012 0.834257 0.587884
0.967712 0.839445 0.605188
0.051209 0.427588 0.268101
0.229587 0.597131 0.346593
0.584772 0.739559 0.466346
0.722713 0.787839 0.515740
0.816556 0.816007 0.546685
0.886656 0.837186 0.573388
0.938109 0.855894 0.592584
0.963928 0.864836 0.600549
0.970428 0.870024 0.618463
0.056519 0.465950 0.274418
0.293492 0.646998 0.363806
0.627192 0.770871 0.466011
0.752285 0.811612 0.504784
0.837491 0.841031 0.544518
0.899290 0.863493 0.579675
0.943358 0.880430 0.602655
0.966949 0.890715 0.614801
0.972381 0.893492 0.625910
0.039307 0.051118 0.131350
0.108888 0.067659 0.172335
0.204593 0.077333 0.188418
0.266758 0.075135 0.164950
0.341283 0.077211 0.165347
0.397101 0.077119 0.165316
0.442786 0.076661 0.163607
0.484627 0.075593 0.161105
0.524926 0.074922 0.158022
0.037537 0.086641 0.160708
0.085389 0.114961 0.190738
0.229984 0.148959 0.233188
0.332341 0.146273 0.206607
0.395636 0.147829 0.198123
0.450752 0.146242 0.191043
0.503746 0.141268 0.183810
0.555016 0.137789 0.178866
0.609644 0.145296 0.182895
0.037812 0.152438 0.217288
0.063844 0.208835 0.259983
0.231540 0.289128 0.315984
0.405035 0.301122 0.313329
0.489128 0.288853 0.282231
0.558190 0.275608 0.257115
0.619257 0.269535 0.243534
0.674708 0.268437 0.237675
0.731167 0.278141 0.245335
0.038819 0.231113 0.272709
0.056123 0.274662 0.289647
0.161746 0.339605 0.317479
0.515862 0.518578 0.455604
0.607492 0.483131 0.411383
0.693263 0.470298 0.378988
0.757626 0.461051 0.357961
0.812314 0.464744 0.355367
0.851865 0.475670 0.368826
0.040345 0.293950 0.299718
0.065431 0.353246 0.319036
0.176181 0.431434 0.352270
0.479454 0.588708 0.479408
0.714290 0.662623 0.545068
0.792111 0.644938 0.508614
0.851408 0.637034 0.487144
0.895048 0.639017 0.484154
0.919188 0.650065 0.501808
0.044129 0.360906 0.329717
0.076936 0.424964 0.341588
0.234531 0.529137 0.396918
0.499977 0.656703 0.510094
0.741543 0.744381 0.593622
0.838834 0.757748 0.603998
0.902495 0.765957 0.600793
0.938598 0.773556 0.604791
0.952789 0.782437 0.620752
0.047486 0.404211 0.339452
0.094301 0.485939 0.360174
0.339727 0.629541 0.460090
0.597864 0.741360 0.568109
0.768643 0.801205 0.624964
0.858152 0.819608 0.644556
0.916564 0.830167 0.652094
0.954345 0.843473 0.664668
0.965606 0.851102 0.679408
0.049714 0.432746 0.334112
0.115053 0.541955 0.375555
0.452277 0.712978 0.514275
0.699611 0.806638 0.605127
0.803983 0.839689 0.642176
0.874510 0.857481 0.665431
0.925109 0.869474 0.678981
0.957336 0.878813 0.687739
0.970031 0.884825 0.701259
0.052277 0.457832 0.327276
0.158145 0.594110 0.392370
0.532128 0.765652 0.537804
0.742367 0.832883 0.602991
0.827817 0.861021 0.640955
0.887327 0.880308 0.672663
0.932799 0.894011 0.693629
0.960784 0.903929 0.706172
0.972259 0.909697 0.715877
0.040986 0.054414 0.162966
0.113069 0.074525 0.214939
0.213413 0.087251 0.248142
0.302220 0.083742 0.228336
0.371099 0.078187 0.211185
0.430426 0.078920 0.209201
0.474189 0.079377 0.206607
0.513481 0.078553 0.203983
0.549859 0.078065 0.200961
0.039979 0.095705 0.202121
0.084779 0.121981 0.227329
0.213382 0.158633 0.283726
0.335363 0.166445 0.279454
0.419776 0.159854 0.256291
0.469215 0.154177 0.242252
0.516472 0.147311 0.230777
0.562615 0.142184 0.223087
0.616541 0.149447 0.228763
0.039887 0.166049 0.266148
0.065919 0.216495 0.304417
0.174655 0.259434 0.329168
0.394568 0.320653 0.381598
0.492988 0.307652 0.353307
0.560571 0.289952 0.323598
0.617029 0.278111 0.305547
0.667628 0.271275 0.295445
0.718379 0.274296 0.297124
0.042115 0.257542 0.334569
0.061158 0.301060 0.353246
0.135592 0.323033 0.353704
0.407111 0.468574 0.464668
0.574960 0.483833 0.470344
0.648798 0.453819 0.428702
0.708125 0.433585 0.398611
0.762051 0.426230 0.387594
0.810269 0.431540 0.392844
0.043000 0.308965 0.356939
0.060365 0.345739 0.363531
0.130312 0.400061 0.382177
0.324834 0.506310 0.450385
0.670848 0.665278 0.595895
0.749599 0.638163 0.565591
0.818509 0.631235 0.547372
0.868254 0.632059 0.542336
0.901518 0.639902 0.550881
0.045411 0.366369 0.381231
0.069673 0.427222 0.397864
0.163546 0.494484 0.423377
0.347692 0.587823 0.487648
0.655802 0.725734 0.624079
0.821408 0.773678 0.673609
0.882231 0.768277 0.660121
0.922087 0.772213 0.659083
0.944244 0.782376 0.672694
0.048829 0.414954 0.399237
0.080262 0.484596 0.417121
0.218784 0.579980 0.465126
0.436744 0.681300 0.546014
0.696101 0.788937 0.662135
0.842527 0.835264 0.712459
0.908354 0.846036 0.724208
0.944762 0.853239 0.729610
0.962158 0.860777 0.741207
0.051118 0.446510 0.400793
0.088624 0.528618 0.427100
0.295171 0.663020 0.512291
0.594079 0.784054 0.630823
0.780056 0.848814 0.704921
0.865599 0.872709 0.735348
0.921416 0.884916 0.751675
0.950500 0.891936 0.758328
0.967559 0.897276 0.767575
0.053193 0.470039 0.394293
0.098726 0.562585 0.428290
0.364050 0.723873 0.546044
0.689143 0.835508 0.666377
0.821958 0.874968 0.712917
0.884611 0.894469 0.745632
0.930144 0.907988 0.768429
0.955932 0.916136 0.779232
0.970062 0.921904 0.786557
0.043793 0.058442 0.198184
0.122042 0.081117 0.258366
0.208286 0.090791 0.289708
0.293309 0.088197 0.277684
0.381079 0.082918 0.260685
0.444343 0.078462 0.251957
0.488746 0.079835 0.249180
0.526329 0.079774 0.246433
0.561425 0.079622 0.243778
0.042054 0.106447 0.246860
0.086305 0.128511 0.265049
0.207767 0.165316 0.325353
0.319799 0.174777 0.332982
0.416510 0.174289 0.319951
0.480140 0.162600 0.298283
0.524742 0.153658 0.282933
0.569879 0.147677 0.273564
0.625025 0.155398 0.279667
0.042512 0.179782 0.315801
0.067597 0.214572 0.336706
0.151949 0.244602 0.351965
0.349325 0.311406 0.414710
0.499565 0.332647 0.427527
0.572595 0.313512 0.397711
0.627008 0.296208 0.375067
0.676814 0.287144 0.363378
0.725460 0.288548 0.363622
0.044495 0.267643 0.379309
0.062287 0.298405 0.388403
0.122835 0.311833 0.385046
0.313924 0.420096 0.463600
0.555917 0.491249 0.525109
0.649042 0.475441 0.503075
0.706600 0.450813 0.472511
0.755184 0.436377 0.456062
0.800748 0.436011 0.456641
0.046998 0.332067 0.416724
0.063722 0.362280 0.419532
0.114046 0.389685 0.423255
0.245411 0.459373 0.464057
0.575143 0.620798 0.602121
0.719203 0.634806 0.613764
0.780545 0.610574 0.586206
0.830381 0.600107 0.571160
0.870420 0.602426 0.572808
0.047700 0.370214 0.425849
0.064454 0.413703 0.433875
0.129458 0.470069 0.453559
0.258991 0.548150 0.500389
0.515892 0.660792 0.593713
0.795956 0.777584 0.717556
0.860075 0.769711 0.708736
0.905394 0.770169 0.708522
0.934142 0.778744 0.717830
0.050752 0.420630 0.447517
0.074342 0.485939 0.467872
0.161440 0.558099 0.497780
0.315755 0.634638 0.546075
0.557198 0.734707 0.638636
0.805570 0.834195 0.750027
0.900175 0.858183 0.780179
0.937469 0.862516 0.784970
0.957610 0.865324 0.789883
0.053620 0.457374 0.458259
0.082033 0.530297 0.481666
0.203067 0.629938 0.531914
0.426383 0.729732 0.610590
0.678111 0.822263 0.713283
0.843168 0.878294 0.782834
0.913481 0.895567 0.805722
0.946868 0.902800 0.816007
0.965301 0.907958 0.824735
0.055756 0.483253 0.458351
0.089357 0.563836 0.486061
0.239124 0.682307 0.553521
0.552636 0.804776 0.674830
0.779370 0.875425 0.759945
0.877256 0.904173 0.801053
0.922179 0.916716 0.821744
0.952178 0.924407 0.833494
0.967895 0.929839 0.840635
0.048554 0.064912 0.240055
0.135195 0.088319 0.304540
0.207187 0.092805 0.326329
0.272160 0.088441 0.316320
0.358831 0.085176 0.302800
0.439765 0.082307 0.296880
0.493812 0.079042 0.290867
0.532860 0.079316 0.289311
0.567559 0.079927 0.287541
0.043488 0.115389 0.290257
0.086122 0.134585 0.304936
0.198978 0.165896 0.360540
0.306859 0.175021 0.373114
0.417090 0.181827 0.373785
0.492531 0.177188 0.362432
0.532860 0.158907 0.338750
0.575647 0.150973 0.327337
0.628931 0.157473 0.331365
0.044709 0.191440 0.362768
0.066987 0.210422 0.367620
0.136904 0.234653 0.379858
0.304372 0.293004 0.438422
0.475334 0.327123 0.469276
0.584283 0.335576 0.469886
0.636225 0.314122 0.442847
0.684627 0.302281 0.428809
0.733669 0.303960 0.429175
0.046662 0.268956 0.416175
0.061738 0.292943 0.422980
0.115908 0.302220 0.416632
0.261494 0.390616 0.479744
0.508614 0.467948 0.547662
0.649989 0.488777 0.565087
0.711269 0.472908 0.545434
0.760678 0.458198 0.529870
0.804532 0.455970 0.528862
0.049378 0.332708 0.453254
0.062898 0.356207 0.454200
0.106508 0.377539 0.455940
0.205310 0.429099 0.484352
0.498192 0.581430 0.604303
0.700648 0.633936 0.656641
0.776455 0.625895 0.649897
0.827604 0.615457 0.639551
0.867430 0.614939 0.639063
0.050629 0.383795 0.477882
0.065492 0.420569 0.483589
0.112459 0.458778 0.494789
0.206546 0.514885 0.523095
0.418479 0.609277 0.593500
0.731472 0.749660 0.729732
0.837919 0.764645 0.746822
0.885405 0.758206 0.741848
0.918669 0.760403 0.744076
0.052003 0.418372 0.486824
0.068086 0.471504 0.501976
0.128267 0.532921 0.524956
0.241840 0.602197 0.563867
0.455222 0.692561 0.635859
0.714733 0.799283 0.745144
0.884733 0.863096 0.819333
0.928161 0.865904 0.824338
0.953033 0.867918 0.828550
0.055818 0.462440 0.504875
0.077668 0.529229 0.528038
0.160464 0.612085 0.565362
0.313313 0.689174 0.613550
0.544137 0.777523 0.697810
0.762509 0.854948 0.787350
0.896422 0.899413 0.841825
0.941680 0.909697 0.856901
0.962158 0.913420 0.864286
0.058625 0.492103 0.511437
0.085115 0.566003 0.537865
0.180911 0.660426 0.583429
0.398520 0.757351 0.660334
0.667399 0.849088 0.766339
0.837919 0.901335 0.831540
0.913512 0.922240 0.859892
0.946563 0.930297 0.872190
0.965057 0.934997 0.879393
0.053010 0.073793 0.288334
0.148806 0.095613 0.351812
0.212284 0.096529 0.364630
0.265873 0.090578 0.356237
0.342351 0.086213 0.345434
0.422126 0.083070 0.338598
0.489540 0.081697 0.337011
0.534356 0.078340 0.332250
0.570031 0.078950 0.331945
0.044495 0.122225 0.333562
0.086213 0.139040 0.347417
0.184054 0.160861 0.389013
0.286778 0.169070 0.405035
0.405692 0.179019 0.416419
0.505333 0.186343 0.421118
0.556115 0.174807 0.406317
0.583001 0.153567 0.382116
0.630732 0.156252 0.382910
0.045991 0.200870 0.406531
0.066651 0.207065 0.398260
0.129030 0.229252 0.412512
0.273579 0.277867 0.462165
0.451530 0.316930 0.503075
0.582727 0.340215 0.522179
0.653651 0.337774 0.515251
0.689540 0.312200 0.489235
0.735531 0.310826 0.486397
0.048127 0.267002 0.450263
0.061311 0.288762 0.457954
0.107179 0.296635 0.451118
0.236500 0.372519 0.505943
0.468681 0.444663 0.570062
0.630121 0.477760 0.601007
0.716976 0.485145 0.606165
0.763180 0.471015 0.591302
0.807431 0.470954 0.590906
0.051057 0.325658 0.483192
0.063081 0.353033 0.491005
0.101167 0.370764 0.491585
0.194736 0.418387 0.518425
0.457237 0.556405 0.624781
0.672786 0.616449 0.680171
0.772976 0.628885 0.695796
0.824643 0.623758 0.691463
0.865782 0.627054 0.695735
0.052644 0.379950 0.510796
0.065370 0.418097 0.521447
0.101198 0.448493 0.529229
0.181094 0.493538 0.551141
0.369924 0.584955 0.615747
0.690532 0.728054 0.745815
0.824277 0.762051 0.780697
0.878019 0.762631 0.783810
0.914031 0.767727 0.790005
0.054841 0.427924 0.534966
0.069551 0.476173 0.549981
0.112276 0.522789 0.564874
0.203586 0.579248 0.593439
0.381460 0.659266 0.648859
0.644633 0.766049 0.746914
0.851041 0.849424 0.836057
0.916411 0.861875 0.851652
0.944213 0.862303 0.853330
0.057099 0.459541 0.544396
0.072755 0.516991 0.564569
0.124483 0.582635 0.589014
0.239185 0.655695 0.628931
0.446616 0.740780 0.695125
0.685344 0.829190 0.787411
0.846128 0.888518 0.858366
0.938293 0.916777 0.892058
0.960143 0.919738 0.897032
0.060334 0.494209 0.555200
0.082033 0.563226 0.581781
0.150240 0.643427 0.617182
0.300679 0.722835 0.666621
0.542580 0.813077 0.752407
0.767437 0.885283 0.841428
0.883757 0.917327 0.879637
0.942901 0.934081 0.900999
0.962005 0.939361 0.909239
0.057038 0.081788 0.337377
0.155856 0.100710 0.393591
0.213962 0.098817 0.398871
0.267277 0.093263 0.394080
0.337041 0.088960 0.388861
0.411505 0.084840 0.384070
0.476143 0.082582 0.381506
0.530877 0.080415 0.379248
0.570214 0.077363 0.375067
0.046052 0.128450 0.377783
0.092226 0.144320 0.391943
0.185183 0.160830 0.423499
0.271427 0.165530 0.435859
0.392081 0.177066 0.454322
0.500603 0.189975 0.468482
0.578729 0.194827 0.473060
0.613489 0.178653 0.454810
0.636866 0.159121 0.435706
0.048127 0.212192 0.448371
0.067964 0.204074 0.429694
0.128237 0.226535 0.448096
0.258244 0.264714 0.489174
0.426108 0.301701 0.530388
0.566766 0.330510 0.556756
0.662715 0.351293 0.572808
0.710811 0.341344 0.561822
0.739040 0.317998 0.540825
0.049836 0.270359 0.485878
0.063050 0.287602 0.491127
0.104128 0.292760 0.483589
0.225528 0.361944 0.536400
0.440360 0.426963 0.594720
0.612482 0.465278 0.631281
0.714870 0.487953 0.650813
0.773770 0.491524 0.653468
0.808652 0.480537 0.643671
0.052186 0.321141 0.512657
0.063966 0.352941 0.526665
0.098817 0.367254 0.527092
0.193210 0.419669 0.558556
0.440452 0.543862 0.653269
0.655512 0.603998 0.707393
0.763302 0.623819 0.729152
0.826566 0.633860 0.739406
0.863584 0.632181 0.738735
0.054292 0.375341 0.541527
0.065888 0.415930 0.557061
0.095735 0.440314 0.562585
0.168612 0.482826 0.584405
0.378347 0.591516 0.660456
0.681865 0.722210 0.773281
0.810636 0.755673 0.805814
0.873808 0.767941 0.819394
0.908537 0.768887 0.821988
0.056733 0.427558 0.569848
0.070466 0.476692 0.588647
0.102022 0.514427 0.599268
0.176333 0.564416 0.623499
0.355154 0.648920 0.679774
0.632914 0.761868 0.776883
0.836301 0.841825 0.855833
0.906706 0.860044 0.874144
0.939635 0.863737 0.878935
0.060121 0.468605 0.590967
0.076326 0.524498 0.613367
0.115633 0.577966 0.631128
0.213993 0.642817 0.663020
0.409537 0.728328 0.722042
0.655253 0.819760 0.807279
0.830777 0.879789 0.872709
0.923125 0.910430 0.904601
0.954559 0.918151 0.913756
0.061769 0.491859 0.593866
0.078340 0.553491 0.619226
0.121736 0.618341 0.643397
0.236896 0.692958 0.682948
0.455863 0.783139 0.751644
0.697124 0.865171 0.838224
0.852995 0.909972 0.892607
0.931670 0.934569 0.920745
0.963989 0.945830 0.934264
