LUTs/48.cube
# (C) 2014 VisionColor & Patchflyer [www.vision-color.com]
# Generator: VC Patchmatch v.2.1.1 [64/53]
# All work and no play makes Jack a dull boy.
# LUT generated from: Lomo Color Implosion 21°_FPE
LUT_3D_SIZE 17
0.038239 0.042695 0.043214
0.054414 0.044129 0.041993
0.075349 0.047517 0.042115
0.104494 0.052827 0.044099
0.136324 0.057984 0.046021
0.166720 0.062013 0.047120
0.195712 0.065248 0.048157
0.223423 0.067445 0.049531
0.251469 0.068849 0.050568
0.279881 0.070039 0.051789
0.311376 0.070466 0.052766
0.345800 0.070649 0.054017
0.386481 0.072328 0.056123
0.428534 0.074342 0.058412
0.468513 0.076295 0.059998
0.507439 0.078462 0.061707
0.541985 0.079988 0.062806
0.038178 0.051606 0.044404
0.058259 0.057099 0.044617
0.085756 0.062409 0.044800
0.123568 0.070405 0.046784
0.172030 0.080873 0.049165
0.224643 0.090883 0.051301
0.271885 0.098390 0.053468
0.321599 0.105470 0.055879
0.363806 0.109987 0.057710
0.407813 0.113893 0.059815
0.447639 0.118349 0.061769
0.484627 0.121920 0.063386
0.521202 0.124147 0.065309
0.552789 0.126162 0.066804
0.582361 0.128511 0.067811
0.610468 0.130770 0.068849
0.636561 0.133181 0.069520
0.037385 0.062684 0.045808
0.061189 0.074189 0.048249
0.108034 0.091157 0.049928
0.168338 0.109102 0.052979
0.233280 0.125704 0.055543
0.297337 0.140139 0.057404
0.357488 0.152346 0.059602
0.413535 0.163058 0.061952
0.460624 0.170230 0.063966
0.507530 0.180636 0.067201
0.546075 0.187045 0.069215
0.579980 0.192660 0.071260
0.611139 0.196262 0.073030
0.637476 0.198581 0.074678
0.661006 0.199954 0.075441
0.684718 0.202152 0.076753
0.707424 0.204562 0.077852
0.036744 0.076265 0.048585
0.061128 0.093111 0.051759
0.127993 0.126650 0.056153
0.201328 0.152193 0.057649
0.285496 0.179416 0.060639
0.360479 0.199588 0.063020
0.426200 0.216007 0.065553
0.485008 0.230716 0.068788
0.533425 0.241215 0.071260
0.581811 0.255070 0.075715
0.619715 0.264744 0.079042
0.653651 0.272984 0.082460
0.682979 0.278355 0.085847
0.708339 0.282200 0.088838
0.730526 0.284184 0.090669
0.753414 0.287144 0.093019
0.775509 0.290257 0.094972
0.036347 0.090059 0.051575
0.065980 0.116426 0.055879
0.140871 0.161135 0.061372
0.231601 0.198856 0.063569
0.314580 0.227329 0.064698
0.406577 0.259678 0.068757
0.480674 0.283482 0.073365
0.542611 0.302708 0.078706
0.592752 0.316564 0.082918
0.641566 0.330694 0.088197
0.679652 0.340795 0.092653
0.714015 0.351049 0.098390
0.743984 0.359167 0.104982
0.768734 0.364691 0.110140
0.790799 0.368444 0.113344
0.812528 0.373205 0.117403
0.833768 0.378363 0.121401
0.035798 0.103395 0.053956
0.069734 0.139834 0.059358
0.153658 0.196292 0.065888
0.253483 0.242496 0.069093
0.348058 0.278813 0.071504
0.431022 0.307561 0.074067
0.517525 0.341314 0.082033
0.587198 0.367895 0.092073
0.639658 0.385412 0.099886
0.689662 0.402075 0.108309
0.729091 0.414130 0.114748
0.762875 0.424109 0.120485
0.792264 0.432044 0.127108
0.817716 0.438453 0.132662
0.839261 0.443153 0.137392
0.859739 0.450019 0.143343
0.879118 0.457221 0.148989
0.035431 0.117678 0.056550
0.072267 0.161776 0.062867
0.166018 0.232059 0.071473
0.276555 0.288304 0.076631
0.376303 0.328740 0.080781
0.463645 0.360479 0.085115
0.539681 0.386511 0.089387
0.617044 0.418860 0.102510
0.676585 0.441871 0.113954
0.728420 0.460517 0.124575
0.768338 0.473732 0.133669
0.801755 0.485328 0.141909
0.830472 0.494209 0.150454
0.854520 0.502098 0.157839
0.875181 0.509026 0.163729
0.895384 0.517571 0.170779
0.913176 0.527886 0.177981
0.035859 0.132753 0.059327
0.074739 0.188022 0.066590
0.179690 0.272831 0.078248
0.305943 0.339269 0.085298
0.405753 0.379095 0.090700
0.494926 0.411444 0.098116
0.570871 0.437720 0.104952
0.637644 0.460060 0.111727
0.701579 0.486580 0.125765
0.761501 0.512016 0.140993
0.802274 0.526604 0.151705
0.835325 0.538537 0.160800
0.861204 0.547692 0.169955
0.882933 0.554925 0.177005
0.899168 0.561334 0.182956
0.916472 0.570642 0.191043
0.930816 0.581048 0.198886
0.036927 0.151553 0.062135
0.077882 0.215732 0.070619
0.191501 0.312551 0.083619
0.328786 0.385122 0.093843
0.434897 0.428275 0.102358
0.519631 0.457389 0.110597
0.596628 0.484092 0.120455
0.664469 0.506767 0.128908
0.720470 0.522774 0.134829
0.781979 0.549676 0.151217
0.823850 0.566644 0.163058
0.855558 0.579309 0.172061
0.880613 0.589075 0.181277
0.901091 0.597375 0.189090
0.916167 0.604913 0.196201
0.931762 0.615595 0.205356
0.943938 0.628504 0.216953
0.038392 0.172213 0.064973
0.081666 0.247593 0.074464
0.212406 0.356939 0.090517
0.355322 0.432197 0.103670
0.465583 0.477516 0.114504
0.550469 0.506096 0.124758
0.621057 0.528313 0.134310
0.690455 0.551904 0.146181
0.745968 0.567590 0.152773
0.796384 0.581781 0.158846
0.838865 0.599084 0.170748
0.872618 0.613519 0.180484
0.895018 0.623987 0.190616
0.912840 0.632746 0.199313
0.925444 0.640986 0.207828
0.938842 0.651820 0.219028
0.949706 0.665675 0.232944
0.040528 0.200504 0.068147
0.095277 0.290410 0.080446
0.230747 0.398657 0.097108
0.376562 0.473732 0.113191
0.490425 0.520897 0.128634
0.575982 0.550469 0.142763
0.643488 0.570336 0.151980
0.706966 0.589471 0.161868
0.763546 0.605798 0.169039
0.811948 0.618372 0.174014
0.847562 0.623529 0.174380
0.882383 0.639033 0.184543
0.907286 0.651942 0.195621
0.922179 0.661799 0.204349
0.932921 0.670161 0.213474
0.944335 0.682490 0.227481
0.954009 0.697810 0.244968
0.042847 0.235111 0.072572
0.109071 0.335424 0.086793
0.251743 0.439521 0.105379
0.398810 0.513024 0.125704
0.513146 0.560357 0.144747
0.599115 0.590814 0.160372
0.665522 0.610529 0.170504
0.724849 0.626368 0.178683
0.777188 0.639155 0.183413
0.826413 0.652125 0.188418
0.863920 0.658595 0.189456
0.887907 0.659876 0.187808
0.912352 0.672877 0.199344
0.926787 0.682795 0.208865
0.937011 0.693538 0.219883
0.947753 0.707179 0.235203
0.956237 0.725155 0.256107
0.048219 0.282780 0.081331
0.125399 0.385718 0.097230
0.272343 0.480903 0.116854
0.418494 0.548302 0.139803
0.530694 0.594171 0.162661
0.617365 0.625727 0.180026
0.682185 0.644984 0.190677
0.739223 0.660029 0.197635
0.788876 0.670558 0.200839
0.832334 0.680232 0.202792
0.874296 0.689632 0.205478
0.897490 0.692195 0.204196
0.916106 0.692226 0.201846
0.930144 0.701869 0.210971
0.940154 0.712459 0.222538
0.949371 0.726802 0.238712
0.957275 0.745388 0.260807
0.053864 0.336614 0.090578
0.145327 0.437079 0.110567
0.298497 0.520317 0.131167
0.439338 0.580926 0.155673
0.547234 0.623865 0.179263
0.632410 0.654963 0.197299
0.695216 0.674128 0.209140
0.750942 0.688807 0.215915
0.798550 0.698726 0.218570
0.839841 0.707607 0.218723
0.880034 0.715297 0.219120
0.904356 0.721370 0.219333
0.923522 0.723262 0.217807
0.932921 0.721309 0.214023
0.942687 0.731594 0.225803
0.951537 0.745022 0.241215
0.958038 0.763333 0.264225
0.065339 0.388830 0.102968
0.174197 0.485939 0.127443
0.328161 0.558312 0.148501
0.459419 0.610010 0.171572
0.561028 0.649165 0.193912
0.642115 0.678157 0.211154
0.702571 0.696376 0.222202
0.756558 0.710903 0.228733
0.804166 0.721187 0.231418
0.843809 0.729335 0.230777
0.881621 0.736324 0.230076
0.907530 0.743038 0.229465
0.926940 0.748318 0.230137
0.937133 0.748837 0.228183
0.943725 0.749874 0.228824
0.952239 0.762356 0.244358
0.958709 0.779965 0.267887
0.075990 0.439033 0.116091
0.205295 0.532372 0.144015
0.361578 0.595575 0.166964
0.483131 0.639796 0.188693
0.576013 0.673640 0.208347
0.651820 0.699916 0.224094
0.710964 0.717586 0.234531
0.762264 0.731014 0.239750
0.810391 0.742031 0.242649
0.849485 0.750423 0.242039
0.884703 0.757168 0.241001
0.910918 0.764004 0.240055
0.928954 0.769253 0.240482
0.940124 0.773159 0.240848
0.946746 0.776669 0.243992
0.952728 0.779416 0.248600
0.959014 0.795529 0.271916
0.090608 0.481483 0.130251
0.238651 0.571405 0.161746
0.394659 0.629358 0.187076
0.507958 0.667659 0.206058
0.592828 0.696986 0.222721
0.661646 0.719570 0.235660
0.717830 0.735500 0.244358
0.766812 0.747677 0.248234
0.812802 0.758328 0.250675
0.852201 0.767178 0.250584
0.886473 0.774838 0.250095
0.913603 0.781491 0.248783
0.929992 0.786770 0.249241
0.941649 0.791836 0.250370
0.948730 0.797635 0.255772
0.954711 0.803830 0.264530
0.959258 0.810575 0.276463
0.037751 0.043336 0.053010
0.054292 0.045319 0.053101
0.076234 0.048402 0.053559
0.105165 0.053285 0.055543
0.136141 0.058167 0.058289
0.165499 0.062135 0.060517
0.192721 0.065248 0.061921
0.218570 0.067384 0.062928
0.246189 0.068879 0.063691
0.273106 0.070069 0.064363
0.301671 0.070649 0.065461
0.330571 0.070771 0.066346
0.364233 0.071595 0.067720
0.398383 0.072175 0.068788
0.432868 0.072816 0.070039
0.468147 0.073579 0.071382
0.502525 0.074250 0.072511
0.036561 0.053895 0.057893
0.058961 0.060883 0.060334
0.091188 0.066499 0.059602
0.130343 0.074830 0.062531
0.170871 0.081910 0.065156
0.212680 0.088136 0.067536
0.252476 0.093355 0.069520
0.293400 0.097810 0.071077
0.329168 0.100404 0.072419
0.367224 0.104189 0.074250
0.403693 0.107362 0.076112
0.440986 0.109865 0.077211
0.479438 0.112520 0.078706
0.517906 0.115297 0.079957
0.551049 0.117281 0.080781
0.583062 0.119203 0.081666
0.614282 0.123934 0.084169
0.035035 0.064485 0.059266
0.065675 0.084871 0.067933
0.134920 0.111269 0.072511
0.200504 0.127352 0.077150
0.262425 0.138979 0.079469
0.318975 0.148714 0.081025
0.371527 0.157168 0.082795
0.418372 0.163516 0.084352
0.460945 0.170962 0.085908
0.499001 0.175509 0.087465
0.534020 0.178378 0.089021
0.565362 0.181430 0.090242
0.595209 0.184115 0.091676
0.622553 0.186587 0.092805
0.647242 0.188510 0.092988
0.671321 0.190677 0.093416
0.695308 0.194919 0.095766
0.034821 0.078889 0.062776
0.063752 0.105837 0.073823
0.156435 0.156802 0.087251
0.257572 0.192874 0.092470
0.340337 0.213901 0.095216
0.406699 0.227207 0.095888
0.463462 0.237797 0.096773
0.510994 0.245426 0.096773
0.552468 0.253361 0.098573
0.589075 0.258946 0.100710
0.622461 0.264225 0.103914
0.652461 0.268559 0.106264
0.679622 0.271916 0.108461
0.704189 0.274510 0.110109
0.724910 0.275608 0.110567
0.746151 0.277378 0.111696
0.766781 0.278721 0.113466
0.034638 0.095552 0.067933
0.061891 0.125948 0.078859
0.162112 0.195773 0.099550
0.284092 0.249851 0.108736
0.390585 0.287541 0.111849
0.471000 0.310216 0.114931
0.534035 0.325872 0.117556
0.582956 0.334874 0.117556
0.623758 0.341955 0.118685
0.659602 0.346746 0.120821
0.692378 0.352483 0.125856
0.722164 0.358190 0.130495
0.749355 0.363134 0.134798
0.772946 0.366186 0.138064
0.793362 0.368078 0.139773
0.812070 0.370489 0.141817
0.829465 0.371862 0.144442
0.034302 0.112673 0.072816
0.061677 0.147219 0.084199
0.168856 0.233829 0.109682
0.302373 0.301091 0.123476
0.419242 0.348211 0.132906
0.511604 0.378515 0.134615
0.583291 0.400061 0.140566
0.637766 0.412879 0.144015
0.679820 0.421820 0.147677
0.716304 0.428046 0.151492
0.749874 0.435096 0.157046
0.779812 0.441352 0.161776
0.807004 0.447089 0.166323
0.829923 0.451087 0.170809
0.848386 0.453712 0.173831
0.865538 0.457282 0.177584
0.879149 0.459358 0.182162
0.034333 0.129397 0.077211
0.063081 0.169863 0.089540
0.177676 0.272160 0.118532
0.321996 0.350668 0.136446
0.444083 0.401862 0.150546
0.540627 0.435157 0.156588
0.617929 0.459663 0.161135
0.679637 0.477180 0.168368
0.729076 0.490944 0.175662
0.765713 0.498695 0.181888
0.798367 0.506889 0.189792
0.825467 0.514763 0.197330
0.851713 0.521996 0.204440
0.873808 0.527825 0.210483
0.889036 0.531365 0.212802
0.904601 0.535393 0.216342
0.917601 0.538872 0.221897
0.035340 0.149447 0.082124
0.065217 0.196597 0.094453
0.187015 0.311635 0.125612
0.343648 0.400961 0.149599
0.467094 0.452735 0.168063
0.568002 0.488045 0.179263
0.649058 0.514214 0.187259
0.717083 0.534264 0.193210
0.769848 0.550072 0.201694
0.811124 0.560784 0.209323
0.838834 0.568017 0.217655
0.862547 0.575036 0.225071
0.882994 0.581415 0.232883
0.901854 0.586786 0.239261
0.914366 0.591119 0.243839
0.925536 0.597192 0.250797
0.935332 0.602289 0.261265
0.036500 0.171237 0.086275
0.068513 0.224796 0.099519
0.205142 0.353109 0.133547
0.364858 0.445121 0.161715
0.489128 0.498466 0.182773
0.584451 0.529686 0.196109
0.669261 0.557366 0.207004
0.739025 0.578302 0.214176
0.794995 0.594842 0.220981
0.836484 0.607263 0.231296
0.866331 0.617487 0.241276
0.888060 0.625422 0.248783
0.906737 0.632746 0.257694
0.921935 0.638972 0.265049
0.933959 0.644648 0.271519
0.942992 0.651637 0.281315
0.949432 0.659571 0.298405
0.038148 0.198489 0.091676
0.080262 0.265538 0.109590
0.225223 0.394720 0.144503
0.385077 0.485878 0.177401
0.508446 0.539574 0.200381
0.599939 0.569055 0.215274
0.678248 0.592920 0.226627
0.751400 0.615991 0.236667
0.808347 0.633326 0.244633
0.855650 0.647364 0.250645
0.884642 0.658289 0.262974
0.905486 0.667079 0.270909
0.920073 0.673762 0.279515
0.933196 0.679683 0.286961
0.942870 0.685145 0.294377
0.950622 0.692866 0.305791
0.956085 0.701747 0.324376
0.039643 0.233555 0.099397
0.092103 0.312840 0.121035
0.243687 0.436835 0.156680
0.403296 0.522087 0.191104
0.523735 0.573358 0.216159
0.614160 0.604944 0.234806
0.688655 0.626703 0.246250
0.756191 0.647150 0.256199
0.816312 0.665919 0.265263
0.862730 0.680598 0.272099
0.894499 0.687160 0.273045
0.915953 0.697810 0.282963
0.932067 0.707759 0.294133
0.942107 0.714351 0.302892
0.950378 0.720394 0.312657
0.956573 0.728756 0.326726
0.960296 0.738125 0.347936
0.041688 0.272099 0.108522
0.106600 0.361456 0.132021
0.267247 0.474861 0.168002
0.422644 0.553094 0.201877
0.539391 0.602197 0.228092
0.629114 0.634577 0.248173
0.700374 0.657313 0.263340
0.764675 0.676448 0.273655
0.822324 0.693782 0.282841
0.866361 0.708583 0.290257
0.899199 0.716518 0.292149
0.917754 0.719753 0.291386
0.933532 0.730587 0.305119
0.944976 0.739834 0.317479
0.953185 0.747982 0.329046
0.959228 0.757321 0.344030
0.962280 0.767697 0.366461
0.045747 0.317998 0.119234
0.123812 0.413550 0.145449
0.289738 0.516320 0.182071
0.441138 0.584405 0.214725
0.552636 0.629694 0.241306
0.641077 0.662776 0.263066
0.709773 0.684840 0.278447
0.770016 0.702632 0.289219
0.826230 0.718807 0.297978
0.866575 0.731685 0.304265
0.901946 0.742184 0.307530
0.919005 0.746578 0.308171
0.934051 0.747738 0.305852
0.946075 0.757961 0.320012
0.954681 0.768124 0.336065
0.960601 0.779232 0.354376
0.963470 0.788846 0.376745
0.050172 0.363470 0.130190
0.145693 0.464851 0.161074
0.318456 0.555169 0.197879
0.461433 0.613916 0.227909
0.566613 0.654749 0.253056
0.649592 0.685084 0.273381
0.716213 0.707088 0.288457
0.774777 0.724453 0.299474
0.828763 0.738979 0.307591
0.867796 0.751797 0.314183
0.901915 0.761898 0.317235
0.919127 0.768887 0.320500
0.934997 0.772244 0.320226
0.945190 0.773342 0.319524
0.954192 0.784756 0.338109
0.960571 0.797086 0.359747
0.964324 0.807645 0.384527
0.057618 0.405463 0.142428
0.172915 0.510674 0.178897
0.347143 0.591760 0.216831
0.479805 0.641016 0.244450
0.576379 0.676539 0.265904
0.653895 0.703700 0.283513
0.716121 0.722957 0.295201
0.772824 0.739315 0.303899
0.826719 0.753841 0.311406
0.865385 0.765499 0.316503
0.898466 0.776181 0.320592
0.919463 0.784909 0.324468
0.935576 0.791531 0.328496
0.946899 0.794888 0.330449
0.953552 0.798245 0.337224
0.960235 0.810849 0.361089
0.964385 0.821897 0.388495
0.063996 0.443153 0.154604
0.199344 0.550622 0.195590
0.375006 0.624720 0.235538
0.499977 0.668299 0.261845
0.588159 0.698299 0.279454
0.658412 0.720974 0.292851
0.717922 0.738552 0.302678
0.771023 0.752865 0.308782
0.823514 0.767208 0.315221
0.862730 0.778653 0.319707
0.895872 0.789029 0.323857
0.918700 0.798215 0.327703
0.935454 0.806302 0.332952
0.947814 0.813046 0.339330
0.954437 0.818570 0.348821
0.959960 0.824521 0.362249
0.964508 0.835599 0.391791
0.070985 0.474861 0.166018
0.227787 0.580774 0.212345
0.397101 0.650385 0.253361
0.517815 0.691493 0.277989
0.599908 0.718227 0.292515
0.665034 0.737758 0.302434
0.720546 0.752773 0.309819
0.772305 0.766415 0.315557
0.820768 0.779721 0.322057
0.860868 0.790951 0.325841
0.893309 0.801358 0.331121
0.918669 0.810025 0.333989
0.934874 0.817746 0.339422
0.948333 0.825284 0.346105
0.955169 0.833158 0.358373
0.960418 0.841123 0.375677
0.964599 0.848600 0.394629
0.036896 0.044282 0.065888
0.055726 0.047852 0.069001
0.077211 0.049928 0.067903
0.107454 0.054597 0.070558
0.139162 0.059388 0.073487
0.168917 0.063416 0.076234
0.195285 0.066499 0.078157
0.220096 0.068544 0.079377
0.245762 0.070130 0.080232
0.271305 0.071260 0.081178
0.298863 0.071901 0.081880
0.326024 0.071962 0.082155
0.357244 0.072419 0.082979
0.388006 0.072541 0.083314
0.420020 0.072267 0.083528
0.452888 0.072328 0.084108
0.486549 0.072297 0.084627
0.035431 0.054749 0.071077
0.058289 0.063691 0.078279
0.088258 0.066072 0.074983
0.124239 0.073060 0.077333
0.158480 0.078859 0.079866
0.190616 0.083558 0.081819
0.220981 0.087465 0.083558
0.253452 0.090761 0.084932
0.285710 0.093111 0.086580
0.322515 0.096284 0.088411
0.358801 0.098695 0.089998
0.395697 0.099886 0.090852
0.432441 0.101106 0.091951
0.469734 0.102113 0.092836
0.504692 0.103944 0.094209
0.539361 0.106020 0.095460
0.574304 0.110933 0.097963
0.033295 0.070314 0.079408
0.054658 0.086183 0.090028
0.121401 0.113405 0.103914
0.182650 0.124666 0.103700
0.238132 0.132204 0.103304
0.290745 0.139040 0.103517
0.341558 0.145083 0.103761
0.388708 0.152132 0.105867
0.429084 0.155764 0.106508
0.467414 0.158846 0.107149
0.502647 0.161135 0.107729
0.537743 0.164157 0.108797
0.570611 0.167239 0.110262
0.602960 0.170748 0.112093
0.631098 0.174228 0.113100
0.657313 0.179232 0.115114
0.683314 0.185794 0.118196
0.033570 0.088991 0.086702
0.053254 0.109071 0.096895
0.133272 0.168826 0.130129
0.262211 0.211826 0.140627
0.338964 0.221714 0.136782
0.401282 0.228275 0.132937
0.454261 0.232639 0.128878
0.498024 0.237217 0.127565
0.535363 0.239322 0.126101
0.569909 0.241184 0.125460
0.602228 0.244083 0.126406
0.633021 0.247349 0.127260
0.660670 0.250492 0.128573
0.687312 0.253361 0.129641
0.710414 0.255741 0.130251
0.732418 0.258183 0.131441
0.753811 0.262364 0.134127
0.034119 0.110262 0.095125
0.052003 0.132540 0.103578
0.121248 0.198734 0.137118
0.281529 0.278965 0.168063
0.403235 0.315648 0.172763
0.475685 0.325383 0.166476
0.533532 0.331518 0.160769
0.580255 0.334417 0.156191
0.617365 0.334997 0.153017
0.652094 0.337102 0.152255
0.682338 0.338811 0.153567
0.712459 0.342779 0.155276
0.738918 0.346075 0.157626
0.764035 0.349279 0.159762
0.784390 0.350683 0.160647
0.801114 0.351385 0.162234
0.817044 0.353735 0.165713
0.034211 0.134005 0.103914
0.051301 0.159152 0.111299
0.118227 0.230472 0.145022
0.290806 0.333257 0.187472
0.423102 0.380865 0.202579
0.522911 0.408423 0.204410
0.588159 0.418280 0.200198
0.640574 0.425422 0.198154
0.681743 0.427558 0.193210
0.717891 0.429236 0.190433
0.749691 0.431403 0.189609
0.779568 0.434730 0.190280
0.805295 0.439551 0.195071
0.828672 0.442817 0.198611
0.845609 0.444556 0.201328
0.859281 0.444800 0.204471
0.869200 0.444373 0.209476
0.034791 0.159213 0.112490
0.052216 0.187778 0.119661
0.122621 0.269291 0.155642
0.302953 0.384192 0.204227
0.440833 0.438148 0.228489
0.544442 0.469032 0.237552
0.627512 0.489815 0.238560
0.685130 0.500267 0.239414
0.733806 0.507897 0.238865
0.772183 0.511711 0.236789
0.804105 0.515312 0.237766
0.832517 0.521416 0.240696
0.857298 0.526970 0.245823
0.879118 0.531853 0.249973
0.892607 0.534081 0.251987
0.904601 0.534112 0.254490
0.913085 0.532799 0.259037
0.036164 0.188937 0.122347
0.054963 0.219150 0.128389
0.137118 0.316579 0.172030
0.317998 0.431266 0.222324
0.458442 0.490791 0.254246
0.564248 0.522606 0.269505
0.648371 0.544274 0.274693
0.720531 0.561913 0.275822
0.772961 0.572045 0.276616
0.817502 0.580987 0.278264
0.847410 0.585016 0.279271
0.873228 0.591302 0.283177
0.890929 0.596490 0.289830
0.909880 0.602258 0.296513
0.920439 0.605829 0.301366
0.927764 0.607904 0.308446
0.933776 0.607294 0.315740
0.037446 0.216495 0.129610
0.056519 0.250858 0.137850
0.164187 0.368338 0.190707
0.342428 0.476616 0.241093
0.479973 0.536171 0.276188
0.579599 0.566339 0.295598
0.662531 0.588220 0.305425
0.735393 0.606989 0.309148
0.798962 0.625681 0.315221
0.845151 0.637232 0.319280
0.877714 0.645808 0.323003
0.902892 0.653895 0.327398
0.920043 0.660090 0.334203
0.932738 0.666010 0.341192
0.941955 0.670344 0.348363
0.947509 0.673182 0.358038
0.950469 0.674739 0.369940
0.039612 0.249821 0.141329
0.063935 0.288762 0.149081
0.196811 0.417945 0.207950
0.370123 0.518578 0.258793
0.503075 0.577142 0.296757
0.598383 0.606958 0.317632
0.673091 0.625605 0.328588
0.746731 0.646326 0.337591
0.809628 0.665095 0.345556
0.864530 0.683864 0.354376
0.896391 0.693019 0.358892
0.919249 0.701930 0.364782
0.933654 0.707485 0.370672
0.944274 0.712795 0.377752
0.950988 0.717250 0.385107
0.956237 0.721309 0.396368
0.958892 0.723842 0.409674
0.041413 0.284215 0.151278
0.071260 0.332067 0.161227
0.224521 0.463722 0.221988
0.396155 0.555810 0.272709
0.523980 0.611078 0.311528
0.616236 0.643366 0.335515
0.685420 0.659663 0.346563
0.753109 0.678676 0.357519
0.815763 0.698146 0.369116
0.869047 0.717189 0.379767
0.907286 0.730861 0.387182
0.929900 0.740902 0.394354
0.943877 0.747341 0.400641
0.952758 0.752651 0.407019
0.958526 0.756954 0.415808
0.961669 0.760525 0.427192
0.963439 0.763882 0.442145
0.043305 0.315740 0.159518
0.086976 0.379767 0.175601
0.263615 0.505150 0.233280
0.426673 0.587640 0.283024
0.545769 0.638880 0.321141
0.633417 0.670558 0.345678
0.698878 0.689052 0.360265
0.763241 0.707301 0.372503
0.823056 0.725856 0.385443
0.871031 0.744198 0.398291
0.908568 0.758083 0.406836
0.931456 0.766415 0.411963
0.945769 0.773587 0.419318
0.955352 0.780423 0.427893
0.961120 0.786343 0.438148
0.964172 0.790707 0.450294
0.965454 0.795132 0.466224
0.047578 0.356970 0.170687
0.101717 0.428779 0.189700
0.292058 0.545464 0.246464
0.450111 0.616175 0.292210
0.561151 0.661555 0.325994
0.646571 0.693568 0.351995
0.710994 0.712947 0.367834
0.771878 0.732570 0.384131
0.829984 0.750118 0.397436
0.873564 0.767117 0.411383
0.909606 0.781460 0.421088
0.932036 0.790127 0.426734
0.945922 0.793210 0.427466
0.955993 0.800687 0.437415
0.962676 0.807157 0.450538
0.965759 0.811490 0.463142
0.967102 0.814939 0.477729
0.052125 0.392462 0.180911
0.121309 0.472663 0.203677
0.326482 0.582727 0.260044
0.476448 0.643732 0.300877
0.580102 0.683650 0.330724
0.659541 0.712734 0.353887
0.722957 0.734188 0.372259
0.781460 0.753567 0.389197
0.836942 0.771481 0.405249
0.877348 0.787808 0.420172
0.911406 0.801389 0.431128
0.933043 0.810819 0.437903
0.946105 0.814969 0.440192
0.955169 0.816617 0.440803
0.962768 0.823819 0.456367
0.966766 0.828763 0.471351
0.968292 0.832517 0.486763
0.058991 0.428138 0.193271
0.143191 0.510369 0.217136
0.355535 0.614954 0.275181
0.495521 0.666590 0.311070
0.593072 0.702235 0.335515
0.668299 0.729061 0.355932
0.729305 0.749325 0.371588
0.785397 0.768093 0.387793
0.838834 0.785916 0.404211
0.878721 0.800717 0.420172
0.911650 0.814267 0.432807
0.933989 0.824125 0.441688
0.946624 0.830381 0.447517
0.955566 0.833524 0.450660
0.962737 0.835416 0.455726
0.966949 0.841306 0.472938
0.968688 0.846128 0.490913
0.064576 0.458778 0.204074
0.163668 0.543816 0.229679
0.379004 0.641535 0.290501
0.513115 0.689632 0.324346
0.603387 0.720333 0.344366
0.673823 0.743343 0.359716
0.733059 0.762417 0.373266
0.787259 0.779416 0.386572
0.838193 0.796811 0.402838
0.878996 0.811643 0.418006
0.910674 0.824338 0.431891
0.933410 0.834440 0.441596
0.946654 0.841398 0.449042
0.955596 0.846372 0.455024
0.962890 0.850126 0.462745
0.967224 0.853544 0.474006
0.969177 0.858824 0.493599
0.069917 0.483986 0.212985
0.188510 0.571008 0.242466
0.396826 0.663508 0.304784
0.524956 0.709072 0.337011
0.610803 0.737118 0.354284
0.678401 0.757534 0.366491
0.734585 0.773465 0.375372
0.788418 0.789883 0.387732
0.837430 0.805783 0.401923
0.878935 0.820615 0.416297
0.909606 0.832822 0.430640
0.932738 0.843259 0.441169
0.945312 0.850004 0.449195
0.955871 0.855833 0.456184
0.963287 0.861723 0.466926
0.966918 0.866484 0.480598
0.969543 0.870542 0.495735
0.037659 0.046540 0.082856
0.056458 0.050874 0.088899
0.088472 0.054627 0.092714
0.112154 0.056245 0.088777
0.146609 0.061372 0.091798
0.178531 0.065553 0.094484
0.206912 0.068727 0.096498
0.234165 0.070527 0.097932
0.259068 0.071839 0.098878
0.285527 0.072602 0.099855
0.311833 0.073060 0.100587
0.337713 0.073030 0.100801
0.366674 0.073426 0.101045
