LUTs/49.cube
# (C) 2014 VisionColor & Patchflyer [www.vision-color.com]
# Generator: VC Patchmatch v.2.1.1 [64/53]
# All work and no play makes Jack a dull boy.
# LUT generated from: Lomo Color Implosion 21°_VisionSpace
LUT_3D_SIZE 9
0.053010 0.045045 0.045045
0.119478 0.050172 0.050019
0.175601 0.064302 0.063081
0.221866 0.077302 0.075074
0.266056 0.088685 0.086091
0.315099 0.101259 0.097810
0.380652 0.118410 0.113313
0.459113 0.139925 0.132540
0.534234 0.163088 0.152682
0.058534 0.103853 0.051514
0.139132 0.123568 0.071412
0.234501 0.157687 0.098024
0.322393 0.189029 0.122621
0.403052 0.216190 0.145205
0.478126 0.241978 0.167514
0.537469 0.261906 0.186099
0.582361 0.277256 0.201205
0.621942 0.293645 0.216526
0.071107 0.152560 0.064576
0.175937 0.206149 0.102480
0.283970 0.254032 0.134127
0.394934 0.304692 0.171847
0.482185 0.339086 0.202182
0.551720 0.367071 0.228183
0.602686 0.391577 0.251530
0.639399 0.408911 0.269535
0.673121 0.427588 0.287938
0.086336 0.192874 0.079744
0.211582 0.280888 0.133028
0.329412 0.344244 0.174075
0.431159 0.391089 0.208133
0.534752 0.447517 0.255253
0.602594 0.483772 0.289036
0.649622 0.509178 0.313298
0.686641 0.530053 0.332280
0.722469 0.555291 0.352605
0.106020 0.238407 0.098817
0.251133 0.364172 0.168338
0.381659 0.444236 0.222324
0.473091 0.481666 0.254032
0.559960 0.521187 0.288273
0.636561 0.570214 0.332586
0.683986 0.596826 0.357153
0.720333 0.616663 0.372747
0.758175 0.642603 0.389929
0.132021 0.302007 0.124117
0.299077 0.460212 0.211307
0.436469 0.548363 0.274235
0.523430 0.577630 0.305913
0.591974 0.598840 0.330632
0.648829 0.619287 0.352453
0.702449 0.650477 0.380529
0.739559 0.671016 0.395331
0.777523 0.697353 0.411994
0.175448 0.408362 0.166293
0.349218 0.560510 0.256474
0.482277 0.633326 0.315923
0.568261 0.658961 0.349310
0.625666 0.668513 0.367559
0.671412 0.675502 0.380591
0.706172 0.682399 0.390997
0.746395 0.703914 0.406836
0.786587 0.732631 0.425086
0.244724 0.554223 0.230045
0.400031 0.649073 0.300175
0.515038 0.694331 0.342840
0.595453 0.713771 0.370916
0.648859 0.720272 0.386084
0.691066 0.723110 0.398016
0.725124 0.727504 0.408270
0.751125 0.732723 0.416480
0.790921 0.758480 0.433814
0.308537 0.674586 0.286198
0.446662 0.724819 0.336828
0.545220 0.745388 0.365179
0.615839 0.755611 0.386450
0.665125 0.759304 0.400031
0.706691 0.762020 0.411444
0.740780 0.765377 0.421241
0.768673 0.771054 0.430579
0.796262 0.782803 0.442359
0.058808 0.051850 0.106294
0.112825 0.054353 0.096925
0.171298 0.066987 0.106386
0.216922 0.077455 0.115633
0.256535 0.086946 0.123781
0.298650 0.096925 0.132753
0.348821 0.108675 0.143099
0.409552 0.122683 0.155184
0.478218 0.138735 0.169314
0.062715 0.108583 0.108400
0.167056 0.146914 0.135653
0.283421 0.155581 0.137118
0.365515 0.171633 0.150240
0.428962 0.191897 0.169589
0.488350 0.211429 0.188327
0.544030 0.231876 0.207187
0.593347 0.251408 0.224125
0.635920 0.271366 0.239658
0.082582 0.173556 0.126314
0.172549 0.256596 0.158968
0.371862 0.328496 0.203006
0.471870 0.342107 0.225559
0.537469 0.351080 0.244053
0.587640 0.363043 0.259495
0.631678 0.379004 0.275303
0.665888 0.393011 0.289281
0.694575 0.402594 0.300023
0.107668 0.240909 0.153017
0.183627 0.342779 0.172488
0.394568 0.451789 0.249668
0.533471 0.485786 0.286351
0.611872 0.505852 0.314519
0.660822 0.518181 0.330388
0.702541 0.535729 0.346532
0.734859 0.549462 0.359014
0.756130 0.553094 0.367803
0.135378 0.313634 0.181949
0.228733 0.447929 0.208011
0.430579 0.564721 0.297642
0.559106 0.585962 0.336065
0.651759 0.612543 0.366644
0.709407 0.633722 0.389654
0.746914 0.650446 0.406500
0.773800 0.663478 0.421485
0.790066 0.669062 0.438911
0.170687 0.403967 0.219089
0.286534 0.552331 0.249516
0.471382 0.643915 0.338079
0.584100 0.659876 0.376501
0.663966 0.675380 0.403143
0.730831 0.700679 0.431739
0.767971 0.716945 0.450721
0.791653 0.726894 0.465400
0.806760 0.732998 0.485542
0.214664 0.510887 0.260655
0.343969 0.639521 0.287297
0.505364 0.693538 0.361852
0.607843 0.710811 0.403479
0.680537 0.724422 0.431861
0.736171 0.739284 0.454932
0.771542 0.749874 0.468544
0.798306 0.762264 0.487526
0.813504 0.768307 0.508446
0.258946 0.611597 0.299779
0.390387 0.709621 0.318853
0.534630 0.733059 0.379583
0.625452 0.747250 0.415869
0.691066 0.758846 0.444678
0.742855 0.770840 0.468757
0.775998 0.778225 0.482033
0.798856 0.783444 0.492409
0.816495 0.791562 0.517998
0.295232 0.688319 0.330663
0.427039 0.756863 0.349310
0.557458 0.767727 0.402716
0.635493 0.773800 0.428016
0.694453 0.782284 0.451057
0.744167 0.792447 0.475013
0.778286 0.799619 0.490089
0.802365 0.804715 0.502770
0.819638 0.810910 0.522515
0.066743 0.060365 0.156588
0.137270 0.071748 0.161807
0.182712 0.073274 0.151034
0.239353 0.086305 0.160647
0.285527 0.097505 0.168734
0.327428 0.107149 0.175906
0.372717 0.117525 0.183688
0.421546 0.127962 0.191226
0.477913 0.140536 0.200870
0.075532 0.118044 0.162753
0.154788 0.152285 0.218235
0.263767 0.145022 0.200443
0.328496 0.149081 0.191806
0.381353 0.159945 0.193271
0.439094 0.173678 0.201816
0.497841 0.190127 0.214054
0.553796 0.208347 0.228550
0.611444 0.229953 0.244724
0.098756 0.198886 0.195102
0.140291 0.246983 0.232029
0.327031 0.334691 0.306249
0.432349 0.315465 0.275212
0.528222 0.314061 0.265538
0.596246 0.317235 0.267185
0.645136 0.326238 0.275303
0.683711 0.339849 0.287022
0.720241 0.357733 0.302434
0.128298 0.285832 0.234226
0.168093 0.339208 0.252781
0.314214 0.446693 0.325536
0.505455 0.499489 0.372778
0.593866 0.482948 0.348577
0.652247 0.476204 0.342657
0.695399 0.481819 0.347173
0.729885 0.493416 0.358373
0.753628 0.504204 0.375769
0.166201 0.383154 0.278477
0.207462 0.440772 0.282628
0.342290 0.555978 0.353460
0.542412 0.617609 0.438422
0.635462 0.619806 0.444739
0.697169 0.625360 0.441718
0.738705 0.635493 0.447059
0.768154 0.646937 0.462989
0.784970 0.651759 0.478798
0.204318 0.477241 0.316411
0.251377 0.550011 0.314641
0.417090 0.653651 0.412146
0.579705 0.689479 0.485237
0.660853 0.694118 0.502037
0.721981 0.706477 0.515160
0.765194 0.720333 0.527794
0.791836 0.730587 0.542809
0.805783 0.735012 0.559442
0.234257 0.548974 0.339910
0.295964 0.646174 0.343786
0.501701 0.716945 0.461555
0.615534 0.735653 0.514824
0.679591 0.739956 0.531548
0.728664 0.746731 0.544701
0.773159 0.759731 0.560449
0.800626 0.770047 0.576989
0.814084 0.774441 0.593561
0.261753 0.609705 0.357305
0.342351 0.720088 0.369024
0.556786 0.755062 0.478828
0.642329 0.765896 0.519005
0.695888 0.772091 0.543420
0.738949 0.778744 0.563012
0.776333 0.786801 0.577600
0.802701 0.792966 0.586206
0.817044 0.797177 0.603174
0.291905 0.669490 0.379156
0.389563 0.761746 0.391943
0.584802 0.780240 0.480293
0.660853 0.788785 0.513817
0.710994 0.796475 0.544488
0.750637 0.803800 0.571893
0.784115 0.810575 0.589563
0.808103 0.814908 0.599084
0.820279 0.815824 0.608667
0.075135 0.069368 0.194644
0.153750 0.087922 0.219455
0.224002 0.098482 0.228428
0.267552 0.098085 0.208469
0.326665 0.112490 0.215793
0.374701 0.123629 0.222385
0.418647 0.133303 0.227604
0.461677 0.142458 0.232395
0.504662 0.152041 0.237980
0.087160 0.129793 0.207126
0.149294 0.153170 0.276036
0.272160 0.169345 0.298833
0.348424 0.167697 0.258305
0.396063 0.175113 0.250553
0.439979 0.183413 0.248478
0.485786 0.194308 0.251255
0.532280 0.206332 0.258030
0.586358 0.222812 0.270451
0.111971 0.216281 0.248447
0.159060 0.264469 0.302861
0.273533 0.311101 0.353796
0.395850 0.305089 0.344915
0.486305 0.294408 0.319066
0.566857 0.287694 0.301152
0.628870 0.291356 0.298222
0.676020 0.300603 0.302129
0.721309 0.317510 0.316075
0.140078 0.307836 0.294377
0.182162 0.337621 0.316991
0.238071 0.380346 0.341588
0.483772 0.509850 0.466712
0.553307 0.471656 0.424262
0.629480 0.460472 0.400290
0.682582 0.457191 0.390768
0.721553 0.468360 0.396979
0.749538 0.486854 0.416052
0.171725 0.389410 0.327916
0.218509 0.430152 0.348424
0.268437 0.492775 0.367742
0.473304 0.598688 0.489052
0.627619 0.635248 0.542260
0.676143 0.620356 0.508309
0.718166 0.615228 0.494041
0.751644 0.621698 0.499321
0.773617 0.635157 0.520455
0.211032 0.484260 0.368200
0.255894 0.524804 0.378180
0.323369 0.602747 0.406806
0.509056 0.671534 0.525658
0.657862 0.707088 0.590997
0.708247 0.706477 0.588708
0.751003 0.714137 0.589258
0.781460 0.722286 0.595483
0.799283 0.730770 0.612055
0.241123 0.554803 0.392340
0.286442 0.608789 0.401770
0.415015 0.689418 0.475349
0.592920 0.733059 0.586267
0.682734 0.752773 0.619837
0.728542 0.756008 0.625513
0.762722 0.758755 0.627008
0.795193 0.770169 0.639796
0.811704 0.777005 0.653437
0.264042 0.608515 0.404150
0.310399 0.682734 0.417090
0.508019 0.748287 0.536858
0.655818 0.775204 0.613031
0.707393 0.783139 0.632105
0.744015 0.787564 0.643122
0.773892 0.790829 0.649317
0.798642 0.794980 0.653468
0.816464 0.800839 0.666041
0.286015 0.657252 0.414527
0.346166 0.736233 0.436744
0.563012 0.783658 0.560906
0.676478 0.795682 0.606165
0.721218 0.802579 0.629969
0.755001 0.808927 0.650111
0.783383 0.813657 0.662715
0.805417 0.817472 0.668818
0.820554 0.820035 0.675349
0.085084 0.079957 0.233127
0.163821 0.101381 0.268681
0.236271 0.116487 0.291051
0.292851 0.115908 0.266911
0.348089 0.122255 0.257420
0.401221 0.134463 0.262394
0.444709 0.143862 0.265995
0.484871 0.153017 0.270176
0.522637 0.162264 0.274418
0.099275 0.143557 0.252628
0.153597 0.160861 0.327550
0.261845 0.184146 0.365209
0.343877 0.185611 0.331609
0.405951 0.189181 0.304601
0.447120 0.193942 0.293919
0.489265 0.201694 0.289891
0.530510 0.211124 0.292302
0.581476 0.227573 0.306310
0.124453 0.232578 0.297948
0.171908 0.270909 0.352575
0.238834 0.289647 0.391821
0.389654 0.319280 0.424109
0.482063 0.304967 0.394080
0.558984 0.296208 0.367910
0.613672 0.293645 0.353399
0.659327 0.298161 0.351446
0.703487 0.310643 0.360540
0.157809 0.333471 0.350835
0.201816 0.360143 0.377081
0.227237 0.361151 0.390295
0.411139 0.467079 0.488899
0.527794 0.470283 0.489815
0.595453 0.445640 0.456901
0.654292 0.433219 0.435569
0.700282 0.434302 0.431724
0.732082 0.447272 0.441154
0.179294 0.400244 0.373541
0.219455 0.415961 0.385260
0.249454 0.454383 0.406317
0.365240 0.532494 0.466224
0.619745 0.639979 0.604334
0.654780 0.615122 0.573251
0.700526 0.610712 0.559091
0.735561 0.615595 0.558541
0.760586 0.627512 0.571084
0.214969 0.484352 0.407721
0.265476 0.521202 0.429694
0.296483 0.568658 0.445472
0.404425 0.626062 0.503441
0.625238 0.696895 0.632013
0.709651 0.717403 0.656458
0.741787 0.713619 0.642939
0.770382 0.718868 0.644190
0.791348 0.728664 0.657252
0.250126 0.561791 0.439887
0.298863 0.601007 0.458839
0.353796 0.657618 0.488258
0.487373 0.705013 0.564599
0.663722 0.747677 0.665583
0.733547 0.765957 0.687678
0.764584 0.766934 0.686793
0.791592 0.773587 0.691798
0.809995 0.780606 0.701473
0.276219 0.617365 0.458076
0.323278 0.663630 0.477821
0.420325 0.728084 0.539147
0.610224 0.767025 0.644129
0.714290 0.788388 0.693660
0.752743 0.796292 0.704616
0.780392 0.799344 0.708553
0.799924 0.801144 0.708858
0.817807 0.806455 0.716365
0.297368 0.663478 0.468299
0.340398 0.711543 0.487312
0.475410 0.773465 0.575586
0.672633 0.797879 0.672206
0.734737 0.808164 0.695003
0.766201 0.815274 0.711208
0.791165 0.820493 0.721645
0.809537 0.823514 0.725307
0.823484 0.825650 0.727718
0.096406 0.091493 0.274144
0.176791 0.115511 0.319707
0.239536 0.129030 0.342138
0.288823 0.125734 0.316442
0.352941 0.131563 0.300267
0.409308 0.139773 0.298009
0.453223 0.149752 0.301122
0.491127 0.158907 0.304967
0.527123 0.168124 0.308965
0.111604 0.160006 0.301793
0.160922 0.169009 0.377752
0.260868 0.194858 0.420539
0.334600 0.198581 0.396582
0.398322 0.201511 0.364843
0.448280 0.203677 0.341558
0.488899 0.208774 0.331975
0.529473 0.217014 0.331212
0.579644 0.234134 0.345556
0.137453 0.249454 0.350225
0.180392 0.269108 0.393591
0.228550 0.277440 0.436744
0.365576 0.317449 0.487922
0.480476 0.322728 0.479622
0.556634 0.313664 0.445960
0.608209 0.307591 0.422553
0.649378 0.309178 0.413428
0.690181 0.319829 0.419348
0.170199 0.345495 0.399420
0.209903 0.357855 0.419562
0.228641 0.350317 0.438544
0.350851 0.426596 0.514549
0.519509 0.472297 0.547845
0.591669 0.453742 0.529870
0.646571 0.439673 0.507744
0.689448 0.435889 0.496498
0.721431 0.444892 0.501518
0.196628 0.420844 0.428809
0.234348 0.429969 0.439490
0.250797 0.437903 0.453742
0.318318 0.483146 0.495857
0.556893 0.605570 0.612421
0.640833 0.612589 0.618799
0.675990 0.595071 0.600275
0.709834 0.590860 0.592126
0.737911 0.599039 0.599420
0.217716 0.482918 0.444495
0.260655 0.501549 0.458930
0.288853 0.537743 0.481941
0.355566 0.590875 0.525780
0.526040 0.657435 0.606134
0.709041 0.721859 0.696651
0.734432 0.715206 0.686183
0.760220 0.718624 0.687770
0.782071 0.727504 0.696864
0.256443 0.563226 0.481056
0.310124 0.598749 0.508934
0.337743 0.638422 0.531060
0.418555 0.677394 0.572106
0.573709 0.720790 0.644221
0.728756 0.766384 0.724178
0.768948 0.775631 0.732357
0.790494 0.779080 0.733883
0.807614 0.783383 0.738613
0.288640 0.624720 0.509117
0.338018 0.661494 0.535515
0.384527 0.710140 0.568658
0.508156 0.746670 0.629999
0.663859 0.777066 0.701350
0.755550 0.799527 0.746090
0.785092 0.805905 0.751583
0.803922 0.808072 0.752773
0.820188 0.812589 0.758206
0.313329 0.672114 0.526696
0.355627 0.708034 0.549340
0.420966 0.758206 0.594141
0.597208 0.790616 0.678584
0.728420 0.809171 0.735988
0.774990 0.820096 0.755947
0.796201 0.825284 0.763699
0.813413 0.828275 0.766445
0.826658 0.830381 0.767849
0.110140 0.105196 0.324468
0.193423 0.130800 0.376593
0.243839 0.139651 0.390539
0.280369 0.134432 0.366217
0.335149 0.134676 0.341619
0.400214 0.144686 0.335760
0.451820 0.152560 0.334447
0.490608 0.162387 0.339330
0.526024 0.172274 0.344671
0.123232 0.174746 0.352331
0.169955 0.178500 0.428565
0.258457 0.201297 0.470954
0.327184 0.206821 0.449165
0.394385 0.213413 0.421759
0.450629 0.219181 0.401190
0.486519 0.216464 0.378393
0.525109 0.222751 0.374029
0.572534 0.238865 0.386633
0.150423 0.264103 0.404517
0.188602 0.267063 0.435920
0.227878 0.272190 0.490425
0.342748 0.308751 0.547295
0.464927 0.324681 0.547234
0.555352 0.331853 0.525628
0.602228 0.324254 0.496040
0.640620 0.324254 0.482856
0.679011 0.333928 0.485573
0.179141 0.348272 0.444984
0.218021 0.354284 0.464424
0.234836 0.342138 0.489693
0.324300 0.402853 0.558007
0.492271 0.456168 0.591516
0.591760 0.461402 0.593286
0.643000 0.452613 0.578210
0.684413 0.448829 0.566705
0.715755 0.456031 0.569177
0.205570 0.421973 0.473671
0.241856 0.424750 0.484169
0.258396 0.426856 0.503044
0.302434 0.455161 0.540246
0.503578 0.574319 0.628443
0.635981 0.608728 0.651942
0.678065 0.601511 0.648646
0.710506 0.596841 0.644617
0.737484 0.602518 0.649378
0.232090 0.492622 0.496925
0.272618 0.505119 0.509606
0.292576 0.522057 0.528435
0.330266 0.555413 0.558862
0.460441 0.615320 0.615228
0.675502 0.704280 0.705776
0.727016 0.712123 0.713863
0.748684 0.711147 0.713100
0.769375 0.716396 0.716915
0.257115 0.554131 0.515801
0.306584 0.579248 0.537774
0.330297 0.613062 0.562402
0.383185 0.651240 0.595209
0.510384 0.696681 0.648249
0.676478 0.747555 0.719020
0.770443 0.780209 0.762051
0.789609 0.781796 0.762448
0.805905 0.785977 0.766506
0.296818 0.625391 0.551598
0.348150 0.658015 0.580072
0.376745 0.698451 0.608362
0.452491 0.727779 0.642084
0.584360 0.758328 0.693416
0.714290 0.788022 0.747677
0.786068 0.809293 0.779202
0.807431 0.813382 0.782406
0.821744 0.816678 0.786068
0.326940 0.676936 0.576043
0.368353 0.708309 0.601160
0.406287 0.747738 0.631342
0.517250 0.775235 0.678401
0.667155 0.800931 0.737667
0.762600 0.818631 0.776608
0.799741 0.827848 0.790921
0.816434 0.831449 0.793851
0.829190 0.833738 0.795316
0.126009 0.121889 0.389685
0.210330 0.146334 0.438880
0.251408 0.150546 0.442695
0.281804 0.144930 0.420325
0.327276 0.142885 0.394537
0.383612 0.147372 0.378424
0.442298 0.157595 0.375372
0.485206 0.164797 0.374945
0.520989 0.175326 0.381842
0.134554 0.188022 0.408972
0.181918 0.190066 0.484779
0.252384 0.204440 0.509911
0.313603 0.210697 0.490059
0.386786 0.222019 0.473610
0.455482 0.235142 0.462470
0.496742 0.236545 0.444038
0.521416 0.229953 0.421607
0.563195 0.243015 0.430610
0.163363 0.277531 0.461769
0.196567 0.266911 0.478370
0.233707 0.272526 0.545830
0.328008 0.301762 0.599847
0.450736 0.323949 0.599084
0.550011 0.340856 0.585687
0.604852 0.345190 0.569970
0.631617 0.336034 0.544976
0.666865 0.343572 0.544610
0.187533 0.348943 0.491310
0.225986 0.352850 0.509728
0.243595 0.340093 0.542412
0.320134 0.392279 0.608270
0.474144 0.444205 0.635706
0.584710 0.459815 0.639887
0.645899 0.465248 0.634333
0.681605 0.458808 0.623194
0.712886 0.466316 0.623682
0.210636 0.414710 0.512535
0.249912 0.423102 0.529351
0.267826 0.422126 0.552361
0.309026 0.446921 0.593225
0.485039 0.554879 0.660273
0.625208 0.597589 0.676631
0.681453 0.601724 0.683742
0.712459 0.599710 0.682612
0.740078 0.607340 0.687739
0.238560 0.486854 0.535790
0.281163 0.502953 0.553033
0.300175 0.514000 0.572961
0.329412 0.537011 0.601556
0.438590 0.596155 0.647089
0.656458 0.692164 0.719661
0.726009 0.711116 0.733822
0.750057 0.712337 0.737270
0.772000 0.719234 0.743526
0.270146 0.558801 0.561028
0.315740 0.579126 0.579797
0.334844 0.601160 0.601495
0.371252 0.630091 0.628656
0.468940 0.672297 0.666346
0.634653 0.727291 0.722499
0.756069 0.771939 0.770321
0.786038 0.779232 0.778622
0.801572 0.782803 0.782223
0.297429 0.615625 0.581628
0.347356 0.640803 0.604791
0.365667 0.673854 0.630762
0.419409 0.706294 0.660945
0.529793 0.739376 0.699184
0.670954 0.774777 0.747829
0.763180 0.803342 0.787594
0.812284 0.819303 0.806882
0.825345 0.821866 0.808804
0.333684 0.674769 0.611322
0.376257 0.703578 0.637812
0.402441 0.737392 0.665888
0.473274 0.761501 0.693965
0.600046 0.787961 0.735683
0.726162 0.812009 0.779873
0.787625 0.825315 0.802426
0.820218 0.834348 0.814969
0.832486 0.837461 0.817502
0.141756 0.138460 0.462287
0.222904 0.159426 0.497414
0.257053 0.159121 0.489265
0.287785 0.155154 0.470832
0.329290 0.154269 0.451972
0.377783 0.156039 0.434424
0.426703 0.161593 0.423194
0.475135 0.170413 0.420264
0.513329 0.178225 0.420874
0.146578 0.202029 0.470558
0.198062 0.202060 0.544701
0.258335 0.211154 0.546075
0.306615 0.214725 0.528893
0.381109 0.228794 0.521630
0.455665 0.247105 0.517418
0.510613 0.259098 0.511467
0.537591 0.256016 0.493080
0.557427 0.251469 0.477791
0.177005 0.292454 0.517357
0.204532 0.267979 0.522362
0.242374 0.274968 0.597864
0.322393 0.294652 0.643030
0.434104 0.317601 0.638270
0.540093 0.341802 0.627771
0.608545 0.360174 0.625147
0.640528 0.359472 0.610895
0.658778 0.352300 0.593256
0.198276 0.355291 0.536950
0.233249 0.353521 0.551659
0.251896 0.339178 0.583673
0.324407 0.387396 0.651118
0.462486 0.434165 0.672908
0.580407 0.456825 0.674983
0.648585 0.473793 0.674891
0.686427 0.478065 0.672267
0.710781 0.474037 0.666377
0.217807 0.411933 0.550774
0.258671 0.424567 0.569818
0.276707 0.419501 0.593744
0.323247 0.450370 0.640833
0.483909 0.548287 0.692378
0.622248 0.592065 0.703120
0.683223 0.602472 0.712551
0.717891 0.608225 0.716823
0.741451 0.609323 0.717708
0.245365 0.481605 0.571344
0.289067 0.501152 0.590723
0.307042 0.506798 0.610468
0.337316 0.529381 0.642725
0.458091 0.602655 0.690425
0.658564 0.691127 0.741176
0.724819 0.710170 0.751431
0.753628 0.716243 0.758968
0.773068 0.717922 0.762112
0.279454 0.557336 0.597742
0.323796 0.579095 0.617151
0.340826 0.595026 0.636561
0.371008 0.620569 0.663630
0.463783 0.665461 0.698451
0.634958 0.725551 0.746242
0.751797 0.769192 0.782681
0.785580 0.779293 0.791592
0.801999 0.782620 0.795773
0.311406 0.620539 0.621851
0.355169 0.643183 0.641932
0.370703 0.666896 0.663447
0.413428 0.694453 0.689815
0.512627 0.730495 0.723049
0.656352 0.768551 0.763699
0.754421 0.797086 0.794919
0.804593 0.814725 0.813321
0.823270 0.820432 0.819303
0.335088 0.666560 0.638239
0.377844 0.691127 0.660578
0.392370 0.718563 0.683803
0.444495 0.744625 0.709560
0.554513 0.774166 0.743587
0.688258 0.802579 0.781735
0.771878 0.820859 0.808377
0.815915 0.834745 0.826230
0.838560 0.843198 0.835691
