LUTs/49.cube
# (C) 2014 VisionColor & Patchflyer [www.vision-color.com]
# Generator: VC Patchmatch v.2.1.1 [64/53]
# All work and no play makes Jack a dull boy.
# LUT generated from: Lomo Color Implosion 21°_VisionSpace
LUT_3D_SIZE 5
0.053010 0.045045 0.045045
0.175601 0.064302 0.063081
0.266056 0.088685 0.086091
0.380652 0.118410 0.113313
0.534234 0.163088 0.152682
0.071107 0.152560 0.064576
0.283970 0.254032 0.134127
0.482185 0.339086 0.202182
0.602686 0.391577 0.251530
0.673121 0.427588 0.287938
0.106020 0.238407 0.098817
0.381659 0.444236 0.222324
0.559960 0.521187 0.288273
0.683986 0.596826 0.357153
0.758175 0.642603 0.389929
0.175448 0.408362 0.166293
0.482277 0.633326 0.315923
0.625666 0.668513 0.367559
0.706172 0.682399 0.390997
0.786587 0.732631 0.425086
0.308537 0.674586 0.286198
0.545220 0.745388 0.365179
0.665125 0.759304 0.400031
0.740780 0.765377 0.421241
0.796262 0.782803 0.442359
0.066743 0.060365 0.156588
0.182712 0.073274 0.151034
0.285527 0.097505 0.168734
0.372717 0.117525 0.183688
0.477913 0.140536 0.200870
0.098756 0.198886 0.195102
0.327031 0.334691 0.306249
0.528222 0.314061 0.265538
0.645136 0.326238 0.275303
0.720241 0.357733 0.302434
0.166201 0.383154 0.278477
0.342290 0.555978 0.353460
0.635462 0.619806 0.444739
0.738705 0.635493 0.447059
0.784970 0.651759 0.478798
0.234257 0.548974 0.339910
0.501701 0.716945 0.461555
0.679591 0.739956 0.531548
0.773159 0.759731 0.560449
0.814084 0.774441 0.593561
0.291905 0.669490 0.379156
0.584802 0.780240 0.480293
0.710994 0.796475 0.544488
0.784115 0.810575 0.589563
0.820279 0.815824 0.608667
0.085084 0.079957 0.233127
0.236271 0.116487 0.291051
0.348089 0.122255 0.257420
0.444709 0.143862 0.265995
0.522637 0.162264 0.274418
0.124453 0.232578 0.297948
0.238834 0.289647 0.391821
0.482063 0.304967 0.394080
0.613672 0.293645 0.353399
0.703487 0.310643 0.360540
0.179294 0.400244 0.373541
0.249454 0.454383 0.406317
0.619745 0.639979 0.604334
0.700526 0.610712 0.559091
0.760586 0.627512 0.571084
0.250126 0.561791 0.439887
0.353796 0.657618 0.488258
0.663722 0.747677 0.665583
0.764584 0.766934 0.686793
0.809995 0.780606 0.701473
0.297368 0.663478 0.468299
0.475410 0.773465 0.575586
0.734737 0.808164 0.695003
0.791165 0.820493 0.721645
0.823484 0.825650 0.727718
0.110140 0.105196 0.324468
0.243839 0.139651 0.390539
0.335149 0.134676 0.341619
0.451820 0.152560 0.334447
0.526024 0.172274 0.344671
0.150423 0.264103 0.404517
0.227878 0.272190 0.490425
0.464927 0.324681 0.547234
0.602228 0.324254 0.496040
0.679011 0.333928 0.485573
0.205570 0.421973 0.473671
0.258396 0.426856 0.503044
0.503578 0.574319 0.628443
0.678065 0.601511 0.648646
0.737484 0.602518 0.649378
0.257115 0.554131 0.515801
0.330297 0.613062 0.562402
0.510384 0.696681 0.648249
0.770443 0.780209 0.762051
0.805905 0.785977 0.766506
0.326940 0.676936 0.576043
0.406287 0.747738 0.631342
0.667155 0.800931 0.737667
0.799741 0.827848 0.790921
0.829190 0.833738 0.795316
0.141756 0.138460 0.462287
0.257053 0.159121 0.489265
0.329290 0.154269 0.451972
0.426703 0.161593 0.423194
0.513329 0.178225 0.420874
0.177005 0.292454 0.517357
0.242374 0.274968 0.597864
0.434104 0.317601 0.638270
0.608545 0.360174 0.625147
0.658778 0.352300 0.593256
0.217807 0.411933 0.550774
0.276707 0.419501 0.593744
0.483909 0.548287 0.692378
0.683223 0.602472 0.712551
0.741451 0.609323 0.717708
0.279454 0.557336 0.597742
0.340826 0.595026 0.636561
0.463783 0.665461 0.698451
0.751797 0.769192 0.782681
0.801999 0.782620 0.795773
0.335088 0.666560 0.638239
0.392370 0.718563 0.683803
0.554513 0.774166 0.743587
0.771878 0.820859 0.808377
0.838560 0.843198 0.835691
