LUTs/49.cube
# (C) 2014 VisionColor & Patchflyer [www.vision-color.com]
# Generator: VC Patchmatch v.2.1.1 [64/53]
# All work and no play makes Jack a dull boy.
# LUT generated from: Lomo Color Implosion 21°_VisionSpace
LUT_3D_SIZE 17
0.053010 0.045045 0.045045
0.087434 0.046601 0.047089
0.119478 0.050172 0.050019
0.149050 0.056764 0.056123
0.175601 0.064302 0.063081
0.199222 0.071138 0.069368
0.221866 0.077302 0.075074
0.244266 0.082856 0.080507
0.266056 0.088685 0.086091
0.289036 0.094606 0.091676
0.315099 0.101259 0.097810
0.344640 0.108614 0.104585
0.380652 0.118410 0.113313
0.420111 0.128786 0.122683
0.459113 0.139925 0.132540
0.498329 0.151431 0.142611
0.534234 0.163088 0.152682
0.054932 0.074220 0.047120
0.088228 0.076295 0.050355
0.122347 0.081331 0.057038
0.157107 0.090303 0.065705
0.195804 0.103365 0.076417
0.234775 0.116793 0.087251
0.270329 0.127993 0.096498
0.307134 0.139803 0.106294
0.340185 0.149722 0.114900
0.376287 0.160586 0.124300
0.411749 0.171817 0.133974
0.446632 0.182681 0.143465
0.482216 0.193240 0.152926
0.512932 0.202945 0.161837
0.541588 0.212711 0.170504
0.568505 0.222751 0.179324
0.592218 0.232761 0.187839
0.058534 0.103853 0.051514
0.094453 0.110231 0.058595
0.139132 0.123568 0.071412
0.186954 0.140505 0.084993
0.234501 0.157687 0.098024
0.279850 0.174075 0.110658
0.322393 0.189029 0.122621
0.364569 0.203861 0.134646
0.403052 0.216190 0.145205
0.442786 0.230381 0.157137
0.478126 0.241978 0.167514
0.508598 0.252537 0.177279
0.537469 0.261906 0.186099
0.561303 0.269963 0.194034
0.582361 0.277256 0.201205
0.603143 0.285405 0.208865
0.621942 0.293645 0.216526
0.063111 0.130343 0.056428
0.101839 0.140322 0.068055
0.157900 0.166476 0.087678
0.209537 0.186740 0.101686
0.265812 0.210941 0.118441
0.316442 0.230900 0.133486
0.362707 0.248447 0.147646
0.407141 0.264866 0.161440
0.447089 0.278294 0.173404
0.487465 0.293889 0.186954
0.520012 0.306523 0.198367
0.548302 0.318059 0.209171
0.573358 0.327581 0.218570
0.594568 0.335851 0.227024
0.612848 0.342687 0.234318
0.631312 0.350622 0.242161
0.648280 0.358679 0.250095
0.071107 0.152560 0.064576
0.114687 0.171145 0.079622
0.175937 0.206149 0.102480
0.231388 0.231296 0.119326
0.283970 0.254032 0.134127
0.343297 0.282170 0.154025
0.394934 0.304692 0.171847
0.442817 0.324163 0.188571
0.482185 0.339086 0.202182
0.521508 0.354589 0.216251
0.551720 0.367071 0.228183
0.578882 0.380102 0.240482
0.602686 0.391577 0.251530
0.622522 0.401038 0.261051
0.639399 0.408911 0.269535
0.656580 0.417945 0.278599
0.673121 0.427588 0.287938
0.078462 0.172671 0.071992
0.127871 0.200320 0.091951
0.193790 0.243778 0.117525
0.253208 0.274449 0.137209
0.305852 0.298405 0.152987
0.358495 0.322515 0.169558
0.417426 0.352697 0.192447
0.471168 0.379217 0.214420
0.511681 0.397955 0.231449
0.550896 0.416114 0.247868
0.579461 0.429419 0.261204
0.604974 0.441474 0.273198
0.626917 0.451911 0.283970
0.646143 0.461524 0.293797
0.663203 0.470436 0.302495
0.680415 0.481300 0.312322
0.697353 0.492775 0.322271
0.086336 0.192874 0.079744
0.139284 0.227176 0.102296
0.211582 0.280888 0.133028
0.276097 0.318608 0.156710
0.329412 0.344244 0.174075
0.380346 0.367285 0.190677
0.431159 0.391089 0.208133
0.490089 0.423011 0.233982
0.534752 0.447517 0.255253
0.573968 0.468330 0.273899
0.602594 0.483772 0.289036
0.627283 0.497688 0.302953
0.649622 0.509178 0.313298
0.669093 0.520073 0.323186
0.686641 0.530053 0.332280
0.704616 0.541863 0.342199
0.722469 0.555291 0.352605
0.095186 0.213535 0.088411
0.151400 0.257511 0.113313
0.231388 0.322393 0.150454
0.301732 0.366796 0.178866
0.355200 0.392615 0.197391
0.404425 0.414008 0.213870
0.452491 0.436347 0.230900
0.502190 0.460121 0.249699
0.549371 0.488441 0.273686
0.593622 0.516320 0.297612
0.622492 0.533471 0.314366
0.647395 0.547936 0.328862
0.669093 0.558831 0.338079
0.687922 0.568414 0.346685
0.704890 0.577356 0.354498
0.723262 0.588769 0.363500
0.741299 0.601587 0.372747
0.106020 0.238407 0.098817
0.165743 0.289647 0.126955
0.251133 0.364172 0.168338
0.325811 0.415335 0.200839
0.381659 0.444236 0.222324
0.429023 0.463249 0.238590
0.473091 0.481666 0.254032
0.520073 0.502556 0.271580
0.559960 0.521187 0.288273
0.605585 0.550652 0.313664
0.636561 0.570214 0.332586
0.661921 0.585382 0.347601
0.683986 0.596826 0.357153
0.702876 0.607050 0.365301
0.720333 0.616663 0.372747
0.739132 0.628992 0.381506
0.758175 0.642603 0.389929
0.116640 0.266056 0.109041
0.181460 0.326085 0.141390
0.275090 0.411505 0.189517
0.352331 0.466377 0.224979
0.409827 0.497261 0.248295
0.457740 0.515648 0.265354
0.498238 0.530266 0.279606
0.540398 0.547509 0.295323
0.576959 0.563226 0.310491
0.613184 0.579950 0.325994
0.645075 0.599298 0.345312
0.672786 0.615625 0.361700
0.695003 0.627161 0.370825
0.714046 0.637232 0.378302
0.731136 0.646662 0.385046
0.749599 0.658259 0.393225
0.768704 0.672114 0.401953
0.132021 0.302007 0.124117
0.204715 0.373297 0.161746
0.299077 0.460212 0.211307
0.377234 0.517113 0.249180
0.436469 0.548363 0.274235
0.484718 0.565911 0.292424
0.523430 0.577630 0.305913
0.561028 0.589685 0.319402
0.591974 0.598840 0.330632
0.623774 0.611170 0.343267
0.648829 0.619287 0.352453
0.677638 0.636591 0.369604
0.702449 0.650477 0.380529
0.722438 0.661677 0.388708
0.739559 0.671016 0.395331
0.758419 0.683223 0.403235
0.777523 0.697353 0.411994
0.149508 0.347173 0.141512
0.230777 0.426917 0.184695
0.323919 0.509483 0.234043
0.401679 0.563928 0.272496
0.461860 0.594263 0.298711
0.510338 0.611719 0.317876
0.547906 0.621393 0.331243
0.582116 0.629572 0.342992
0.609888 0.635370 0.352026
0.636530 0.641901 0.360845
0.660700 0.648646 0.369116
0.679835 0.653346 0.375219
0.704799 0.667109 0.386145
0.725521 0.678218 0.394385
0.743923 0.689143 0.401923
0.763272 0.702113 0.410254
0.783444 0.717647 0.419898
0.175448 0.408362 0.166293
0.260471 0.487007 0.210788
0.349218 0.560510 0.256474
0.422858 0.606165 0.291142
0.482277 0.633326 0.315923
0.531182 0.650660 0.336278
0.568261 0.658961 0.349310
0.599908 0.664881 0.359899
0.625666 0.668513 0.367559
0.649256 0.671870 0.374395
0.671412 0.675502 0.380591
0.689448 0.678950 0.385962
0.706172 0.682399 0.390997
0.727321 0.693294 0.399207
0.746395 0.703914 0.406836
0.766201 0.717006 0.415442
0.786587 0.732631 0.425086
0.208621 0.484993 0.197421
0.293767 0.552178 0.240391
0.374884 0.606683 0.279088
0.443214 0.643183 0.308598
0.500450 0.666682 0.330968
0.548577 0.682704 0.350347
0.584558 0.689876 0.361578
0.615015 0.695094 0.370886
0.639490 0.697414 0.377935
0.662318 0.699886 0.384466
0.683070 0.701778 0.390509
0.700587 0.704067 0.395819
0.716640 0.706722 0.400732
0.729488 0.708553 0.404273
0.748623 0.718746 0.411780
0.768246 0.731044 0.420172
0.788602 0.745937 0.429572
0.244724 0.554223 0.230045
0.325719 0.610803 0.267826
0.400031 0.649073 0.300175
0.461250 0.675532 0.322881
0.515038 0.694331 0.342840
0.560906 0.707851 0.360204
0.595453 0.713771 0.370916
0.624384 0.718196 0.379095
0.648859 0.720272 0.386084
0.671046 0.721859 0.392126
0.691066 0.723110 0.398016
0.709255 0.725277 0.403326
0.725124 0.727504 0.408270
0.738521 0.729458 0.412085
0.751125 0.732723 0.416480
0.770657 0.744198 0.424567
0.790921 0.758480 0.433814
0.279210 0.622675 0.261112
0.358434 0.665278 0.295659
0.425208 0.690028 0.320592
0.480812 0.707942 0.337743
0.530694 0.721126 0.355077
0.572747 0.731350 0.368688
0.606561 0.736446 0.379217
0.633661 0.739651 0.386694
0.658228 0.741451 0.393622
0.680079 0.742885 0.399512
0.699825 0.743984 0.405158
0.718318 0.745998 0.410437
0.733883 0.747768 0.415229
0.747799 0.749660 0.419593
0.760739 0.753201 0.424292
0.773831 0.757595 0.429358
0.793484 0.770687 0.438087
0.308537 0.674586 0.286198
0.386755 0.707576 0.319036
0.446662 0.724819 0.336828
0.498482 0.736538 0.350103
0.545220 0.745388 0.365179
0.583917 0.752102 0.376684
0.615839 0.755611 0.386450
0.641413 0.757809 0.393439
0.665125 0.759304 0.400031
0.686824 0.760647 0.405921
0.706691 0.762020 0.411444
0.725429 0.763638 0.416571
0.740780 0.765377 0.421241
0.755276 0.767422 0.425727
0.768673 0.771054 0.430579
0.782315 0.776150 0.436194
0.796262 0.782803 0.442359
0.056062 0.047974 0.076356
0.085267 0.048066 0.072999
0.115328 0.052277 0.074769
0.145327 0.058595 0.079072
0.172091 0.065217 0.084840
0.195865 0.071015 0.090272
0.218051 0.076234 0.095125
0.238712 0.081239 0.099641
0.260227 0.086641 0.104616
0.281743 0.091859 0.109346
0.304936 0.097780 0.114839
0.329747 0.103639 0.120302
0.360021 0.111177 0.127077
0.392309 0.118929 0.134005
0.426520 0.127108 0.141390
0.462379 0.135805 0.149233
0.498238 0.144900 0.157412
0.054841 0.074708 0.074952
0.094972 0.079469 0.078614
0.142336 0.084596 0.080934
0.186801 0.091096 0.086336
0.223758 0.098177 0.093141
0.256992 0.106630 0.101015
0.286351 0.115480 0.108858
0.313695 0.125063 0.117311
0.338140 0.133394 0.124971
0.366125 0.143252 0.133791
0.396338 0.152499 0.142031
0.428748 0.163119 0.151400
0.463600 0.173800 0.160616
0.500267 0.184909 0.170108
0.531670 0.195102 0.179080
0.561852 0.205692 0.188327
0.588922 0.217685 0.198245
0.057191 0.105043 0.076295
0.104860 0.124514 0.085023
0.175235 0.145388 0.096681
0.230167 0.157046 0.108797
0.275608 0.168338 0.121462
0.313268 0.180392 0.133913
0.349950 0.192111 0.144930
0.384741 0.202853 0.155032
0.419776 0.214359 0.165164
0.452522 0.224094 0.174380
0.484901 0.233585 0.183383
0.512932 0.242466 0.191745
0.540459 0.250950 0.199802
0.564874 0.258915 0.207431
0.585992 0.266606 0.214572
0.606439 0.274662 0.221805
0.625849 0.283848 0.229679
0.062837 0.132296 0.079927
0.105898 0.160128 0.089174
0.187930 0.198978 0.111666
0.261173 0.224277 0.135286
0.316258 0.240879 0.152621
0.361456 0.254368 0.167178
0.402502 0.266789 0.179538
0.439521 0.277317 0.190341
0.474922 0.288426 0.200931
0.506645 0.297429 0.209934
0.536431 0.306493 0.218723
0.561395 0.314946 0.227115
0.584527 0.322728 0.234867
0.604761 0.329900 0.242191
0.621027 0.335912 0.248753
0.637812 0.342657 0.255589
0.654231 0.349187 0.262211
0.071290 0.158907 0.087770
0.107027 0.190249 0.093324
0.195926 0.243961 0.125917
0.276493 0.277897 0.154696
0.345922 0.305547 0.180056
0.400763 0.325139 0.199313
0.447150 0.340795 0.214817
0.485725 0.351537 0.227634
0.517937 0.360296 0.237125
0.546960 0.367498 0.245151
0.573938 0.376532 0.253727
0.597772 0.385809 0.262669
0.619623 0.394659 0.271244
0.638666 0.402472 0.279057
0.653712 0.408820 0.286198
0.668421 0.415717 0.293462
0.683314 0.421210 0.299321
0.080354 0.184176 0.096681
0.112154 0.219608 0.099794
0.207340 0.285435 0.141115
0.293889 0.328557 0.174990
0.365179 0.359167 0.201602
0.428260 0.384436 0.225132
0.480354 0.405005 0.243931
0.522881 0.419776 0.260258
0.554406 0.430304 0.272251
0.582605 0.438331 0.280827
0.607507 0.446754 0.289769
0.630243 0.455482 0.298650
0.650599 0.463874 0.307195
0.669001 0.472358 0.314641
0.684535 0.479469 0.321080
0.699641 0.487190 0.327825
0.713039 0.493111 0.333440
0.089143 0.207584 0.105348
0.120851 0.248325 0.108400
0.221561 0.325658 0.156069
0.313298 0.377752 0.195193
0.386542 0.410590 0.223728
0.448585 0.434730 0.246677
0.504143 0.457923 0.267338
0.551171 0.477546 0.286473
0.586999 0.493477 0.301457
0.614435 0.503197 0.310826
0.639216 0.513390 0.319860
0.661158 0.523430 0.328496
0.681910 0.533227 0.336706
0.700343 0.542138 0.344121
0.715663 0.548882 0.350408
0.730617 0.556329 0.357061
0.744289 0.562524 0.362921
0.099855 0.234531 0.115663
0.133577 0.279179 0.119966
0.238041 0.367132 0.171786
0.333227 0.429862 0.215671
0.408637 0.465309 0.245975
0.470344 0.487678 0.269047
0.525048 0.509178 0.289525
0.575433 0.530602 0.308598
0.613184 0.548699 0.324895
0.643153 0.561395 0.336645
0.666010 0.570214 0.345525
0.686610 0.578851 0.353460
0.705074 0.586938 0.360662
0.722103 0.594385 0.367468
0.736965 0.600946 0.373266
0.752010 0.608881 0.379644
0.764492 0.615625 0.387396
0.111452 0.263432 0.126986
0.148379 0.312352 0.133516
0.260563 0.410941 0.191959
0.355749 0.480064 0.237217
0.429541 0.516213 0.267399
0.489174 0.534691 0.288518
0.541741 0.551904 0.307591
0.590112 0.570611 0.325353
0.629969 0.588251 0.340246
0.660700 0.601984 0.352972
0.685695 0.613397 0.363592
0.706111 0.622675 0.371771
0.724544 0.631464 0.379492
0.740566 0.639307 0.386297
0.755520 0.646784 0.392615
0.769833 0.654658 0.399603
0.781674 0.662226 0.410193
0.124483 0.299718 0.140200
0.169924 0.357794 0.151888
0.283055 0.456886 0.212589
0.376684 0.527489 0.257664
0.448615 0.563287 0.287327
0.506950 0.579217 0.307286
0.555749 0.592035 0.323888
0.600519 0.606073 0.339483
0.638483 0.621118 0.353613
0.673487 0.636042 0.367132
0.698421 0.647425 0.379278
0.719234 0.656977 0.388067
0.736599 0.664637 0.395636
0.751980 0.671565 0.402197
0.765805 0.678035 0.408301
0.779751 0.686183 0.416022
0.791379 0.694240 0.427344
0.143465 0.344732 0.160067
0.194919 0.410803 0.173922
0.306493 0.507012 0.233707
0.397223 0.570489 0.277104
0.467018 0.602869 0.305119
0.523949 0.619104 0.323888
0.570428 0.629023 0.339361
0.611048 0.639582 0.352911
0.645289 0.649531 0.365087
0.677760 0.661952 0.377874
0.703487 0.670741 0.387457
0.725429 0.681666 0.397589
0.745174 0.691890 0.407202
0.760769 0.698909 0.414435
0.774411 0.705257 0.421363
0.787808 0.712978 0.429694
0.798672 0.720699 0.442542
0.165103 0.398932 0.182254
0.224765 0.468818 0.199802
0.328679 0.550958 0.252079
0.414893 0.605646 0.291722
0.482979 0.634882 0.318608
0.539422 0.651240 0.337499
0.583856 0.660548 0.353460
0.622217 0.669551 0.366339
0.655024 0.677699 0.378119
0.683131 0.685481 0.388220
0.708247 0.693141 0.397345
0.726162 0.697993 0.403601
0.746395 0.708522 0.414221
0.763821 0.717342 0.423316
0.778622 0.725155 0.431434
0.792477 0.733455 0.440253
0.803647 0.741390 0.453559
0.190616 0.461189 0.207065
0.257023 0.531853 0.228305
0.353155 0.600732 0.273198
0.432532 0.641688 0.306645
0.497444 0.665888 0.331456
0.553155 0.682185 0.350072
0.596246 0.690242 0.365911
0.631373 0.697078 0.377691
0.663294 0.703578 0.389197
0.689357 0.709010 0.398291
0.712764 0.713741 0.406043
0.729641 0.717800 0.411810
0.745418 0.721370 0.417151
0.763943 0.730892 0.426856
0.780240 0.739834 0.436774
0.795041 0.749111 0.447059
0.806149 0.756405 0.460395
0.218692 0.528344 0.233341
0.288396 0.596033 0.255222
0.375555 0.644404 0.290806
0.449470 0.673732 0.320165
0.511131 0.693111 0.342535
0.563531 0.706569 0.360235
0.605005 0.713771 0.375189
0.638941 0.719753 0.387030
0.669032 0.724147 0.397436
0.694575 0.729152 0.406287
0.717128 0.732937 0.413520
0.733822 0.736049 0.418952
0.749355 0.739162 0.424140
0.762631 0.742153 0.428870
0.779843 0.751858 0.439796
0.795895 0.761837 0.451301
0.808072 0.769863 0.465766
0.241978 0.587823 0.253971
0.315618 0.649500 0.277714
0.395697 0.684657 0.306157
0.464393 0.702815 0.332464
0.521813 0.716548 0.352178
0.571160 0.726925 0.368780
0.609552 0.732204 0.381872
0.641413 0.736629 0.392401
0.671107 0.740566 0.402350
0.696010 0.744503 0.410315
0.718654 0.748379 0.417700
0.737148 0.751858 0.423713
0.753079 0.754849 0.429419
0.767117 0.757900 0.434638
0.779904 0.762173 0.441535
0.796597 0.772335 0.453773
0.809476 0.780728 0.469184
0.264988 0.641016 0.274418
0.339483 0.694881 0.296757
0.414313 0.720302 0.320592
0.479805 0.731838 0.344396
0.533898 0.739590 0.362310
0.578515 0.745571 0.376867
0.614984 0.749660 0.388800
0.644465 0.752529 0.397833
0.673091 0.755886 0.406989
0.697749 0.759304 0.414588
0.720546 0.762783 0.421698
0.739834 0.766232 0.427863
0.756558 0.769467 0.433875
0.771450 0.772732 0.439948
0.784604 0.777218 0.447303
0.797635 0.782895 0.456306
0.811093 0.791318 0.472358
0.283391 0.683223 0.289799
0.358984 0.726711 0.311162
0.432105 0.746181 0.335790
0.495033 0.754818 0.357885
0.546685 0.759548 0.374304
0.587366 0.762814 0.386694
0.620752 0.765011 0.396948
0.648981 0.767391 0.405402
0.675929 0.770169 0.414099
0.700343 0.773098 0.421332
0.722622 0.776333 0.428687
0.742611 0.779232 0.434638
0.758938 0.782132 0.440436
0.774227 0.785122 0.446571
0.787900 0.789792 0.454353
0.800748 0.795377 0.464302
0.812894 0.801572 0.475319
0.058808 0.051850 0.106294
0.088838 0.052888 0.102327
0.112825 0.054353 0.096925
0.143160 0.060700 0.101320
0.171298 0.066987 0.106386
0.195499 0.072633 0.111391
0.216922 0.077455 0.115633
0.236637 0.082033 0.119600
0.256535 0.086946 0.123781
0.276555 0.091676 0.128023
0.298650 0.096925 0.132753
0.321416 0.102113 0.137362
0.348821 0.108675 0.143099
0.377569 0.115389 0.148836
0.409552 0.122683 0.155184
0.443061 0.130404 0.161959
0.478218 0.138735 0.169314
0.058930 0.077943 0.108522
0.098787 0.083406 0.115328
0.137758 0.082368 0.110140
0.177981 0.088350 0.112428
0.210544 0.093599 0.115419
0.237369 0.099214 0.119020
0.260868 0.105196 0.123201
0.286351 0.111299 0.127901
0.309361 0.117800 0.133913
0.336858 0.125765 0.140841
0.363989 0.134188 0.148043
0.395392 0.143191 0.155764
0.429053 0.152163 0.163577
0.463630 0.162356 0.172610
0.498939 0.172000 0.180880
0.533410 0.182284 0.189548
0.566430 0.194522 0.199252
0.062715 0.108583 0.108400
0.095918 0.123781 0.120211
0.167056 0.146914 0.135653
0.230381 0.150881 0.135012
0.283421 0.155581 0.137118
0.327001 0.162936 0.142855
0.365515 0.171633 0.150240
0.398413 0.182315 0.160098
0.428962 0.191897 0.169589
0.458259 0.201816 0.179477
0.488350 0.211429 0.188327
0.516136 0.221897 0.198337
0.544030 0.231876 0.207187
0.571405 0.241672 0.215915
0.593347 0.251408 0.224125
0.614588 0.260990 0.231662
0.635920 0.271366 0.239658
0.072145 0.140871 0.115877
0.099489 0.163424 0.124300
0.180087 0.215641 0.157046
0.278355 0.241001 0.165896
0.339117 0.244511 0.169131
0.384894 0.251255 0.178317
0.423865 0.258335 0.187961
0.456703 0.266239 0.198459
0.487953 0.272923 0.207126
0.516686 0.279728 0.215824
0.544030 0.287510 0.224308
0.568109 0.295567 0.232639
0.590875 0.303288 0.240146
0.611475 0.311070 0.247898
0.629175 0.318334 0.254795
0.646387 0.325505 0.261448
0.663294 0.333593 0.268620
0.082582 0.173556 0.126314
0.102419 0.199741 0.127901
0.172549 0.256596 0.158968
0.285649 0.308904 0.187808
0.371862 0.328496 0.203006
0.426337 0.335485 0.214633
0.471870 0.342107 0.225559
0.509178 0.347082 0.236576
0.537469 0.351080 0.244053
0.563500 0.356664 0.251957
0.587640 0.363043 0.259495
0.610529 0.371344 0.267857
0.631678 0.379004 0.275303
0.650782 0.387121 0.283024
0.665888 0.393011 0.289281
0.680354 0.397375 0.294347
0.694575 0.402594 0.300023
0.095583 0.207034 0.139925
0.109102 0.236149 0.135012
0.173709 0.297429 0.163363
0.293156 0.365515 0.205203
0.381537 0.391394 0.227359
0.456489 0.410040 0.245487
0.508110 0.419379 0.258579
0.549828 0.427558 0.272129
0.579400 0.431556 0.280491
0.604913 0.435645 0.288029
0.627192 0.439918 0.295140
0.649104 0.447089 0.303136
0.668971 0.455726 0.311009
0.687190 0.463996 0.318486
0.701778 0.470283 0.324193
0.713924 0.474128 0.329107
0.724605 0.476631 0.333776
0.107668 0.240909 0.153017
0.120974 0.272190 0.146151
0.183627 0.342779 0.172488
0.304845 0.420600 0.222263
0.394568 0.451789 0.249668
0.470008 0.470130 0.269688
0.533471 0.485786 0.286351
0.578454 0.496925 0.303716
0.611872 0.505852 0.314519
0.638331 0.512016 0.322911
0.660822 0.518181 0.330388
0.682765 0.527214 0.338750
0.702541 0.535729 0.346532
0.720851 0.544030 0.353857
0.734859 0.549462 0.359014
0.746517 0.552361 0.363470
0.756130 0.553094 0.367803
0.121004 0.278752 0.167758
0.135042 0.309514 0.158053
0.202701 0.392660 0.188174
0.320745 0.474876 0.241215
0.410590 0.512901 0.274571
0.485451 0.528618 0.296147
0.546899 0.541680 0.312688
0.599084 0.555871 0.329015
0.635370 0.566674 0.341070
0.666621 0.576379 0.352270
0.688991 0.582116 0.360784
0.709773 0.590112 0.369238
0.726650 0.597040 0.377050
0.743465 0.604700 0.385168
0.756313 0.610224 0.391119
0.766354 0.614160 0.398047
0.774197 0.615442 0.404181
0.135378 0.313634 0.181949
0.149538 0.347295 0.171572
0.228733 0.447929 0.208011
0.343420 0.527749 0.262638
0.430579 0.564721 0.297642
0.501823 0.577295 0.320714
0.559106 0.585962 0.336065
0.609339 0.598077 0.351476
0.651759 0.612543 0.366644
0.684169 0.624262 0.379309
0.709407 0.633722 0.389654
0.730251 0.642786 0.398108
0.746914 0.650446 0.406500
0.761807 0.658045 0.414343
0.773800 0.663478 0.421485
0.783017 0.667048 0.429969
0.790066 0.669062 0.438911
0.152316 0.357519 0.200412
0.166232 0.393011 0.185031
0.257389 0.501091 0.227512
0.367315 0.574060 0.282811
0.451759 0.608606 0.319554
0.520287 0.620417 0.343389
0.571527 0.625940 0.357610
0.617914 0.634241 0.371527
0.658808 0.646998 0.386114
0.697383 0.662165 0.402197
0.723018 0.671656 0.413458
0.743648 0.680537 0.422705
0.758877 0.686702 0.430823
0.772519 0.692897 0.438605
0.783566 0.697963 0.445350
0.792782 0.702388 0.454597
0.799802 0.705104 0.464179
0.170687 0.403967 0.219089
0.187198 0.445075 0.203159
0.286534 0.552331 0.249516
0.390051 0.614466 0.302068
0.471382 0.643915 0.338079
0.537072 0.656397 0.363317
0.584100 0.659876 0.376501
0.626642 0.666957 0.390387
0.663966 0.675380 0.403143
0.700038 0.688350 0.418128
0.730831 0.700679 0.431739
0.751888 0.710231 0.441840
0.767971 0.716945 0.450721
0.781125 0.722438 0.458015
0.791653 0.726894 0.465400
0.799985 0.730190 0.474556
0.806760 0.732998 0.485542
0.189914 0.451911 0.237491
0.210025 0.506035 0.219608
0.316258 0.595239 0.266209
0.413062 0.644709 0.315251
0.490333 0.670375 0.350683
0.553246 0.682887 0.376135
0.596307 0.687282 0.391669
0.636622 0.693843 0.405737
0.672511 0.701411 0.419013
0.704189 0.710262 0.431861
0.733730 0.721004 0.444709
0.754726 0.728481 0.453498
0.771176 0.735622 0.462928
0.785153 0.742031 0.471321
0.796139 0.747402 0.479500
0.804623 0.751095 0.489021
0.811399 0.754177 0.500420
0.214664 0.510887 0.260655
0.236759 0.569665 0.241672
0.343969 0.639521 0.287297
0.433478 0.673732 0.329870
0.505364 0.693538 0.361852
0.565637 0.705837 0.387396
0.607843 0.710811 0.403479
0.645685 0.717800 0.418891
0.680537 0.724422 0.431861
0.710048 0.732265 0.444648
0.736171 0.739284 0.454932
0.756313 0.745815 0.463142
0.771542 0.749874 0.468544
0.786343 0.756649 0.477760
0.798306 0.762264 0.487526
0.806912 0.765896 0.497627
0.813504 0.768307 0.508446
0.237919 0.562829 0.281285
0.260197 0.625971 0.258793
0.369512 0.677424 0.304143
0.453864 0.700465 0.342016
0.522057 0.714870 0.371435
0.577356 0.724819 0.394446
0.618585 0.731167 0.411627
0.654536 0.737667 0.426856
0.687678 0.743832 0.441260
0.715846 0.751278 0.454292
0.740566 0.757473 0.464729
0.759060 0.762142 0.471748
0.773434 0.765377 0.476661
0.785824 0.768246 0.480873
0.798764 0.774380 0.491859
0.808347 0.778439 0.503166
0.815213 0.781155 0.514763
0.258946 0.611597 0.299779
0.281926 0.670100 0.274479
0.390387 0.709621 0.318853
0.469917 0.722774 0.353063
0.534630 0.733059 0.379583
0.586419 0.741360 0.400702
0.625452 0.747250 0.415869
0.658961 0.752895 0.430365
0.691066 0.758846 0.444678
0.718502 0.764828 0.457832
0.742855 0.770840 0.468757
0.761929 0.775265 0.476661
0.775998 0.778225 0.482033
0.788235 0.780850 0.486610
0.798856 0.783444 0.492409
0.808988 0.788144 0.504997
0.816495 0.791562 0.517998
0.278904 0.654139 0.317174
0.300847 0.708186 0.287755
0.410376 0.735348 0.334752
0.486732 0.744839 0.367773
0.546838 0.750790 0.390936
0.593683 0.756100 0.408362
0.631251 0.761349 0.422095
0.662379 0.765866 0.434058
0.692714 0.771328 0.448066
0.720058 0.777005 0.460822
0.743618 0.782254 0.472175
0.763027 0.786618 0.480446
0.777523 0.789578 0.486519
0.789487 0.791806 0.491402
0.800473 0.794522 0.497902
0.810056 0.797757 0.506554
0.817990 0.801480 0.520500
0.295232 0.688319 0.330663
0.322179 0.734890 0.303410
0.427039 0.756863 0.349310
0.500359 0.763943 0.381720
0.557458 0.767727 0.402716
0.600549 0.770932 0.417212
0.635493 0.773800 0.428016
0.665827 0.777859 0.439033
0.694453 0.782284 0.451057
0.721584 0.787655 0.463416
0.744167 0.792447 0.475013
0.764096 0.796841 0.483803
0.778286 0.799619 0.490089
0.790982 0.801877 0.495521
0.802365 0.804715 0.502770
0.811460 0.807706 0.511894
0.819638 0.810910 0.522515
0.062562 0.055909 0.134157
0.093111 0.059022 0.130953
0.124269 0.062196 0.127962
0.145357 0.063050 0.122774
0.175387 0.069795 0.128145
0.201755 0.075685 0.132998
0.224460 0.080812 0.137209
0.245670 0.085847 0.141207
0.265141 0.090394 0.144991
0.286046 0.095338 0.149172
0.307164 0.100282 0.153384
0.329168 0.105287 0.157534
0.354040 0.111086 0.162234
