LUTs/5.cube
LUT_3D_SIZE 6
-0.089722 -0.088045 -0.057131
0.111337 -0.081901 -0.044530
0.510123 0.031265 0.084053
0.854803 0.067472 0.132556
0.971801 0.092627 0.158334
0.996994 0.103165 0.168659
-0.067889 0.138221 0.040643
0.116472 0.140890 0.054466
0.513764 0.261217 0.112936
0.855909 0.286478 0.141735
0.972116 0.250277 0.164433
0.997169 0.213841 0.172671
0.048274 0.522338 0.142195
0.248840 0.523442 0.144884
0.529073 0.532832 0.155621
0.860905 0.568451 0.173235
0.973369 0.484169 0.188185
0.997812 0.400940 0.188933
0.108128 0.856613 0.199868
0.287943 0.857024 0.201700
0.576653 0.858561 0.209387
0.870398 0.857131 0.224560
0.975904 0.722773 0.230824
0.999165 0.595236 0.219246
0.169039 0.971394 0.254703
0.275506 0.971508 0.256125
0.499769 0.971863 0.262141
0.744274 0.972626 0.274194
0.979595 0.961196 0.293111
1.000949 0.791182 0.264127
0.196347 0.995951 0.279266
0.260354 0.995970 0.280220
0.424029 0.996137 0.284336
0.616322 0.996570 0.292550
0.816322 0.997243 0.305498
1.010149 0.991737 0.323503
-0.087730 -0.085994 0.203357
0.112252 -0.079628 0.204787
0.510557 0.022058 0.319921
0.854946 0.064367 0.344591
0.971888 0.091568 0.309821
0.997011 0.102422 0.274883
-0.064898 0.140205 0.207948
0.117033 0.140316 0.209374
0.513274 0.149206 0.223518
0.855820 0.165225 0.238528
0.972094 0.183361 0.251843
0.997190 0.191856 0.258466
0.048587 0.522720 0.327243
0.145559 0.523525 0.236078
0.529308 0.531956 0.242655
0.860818 0.545570 0.255386
0.973330 0.467007 0.268200
0.997907 0.394840 0.270024
0.108501 0.856742 0.362458
0.195680 0.856994 0.280668
0.556754 0.858562 0.286686
0.870454 0.856677 0.300455
0.975957 0.718570 0.305981
0.999230 0.594644 0.296389
0.169485 0.971426 0.350819
0.250536 0.971480 0.329028
0.491206 0.971914 0.334349
0.741711 0.972650 0.345276
0.979647 0.961147 0.362332
1.001081 0.792415 0.336612
0.196682 0.995948 0.336982
0.275235 0.996050 0.350965
0.432056 0.996218 0.354676
0.620744 0.996642 0.362009
0.818429 0.997241 0.373655
1.010216 0.991796 0.389760
-0.074718 -0.072534 0.561818
0.235667 -0.061560 0.562839
0.513922 0.034633 0.567171
0.855456 0.068963 0.609672
0.971988 0.094599 0.531020
0.997082 0.104433 0.451972
-0.017117 0.258921 0.565068
0.125749 0.143397 0.565156
0.516316 0.152230 0.569687
0.856316 0.167981 0.589787
0.972242 0.185660 0.515041
0.997265 0.193432 0.446483
0.052298 0.530629 0.578784
0.148559 0.529982 0.579532
0.531068 0.530131 0.583927
0.861682 0.539157 0.590098
0.973798 0.549502 0.594312
0.998554 0.554406 0.597148
0.111494 0.857287 0.622358
0.198344 0.857534 0.604777
0.559525 0.859306 0.608737
0.870962 0.857006 0.616787
0.976272 0.758276 0.621535
0.999768 0.690195 0.619101
0.171814 0.971554 0.552919
0.252605 0.971630 0.545135
0.590782 0.972155 0.635398
0.781674 0.972892 0.642936
0.979836 0.963517 0.652306
1.002214 0.837523 0.640107
0.198253 0.996055 0.484369
0.276628 0.996071 0.491510
0.604961 0.996528 0.647722
0.720223 0.996855 0.653479
0.860964 0.997504 0.659603
1.010597 0.993360 0.668174
-0.031802 -0.023134 0.870711
0.263174 0.022609 0.871084
0.558382 0.048971 0.872473
0.855305 0.077563 0.875246
0.972251 0.100603 0.755707
0.997206 0.108416 0.634938
0.019777 0.281788 0.871820
0.132554 0.149051 0.871814
0.535130 0.157261 0.873292
0.855956 0.173541 0.876000
0.972526 0.190280 0.750516
0.997473 0.196599 0.632712
0.058264 0.564445 0.876158
0.152458 0.540818 0.876296
0.532658 0.533300 0.878041
0.860910 0.542257 0.880590
0.974128 0.552039 0.780893
0.998632 0.556009 0.713264
0.117496 0.852678 0.884602
0.203720 0.852166 0.884791
0.562450 0.853407 0.886238
0.871784 0.863367 0.888626
0.976905 0.866754 0.885873
0.999965 0.868307 0.885883
0.176501 0.971824 0.773211
0.256884 0.971869 0.770741
0.593105 0.972391 0.805485
0.881958 0.973345 0.896261
0.980094 0.970947 0.899935
1.004648 0.930308 0.897970
0.201448 0.996148 0.657540
0.279478 0.996211 0.661243
0.606431 0.996610 0.749038
0.886430 0.997348 0.899913
0.941020 0.997929 0.902748
1.011304 0.996873 0.904908
0.020718 0.044809 0.975185
0.219964 0.044588 0.975280
0.469040 0.059274 0.975649
0.718626 0.081516 0.976365
0.968680 0.109759 0.977451
0.997547 0.114637 0.819155
0.030273 0.240762 0.975462
0.136471 0.155560 0.975514
0.448444 0.162434 0.975917
0.712230 0.176175 0.976566
0.968850 0.197628 0.977706
0.997718 0.201670 0.818585
0.060716 0.478090 0.976565
0.154942 0.458008 0.976642
0.531933 0.536896 0.977318
0.745557 0.544363 0.978007
0.970736 0.556026 0.979019
0.998850 0.558699 0.853022
0.111765 0.716923 0.978816
0.198467 0.711690 0.978862
0.561324 0.749724 0.979388
0.867949 0.864493 0.980571
0.975845 0.867888 0.981470
1.000434 0.868978 0.937839
0.183939 0.955661 0.982181
0.263624 0.955620 0.982216
0.596770 0.958724 0.982655
0.883039 0.968949 0.983380
0.980285 0.974705 0.984237
1.008491 0.975205 0.983895
0.206541 0.996312 0.837994
0.284037 0.996395 0.839639
0.608898 0.996843 0.876494
0.887038 0.997625 0.948018
0.981854 0.998476 0.985340
1.012131 0.998514 0.985863
0.026643 0.051134 0.997781
0.176388 0.050620 0.997811
0.379714 0.060230 0.998008
0.584103 0.076240 0.998352
0.788772 0.097365 0.998924
0.993372 0.123198 0.999785
0.032744 0.199479 0.997890
0.138585 0.158627 0.997959
0.368737 0.163363 0.998182
0.579884 0.172921 0.998576
0.787628 0.187934 0.999169
0.993622 0.208822 0.999967
0.054373 0.393020 0.998501
0.151242 0.381929 0.998589
0.532342 0.538608 0.999361
0.667422 0.543638 0.999679
0.826276 0.551512 0.999967
0.995409 0.562418 1.000523
0.091383 0.588459 0.999635
0.181849 0.585652 0.999769
0.555336 0.677748 0.999967
0.867390 0.865079 1.003605
0.926607 0.867157 1.005074
1.001158 0.870052 1.007159
0.144720 0.785573 1.002408
0.228613 0.785937 1.002666
0.579646 0.830148 1.004527
0.879772 0.927157 1.008304
0.979899 0.974892 1.013695
1.008885 0.975386 1.014821
0.213707 0.986900 1.011588
0.290385 0.987124 1.011783
0.612279 0.989891 1.012888
0.887886 0.995564 1.014932
0.981983 0.998267 1.017307
1.012519 0.998914 1.018433
