LUTs/5.cube
LUT_3D_SIZE 16
-0.089722 -0.088045 -0.057131
-0.070290 -0.087757 -0.056591
0.032272 -0.086565 -0.054351
0.111337 -0.081901 -0.044530
0.226975 -0.072371 0.017655
0.364434 -0.054833 0.055118
0.510123 0.031265 0.084053
0.651615 0.046188 0.109075
0.768299 0.057547 0.121888
0.854803 0.067472 0.132556
0.911976 0.076660 0.142186
0.948691 0.085186 0.150899
0.971801 0.092627 0.158334
0.986121 0.098312 0.163950
0.994039 0.101814 0.167343
0.996994 0.103165 0.168659
-0.088806 -0.068125 -0.055377
-0.068989 -0.067703 -0.054812
0.032638 -0.067256 -0.052559
0.111705 -0.043442 -0.040837
0.227351 0.033387 0.028063
0.364774 0.064046 0.058226
0.510408 0.090037 0.089672
0.651869 0.100624 0.110355
0.768468 0.106878 0.122764
0.854844 0.110233 0.133258
0.912070 0.112177 0.142780
0.948692 0.113983 0.151407
0.971856 0.115854 0.158773
0.986170 0.117268 0.164329
0.994045 0.117600 0.167685
0.997030 0.116618 0.168953
-0.084974 0.054797 -0.047390
-0.064745 0.054941 -0.046720
0.034177 0.055659 -0.043699
0.113280 0.087023 -0.006390
0.228960 0.120012 0.049326
0.366123 0.150879 0.069470
0.511510 0.174613 0.100712
0.652643 0.189805 0.115284
0.769039 0.195926 0.126360
0.855283 0.195147 0.136172
0.912229 0.190073 0.145247
0.948862 0.183580 0.153563
0.971926 0.177083 0.160669
0.986260 0.170932 0.165972
0.994185 0.164774 0.169122
0.997051 0.158436 0.170184
-0.067889 0.138221 0.040643
0.011604 0.138335 0.041852
0.064136 0.138803 0.046552
0.116472 0.140890 0.054466
0.232110 0.188309 0.072332
0.368891 0.229654 0.100359
0.513764 0.261217 0.112936
0.654410 0.282344 0.123602
0.770227 0.289757 0.132977
0.855909 0.286478 0.141735
0.912620 0.276301 0.150075
0.949141 0.263457 0.157804
0.972116 0.250277 0.164433
0.986372 0.237615 0.169302
0.994313 0.225502 0.171991
0.997169 0.213841 0.172671
0.010595 0.249415 0.094937
0.042530 0.249543 0.095676
0.101491 0.250021 0.098486
0.167172 0.250964 0.103101
0.237217 0.255654 0.108902
0.373364 0.308836 0.117847
0.517359 0.349492 0.126063
0.657119 0.376380 0.134445
0.772138 0.385100 0.142289
0.857129 0.379596 0.149900
0.913371 0.364716 0.157340
0.949582 0.346192 0.164309
0.972402 0.327037 0.170242
0.986593 0.308591 0.174464
0.994437 0.291016 0.176500
0.997244 0.274380 0.176556
0.030586 0.381751 0.122276
0.062675 0.381882 0.122538
0.134337 0.382288 0.123668
0.212935 0.383172 0.125884
0.293228 0.384509 0.129217
0.379585 0.390847 0.133646
0.522436 0.439856 0.140213
0.660998 0.471970 0.147259
0.774736 0.481616 0.153906
0.858767 0.473675 0.160450
0.914359 0.454170 0.166945
0.950218 0.430109 0.173068
0.972808 0.405246 0.178171
0.986902 0.381265 0.181520
0.994702 0.358487 0.182744
0.997593 0.337145 0.181963
0.048274 0.522338 0.142195
0.081547 0.522431 0.142388
0.160863 0.522750 0.143222
0.248840 0.523442 0.144884
0.339279 0.524557 0.147488
0.431073 0.526096 0.151072
0.529073 0.532832 0.155621
0.665986 0.569296 0.161886
0.778269 0.579316 0.167604
0.860905 0.568451 0.173235
0.915688 0.544224 0.178812
0.950999 0.514616 0.184028
0.973369 0.484169 0.188185
0.987252 0.454808 0.190570
0.995001 0.426996 0.190724
0.997812 0.400940 0.188933
0.067295 0.659195 0.161728
0.099783 0.659248 0.161898
0.181146 0.659521 0.162599
0.274311 0.660018 0.164003
0.370878 0.660801 0.166231
0.469091 0.661986 0.169347
0.568358 0.663526 0.173364
0.672176 0.668791 0.178322
0.782595 0.678419 0.183353
0.863636 0.664079 0.188151
0.917242 0.634674 0.192846
0.951947 0.599576 0.197157
0.973985 0.563521 0.200300
0.987803 0.528850 0.201545
0.995430 0.496072 0.200485
0.998278 0.465379 0.197464
0.087161 0.772310 0.180786
0.116071 0.772374 0.180920
0.193386 0.772519 0.181526
0.286115 0.772921 0.182787
0.383607 0.773488 0.184765
0.483117 0.774308 0.187557
0.583825 0.775391 0.191203
0.685379 0.776710 0.195744
0.787806 0.778648 0.201178
0.866714 0.760264 0.205221
0.919128 0.725576 0.209091
0.953084 0.684719 0.212434
0.974879 0.643069 0.214511
0.988422 0.603174 0.214480
0.995927 0.565450 0.212013
0.998673 0.530179 0.207560
0.108128 0.856613 0.199868
0.131598 0.856643 0.200022
0.200395 0.856734 0.200577
0.287943 0.857024 0.201700
0.381893 0.857334 0.203491
0.478609 0.857854 0.206047
0.576653 0.858561 0.209387
0.675734 0.859457 0.213569
0.775075 0.860364 0.218621
0.870398 0.857131 0.224560
0.921300 0.816649 0.227578
0.954533 0.770029 0.229960
0.975904 0.722773 0.230824
0.989161 0.677682 0.229395
0.996556 0.635054 0.225339
0.999165 0.595236 0.219246
0.129437 0.912670 0.219092
0.147451 0.912706 0.219215
0.205312 0.912764 0.219719
0.284153 0.912941 0.220765
0.371317 0.913116 0.222420
0.462170 0.913426 0.224769
0.554840 0.913847 0.227857
0.648626 0.914341 0.231732
0.742859 0.914941 0.236427
0.837670 0.915709 0.241980
0.923932 0.908007 0.248433
0.956164 0.855350 0.249779
0.976892 0.802510 0.249374
0.990059 0.752178 0.246374
0.997234 0.704723 0.240490
0.999766 0.660449 0.232543
0.150282 0.948665 0.237833
0.163834 0.948690 0.237958
0.210811 0.948740 0.238437
0.279400 0.948841 0.239369
0.358086 0.948937 0.240908
0.441608 0.949188 0.243069
0.527549 0.949377 0.245939
0.614898 0.949722 0.249530
0.702962 0.950141 0.253916
0.791595 0.950599 0.259089
0.880607 0.951137 0.265098
0.957920 0.940432 0.271975
0.978186 0.882059 0.270175
0.991066 0.826619 0.265418
0.998202 0.774422 0.257548
0.999965 0.725742 0.247480
0.169039 0.971394 0.254703
0.179300 0.971405 0.254821
0.216975 0.971438 0.255244
0.275506 0.971508 0.256125
0.345333 0.971582 0.257531
0.420964 0.971665 0.259518
0.499769 0.971863 0.262141
0.580350 0.972106 0.265430
0.661959 0.972322 0.269434
0.744274 0.972626 0.274194
0.826997 0.972993 0.279733
0.909950 0.973378 0.286036
0.979595 0.961196 0.293111
0.992167 0.900797 0.286520
0.999089 0.843979 0.276480
1.000949 0.791182 0.264127
0.183695 0.985330 0.267896
0.191737 0.985345 0.267985
0.222181 0.985379 0.268382
0.271911 0.985429 0.269148
0.333436 0.985493 0.270434
0.401530 0.985598 0.272212
0.473362 0.985684 0.274557
0.547408 0.985870 0.277529
0.622733 0.986074 0.281118
0.699009 0.986293 0.285395
0.775726 0.986561 0.290350
0.852843 0.986873 0.296023
0.930084 0.987255 0.302428
0.993347 0.974366 0.309508
0.999965 0.913139 0.297191
1.003711 0.857825 0.282401
0.192784 0.993021 0.276077
0.199279 0.993034 0.276150
0.224506 0.993034 0.276493
0.267140 0.993031 0.277178
0.321446 0.993140 0.278291
0.382755 0.993219 0.279860
0.448211 0.993346 0.281927
0.516250 0.993548 0.284529
0.585723 0.993644 0.287688
0.656344 0.993813 0.291459
0.727589 0.994011 0.295810
0.799177 0.994404 0.300797
0.871094 0.994646 0.306427
0.943175 0.994970 0.312678
1.000908 0.982362 0.319579
1.006780 0.924818 0.302265
0.196347 0.995951 0.279266
0.201792 0.995964 0.279350
0.223220 0.995957 0.279619
0.260354 0.995970 0.280220
0.308709 0.996027 0.281162
0.364188 0.996095 0.282535
0.424029 0.996137 0.284336
0.486604 0.996220 0.286562
0.550837 0.996381 0.289289
0.616322 0.996570 0.292550
0.682565 0.996752 0.296334
0.749283 0.996967 0.300646
0.816322 0.997243 0.305498
0.883534 0.997582 0.310929
0.951053 0.997846 0.316955
1.010149 0.991737 0.323503
-0.089622 -0.087945 0.035292
-0.070152 -0.087654 0.036323
0.032312 -0.086464 0.037334
0.111376 -0.081743 0.064327
0.227033 -0.072152 0.101166
0.364499 -0.054478 0.131707
0.510166 0.017573 0.155618
0.651609 0.038763 0.165394
0.768316 0.052030 0.171217
0.854809 0.063329 0.174419
0.911988 0.073594 0.176400
0.948699 0.082919 0.178289
0.971808 0.090893 0.180214
0.986127 0.096919 0.181626
0.994044 0.100573 0.181943
0.996998 0.101993 0.180974
-0.088699 -0.067978 0.038464
-0.068847 -0.067555 0.039381
0.032698 -0.065827 0.042793
0.111620 -0.058713 0.053047
0.227225 -0.041268 0.066632
0.364632 0.026861 0.093004
0.510309 0.041075 0.108699
0.651797 0.052733 0.120332
0.768385 0.062945 0.130406
0.854816 0.072421 0.139723
0.912029 0.081419 0.148531
0.948726 0.089864 0.156725
0.971838 0.097249 0.163800
0.986160 0.102900 0.169211
0.994041 0.106374 0.172476
0.997031 0.107731 0.173786
-0.084869 0.054844 0.046462
-0.063224 0.054997 0.049206
0.034220 0.055712 0.051764
0.113246 0.085229 0.063499
0.228857 0.116161 0.075874
0.365973 0.142131 0.102285
0.511416 0.162285 0.113844
0.652581 0.176242 0.124181
0.768959 0.182086 0.133540
0.855220 0.181845 0.142388
0.912189 0.177860 0.150863
0.948836 0.172808 0.158772
0.971910 0.167836 0.165617
0.986249 0.163067 0.170800
0.994181 0.158156 0.173892
0.997052 0.152906 0.174974
-0.067681 0.138256 0.097623
-0.028928 0.138326 0.072627
0.062588 0.138808 0.074974
0.116508 0.140910 0.090506
0.232059 0.186061 0.104600
0.368826 0.225190 0.113772
0.513679 0.255284 0.122393
0.654324 0.275464 0.131158
0.770186 0.282520 0.139473
0.855863 0.279337 0.147558
0.912626 0.269568 0.155433
0.949116 0.257358 0.162845
0.972099 0.244864 0.169285
0.986368 0.232888 0.174025
0.994309 0.221423 0.176674
0.997170 0.210362 0.177393
0.009893 0.249487 0.136331
0.021431 0.249515 0.111509
0.094613 0.250000 0.112950
0.164852 0.250963 0.115704
0.237239 0.255604 0.119707
0.373305 0.307101 0.126482
0.517304 0.346447 0.133383
0.657033 0.372462 0.140850
0.772087 0.380782 0.148085
0.857080 0.375222 0.155264
0.913336 0.360519 0.162383
0.949559 0.342319 0.169147
0.972396 0.323512 0.174918
0.986583 0.305454 0.179044
0.994433 0.288280 0.181087
0.997245 0.272028 0.181198
0.030068 0.381758 0.157343
0.037191 0.381832 0.130449
0.124668 0.382232 0.131424
0.208635 0.383155 0.133363
0.291607 0.384511 0.136333
0.379592 0.390852 0.140353
0.522397 0.438553 0.146279
0.660953 0.469836 0.152833
0.774711 0.479019 0.159111
0.858722 0.470852 0.165400
0.914349 0.451391 0.171698
0.950196 0.427473 0.177648
0.972794 0.402840 0.182660
0.986893 0.379139 0.185963
0.994735 0.356594 0.187192
0.997594 0.335478 0.186486
0.047775 0.522376 0.175609
0.053716 0.522386 0.148324
0.149379 0.522725 0.149098
0.243124 0.523430 0.150679
0.336347 0.524540 0.153144
0.429912 0.526100 0.156565
0.529068 0.532837 0.160928
0.665967 0.568356 0.166877
0.778242 0.577810 0.172385
0.860874 0.566671 0.177817
0.915662 0.542353 0.183273
0.950947 0.512823 0.188390
0.973356 0.482492 0.192504
0.987244 0.453281 0.194861
0.995037 0.425629 0.195051
0.997813 0.399735 0.193312
0.066838 0.659219 0.192360
0.072236 0.659229 0.166878
0.168850 0.659519 0.167552
0.267749 0.660023 0.168937
0.367129 0.660796 0.171096
0.467060 0.661981 0.174136
0.567523 0.663529 0.178058
0.672189 0.668778 0.182920
0.782581 0.677735 0.187809
0.863604 0.662962 0.192474
0.917222 0.633484 0.197087
0.951931 0.598353 0.201341
0.973974 0.562345 0.204452
0.987796 0.527756 0.205701
0.995427 0.495112 0.204678
0.998279 0.464520 0.201722
0.086774 0.772332 0.207014
0.091899 0.772357 0.185408
0.181412 0.772503 0.186002
0.279368 0.772907 0.187241
0.379490 0.773477 0.189183
0.480629 0.774301 0.191938
0.582406 0.775389 0.195540
0.684835 0.776714 0.200021
0.787813 0.778602 0.205396
0.866702 0.759785 0.209352
0.919116 0.724859 0.213158
0.953093 0.683893 0.216467
0.974871 0.642283 0.218518
0.988416 0.602402 0.218509
0.995968 0.564745 0.216094
0.998675 0.529549 0.211694
0.107863 0.856639 0.221001
0.112699 0.856652 0.204190
0.189739 0.856759 0.204739
0.281588 0.857015 0.205874
0.377845 0.857320 0.207647
0.475973 0.857843 0.210175
0.574984 0.858555 0.213486
0.674730 0.859457 0.217622
0.774623 0.860370 0.222654
0.870411 0.857116 0.228565
0.921297 0.816364 0.231527
0.954526 0.769488 0.233875
0.975898 0.722250 0.234745
0.989157 0.677203 0.233298
0.996554 0.634550 0.229286
0.999167 0.594774 0.223262
0.129272 0.912683 0.235270
0.133848 0.912698 0.223190
0.196589 0.912756 0.223706
0.278598 0.912934 0.224749
0.367676 0.913110 0.226395
0.459685 0.913421 0.228731
0.553144 0.913844 0.231793
0.647542 0.914340 0.235654
0.742275 0.914942 0.240325
0.837418 0.915713 0.245881
0.923939 0.907974 0.252302
0.956163 0.855154 0.253607
0.976889 0.802271 0.253190
0.990056 0.751857 0.250193
0.997233 0.704404 0.244375
0.999768 0.660155 0.236476
0.150173 0.948673 0.250014
0.154566 0.948685 0.241823
0.204168 0.948736 0.242293
0.274931 0.948837 0.243247
0.355018 0.948933 0.244759
0.439459 0.949185 0.246927
0.526056 0.949417 0.249778
0.613824 0.949719 0.253375
0.702234 0.950141 0.257722
0.791178 0.950600 0.262893
0.880374 0.951140 0.268893
0.957925 0.940422 0.275720
0.978186 0.881916 0.273918
0.991065 0.826421 0.269177
0.998202 0.774205 0.261351
0.999965 0.725533 0.251342
0.168987 0.971400 0.263951
0.173273 0.971402 0.258622
0.212272 0.971436 0.259041
0.272124 0.971506 0.259907
0.342923 0.971580 0.261312
0.419224 0.971664 0.263285
0.498480 0.971862 0.265895
0.579447 0.972105 0.269187
0.661316 0.972322 0.273192
0.743767 0.972627 0.277928
0.826707 0.972995 0.283442
0.909827 0.973381 0.289685
0.979599 0.961187 0.296752
0.992168 0.900732 0.290184
0.999090 0.843897 0.280191
1.000951 0.791078 0.267900
0.183678 0.985335 0.275109
0.187879 0.985345 0.271733
0.219051 0.985378 0.272128
0.269516 0.985428 0.272918
0.331652 0.985493 0.274167
0.400228 0.985598 0.275929
0.472385 0.985685 0.278278
0.546670 0.985871 0.281215
0.622193 0.986075 0.284831
0.698632 0.986296 0.289062
0.775417 0.986563 0.294002
0.852667 0.986876 0.299640
0.930055 0.987258 0.305987
0.993351 0.974365 0.313047
0.999965 0.913073 0.300799
1.003713 0.857837 0.286107
0.192777 0.993026 0.281886
0.196941 0.993035 0.279873
0.222515 0.993035 0.280201
0.265568 0.993032 0.280905
0.320241 0.993141 0.281992
0.381869 0.993221 0.283563
0.447538 0.993347 0.285596
0.515721 0.993550 0.288201
0.585305 0.993646 0.291351
0.656036 0.993815 0.295086
0.727362 0.994013 0.299467
0.799145 0.994406 0.304398
0.871026 0.994648 0.309981
0.943119 0.994973 0.316200
1.000911 0.982370 0.323084
1.006783 0.924798 0.305871
0.196347 0.995955 0.284133
0.200483 0.995966 0.283039
0.222088 0.995959 0.283342
0.259451 0.995970 0.283938
0.308052 0.996029 0.284887
0.363642 0.996057 0.286218
0.423598 0.996140 0.287982
0.486306 0.996223 0.290232
0.550643 0.996384 0.292981
0.616127 0.996573 0.296181
0.682399 0.996755 0.299951
0.749181 0.996970 0.304238
0.816314 0.997246 0.309110
0.883530 0.997585 0.314493
0.951067 0.997850 0.320466
1.010153 0.991745 0.327041
-0.089227 -0.087539 0.125119
-0.070792 -0.087264 0.125251
0.032507 -0.086044 0.125819
0.111545 -0.081053 0.154990
0.227199 -0.071180 0.185577
0.364637 -0.052938 0.214269
0.510289 0.019223 0.238180
0.651791 0.039363 0.252536
0.768377 0.052465 0.258279
0.854829 0.063671 0.257462
0.912020 0.073887 0.252520
0.948718 0.083179 0.246230
0.971836 0.091121 0.239908
0.986149 0.097097 0.233914
0.994027 0.100744 0.227926
0.997015 0.102144 0.221791
-0.088351 -0.068637 0.125547
-0.068272 -0.066969 0.125710
0.032891 -0.065215 0.126266
0.111800 -0.057585 0.153658
0.227406 -0.039049 0.182340
0.364786 0.022830 0.208065
0.510445 0.038035 0.227173
0.651882 0.050168 0.240372
0.768476 0.060829 0.245851
0.854864 0.070775 0.245488
0.912050 0.080215 0.241565
0.948703 0.089004 0.236577
0.971868 0.096609 0.231640
0.986131 0.102392 0.226952
0.994060 0.105931 0.222156
0.997010 0.107283 0.217078
-0.084442 0.055209 0.127336
-0.062576 0.055357 0.127466
0.034377 0.055804 0.128004
0.112765 0.057976 0.130552
0.228183 0.061715 0.134920
0.365362 0.066637 0.140391
0.510896 0.072649 0.146552
0.652244 0.079693 0.153221
0.768777 0.087125 0.159844
0.855103 0.094813 0.166442
0.912120 0.102604 0.173055
0.948807 0.110198 0.179533
0.971870 0.116961 0.185395
0.986227 0.122223 0.189982
0.994156 0.125472 0.192845
0.997047 0.126742 0.193969
-0.066782 0.138412 0.159180
-0.025674 0.138491 0.157704
0.039770 0.138744 0.134183
0.116601 0.140762 0.135832
0.231732 0.172834 0.139352
0.368318 0.202208 0.143567
0.513260 0.225520 0.148713
0.653983 0.241408 0.154813
0.769961 0.247008 0.161251
0.855758 0.244612 0.167929
0.912536 0.237284 0.174754
0.949072 0.228359 0.181417
0.972115 0.219476 0.187308
0.986346 0.211043 0.191814
0.994316 0.202808 0.194431
0.997165 0.194662 0.195221
0.010552 0.249630 0.194479
0.021584 0.249699 0.188374
0.048749 0.249852 0.144046
0.152259 0.250927 0.145433
0.237344 0.255430 0.148067
0.373053 0.298479 0.152020
0.516975 0.332074 0.156800
0.656778 0.354363 0.162510
0.771898 0.360981 0.168445
0.856995 0.355150 0.174624
0.913215 0.341426 0.180951
0.949521 0.324761 0.187118
0.972371 0.307810 0.192518
0.986564 0.291691 0.196453
0.994406 0.276351 0.198537
0.997239 0.261811 0.198776
0.030394 0.381920 0.224060
0.037226 0.381969 0.215482
0.060399 0.382158 0.156188
0.186447 0.383030 0.157281
0.283544 0.384474 0.159658
0.379670 0.390690 0.162979
0.522245 0.432577 0.167415
0.660736 0.460111 0.172725
0.774527 0.467236 0.178125
0.858649 0.458301 0.183717
0.914272 0.439028 0.189442
0.950130 0.415871 0.194998
0.972775 0.392302 0.199748
0.986845 0.369725 0.202985
0.994708 0.348410 0.204262
0.997590 0.328359 0.203742
0.048046 0.522512 0.247947
0.053704 0.522522 0.237740
0.074751 0.522621 0.170322
0.214498 0.523354 0.171247
0.322537 0.524497 0.173417
0.424436 0.526091 0.176456
0.529084 0.532621 0.180424
0.665908 0.564149 0.185437
0.778145 0.571159 0.190274
0.860821 0.558900 0.195217
0.915580 0.534226 0.200282
0.950949 0.504930 0.205109
0.973289 0.475172 0.209073
0.987253 0.446667 0.211406
0.995010 0.419809 0.211702
0.997810 0.394625 0.210213
0.067075 0.659275 0.266191
0.072212 0.659301 0.255218
0.092099 0.659361 0.186509
0.235517 0.659936 0.187338
0.349758 0.660765 0.189359
0.457769 0.661954 0.192200
0.563683 0.663533 0.195900
0.672265 0.668584 0.200535
0.782520 0.674706 0.204859
0.863512 0.658509 0.209147
0.917192 0.628340 0.213483
0.951903 0.593010 0.217522
0.973991 0.557295 0.220558
0.987789 0.523080 0.221814
0.995405 0.490890 0.220951
0.998277 0.460814 0.218241
0.087009 0.772394 0.277133
0.091901 0.772412 0.266481
0.111104 0.772506 0.203540
0.246756 0.772860 0.204323
0.360678 0.773477 0.206184
0.469371 0.774287 0.208830
0.576097 0.775367 0.212289
0.682064 0.776724 0.216651
0.787844 0.778471 0.221861
0.866660 0.757723 0.225480
0.919085 0.721782 0.229044
0.953036 0.680403 0.232206
0.974851 0.638817 0.234198
0.988382 0.599092 0.234241
0.995949 0.561738 0.231975
0.998673 0.526859 0.227851
0.108066 0.856682 0.283391
0.112752 0.856712 0.273868
0.131007 0.856706 0.221289
0.251301 0.857005 0.222078
0.359461 0.857309 0.223817
0.464207 0.857836 0.226285
0.567572 0.858516 0.229508
0.670479 0.859444 0.233565
0.772866 0.860388 0.238503
0.870444 0.857037 0.244325
0.921289 0.814973 0.247054
0.954534 0.767529 0.249266
0.975893 0.720027 0.250098
0.989164 0.674938 0.248709
0.996540 0.632473 0.244850
0.999167 0.592908 0.239067
0.129477 0.912692 0.287724
0.133956 0.912708 0.279941
0.151528 0.912716 0.239566
0.252672 0.912896 0.240391
0.351132 0.913095 0.242003
0.448657 0.913392 0.244297
0.545785 0.913823 0.247323
0.642736 0.914328 0.251140
0.739466 0.914941 0.255767
0.836176 0.915725 0.261243
0.923966 0.907921 0.267614
0.956154 0.854231 0.268753
0.976870 0.800997 0.268277
0.990038 0.750495 0.265336
0.997223 0.703042 0.259666
0.999770 0.658865 0.251988
0.150364 0.948710 0.292536
0.154660 0.948722 0.286640
0.171823 0.948729 0.257697
0.254254 0.948811 0.258509
0.341250 0.948962 0.260012
0.429875 0.949165 0.262160
0.519357 0.949402 0.264968
0.609238 0.949729 0.268527
0.699226 0.950137 0.272829
0.789393 0.950603 0.277924
0.879694 0.951151 0.283833
0.957901 0.940346 0.290565
0.978184 0.881372 0.288667
0.991058 0.825659 0.284017
0.998197 0.773406 0.276341
0.999965 0.724646 0.266593
0.169158 0.971420 0.297994
0.173399 0.971430 0.293836
0.190178 0.971417 0.274104
0.256738 0.971492 0.274906
0.332089 0.971587 0.276274
0.411496 0.971715 0.278221
0.492915 0.971901 0.280810
0.575423 0.972099 0.284048
0.658492 0.972319 0.287971
0.741922 0.972628 0.292650
0.825604 0.973001 0.298043
0.909396 0.973366 0.304218
0.979617 0.961158 0.311164
0.992171 0.900372 0.304663
0.999091 0.843442 0.294860
1.000957 0.790634 0.282861
0.183824 0.985357 0.302631
0.187996 0.985366 0.299844
0.204502 0.985372 0.286934
0.258735 0.985422 0.287672
0.323773 0.985485 0.288914
0.394406 0.985597 0.290658
0.468080 0.985681 0.292985
0.543572 0.985869 0.295871
0.619884 0.986075 0.299393
0.696969 0.986298 0.303548
0.774423 0.986567 0.308425
0.852066 0.986883 0.313949
0.929767 0.987269 0.320183
0.993365 0.974371 0.327144
0.999965 0.912976 0.315067
1.003721 0.857616 0.300677
0.192918 0.993044 0.304672
0.197063 0.993053 0.302914
0.213435 0.993035 0.294910
0.258471 0.993033 0.295554
0.314875 0.993142 0.296627
0.377816 0.993222 0.298150
0.444488 0.993349 0.300164
0.513393 0.993553 0.302723
0.583652 0.993650 0.305814
0.654781 0.993820 0.309493
0.726510 0.994022 0.313733
0.798485 0.994416 0.318598
0.870707 0.994658 0.324108
0.942989 0.994990 0.330198
1.000925 0.982358 0.336976
1.006794 0.924780 0.320028
0.196465 0.995916 0.303506
0.200594 0.995925 0.302536
0.216887 0.995967 0.297991
0.255237 0.995978 0.298538
0.304765 0.996057 0.299503
0.361173 0.996071 0.300806
0.421733 0.996148 0.302545
0.484865 0.996231 0.304733
0.549599 0.996393 0.307432
0.615373 0.996585 0.310596
0.681925 0.996765 0.314273
0.748784 0.996982 0.318459
0.816006 0.997258 0.323223
0.883427 0.997598 0.328528
0.950986 0.997862 0.334391
1.010166 0.991729 0.340772
-0.087730 -0.085994 0.203357
-0.055358 -0.085563 0.203450
0.058676 -0.083669 0.203907
0.112252 -0.079628 0.204787
0.227553 -0.069140 0.248521
0.364840 -0.049596 0.288373
0.510557 0.022058 0.319921
0.651979 0.040564 0.340329
0.768506 0.053330 0.347586
0.854946 0.064367 0.344591
0.912096 0.074473 0.334838
0.948734 0.083689 0.322515
0.971888 0.091568 0.309821
0.986143 0.097498 0.297651
0.994066 0.101082 0.286019
0.997011 0.102422 0.274883
-0.086371 -0.052409 0.203679
-0.066066 -0.064699 0.203653
0.057331 -0.061789 0.204114
0.112517 -0.055194 0.205024
0.227766 -0.033889 0.247603
0.365061 0.025098 0.285629
0.510639 0.039272 0.314725
0.652052 0.051081 0.334244
0.768577 0.061577 0.341139
0.854999 0.071409 0.338206
0.912069 0.080765 0.328849
0.948740 0.089487 0.317083
0.971899 0.097041 0.305023
0.986145 0.102779 0.293481
0.994100 0.106257 0.282472
0.997041 0.107576 0.271930
-0.080164 0.085623 0.205091
-0.056302 0.083860 0.205102
0.035396 0.056565 0.204866
0.113478 0.058708 0.205946
0.228593 0.062461 0.236970
0.365749 0.067338 0.265836
0.511159 0.073311 0.288620
0.652391 0.080302 0.304140
0.768848 0.087687 0.309599
0.855169 0.095323 0.307289
0.912146 0.103073 0.300074
0.948844 0.110623 0.291252
0.971901 0.117363 0.282461
0.986241 0.122565 0.274190
0.994190 0.125779 0.266267
0.997084 0.126999 0.258540
-0.064898 0.140205 0.207948
-0.016106 0.140276 0.208018
0.040329 0.140289 0.208317
0.117033 0.140316 0.209374
0.231811 0.142422 0.213287
0.368356 0.145363 0.218203
0.513274 0.149206 0.223518
0.653983 0.154000 0.228947
0.769972 0.159361 0.233920
0.855820 0.165225 0.238528
0.912632 0.171437 0.243026
0.949101 0.177644 0.247559
0.972094 0.183361 0.251843
0.986383 0.187889 0.255343
0.994351 0.190749 0.257567
0.997190 0.191856 0.258466
0.011806 0.249975 0.253366
0.022361 0.250031 0.251371
0.049300 0.250244 0.240389
0.123871 0.251214 0.215925
0.237671 0.254694 0.217380
0.373213 0.280605 0.220002
0.517024 0.301982 0.223463
0.656835 0.316701 0.227787
0.771924 0.320738 0.232525
0.857008 0.316542 0.237651
0.913290 0.307471 0.243067
0.949548 0.297058 0.248505
0.972383 0.286997 0.253417
0.986603 0.277598 0.257156
0.994476 0.268505 0.259289
0.997360 0.259528 0.259803
0.031063 0.382219 0.294715
0.037828 0.382283 0.290971
0.060918 0.382431 0.271413
0.133343 0.383230 0.224853
0.268076 0.384728 0.225831
0.379937 0.389908 0.228434
0.522377 0.420963 0.231783
0.660768 0.441430 0.236040
0.774582 0.445210 0.240515
0.858655 0.436006 0.245334
0.914336 0.418770 0.250388
0.950194 0.399008 0.255407
0.972839 0.379513 0.259825
0.986871 0.361136 0.262951
0.994762 0.343864 0.264378
0.997693 0.327562 0.264215
0.048587 0.522720 0.327243
0.054233 0.522739 0.322151
0.075261 0.522885 0.296800
0.145559 0.523525 0.236078
0.295559 0.524625 0.236731
0.414746 0.526272 0.239283
0.529308 0.531956 0.242655
0.665988 0.556317 0.246808
0.778180 0.559268 0.251002
0.860818 0.545570 0.255386
0.915644 0.521637 0.259980
0.950954 0.494215 0.264459
0.973330 0.467007 0.268200
0.987308 0.441352 0.270563
0.995117 0.417286 0.271096
0.997907 0.394840 0.270024
0.067574 0.659437 0.350238
0.072712 0.659517 0.344396
0.092579 0.659583 0.315787
0.160717 0.660050 0.249718
0.316414 0.660872 0.250251
