LUTs/50.cube
TITLE "Generate by Resolve"
LUT_3D_SIZE 9
0 0 0
0 0 0
0 0 0
0 0 0
0.133364 0.0259098 0.0259098
0.308476 0.0522774 0.0522774
0.480903 0.0690471 0.0690471
0.647532 0.0820783 0.0820783
0.79971 0.0955215 0.0955215
0 0 0
0.0768139 0.0768139 0.00106813
0.207141 0.1149 0
0.346792 0.140871 0
0.47718 0.163439 0
0.588113 0.187091 0.0204013
0.674388 0.214282 0.0552071
0.773053 0.237018 0.0774243
0.867842 0.259236 0.099443
0 0.275731 0
0.139727 0.291981 0
0.302235 0.302235 0
0.440757 0.314244 0
0.554421 0.330007 0
0.648463 0.349508 0.0372778
0.725856 0.372259 0.0863966
0.812177 0.39324 0.114885
0.9037 0.412589 0.134142
0 0.46305 0
0.178408 0.463432 0
0.339391 0.466285 0
0.473838 0.473838 0.00202945
0.589044 0.484947 0.0395056
0.687312 0.499413 0.0836957
0.770382 0.517021 0.132692
0.85713 0.534874 0.159319
0.946487 0.552071 0.176455
0.0767987 0.602335 0.0767987
0.238666 0.606226 0.0445716
0.385336 0.610269 0.0461585
0.512978 0.617121 0.0672923
0.623072 0.623072 0.0970779
0.714305 0.626474 0.130098
0.788464 0.62858 0.165148
0.871672 0.637079 0.173602
0.958358 0.651606 0.188052
0.165484 0.722164 0.165484
0.303365 0.728801 0.126528
0.425544 0.725063 0.112718
0.530999 0.719005 0.115007
0.623682 0.711543 0.127214
0.704067 0.704067 0.147112
0.776532 0.69865 0.153094
0.856535 0.703929 0.158312
0.942214 0.717433 0.171725
0.1841 0.807401 0.1841
0.337041 0.800275 0.176883
0.43624 0.790402 0.149935
0.52668 0.780224 0.142107
0.610681 0.770596 0.147112
0.687236 0.765133 0.141588
0.761822 0.761822 0.138247
0.843061 0.768338 0.144671
0.928374 0.781476 0.157702
0.231403 0.929763 0.231403
0.369787 0.907958 0.209552
0.46714 0.886748 0.188327
0.551324 0.873884 0.175433
0.630838 0.865568 0.167071
0.7084 0.861082 0.162524
0.785534 0.860288 0.161654
0.868223 0.868223 0.169451
0.953338 0.881132 0.182193
0.279469 1 0.279469
0.416068 1 0.255711
0.512642 1 0.233631
0.596139 0.99115 0.219959
0.675013 0.982147 0.21088
0.751965 0.976989 0.205646
0.828504 0.97557 0.204089
0.910735 0.983001 0.211322
0.995193 0.995193 0.223255
0 0 0
0 0 0
0 0 0
0 0 0
0.197314 0.0302129 0.0879683
0.370886 0.0490425 0.143542
0.516075 0.0691997 0.184009
0.674601 0.0811322 0.217288
0.818906 0.0944228 0.245075
0.00500496 0.0339818 0.0339818
0.0907149 0.0907149 0.0907149
0.233814 0.117632 0.117632
0.382712 0.136782 0.136782
0.520684 0.154971 0.154971
0.638163 0.175906 0.175906
0.726101 0.202686 0.202686
0.7879 0.23476 0.23476
0.868971 0.260197 0.260197
0 0.285359 0.145357
0.122072 0.298207 0.122072
0.302434 0.302434 0.114183
0.456718 0.309804 0.130358
0.583047 0.322759 0.155871
0.687678 0.340215 0.185885
0.774502 0.361318 0.219272
0.846021 0.385565 0.255467
0.903975 0.412604 0.294118
0 0.468147 0.183352
0.151888 0.470268 0.151888
0.323796 0.471061 0.143908
0.474815 0.474815 0.156085
0.605493 0.482338 0.17995
0.717021 0.493904 0.210681
0.811597 0.509178 0.246006
0.891096 0.527672 0.284688
0.957107 0.549081 0.326146
0.0489509 0.610513 0.243015
0.204791 0.616449 0.204791
0.358724 0.619532 0.191501
0.500267 0.623499 0.197742
0.626261 0.626261 0.214374
0.732494 0.626627 0.235065
0.82002 0.626047 0.258091
0.897505 0.632364 0.28954
0.968917 0.648356 0.331334
0.130556 0.732769 0.307378
0.263188 0.742473 0.263188
0.390768 0.738842 0.236179
0.50782 0.73109 0.22443
0.614984 0.720882 0.223362
0.710307 0.710307 0.230854
0.793027 0.700938 0.245228
0.871839 0.702129 0.273518
0.948257 0.715251 0.315679
0.180896 0.804227 0.341054
0.291234 0.817304 0.291234
0.394461 0.808255 0.252201
0.494362 0.796979 0.231022
0.590997 0.785031 0.222919
0.682109 0.774227 0.226337
0.766155 0.766155 0.239918
0.848737 0.7682 0.268681
0.928649 0.779873 0.310475
0.223316 0.921691 0.383551
0.351781 0.906874 0.351781
0.432853 0.894011 0.302556
0.518822 0.882582 0.275624
0.607172 0.872465 0.264134
0.695018 0.864805 0.266194
0.780148 0.860716 0.280446
0.865019 0.865019 0.309621
0.948821 0.8766 0.337987
0.270726 1 0.431067
0.409552 1 0.409552
0.506523 0.998901 0.387808
0.58143 0.990082 0.35816
0.661036 0.98201 0.343618
0.742473 0.975738 0.342443
0.823453 0.972396 0.353567
0.90602 0.978286 0.367025
0.990402 0.990402 0.378943
0 0 0
0 0 0
0 0 0
0.065156 0.0117189 0.0513619
0.25066 0.0338903 0.164233
0.41796 0.0491493 0.237552
0.55906 0.0676432 0.287327
0.700542 0.0824903 0.329213
0.837751 0.0961776 0.364492
0.00947585 0.0595254 0.0965438
0.10251 0.10251 0.192447
0.250126 0.122194 0.250126
0.403952 0.136767 0.28368
0.54548 0.152346 0.305943
0.665644 0.171939 0.323781
0.752911 0.199191 0.340856
0.819989 0.230411 0.360296
0.873167 0.263996 0.38233
0 0.290806 0.290806
0.119539 0.300587 0.300587
0.302327 0.302327 0.302327
0.466392 0.307286 0.307286
0.599863 0.318975 0.318975
0.710826 0.335454 0.335454
0.80354 0.355734 0.355734
0.880659 0.379248 0.379248
0.94403 0.405585 0.405585
0 0.468421 0.341665
0.145235 0.472267 0.325048
0.314321 0.473747 0.314321
0.475242 0.475242 0.315755
0.616876 0.480232 0.329213
0.73698 0.490043 0.348959
0.838758 0.504051 0.372946
0.923949 0.520729 0.399374
0.995727 0.541024 0.429191
0.0486305 0.612558 0.387686
0.19266 0.62063 0.359869
0.343328 0.62472 0.343328
0.490578 0.627283 0.339483
0.625681 0.625681 0.344198
0.741115 0.62211 0.353964
0.836637 0.618463 0.366262
0.921065 0.622248 0.386831
0.999512 0.636942 0.418479
0.121798 0.734051 0.434577
0.243519 0.746151 0.398108
0.366354 0.742321 0.366354
0.486061 0.733135 0.344884
0.601389 0.720409 0.333165
0.706996 0.706996 0.330953
0.799878 0.69514 0.336294
0.887343 0.693721 0.355108
0.972076 0.705211 0.388296
0.163607 0.803998 0.449882
0.263996 0.82002 0.406241
0.363455 0.811872 0.363455
0.465583 0.800504 0.334386
0.569268 0.787518 0.316991
0.670359 0.775113 0.311452
0.765362 0.765362 0.316823
0.857847 0.765103 0.337057
0.947036 0.774838 0.370504
0.216159 0.914534 0.494957
0.317983 0.909438 0.44828
0.395621 0.897765 0.395621
0.483391 0.886976 0.361929
0.577874 0.876875 0.342306
0.674998 0.868711 0.336217
0.771145 0.863935 0.342947
0.866529 0.866529 0.364111
0.957763 0.87541 0.396445
0.263218 1 0.542214
0.402106 1 0.520821
0.465507 1 0.465507
0.541604 0.996994 0.429603
0.6262 0.989227 0.407462
0.715648 0.982834 0.398367
0.806683 0.97908 0.401938
0.89955 0.981979 0.420249
0.990295 0.990295 0.450187
0 0 0
0 0 0
0 0 0
0.120806 0.0217746 0.120806
0.293889 0.0384833 0.245518
0.453346 0.0522774 0.328496
0.588693 0.0703746 0.382742
0.724605 0.0852522 0.429343
0.855177 0.0996719 0.468208
0.0144961 0.0800183 0.1682
0.113939 0.113939 0.287266
0.259998 0.129625 0.36672
0.414084 0.141299 0.414084
0.557 0.155001 0.44065
0.677378 0.174014 0.455558
0.765255 0.201343 0.463722
0.836805 0.231617 0.474098
0.894377 0.264363 0.486946
0 0.295598 0.408972
0.128496 0.302678 0.445274
0.304173 0.304173 0.463066
0.467857 0.308659 0.467857
0.606546 0.319249 0.470069
0.722545 0.334859 0.475837
0.819959 0.354437 0.485466
0.901595 0.37731 0.498604
0.969345 0.403082 0.514855
0 0.467857 0.467857
0.153704 0.472236 0.472236
0.314885 0.474342 0.474342
0.475578 0.475578 0.475578
0.624552 0.479057 0.479057
0.750118 0.488045 0.488045
0.856596 0.501106 0.501106
0.945235 0.51603 0.51603
1 0.535576 0.535576
0.0629435 0.612543 0.508446
0.196094 0.621744 0.498543
0.339208 0.626963 0.490272
0.483482 0.629038 0.483482
0.624109 0.624109 0.478538
0.746517 0.617288 0.47895
0.847608 0.611322 0.48159
0.936965 0.613504 0.49247
1 0.627451 0.514946
0.128099 0.731975 0.543999
0.239033 0.745632 0.522393
0.353643 0.741878 0.494804
0.470237 0.732464 0.470237
0.589166 0.718425 0.450813
0.702815 0.702815 0.440558
0.803937 0.689036 0.438483
0.898314 0.685908 0.449516
0.989273 0.696269 0.474845
0.162341 0.800351 0.546853
0.252461 0.818387 0.515785
0.345281 0.811383 0.476478
0.445106 0.800824 0.445106
0.551507 0.787869 0.421729
0.659693 0.774624 0.409094
0.763714 0.763714 0.407919
0.864576 0.761913 0.421469
0.96112 0.770138 0.447959
0.211841 0.910231 0.587701
0.301503 0.908415 0.544686
0.373266 0.898283 0.494728
0.459236 0.888823 0.459236
0.555917 0.879576 0.434791
0.659098 0.871611 0.422583
0.763882 0.86659 0.423316
0.86807 0.86807 0.43827
0.967193 0.875181 0.463874
0.258579 1 0.634714
0.382162 1 0.605417
0.44004 1 0.552026
0.514321 1 0.514321
0.600473 0.994003 0.487846
0.694774 0.988128 0.473075
0.793271 0.984451 0.470741
0.894301 0.986389 0.482704
0.99295 0.99295 0.505974
0 0 0
0 0 0
0 0 0
0.165133 0.0303807 0.196628
0.327764 0.0445869 0.327764
0.478737 0.0581369 0.415503
0.607752 0.0764782 0.471473
0.746349 0.088777 0.525368
0.86952 0.10454 0.564889
0.0209354 0.0975814 0.242725
0.125093 0.125093 0.376547
0.267887 0.138491 0.469688
0.418143 0.148928 0.527794
0.559396 0.161685 0.559396
0.676371 0.181308 0.570993
0.767758 0.207462 0.57435
0.84332 0.236637 0.578744
0.904921 0.268421 0.584894
0 0.300343 0.507744
0.14139 0.306065 0.56286
0.308568 0.308568 0.588983
0.464714 0.31397 0.601114
0.604608 0.323583 0.604608
0.724712 0.338033 0.605859
0.826551 0.356619 0.608576
0.91249 0.378683 0.613916
0.984344 0.403754 0.622049
0.0224918 0.467369 0.571328
0.170001 0.472175 0.595239
0.323735 0.474693 0.611276
0.476829 0.476829 0.622309
0.625589 0.480095 0.625589
0.755718 0.488258 0.626535
0.865629 0.499718 0.629404
0.957397 0.513008 0.634028
1 0.531884 0.644358
0.085893 0.611643 0.611643
0.209598 0.621363 0.621363
0.345586 0.627008 0.627008
0.482414 0.62797 0.62797
0.621271 0.621271 0.621271
0.748669 0.612009 0.612009
0.85359 0.604456 0.604456
0.946807 0.605631 0.605631
1 0.619104 0.619104
0.143648 0.72784 0.640009
0.244892 0.742336 0.636469
0.35108 0.738277 0.619257
0.461326 0.728939 0.599695
0.578149 0.714855 0.578149
0.697704 0.697704 0.560998
0.806043 0.682338 0.552087
0.906096 0.678141 0.555611
1 0.687785 0.573098
0.171221 0.794583 0.634699
0.25182 0.813855 0.619852
0.337301 0.807782 0.589548
0.432197 0.798306 0.561959
0.537087 0.786297 0.537087
0.649348 0.773053 0.519066
0.761334 0.761334 0.512093
0.869856 0.758358 0.519707
0.972656 0.765362 0.53962
0.208713 0.907118 0.672419
0.296544 0.904814 0.639536
0.361624 0.896132 0.597162
0.443549 0.888289 0.56466
0.539178 0.880552 0.539178
0.645441 0.873518 0.522835
0.757122 0.86865 0.51838
0.869322 0.869322 0.527779
0.975525 0.874846 0.547356
0.255146 1 0.719173
0.373739 1 0.691112
0.425238 1 0.643961
0.495796 1 0.608423
0.580896 0.996689 0.580896
0.677363 0.991958 0.562524
0.781323 0.988846 0.555322
0.889448 0.990204 0.56173
0.995193 0.995193 0.578958
0 0 0
0 0 0
0.0505379 0.0147402 0.0848249
0.200793 0.0391089 0.273854
0.353338 0.0525826 0.406546
0.495521 0.0666972 0.495521
0.633021 0.0799878 0.563928
0.76585 0.0929427 0.618784
0.877989 0.111635 0.654414
0.0294041 0.113252 0.314961
0.136278 0.136278 0.458106
0.274876 0.148455 0.559518
0.419333 0.15877 0.624628
0.556405 0.171466 0.660487
0.669337 0.191882 0.669337
0.763165 0.216892 0.671321
0.841978 0.244923 0.672633
0.907118 0.275669 0.674525
0.00914015 0.305379 0.589014
0.157107 0.31075 0.656703
0.314763 0.314778 0.689494
0.462333 0.321477 0.708843
0.598856 0.33109 0.717678
0.72018 0.34464 0.72018
0.825238 0.362158 0.720623
0.914961 0.38323 0.721523
0.990677 0.407431 0.724041
0.0523384 0.467521 0.655177
0.190097 0.473075 0.696025
0.335531 0.476555 0.723354
0.48011 0.48011 0.742107
0.622553 0.484291 0.75172
0.753826 0.491722 0.753826
0.865919 0.500618 0.751049
0.960769 0.512169 0.748455
1 0.530236 0.751553
0.114473 0.610605 0.69839
0.229374 0.620783 0.726619
0.358328 0.626429 0.745403
0.487587 0.62591 0.755123
0.61857 0.61857 0.75523
0.744701 0.608026 0.744701
0.852888 0.598993 0.729213
0.949737 0.599313 0.721828
1 0.612314 0.726986
0.165728 0.722515 0.722515
0.258167 0.737514 0.737514
0.356817 0.732815 0.732815
0.460914 0.723156 0.723156
0.572427 0.709133 0.709133
0.691722 0.691722 0.691722
0.805707 0.675441 0.675441
0.91017 0.670817 0.670817
1 0.680049 0.680049
0.16936 0.792737 0.71487
0.259693 0.807492 0.715404
0.338384 0.801984 0.697246
0.427878 0.793362 0.678447
0.528557 0.782528 0.658824
0.640055 0.770352 0.640055
0.758328 0.758328 0.628031
0.873869 0.754513 0.630091
0.981857 0.760632 0.643275
0.206348 0.904768 0.752117
0.300877 0.899382 0.729625
0.359487 0.891905 0.698222
0.436606 0.885573 0.673075
0.528939 0.879576 0.651514
0.634699 0.874189 0.634699
0.750774 0.870161 0.626291
0.870268 0.870268 0.630671
0.982971 0.874327 0.644495
0.252461 1 0.798627
0.374762 1 0.774701
0.419852 1 0.737057
0.485817 1 0.707454
0.567926 0.997314 0.68275
0.663844 0.994247 0.663844
0.770825 0.992309 0.65333
0.884779 0.9935 0.654765
0.997024 0.997024 0.666316
0 0 0
0 0 0
0.0897231 0.0281834 0.165835
0.229007 0.0488289 0.347784
0.371847 0.0626078 0.478523
0.51722 0.0728008 0.580667
0.655833 0.0839246 0.655833
0.783139 0.0977493 0.709804
0.886076 0.119036 0.739864
0.040116 0.127733 0.38114
0.147738 0.147738 0.52987
0.281376 0.159487 0.635904
0.419196 0.170336 0.705165
0.549691 0.184054 0.742428
0.659007 0.204944 0.75079
0.753826 0.229007 0.753826
0.834806 0.256016 0.754437
0.902739 0.28574 0.754238
0.0337987 0.310872 0.653605
0.175189 0.316747 0.728511
0.322423 0.322423 0.769467
0.461402 0.330495 0.795575
0.592508 0.340688 0.810391
0.712291 0.353902 0.816907
0.818586 0.370596 0.818586
0.910903 0.390707 0.818265
0.989837 0.413977 0.817838
0.0847028 0.468544 0.721584
0.212253 0.475196 0.777371
0.348898 0.479927 0.81445
0.484977 0.484977 0.840345
0.620081 0.49041 0.856245
0.748058 0.497658 0.862913
0.85951 0.50396 0.85951
0.956542 0.513741 0.853941
1 0.530846 0.852796
0.146746 0.609934 0.769726
0.252918 0.620737 0.814633
0.373846 0.625971 0.844099
0.494835 0.624552 0.860807
0.617151 0.617151 0.866255
0.73669 0.60647 0.860365
0.845258 0.596109 0.845258
0.945373 0.595392 0.833936
1 0.607721 0.833356
0.175525 0.720913 0.798779
0.276448 0.732052 0.824125
0.368002 0.726787 0.83151
0.4663 0.716823 0.831724
0.57261 0.702861 0.826535
0.686183 0.686183 0.816449
0.800244 0.669978 0.800244
0.908721 0.665019 0.78941
1 0.673854 0.791165
0.167773 0.791165 0.791165
0.274052 0.800183 0.800183
0.346624 0.795071 0.795071
0.431296 0.78703 0.78703
0.52781 0.777035 0.777035
0.635721 0.766018 0.766018
0.754818 0.754818 0.754818
0.876051 0.750729 0.750729
0.988006 0.756374 0.756374
0.204532 0.902968 0.828229
0.312718 0.892836 0.812268
0.365484 0.88632 0.793561
0.438071 0.881239 0.778546
0.526574 0.876783 0.76527
0.629389 0.873243 0.753857
0.745556 0.870939 0.745556
0.870893 0.870893 0.74548
0.989532 0.873671 0.753689
0.25034 1 0.874495
0.383688 1 0.853407
0.422782 0.99971 0.82739
0.484169 0.997711 0.806592
0.562539 0.995941 0.788479
0.655879 0.994781 0.773342
0.762737 0.994644 0.762737
0.880323 0.996277 0.76025
0.998505 0.998505 0.766415
0 0 0
0 0 0.00274662
0.124056 0.0384527 0.252888
0.259236 0.0555734 0.433982
0.401556 0.0665904 0.571099
0.542641 0.0766308 0.672984
0.676402 0.0882887 0.746868
0.797116 0.103655 0.797116
0.894087 0.126574 0.822217
0.0429236 0.141238 0.471443
0.15967 0.15967 0.590158
0.287678 0.171603 0.698451
0.418341 0.183444 0.76968
0.540368 0.199222 0.804196
0.64712 0.219898 0.816281
0.741543 0.243305 0.821881
0.823468 0.26949 0.823468
0.903685 0.294331 0.831647
0.0444038 0.318883 0.731945
0.194247 0.323964 0.783047
0.331319 0.331319 0.831891
0.461906 0.340734 0.8645
0.586831 0.351751 0.885237
0.703288 0.365103 0.896651
0.80885 0.381353 0.901488
0.902312 0.400717 0.902312
0.98349 0.423117 0.901259
0.098909 0.474006 0.795865
0.235752 0.478523 0.841627
0.363394 0.484672 0.887648
0.491188 0.491188 0.920211
0.618906 0.497932 0.942184
0.741512 0.505257 0.95378
0.850507 0.510338 0.953094
0.948425 0.519142 0.948425
1 0.53547 0.946212
0.152789 0.616007 0.850462
0.278843 0.621515 0.886534
0.391379 0.626719 0.925429
0.504295 0.625315 0.948684
0.618433 0.618433 0.959533
0.730861 0.608377 0.958755
0.836408 0.597879 0.947829
0.937804 0.596613 0.937804
1 0.608301 0.935409
0.179644 0.725048 0.877607
0.300557 0.729046 0.898695
0.384848 0.723384 0.91696
0.477104 0.713451 0.925826
0.577493 0.700008 0.927932
0.684504 0.684504 0.923842
0.793729 0.669337 0.913024
0.903502 0.664134 0.903502
1 0.672358 0.901976
0.171344 0.794766 0.869459
0.296788 0.796139 0.876661
0.36286 0.790784 0.883513
0.442588 0.78294 0.885573
0.534813 0.773419 0.884886
0.638758 0.763165 0.88249
0.753307 0.753307 0.878614
0.874922 0.749584 0.874922
0.990433 0.754757 0.874662
0.208331 0.906813 0.906813
0.334264 0.889433 0.889433
0.380652 0.882872 0.882872
0.448539 0.878172 0.878172
0.533013 0.874449 0.874449
0.632334 0.871855 0.871855
0.745373 0.870771 0.870771
0.871214 0.871214 0.871214
0.994537 0.873137 0.873137
0.254078 1 0.953094
0.391913 1 0.930602
0.43566 0.997055 0.914687
0.492119 0.995529 0.903502
0.566308 0.994583 0.893874
0.65594 0.994553 0.885863
0.759838 0.995819 0.879896
0.876829 0.998337 0.876829
0.999603 0.999603 0.87805
0 0 0
0.0373236 0.0180667 0.110704
0.155886 0.0463111 0.349157
0.289357 0.060441 0.529732
0.428672 0.0705882 0.665629
0.565698 0.080766 0.765438
0.694759 0.0931716 0.836454
0.806104 0.111482 0.877867
0.902068 0.134188 0.902068
0.0456245 0.153674 0.565164
0.169711 0.169711 0.669932
0.29398 0.184802 0.746853
0.417258 0.19791 0.818753
0.531319 0.215641 0.850538
0.634684 0.236316 0.866972
0.727581 0.259358 0.875975
0.818372 0.281178 0.890394
0.910384 0.300969 0.910384
0.0504616 0.327428 0.815946
0.214115 0.33228 0.82237
0.341268 0.341268 0.878843
0.463691 0.352026 0.917708
0.582147 0.363989 0.944198
0.694255 0.377768 0.960769
0.797696 0.393927 0.96965
0.890898 0.412818 0.973114
0.973159 0.434531 0.973159
0.105852 0.48101 0.874922
0.260243 0.482963 0.890623
0.378866 0.490623 0.945006
0.498573 0.498573 0.984039
0.619043 0.506615 1
0.735897 0.514641 1
0.841596 0.519722 1
0.938933 0.528222 1
1 0.543923 1
0.158953 0.622202 0.92874
0.306386 0.62324 0.943618
0.41091 0.629282 0.991684
0.516426 0.628885 1
0.62324 0.62324 1
0.729 0.614359 1
0.830091 0.604486 1
0.930327 0.603265 1
1 0.614389 1
0.184741 0.730175 0.954849
0.328969 0.728389 0.961288
0.406592 0.7234 0.990188
0.492897 0.71426 1
0.587182 0.701839 1
0.687633 0.687633 1
0.790936 0.673655 1
0.898375 0.668788 1
1 0.676493 1
0.176013 0.799466 0.946288
0.325322 0.794522 0.943221
0.385504 0.78967 0.961807
0.460258 0.782315 0.97322
0.547723 0.773388 0.980591
0.646616 0.763928 0.985092
0.755245 0.755245 0.986831
0.872267 0.752392 0.988022
0.988754 0.757092 0.988754
0.213107 0.91162 0.983795
0.352178 0.890471 0.962646
0.403006 0.881697 0.964004
0.466224 0.877287 0.969253
0.546502 0.873808 0.974441
0.641779 0.871504 0.980087
0.75082 0.870756 0.986572
0.871885 0.871885 0.993255
0.995148 0.873732 0.995148
0.258534 1 1
0.396246 1 1
0.456367 0.996017 0.996017
0.508202 0.994766 0.994766
0.578164 0.994095 0.994095
0.663828 0.994324 0.994324
0.763912 0.99588 0.99588
0.877272 0.998779 0.998779
0.999985 0.999985 0.999985
