LUTs/50.cube
TITLE "Generate by Resolve"
LUT_3D_SIZE 33
0 0 0
0 0 0
0 0 0
0 0 0
0 0 0
0 0 0
0 0 0
0 0 0
0 0 0
0 0 0
0 0 0
0 0 0
0 0 0
0 0 0
0.0296483 0.005066 0.005066
0.0842603 0.0170596 0.0170596
0.133364 0.0259098 0.0259098
0.179828 0.033402 0.033402
0.224537 0.0400549 0.0400549
0.267445 0.0462806 0.0462806
0.308476 0.0522774 0.0522774
0.349096 0.0578012 0.0578012
0.393515 0.0618143 0.0618143
0.437476 0.0655375 0.0655375
0.480903 0.0690471 0.0690471
0.52369 0.0723888 0.0723888
0.565774 0.0756542 0.0756542
0.60708 0.0788739 0.0788739
0.647532 0.0820783 0.0820783
0.687068 0.0853132 0.0853132
0.725643 0.0886091 0.0886091
0.76321 0.0920119 0.0920119
0.79971 0.0955215 0.0955215
0 0 0
0 0 0
0 0 0
0 0 0
0 0 0
0 0 0
0 0 0
0 0 0
0 0 0
0 0 0
0 0 0
0.0455177 0.0117342 0.00851453
0.0931106 0.0235752 0.0173953
0.138186 0.0328527 0.0240787
0.18175 0.0408026 0.0297246
0.224399 0.0478523 0.034699
0.265873 0.0543374 0.039353
0.306065 0.0604868 0.0439002
0.344793 0.0664683 0.0484932
0.381949 0.0723888 0.0532235
0.417395 0.0783703 0.0581826
0.451041 0.0844739 0.063447
0.487037 0.0896315 0.0676585
0.526497 0.0936141 0.0704814
0.565393 0.0974899 0.0732891
0.603616 0.101305 0.0761273
0.641138 0.105104 0.0790417
0.677852 0.108904 0.0820325
0.713726 0.112764 0.0851606
0.748714 0.116686 0.088426
0.782757 0.120699 0.0918593
0.815869 0.124804 0.0954604
0.847868 0.129076 0.0992905
0 0 0
0 0 0
0 0 0
0 0 0
0 0 0
0 0 0
0 0 0
0.00672923 0.00109865 0
0.0531319 0.0197757 0.00958267
0.0937972 0.0323339 0.0155489
0.133852 0.0425574 0.0199283
0.173907 0.0512703 0.0234073
0.213764 0.0589609 0.0264286
0.253208 0.0659495 0.0292668
0.291997 0.0724651 0.0321202
0.329915 0.078645 0.0351415
0.366751 0.0846418 0.038407
0.402335 0.0905776 0.0420386
0.43653 0.0965133 0.0460517
0.4692 0.102525 0.0505226
0.500252 0.10869 0.0554665
0.529625 0.115023 0.060914
0.55726 0.121599 0.0668803
0.590204 0.126604 0.0704662
0.625162 0.130892 0.073106
0.659434 0.135195 0.0758984
0.692988 0.139498 0.0788739
0.725811 0.143847 0.0820325
0.757687 0.148287 0.0854353
0.788678 0.152819 0.0890822
0.818769 0.157458 0.0929732
0.845655 0.162814 0.0979477
0.870054 0.168688 0.103761
0 0 0
0 0 0
0 0 0
0 0 0
0.0163729 0.0124514 0.0019379
0.047715 0.0313268 0.00656138
0.0798199 0.045655 0.00852979
0.113375 0.057496 0.0093843
0.148272 0.067628 0.00958267
0.184085 0.0764935 0.00958267
0.220432 0.0844129 0.00962844
0.256977 0.0916457 0.0099031
0.293355 0.0983291 0.010544
0.32932 0.104662 0.0116579
0.364599 0.110735 0.0133059
0.398993 0.11667 0.0155337
0.432334 0.122545 0.0183871
0.464454 0.128435 0.0218967
0.495247 0.134386 0.0260624
0.52462 0.140475 0.0308843
0.552468 0.146715 0.0363928
0.578775 0.15317 0.0425422
0.603449 0.159838 0.0493629
0.626505 0.166766 0.0568093
0.655207 0.172168 0.0610056
0.685924 0.176944 0.0640269
0.715923 0.18175 0.0673381
0.745113 0.186633 0.0709544
0.770489 0.19234 0.0763867
0.794995 0.198154 0.0820935
0.819196 0.203937 0.0878004
0.843137 0.209689 0.093492
0.86685 0.215412 0.0991684
0 0 0
0.00814832 0.0260471 0.00390631
0.0230259 0.0478218 0.0059968
0.0476081 0.0638437 0.00410468
0.0768139 0.0768139 0.00106813
0.107164 0.0882124 0
0.139269 0.0981765 0
0.172732 0.106996 0
0.207141 0.1149 0
0.242084 0.122087 0
0.277211 0.12871 0
0.3122 0.134936 0
0.346792 0.140871 0
0.380804 0.146593 0
0.413962 0.152224 0
0.446128 0.157824 0
0.47718 0.163439 0
0.506996 0.169131 0.00225834
0.535454 0.174945 0.00753796
0.562524 0.180926 0.0135958
0.588113 0.187091 0.0204013
0.612222 0.193469 0.027924
0.63476 0.200092 0.0361944
0.655695 0.206989 0.0451514
0.674388 0.214282 0.0552071
0.699596 0.219989 0.0606851
0.724361 0.225696 0.0662547
0.748837 0.231373 0.0718395
0.773053 0.237018 0.0774243
0.797055 0.242634 0.0829633
0.820844 0.248203 0.0884871
0.844434 0.253727 0.0939803
0.867842 0.259236 0.099443
0.00709544 0.0835279 0.00709544
0.0193332 0.101045 0.00399786
0.0382696 0.115679 0
0.0718242 0.125475 0
0.107713 0.133776 0
0.141878 0.141878 0
0.176501 0.149248 0
0.211582 0.155993 0
0.246906 0.162188 0
0.282185 0.167987 0
0.317189 0.17348 0
0.35169 0.178775 0
0.385473 0.183932 0
0.418402 0.189029 0
0.450294 0.194141 0
0.481056 0.199313 0
0.510567 0.204578 0
0.538796 0.209979 0
0.565576 0.215564 0
0.590921 0.221363 0.00534066
0.614801 0.227375 0.0138247
0.635584 0.233951 0.0243839
0.6542 0.24094 0.0361181
0.671687 0.248127 0.0480812
0.688167 0.255482 0.0602274
0.708827 0.261845 0.0686656
0.733166 0.267323 0.0740826
0.75729 0.272786 0.0794842
0.781186 0.278202 0.0848554
0.804898 0.283589 0.0901961
0.828428 0.288945 0.0955215
0.851759 0.294286 0.100816
0.874937 0.29958 0.106096
0 0.153231 0
0.0157778 0.166812 0
0.0403754 0.177829 0
0.0823682 0.183581 0
0.124514 0.188647 0
0.162448 0.194308 0
0.19971 0.19971 0
0.236622 0.204776 0
0.273121 0.209598 0
0.309071 0.214206 0
0.344305 0.218708 0
0.378698 0.223148 0
0.41207 0.227588 0
0.444373 0.232074 0
0.475471 0.236667 0
0.505226 0.241398 0
0.533639 0.246296 0
0.560525 0.251408 0
0.584161 0.257069 0
0.606409 0.262974 0.00775158
0.627466 0.269093 0.019379
0.64744 0.275395 0.0312047
0.666377 0.28188 0.0432136
0.684306 0.288548 0.0553902
0.701259 0.295384 0.0677348
0.719295 0.301976 0.0785077
0.743358 0.30724 0.0837262
0.767224 0.312474 0.0889296
0.79089 0.317693 0.0941024
0.814374 0.322896 0.0992599
0.837674 0.328054 0.104402
0.860807 0.333211 0.109529
0.883772 0.338323 0.114626
0 0.216968 0
0.00828565 0.227741 0
0.0378882 0.236118 0
0.0866255 0.238895 0
0.133791 0.241489 0
0.174853 0.245274 0
0.214343 0.249088 0
0.252827 0.252827 0
0.290394 0.256474 0
0.326986 0.26009 0
0.362539 0.263722 0
0.396918 0.267414 0
0.430045 0.271214 0
0.461906 0.275151 0
0.491814 0.279316 0
0.519387 0.283833 0
0.545571 0.288594 0
0.570474 0.293584 0
0.594171 0.298787 0.00448615
0.616724 0.304204 0.016022
0.638178 0.309834 0.0277562
0.658579 0.315663 0.0396887
0.677974 0.321675 0.0518196
0.696376 0.327886 0.0641031
0.713802 0.334264 0.076585
0.730373 0.34081 0.0891737
0.754208 0.345892 0.0942245
0.777859 0.350927 0.0992447
0.801328 0.355962 0.10425
0.824613 0.360983 0.109239
0.84773 0.365972 0.114214
0.870695 0.370962 0.119173
0.893492 0.375921 0.124102
0 0.275731 0
0.00163272 0.284352 0
0.0352331 0.290669 0
0.0889143 0.291218 0
0.139727 0.291981 0
0.183124 0.294301 0
0.224262 0.296864 0
0.263905 0.299535 0
0.302235 0.302235 0
0.339284 0.305028 0
0.37499 0.307942 0
0.408774 0.310979 0
0.440757 0.314244 0
0.471229 0.3178 0
0.500282 0.32163 0
0.527993 0.325689 0
0.554421 0.330007 0
0.579629 0.334554 0.00265507
0.603677 0.33933 0.013962
0.626612 0.344305 0.0254978
0.648463 0.349508 0.0372778
0.669291 0.35491 0.0492561
0.689113 0.360494 0.0614481
0.707973 0.366278 0.0738079
0.725856 0.372259 0.0863966
0.742901 0.378393 0.0990616
0.765423 0.383505 0.10518
0.788891 0.388373 0.110033
0.812177 0.39324 0.114885
0.835309 0.398093 0.119722
0.858259 0.402945 0.124529
0.881056 0.407767 0.129351
0.9037 0.412589 0.134142
0 0.329793 0
0 0.336706 0
0.0349584 0.341421 0
0.0919509 0.340368 0
0.145159 0.339773 0
0.190066 0.340978 0
0.232258 0.342596 0
0.272602 0.344366 0
0.311299 0.34609 0
0.348119 0.348119 0
0.383215 0.350454 0
0.416709 0.353094 0
0.448707 0.356008 0
0.479255 0.359182 0
0.508461 0.362631 0
0.536385 0.366323 0
0.563073 0.370245 0.00222782
0.588571 0.374411 0.0131838
0.61294 0.378805 0.0244297
0.636225 0.383398 0.0359503
0.658442 0.38822 0.047715
0.679652 0.39324 0.0597086
0.699886 0.398459 0.0719158
0.719158 0.403861 0.0843214
0.737469 0.409461 0.0969711
0.754955 0.415229 0.109712
0.776837 0.420249 0.116411
0.800137 0.424964 0.121111
0.823285 0.429679 0.125811
0.84625 0.434394 0.130495
0.869062 0.439094 0.13518
0.891707 0.443778 0.139849
0.914214 0.448463 0.144518
0 0.379324 0
3.0518e-05 0.384894 0
0.0386358 0.388388 0
0.0975204 0.386221 0
0.152544 0.38436 0
0.198856 0.384314 0
0.241581 0.384985 0
0.281834 0.386099 0
0.320089 0.387579 0
0.356573 0.389364 0
0.391455 0.391455 0
0.424826 0.39382 0
0.456779 0.396445 0
0.487388 0.399329 0
0.516701 0.402457 0
0.544778 0.405829 0.00329595
0.571664 0.40943 0.0137942
0.597406 0.41326 0.0246281
0.622049 0.417319 0.0357824
0.64564 0.421592 0.0472267
0.668193 0.426062 0.0589609
0.689754 0.430747 0.0709239
0.710338 0.43563 0.0831311
0.730007 0.440696 0.0955673
0.748714 0.44596 0.108232
0.766613 0.451392 0.121019
0.788357 0.45623 0.127794
0.811521 0.460822 0.132357
0.834516 0.4654 0.136919
0.857359 0.469978 0.141482
0.880034 0.47454 0.146029
0.902556 0.479103 0.150576
0.924941 0.483665 0.155108
0 0.424491 0
0.00917067 0.42826 0
0.0504768 0.430182 0
0.11043 0.426963 0
0.165026 0.424704 0
0.21033 0.424613 0
0.252186 0.425208 0
0.291737 0.42623 0
0.329442 0.427588 0
0.365515 0.429221 0
0.400092 0.431128 0
0.43328 0.43328 0
0.465141 0.435691 0
0.49572 0.438331 0
0.525078 0.441199 0.00604257
0.553262 0.444312 0.0159304
0.580301 0.447639 0.0262303
0.606241 0.451194 0.0369116
0.631113 0.454963 0.0479591
0.654948 0.45893 0.0593118
0.677791 0.463111 0.0709697
0.699657 0.467491 0.082887
0.720577 0.472068 0.0950637
0.740581 0.476844 0.107469
0.75967 0.481788 0.12015
0.777935 0.486931 0.132952
0.799939 0.491554 0.139254
0.822965 0.49601 0.143694
0.845838 0.500465 0.148119
0.868544 0.504906 0.15256
0.891112 0.509361 0.157
0.913512 0.513802 0.161425
0.935775 0.518242 0.16585
0 0.46305 0
0.0272984 0.466529 0
0.0672923 0.468498 0
0.125338 0.465537 0
0.178408 0.463432 0
0.222553 0.463401 0
0.263493 0.464012 0
0.302296 0.464988 0
0.339391 0.466285 0
0.37499 0.467826 0
0.409216 0.469612 0
0.442145 0.471611 0
0.473838 0.473838 0.00202945
0.504341 0.476295 0.0106203
0.533684 0.478965 0.0197604
0.561913 0.481849 0.0294041
0.589044 0.484947 0.0395056
0.615122 0.488258 0.0500191
0.640177 0.491783 0.0608988
0.664225 0.495491 0.0721447
0.687312 0.499413 0.0836957
0.709438 0.503532 0.0955367
0.730663 0.507836 0.107668
0.750973 0.512337 0.120043
0.770382 0.517021 0.132692
0.788983 0.521874 0.14551
0.811505 0.526253 0.150713
0.834409 0.530556 0.155016
0.85713 0.534874 0.159319
0.879698 0.539193 0.163607
0.902113 0.543496 0.167895
0.924376 0.547784 0.172183
0.946487 0.552071 0.176455
0.0127108 0.499718 0.0127108
0.0462654 0.503258 0.00817884
0.0848707 0.505348 0.00247196
0.140978 0.502708 0
0.192477 0.500832 0
0.235477 0.500893 0
0.275471 0.501549 0
0.313497 0.502556 0
0.34995 0.503807 0
0.385031 0.505302 0
0.41886 0.506996 0.00271611
0.451484 0.508904 0.00956741
0.482948 0.510994 0.0171817
0.513313 0.513313 0.0254368
0.54258 0.515816 0.0343023
0.570794 0.518517 0.0436866
0.597971 0.521431 0.0535592
0.62414 0.524529 0.0638895
0.649317 0.52784 0.0746166
0.673533 0.531334 0.0856947
0.696818 0.535027 0.0971389
0.719173 0.538903 0.108888
0.740642 0.542962 0.120928
0.761013 0.547021 0.133043
0.780163 0.550866 0.145068
0.798428 0.554528 0.156344
0.820447 0.557778 0.159594
0.843122 0.561868 0.163668
0.865629 0.565957 0.167727
0.887968 0.570031 0.171801
0.910155 0.574105 0.17586
0.932189 0.57818 0.179919
0.954086 0.582254 0.183963
0.0335546 0.535042 0.0335546
0.0658579 0.538705 0.028687
0.103075 0.540963 0.0226291
0.15729 0.538643 0.0109102
0.207233 0.537011 0.00430304
0.249088 0.537209 0.00265507
0.288121 0.537942 0.00326543
0.325353 0.538994 0.00552377
0.361135 0.540261 0.00907912
0.395666 0.541726 0.0137331
0.429023 0.543389 0.019379
0.461295 0.54522 0.025864
0.4925 0.547234 0.0331273
0.522652 0.549416 0.041062
0.551797 0.551797 0.0496376
0.57995 0.55436 0.0587625
0.607111 0.557107 0.0684062
0.633326 0.560052 0.0785077
0.658595 0.563165 0.0890364
0.682902 0.56643 0.0999466
0.705974 0.569574 0.110887
0.72781 0.572519 0.121798
0.748409 0.575311 0.132677
0.767834 0.577951 0.143526
0.786099 0.580468 0.154345
0.804547 0.582742 0.162387
0.82562 0.585061 0.164691
0.848112 0.588968 0.168582
0.870436 0.592874 0.172473
0.892592 0.596765 0.176364
0.914595 0.600656 0.18024
0.936461 0.604547 0.184115
0.95816 0.608438 0.187976
0.0549172 0.569223 0.0549172
0.0860151 0.573007 0.0497444
0.121889 0.575433 0.0433509
0.174228 0.57348 0.0312047
0.222629 0.572122 0.0241398
0.263355 0.572473 0.0220798
0.301442 0.573312 0.0222782
0.337835 0.574411 0.0241245
0.37293 0.575723 0.0272679
0.406867 0.577203 0.0315404
0.43975 0.578836 0.0368048
0.471611 0.580636 0.0429236
0.502495 0.582589 0.0498512
0.532418 0.584695 0.0574655
0.561395 0.586984 0.0657359
0.589426 0.589426 0.0745861
0.616419 0.591928 0.0838483
0.64213 0.594217 0.0932479
0.666575 0.596338 0.102724
0.689799 0.598276 0.112276
0.711818 0.600076 0.121889
0.732677 0.60174 0.131563
0.752422 0.603296 0.141299
0.771038 0.604761 0.15111
0.788617 0.606134 0.160876
0.807446 0.607324 0.16524
0.82771 0.608835 0.166735
0.850065 0.612604 0.170474
0.872236 0.616358 0.174228
0.894255 0.620111 0.177966
0.916121 0.623865 0.181689
0.937819 0.627604 0.185412
0.959396 0.631342 0.189136
0.0767987 0.602335 0.0767987
0.106706 0.606287 0.0713207
0.141268 0.608911 0.064622
0.19176 0.607324 0.0520485
0.238666 0.606226 0.0445716
0.278248 0.606744 0.0421149
0.315373 0.607706 0.0419318
0.350958 0.608896 0.0433967
0.385336 0.610269 0.0461585
0.418662 0.61178 0.0500496
0.451026 0.613428 0.0549477
0.48246 0.615213 0.0607156
0.512978 0.617121 0.0672923
0.542367 0.618936 0.074342
0.570489 0.620508 0.0816815
0.597391 0.621881 0.0892653
0.623072 0.623072 0.0970779
0.647578 0.624109 0.105089
0.670939 0.62501 0.113268
0.693172 0.625788 0.121614
0.714305 0.626474 0.130098
0.734371 0.627085 0.13872
0.753399 0.627634 0.147463
0.771389 0.628122 0.156344
0.788464 0.62858 0.165148
0.807767 0.628946 0.165499
0.827375 0.629786 0.166339
0.849607 0.633433 0.16997
0.871672 0.637079 0.173602
0.893568 0.640726 0.177218
0.915312 0.644358 0.180835
0.936904 0.64799 0.184451
0.958358 0.651606 0.188052
0.0991836 0.634501 0.0991836
0.127916 0.638605 0.093431
0.161196 0.641428 0.0864271
0.209888 0.640223 0.0734569
0.255299 0.639429 0.0655833
0.293767 0.640116 0.0627604
0.329946 0.641215 0.062211
0.364691 0.642512 0.0632944
0.398337 0.643961 0.0657054
0.430991 0.645472 0.0691997
0.462425 0.646769 0.0733501
0.492622 0.647791 0.0780194
0.52166 0.648585 0.0831617
0.549538 0.64918 0.0887007
0.576272 0.649577 0.0946059
0.601907 0.649821 0.100862
0.626459 0.649943 0.107408
0.649943 0.649943 0.114229
0.672374 0.649851 0.121309
0.693767 0.649683 0.128618
0.714168 0.64947 0.136141
0.733577 0.649226 0.143877
0.75201 0.648951 0.151858
0.769528 0.648676 0.15993
0.787381 0.648463 0.164034
0.806088 0.648219 0.163775
0.825177 0.648539 0.164111
0.847318 0.65211 0.167651
0.869291 0.655665 0.171176
0.891112 0.659205 0.174716
0.912764 0.662745 0.178241
0.934264 0.666285 0.181765
0.955627 0.669825 0.185275
0.122042 0.665782 0.122042
0.149645 0.670054 0.11603
0.181659 0.673106 0.108736
0.228595 0.672267 0.0953841
0.272526 0.671763 0.087129
0.30988 0.672648 0.0839704
0.344991 0.673777 0.0829633
0.378393 0.674678 0.0831922
0.410422 0.675334 0.0843671
0.441245 0.675731 0.0863355
0.470924 0.675898 0.0889754
0.499535 0.675837 0.092195
0.527108 0.675593 0.095964
0.553643 0.675181 0.100221
0.579187 0.674632 0.104906
0.603723 0.673976 0.110002
0.627283 0.673213 0.11548
0.649866 0.672389 0.121294
0.671519 0.671519 0.127443
0.692226 0.670604 0.133883
0.712016 0.669688 0.140627
0.730892 0.668757 0.147707
0.748913 0.667872 0.15491
0.766171 0.667033 0.161944
0.784695 0.666407 0.161318
0.802945 0.665705 0.160616
0.821668 0.665675 0.160571
0.843748 0.669169 0.164034
0.86566 0.672648 0.167498
0.887404 0.676127 0.170962
0.90898 0.679606 0.174426
0.930419 0.68307 0.177874
0.951705 0.686534 0.181308
0.145113 0.695964 0.145113
0.17171 0.700526 0.138949
0.202609 0.703914 0.131502
0.247639 0.703319 0.117647
0.289494 0.702495 0.1084
0.324758 0.702571 0.103914
0.357687 0.702617 0.10135
0.38909 0.702495 0.100084
0.419287 0.702144 0.0998398
0.448402 0.701595 0.100435
0.476539 0.700847 0.101778
0.503746 0.699916 0.103777
0.530007 0.698848 0.106386
0.555383 0.697658 0.109529
0.579858 0.696361 0.113191
0.603449 0.694987 0.117327
0.626154 0.693553 0.121904
0.648005 0.692088 0.126879
0.669001 0.690608 0.13225
0.689143 0.689143 0.138003
0.708461 0.687694 0.144091
0.726955 0.68629 0.150561
0.744656 0.684947 0.157275
0.762722 0.683925 0.158465
0.780911 0.682963 0.157504
0.798871 0.681971 0.156512
0.817365 0.681712 0.156237
0.839399 0.685145 0.159655
0.86125 0.688579 0.163058
0.882933 0.691997 0.166461
0.904463 0.695415 0.169863
0.925841 0.698833 0.173251
0.947082 0.702251 0.176638
0.165484 0.722164 0.165484
0.191302 0.727275 0.159396
0.221485 0.731395 0.152193
0.264149 0.730526 0.137316
0.303365 0.728801 0.126528
0.336431 0.727977 0.120623
0.367391 0.727153 0.116716
0.396994 0.726192 0.114183
0.425544 0.725063 0.112718
0.453162 0.723766 0.112169
0.479912 0.722301 0.112413
0.505852 0.720714 0.113375
0.530999 0.719005 0.115007
0.555337 0.71722 0.117235
0.578897 0.715358 0.120043
0.601678 0.713466 0.123369
0.623682 0.711543 0.127214
0.644923 0.709621 0.131518
0.665385 0.707729 0.136278
0.6851 0.705867 0.141482
0.704067 0.704067 0.147112
0.722286 0.702342 0.153079
0.740337 0.700938 0.155398
0.758541 0.699794 0.154238
0.776532 0.69865 0.153094
0.794354 0.697505 0.151949
0.812741 0.697154 0.151568
0.83473 0.700542 0.15494
0.856535 0.703929 0.158312
0.878187 0.707317 0.161669
0.899672 0.710689 0.165026
0.921004 0.714061 0.168383
0.942214 0.717433 0.171725
0.180148 0.745266 0.180148
0.207904 0.749813 0.176852
0.237339 0.75462 0.169833
0.277638 0.753491 0.153964
0.314458 0.751064 0.141848
0.345541 0.749554 0.134722
0.374731 0.748074 0.129686
0.402731 0.746487 0.126085
0.429801 0.744762 0.123613
0.456092 0.742901 0.122103
0.481636 0.740917 0.121431
0.506477 0.738842 0.121553
0.530632 0.736675 0.122377
0.554101 0.734478 0.123873
0.576883 0.732219 0.125978
0.598993 0.729976 0.128679
0.620417 0.727733 0.131945
0.641154 0.725521 0.135729
0.661219 0.723354 0.140108
0.680613 0.721279 0.144839
0.699336 0.71928 0.150057
0.717662 0.717662 0.152285
0.735958 0.716381 0.150988
0.75407 0.715129 0.149737
0.772015 0.713939 0.148531
0.789807 0.712795 0.147387
0.80824 0.712444 0.147036
0.830182 0.715801 0.150362
0.851957 0.719158 0.153704
0.873564 0.722515 0.157031
0.895033 0.725856 0.160357
0.916335 0.729198 0.163668
0.937514 0.73254 0.166979
0.183658 0.768399 0.183658
0.216861 0.770993 0.186221
0.250797 0.774273 0.185046
0.288777 0.7729 0.168215
0.3234 0.770001 0.154986
0.352697 0.767971 0.146853
0.380301 0.766018 0.140887
0.406867 0.763973 0.1364
0.432654 0.761837 0.133089
0.457771 0.759594 0.1308
0.482261 0.757275 0.129396
0.506157 0.754879 0.128832
0.529458 0.752438 0.12903
0.552193 0.749966 0.129931
0.574334 0.747494 0.131518
0.59588 0.745052 0.13373
0.616846 0.742641 0.136553
0.637217 0.740291 0.140032
0.656992 0.738048 0.143954
0.676173 0.735882 0.14844
0.69485 0.734234 0.149264
0.713314 0.732891 0.147906
0.731609 0.731609 0.146624
0.749752 0.730404 0.145403
0.767773 0.729274 0.144274
0.785702 0.728252 0.143236
0.804273 0.728054 0.143023
0.826185 0.73138 0.146334
0.847929 0.734707 0.14963
0.86952 0.738033 0.152941
0.890959 0.74136 0.156237
0.912245 0.744671 0.159518
0.933379 0.747982 0.162814
0.184787 0.788922 0.184787
0.218143 0.791653 0.187488
0.255085 0.794018 0.189822
0.298161 0.789395 0.180667
0.3308 0.786175 0.166552
0.358465 0.783856 0.157565
0.384665 0.781582 0.150835
0.409979 0.779263 0.145647
0.434623 0.776883 0.14168
0.458717 0.774411 0.138766
0.482292 0.771908 0.136812
0.505394 0.769345 0.135714
0.527993 0.766781 0.135439
0.550103 0.764218 0.135912
0.571725 0.761685 0.137102
0.592859 0.759182 0.13904
0.613458 0.756771 0.141558
0.63357 0.754452 0.144701
0.653132 0.752285 0.147951
0.672023 0.750835 0.146487
0.69073 0.749477 0.145129
0.709285 0.748226 0.143862
0.727718 0.747066 0.142687
0.746029 0.746029 0.141649
0.764248 0.745113 0.140719
0.782406 0.74432 0.13991
0.801221 0.744366 0.139956
0.823117 0.747677 0.143221
0.844846 0.750973 0.146502
0.866407 0.754269 0.149783
0.887816 0.75758 0.153048
0.909087 0.760876 0.156329
0.93022 0.764172 0.159594
0.1841 0.807401 0.1841
0.217548 0.810239 0.186908
0.254673 0.812787 0.18941
0.299687 0.806439 0.183062
0.337041 0.800275 0.176883
0.363394 0.797742 0.167407
0.388357 0.795316 0.160098
0.412573 0.792874 0.154376
0.43624 0.790402 0.149935
0.459464 0.787884 0.146578
0.482261 0.785336 0.144198
0.504677 0.782773 0.142733
0.52668 0.780224 0.142107
0.548302 0.777707 0.14229
0.569512 0.77525 0.143221
0.590326 0.772869 0.144884
0.610681 0.770596 0.147112
0.630091 0.769055 0.145541
0.649302 0.76762 0.144106
0.668345 0.766308 0.142779
0.687236 0.765133 0.141588
0.706004 0.76408 0.140536
0.724681 0.76318 0.13962
0.743282 0.762432 0.138857
0.761822 0.761822 0.138247
0.780331 0.761379 0.137789
0.799496 0.761776 0.13817
0.821363 0.765057 0.141421
0.843061 0.768338 0.144671
0.864607 0.771618 0.147936
0.886015 0.774899 0.151186
0.907271 0.778195 0.154437
0.928374 0.781476 0.157702
0.194018 0.836332 0.194018
0.22591 0.837598 0.195254
0.260899 0.83801 0.195636
0.300633 0.826383 0.184009
0.334325 0.816526 0.174151
0.363638 0.812161 0.169787
0.390188 0.808545 0.166171
0.415061 0.805371 0.162936
0.437888 0.802945 0.158129
0.460365 0.800504 0.154467
0.482536 0.798062 0.151843
0.504402 0.795636 0.150149
0.525963 0.793256 0.14934
0.547005 0.791058 0.148608
0.567346 0.789258 0.146792
0.587396 0.787594 0.145129
0.607202 0.786084 0.143603
0.62681 0.784726 0.142229
0.64625 0.78352 0.141024
0.665553 0.782483 0.139971
0.684733 0.781598 0.139071
0.703853 0.78088 0.138354
0.722881 0.780346 0.137789
0.741894 0.77998 0.137423
0.760861 0.779812 0.13724
0.779843 0.779843 0.137255
0.799435 0.780667 0.138048
0.821271 0.783917 0.141283
0.842954 0.787167 0.144503
0.864485 0.790433 0.147738
0.885863 0.793698 0.150973
0.907103 0.796963 0.154208
0.928206 0.800244 0.157458
0.206622 0.867781 0.206622
0.238437 0.868971 0.207782
0.27335 0.869291 0.208072
0.312779 0.857343 0.196139
0.345998 0.847013 0.185794
0.373007 0.840345 0.179141
0.397803 0.834958 0.173739
0.421256 0.830335 0.169131
0.443793 0.826276 0.165057
0.465644 0.82266 0.161425
0.486961 0.819409 0.158175
0.507851 0.81648 0.155245
0.528389 0.813855 0.152605
0.548669 0.81149 0.15024
0.568704 0.8094 0.148119
0.588571 0.807538 0.146258
0.60827 0.805936 0.14464
0.627863 0.804562 0.143252
0.647364 0.803418 0.142107
0.666804 0.802502 0.141176
0.686198 0.801831 0.14049
0.705562 0.801373 0.140017
0.724926 0.801144 0.139788
0.744289 0.80116 0.139773
0.763684 0.801404 0.140002
0.783108 0.801877 0.140444
0.803113 0.803113 0.141665
0.824964 0.806363 0.1449
0.846662 0.809644 0.14815
0.868238 0.812955 0.151415
0.889662 0.816266 0.154696
0.910964 0.819593 0.157992
0.932143 0.822934 0.161303
0.219074 0.898909 0.219074
0.250813 0.900023 0.220157
0.285664 0.900282 0.220386
0.324804 0.888029 0.208133
0.357946 0.877623 0.197726
0.384894 0.870893 0.190997
0.409628 0.865446 0.18555
0.433036 0.860761 0.180865
0.455512 0.856641 0.176745
