LUTs/50.cube
TITLE "Generate by Resolve"
LUT_3D_SIZE 5
0 0 0
0 0 0
0.133364 0.0259098 0.0259098
0.480903 0.0690471 0.0690471
0.79971 0.0955215 0.0955215
0 0.275731 0
0.302235 0.302235 0
0.554421 0.330007 0
0.725856 0.372259 0.0863966
0.9037 0.412589 0.134142
0.0767987 0.602335 0.0767987
0.385336 0.610269 0.0461585
0.623072 0.623072 0.0970779
0.788464 0.62858 0.165148
0.958358 0.651606 0.188052
0.1841 0.807401 0.1841
0.43624 0.790402 0.149935
0.610681 0.770596 0.147112
0.761822 0.761822 0.138247
0.928374 0.781476 0.157702
0.279469 1 0.279469
0.512642 1 0.233631
0.675013 0.982147 0.21088
0.828504 0.97557 0.204089
0.995193 0.995193 0.223255
0 0 0
0 0 0
0.25066 0.0338903 0.164233
0.55906 0.0676432 0.287327
0.837751 0.0961776 0.364492
0 0.290806 0.290806
0.302327 0.302327 0.302327
0.599863 0.318975 0.318975
0.80354 0.355734 0.355734
0.94403 0.405585 0.405585
0.0486305 0.612558 0.387686
0.343328 0.62472 0.343328
0.625681 0.625681 0.344198
0.836637 0.618463 0.366262
0.999512 0.636942 0.418479
0.163607 0.803998 0.449882
0.363455 0.811872 0.363455
0.569268 0.787518 0.316991
0.765362 0.765362 0.316823
0.947036 0.774838 0.370504
0.263218 1 0.542214
0.465507 1 0.465507
0.6262 0.989227 0.407462
0.806683 0.97908 0.401938
0.990295 0.990295 0.450187
0 0 0
0 0 0
0.327764 0.0445869 0.327764
0.607752 0.0764782 0.471473
0.86952 0.10454 0.564889
0 0.300343 0.507744
0.308568 0.308568 0.588983
0.604608 0.323583 0.604608
0.826551 0.356619 0.608576
0.984344 0.403754 0.622049
0.085893 0.611643 0.611643
0.345586 0.627008 0.627008
0.621271 0.621271 0.621271
0.85359 0.604456 0.604456
1 0.619104 0.619104
0.171221 0.794583 0.634699
0.337301 0.807782 0.589548
0.537087 0.786297 0.537087
0.761334 0.761334 0.512093
0.972656 0.765362 0.53962
0.255146 1 0.719173
0.425238 1 0.643961
0.580896 0.996689 0.580896
0.781323 0.988846 0.555322
0.995193 0.995193 0.578958
0 0 0
0.0897231 0.0281834 0.165835
0.371847 0.0626078 0.478523
0.655833 0.0839246 0.655833
0.886076 0.119036 0.739864
0.0337987 0.310872 0.653605
0.322423 0.322423 0.769467
0.592508 0.340688 0.810391
0.818586 0.370596 0.818586
0.989837 0.413977 0.817838
0.146746 0.609934 0.769726
0.373846 0.625971 0.844099
0.617151 0.617151 0.866255
0.845258 0.596109 0.845258
1 0.607721 0.833356
0.167773 0.791165 0.791165
0.346624 0.795071 0.795071
0.52781 0.777035 0.777035
0.754818 0.754818 0.754818
0.988006 0.756374 0.756374
0.25034 1 0.874495
0.422782 0.99971 0.82739
0.562539 0.995941 0.788479
0.762737 0.994644 0.762737
0.998505 0.998505 0.766415
0 0 0
0.155886 0.0463111 0.349157
0.428672 0.0705882 0.665629
0.694759 0.0931716 0.836454
0.902068 0.134188 0.902068
0.0504616 0.327428 0.815946
0.341268 0.341268 0.878843
0.582147 0.363989 0.944198
0.797696 0.393927 0.96965
0.973159 0.434531 0.973159
0.158953 0.622202 0.92874
0.41091 0.629282 0.991684
0.62324 0.62324 1
0.830091 0.604486 1
1 0.614389 1
0.176013 0.799466 0.946288
0.385504 0.78967 0.961807
0.547723 0.773388 0.980591
0.755245 0.755245 0.986831
0.988754 0.757092 0.988754
0.258534 1 1
0.456367 0.996017 0.996017
0.578164 0.994095 0.994095
0.763912 0.99588 0.99588
0.999985 0.999985 0.999985
