LUTs/51.cube
LUT_3D_SIZE 6
-0.088562 -0.088562 -0.088562
0.232148 -0.088563 -0.088563
0.565694 -0.088567 -0.088567
0.844866 -0.088569 -0.088569
0.970107 -0.088581 -0.088581
1.008717 -0.088588 -0.088588
-0.088565 0.232147 -0.088565
0.232146 0.232146 -0.088566
0.565694 0.272293 -0.088570
0.844865 0.269631 -0.088573
0.970107 0.230982 -0.088584
1.008717 0.189848 -0.088591
-0.088573 0.565693 -0.088573
0.272290 0.565693 -0.088574
0.565692 0.565692 -0.088578
0.844865 0.560290 -0.088583
0.970107 0.481471 -0.088594
1.008717 0.399553 -0.088593
-0.088593 0.844864 -0.088593
0.269623 0.844864 -0.088594
0.560288 0.844864 -0.088595
0.844863 0.844863 -0.088603
0.970106 0.726327 -0.088608
1.008717 0.603468 -0.088611
-0.088622 0.970106 -0.088622
0.230976 0.970106 -0.088623
0.481467 0.970106 -0.088627
0.726325 0.970106 -0.088629
0.970105 0.970105 -0.088636
1.008716 0.806302 -0.088631
-0.088645 1.008716 -0.088645
0.189829 1.008716 -0.088643
0.399563 1.008716 -0.088646
0.603465 1.008715 -0.088652
0.806301 1.008715 -0.088660
1.008715 1.008715 -0.088669
-0.088562 -0.088562 0.232148
0.232148 -0.088563 0.232148
0.565694 -0.088567 0.272294
0.844866 -0.088570 0.269632
0.970107 -0.088581 0.230983
1.008717 -0.088588 0.189849
-0.088565 0.232147 0.232147
0.232146 0.232146 0.232146
0.658084 0.138626 0.138626
0.889336 0.100722 0.100722
0.980704 0.093243 0.093243
1.008717 0.232139 0.232139
-0.088573 0.565693 0.272291
0.098569 0.579614 0.098569
0.568470 0.568470 0.095201
0.861557 0.544987 0.092851
0.976475 0.457621 0.092359
1.008717 0.414830 0.232134
-0.088593 0.844864 0.269623
0.092462 0.850452 0.092462
0.536992 0.848782 0.092619
0.846030 0.846030 0.093021
0.972603 0.719184 0.093500
1.008717 0.610380 0.232134
-0.088623 0.970106 0.230964
0.094558 0.971397 0.094558
0.455433 0.971191 0.094788
0.717925 0.970822 0.095242
0.970375 0.970375 0.095958
1.008716 0.808979 0.232128
-0.088645 1.008716 0.189829
0.232121 1.008716 0.232121
0.414843 1.008716 0.232119
0.610375 1.008715 0.232116
0.808977 1.008715 0.232115
1.008715 1.008715 0.232108
-0.088564 -0.088564 0.565695
0.272295 -0.088565 0.565695
0.565694 -0.088569 0.565694
0.844866 -0.088571 0.560293
0.970107 -0.088582 0.481472
1.008717 -0.088589 0.399555
-0.088567 0.272294 0.565694
0.190572 0.190572 0.715180
0.636494 0.125555 0.636494
0.884588 0.098806 0.559766
0.980143 0.093011 0.459387
1.008717 0.232139 0.414832
-0.088575 0.565693 0.565693
0.097127 0.575245 0.575245
0.565692 0.565692 0.565692
0.931675 0.471223 0.471223
0.994560 0.447746 0.447746
1.008717 0.565689 0.565689
-0.088594 0.844864 0.560288
0.092513 0.849844 0.537632
0.320721 0.870945 0.320721
0.850745 0.850745 0.290852
0.985979 0.681294 0.268506
1.008717 0.690811 0.565687
-0.088624 0.970106 0.481467
0.094629 0.971346 0.455490
0.239112 0.977246 0.239112
0.668685 0.974913 0.232888
0.971668 0.971668 0.225634
1.008716 0.842240 0.565684
-0.088643 1.008716 0.399564
0.232120 1.008716 0.414843
0.565682 1.008715 0.565682
0.690806 1.008715 0.565681
0.842238 1.008715 0.565680
1.008715 1.008715 0.565679
-0.088566 -0.088566 0.844866
0.269634 -0.088567 0.844866
0.560293 -0.088571 0.844866
0.844865 -0.088574 0.844865
0.970107 -0.088582 0.726329
1.008717 -0.088592 0.603469
-0.088570 0.269633 0.844866
0.138042 0.138042 0.941006
0.575578 0.110880 0.908665
0.876962 0.096176 0.876962
0.979023 0.092676 0.723973
1.008717 0.232138 0.610381
-0.088578 0.560291 0.844865
0.095297 0.552865 0.873901
0.536115 0.536115 0.941199
0.924518 0.437811 0.924518
0.994442 0.424816 0.722531
1.008717 0.565689 0.690813
-0.088594 0.844864 0.844864
0.092624 0.848716 0.848716
0.309265 0.863560 0.863560
0.844863 0.844863 0.844863
0.991429 0.808501 0.808501
1.008716 0.844862 0.844862
-0.088627 0.970106 0.726326
0.094782 0.971180 0.718171
0.236829 0.976461 0.670224
0.643770 0.981086 0.643770
0.972868 0.972868 0.594507
1.008716 0.915709 0.844860
-0.088646 1.008716 0.603465
0.232119 1.008716 0.610376
0.565682 1.008715 0.690806
0.844859 1.008715 0.844859
0.915708 1.008715 0.844859
1.008715 1.008715 0.844858
-0.088570 -0.088570 0.970107
0.230988 -0.088571 0.970107
0.481473 -0.088569 0.970107
0.726329 -0.088577 0.970107
0.970107 -0.088586 0.970107
1.008717 -0.088589 0.806304
-0.088567 0.230988 0.970107
0.123550 0.123550 0.995838
0.464943 0.101609 0.990483
0.726971 0.094543 0.983158
0.977668 0.092407 0.977668
1.008717 0.232136 0.808982
-0.088580 0.481472 0.970107
0.094052 0.460503 0.982341
0.534022 0.534022 0.995210
0.743091 0.488846 0.994836
0.994134 0.381759 0.994134
1.008717 0.565689 0.842242
-0.088595 0.726327 0.970106
0.092652 0.720581 0.974485
0.303643 0.692526 0.993568
0.834327 0.834327 0.992554
0.990688 0.791651 0.990688
1.008716 0.844862 0.915710
-0.088631 0.970106 0.970106
0.095037 0.970994 0.970994
0.233543 0.975157 0.975157
0.625883 0.978322 0.978322
0.970105 0.970105 0.970105
1.008715 0.970105 0.970105
-0.088649 1.008716 0.806301
0.232117 1.008715 0.808978
0.565681 1.008715 0.842239
0.844859 1.008715 0.915708
0.970105 1.008715 0.970105
1.008715 1.008715 0.970105
-0.088568 -0.088568 1.008718
0.189855 -0.088569 1.008718
0.399557 -0.088572 1.008718
0.603470 -0.088578 1.008718
0.806305 -0.088585 1.008718
1.008717 -0.088591 1.008717
-0.088570 0.189855 1.008718
0.232140 0.232140 1.008718
0.414838 0.232150 1.008718
0.610382 0.232147 1.008718
0.808982 0.232141 1.008717
1.008717 0.232133 1.008717
-0.088581 0.399556 1.008718
0.232146 0.414835 1.008718
0.565691 0.565691 1.008717
0.690814 0.565691 1.008717
0.842243 0.565690 1.008717
1.008717 0.565688 1.008717
-0.088594 0.603469 1.008717
0.232134 0.610380 1.008717
0.565689 0.690813 1.008717
0.844863 0.844863 1.008717
0.915711 0.844862 1.008716
1.008716 0.844861 1.008716
-0.088623 0.806303 1.008716
0.232128 0.808980 1.008716
0.565686 0.842241 1.008716
0.844861 0.915710 1.008716
0.970105 0.970105 1.008716
1.008715 0.970105 1.008715
-0.088654 1.008715 1.008715
0.232115 1.008715 1.008715
0.565681 1.008715 1.008715
0.844859 1.008715 1.008715
0.970105 1.008715 1.008715
1.008715 1.008715 1.008715
