LUTs/51.cube
LUT_3D_SIZE 16
-0.088562 -0.088562 -0.088562
-0.065352 -0.088562 -0.088562
0.128504 -0.088562 -0.088562
0.232148 -0.088563 -0.088563
0.340832 -0.088564 -0.088564
0.453663 -0.088565 -0.088565
0.565694 -0.088567 -0.088567
0.671463 -0.088569 -0.088569
0.765898 -0.088572 -0.088572
0.844866 -0.088569 -0.088569
0.905169 -0.088573 -0.088573
0.945263 -0.088577 -0.088577
0.970107 -0.088581 -0.088581
0.985498 -0.088585 -0.088585
0.995429 -0.088585 -0.088585
1.008717 -0.088588 -0.088588
-0.088562 -0.065352 -0.088562
-0.065352 -0.065352 -0.088562
0.128504 -0.060804 -0.088562
0.232148 -0.058459 -0.088563
0.340832 -0.056926 -0.088564
0.453663 -0.055858 -0.088565
0.565694 -0.055198 -0.088567
0.671463 -0.054934 -0.088569
0.765898 -0.055024 -0.088572
0.844866 -0.055465 -0.088570
0.905169 -0.056218 -0.088573
0.945263 -0.057304 -0.088577
0.970107 -0.058698 -0.088581
0.985498 -0.060444 -0.088585
0.995429 -0.062656 -0.088586
1.008717 -0.065389 -0.088588
-0.088563 0.128504 -0.088563
-0.060805 0.128504 -0.088563
0.128503 0.128503 -0.088563
0.232147 0.140231 -0.088564
0.340831 0.151293 -0.088565
0.453663 0.160073 -0.088566
0.565694 0.165903 -0.088568
0.671463 0.168464 -0.088570
0.765898 0.167851 -0.088567
0.844866 0.164175 -0.088571
0.905169 0.157779 -0.088574
0.945263 0.149110 -0.088578
0.970107 0.139432 -0.088582
0.985498 0.129652 -0.088583
0.995429 0.120077 -0.088586
1.008717 0.111368 -0.088589
-0.088565 0.232147 -0.088565
-0.058461 0.232147 -0.088565
0.140231 0.232147 -0.088565
0.232146 0.232146 -0.088566
0.340831 0.249379 -0.088567
0.453662 0.263132 -0.088568
0.565694 0.272293 -0.088570
0.671463 0.276342 -0.088572
0.765898 0.275376 -0.088569
0.844865 0.269631 -0.088573
0.905168 0.259593 -0.088576
0.945263 0.246034 -0.088580
0.970107 0.230982 -0.088584
0.985498 0.216035 -0.088585
0.995429 0.201845 -0.088588
1.008717 0.189848 -0.088591
-0.088568 0.340831 -0.088568
-0.056931 0.340831 -0.088568
0.151291 0.340831 -0.088568
0.249379 0.340831 -0.088569
0.340830 0.340830 -0.088570
0.453662 0.359404 -0.088571
0.565694 0.371779 -0.088567
0.671463 0.377282 -0.088570
0.765898 0.375975 -0.088573
0.844865 0.368194 -0.088576
0.905168 0.354645 -0.088579
0.945263 0.336359 -0.088583
0.970107 0.316066 -0.088584
0.985498 0.295990 -0.088588
0.995429 0.277076 -0.088591
1.008717 0.261378 -0.088593
-0.088573 0.453661 -0.088573
-0.055868 0.453661 -0.088573
0.160069 0.453661 -0.088567
0.263130 0.453661 -0.088568
0.359403 0.453661 -0.088569
0.453661 0.453661 -0.088570
0.565693 0.469208 -0.088572
0.671462 0.476106 -0.088574
0.765898 0.474473 -0.088577
0.844865 0.464715 -0.088580
0.905168 0.447666 -0.088584
0.945263 0.424681 -0.088584
0.970107 0.399207 -0.088588
0.985498 0.374010 -0.088592
0.995429 0.350412 -0.088595
1.008717 0.330908 -0.088591
-0.088573 0.565693 -0.088573
-0.055210 0.565693 -0.088573
0.165902 0.565693 -0.088573
0.272290 0.565693 -0.088574
0.371777 0.565693 -0.088575
0.469208 0.565693 -0.088576
0.565692 0.565692 -0.088578
0.671478 0.573973 -0.088581
0.765897 0.572042 -0.088583
0.844865 0.560290 -0.088583
0.905168 0.539773 -0.088587
0.945263 0.512110 -0.088590
0.970107 0.481471 -0.088594
0.985498 0.451212 -0.088591
0.995429 0.422848 -0.088594
1.008717 0.399553 -0.088593
-0.088581 0.671478 -0.088581
-0.054955 0.671478 -0.088581
0.168461 0.671478 -0.088581
0.276337 0.671478 -0.088582
0.377291 0.671478 -0.088583
0.476104 0.671478 -0.088584
0.573965 0.671468 -0.088583
0.671468 0.671468 -0.088585
0.765897 0.669171 -0.088588
0.844864 0.655472 -0.088591
0.905167 0.631438 -0.088594
0.945262 0.599127 -0.088592
0.970106 0.563340 -0.088592
0.985498 0.528031 -0.088595
0.995429 0.494919 -0.088598
1.008717 0.467761 -0.088598
-0.088587 0.765897 -0.088587
-0.055056 0.765897 -0.088587
0.167844 0.765897 -0.088588
0.275376 0.765897 -0.088588
0.375971 0.765897 -0.088589
0.474474 0.765896 -0.088591
0.572042 0.765896 -0.088592
0.669170 0.765896 -0.088589
0.765896 0.765896 -0.088592
0.844864 0.750198 -0.088592
0.905167 0.722796 -0.088595
0.945262 0.685847 -0.088598
0.970106 0.644896 -0.088601
0.985497 0.604503 -0.088604
0.995429 0.566657 -0.088605
1.008717 0.535686 -0.088606
-0.088593 0.844864 -0.088593
-0.055506 0.844864 -0.088593
0.164163 0.844864 -0.088593
0.269623 0.844864 -0.088594
0.368188 0.844864 -0.088591
0.464712 0.844864 -0.088593
0.560288 0.844864 -0.088595
0.655471 0.844864 -0.088597
0.750197 0.844863 -0.088600
0.844863 0.844863 -0.088603
0.905166 0.813950 -0.088606
0.945262 0.772345 -0.088609
0.970106 0.726327 -0.088608
0.985497 0.680845 -0.088611
0.995429 0.638300 -0.088612
1.008717 0.603468 -0.088611
-0.088602 0.905166 -0.088602
-0.056268 0.905166 -0.088602
0.157762 0.905166 -0.088602
0.259583 0.905166 -0.088603
0.354638 0.905166 -0.088604
0.447662 0.905166 -0.088605
0.539770 0.905166 -0.088607
0.631437 0.905166 -0.088609
0.722794 0.905166 -0.088609
0.813949 0.905165 -0.088612
0.905165 0.905165 -0.088616
0.945262 0.858868 -0.088618
0.970106 0.807655 -0.088620
0.985497 0.757136 -0.088622
0.995429 0.709822 -0.088623
1.008716 0.671193 -0.088621
-0.088612 0.945262 -0.088612
-0.057365 0.945262 -0.088612
0.149091 0.945262 -0.088612
0.246023 0.945262 -0.088613
0.336353 0.945262 -0.088614
0.424676 0.945262 -0.088615
0.512106 0.945262 -0.088617
0.599125 0.945262 -0.088619
0.685846 0.945262 -0.088621
0.772345 0.945262 -0.088622
0.858867 0.945261 -0.088625
0.945261 0.945261 -0.088630
0.970106 0.888924 -0.088626
0.985497 0.833281 -0.088627
0.995428 0.781289 -0.088627
1.008716 0.738760 -0.088630
-0.088622 0.970106 -0.088622
-0.058767 0.970106 -0.088622
0.139407 0.970106 -0.088623
0.230976 0.970106 -0.088623
0.316044 0.970106 -0.088624
0.399199 0.970106 -0.088625
0.481467 0.970106 -0.088627
0.563338 0.970106 -0.088629
0.644894 0.970106 -0.088626
0.726325 0.970106 -0.088629
0.807655 0.970106 -0.088633
0.888924 0.970106 -0.088631
0.970105 0.970105 -0.088636
0.985497 0.909438 -0.088636
0.995428 0.852676 -0.088635
1.008716 0.806302 -0.088631
-0.088630 0.985497 -0.088630
-0.060521 0.985497 -0.088630
0.129622 0.985497 -0.088630
0.216022 0.985497 -0.088631
0.295980 0.985497 -0.088632
0.374001 0.985497 -0.088633
0.451207 0.985497 -0.088629
0.528028 0.985497 -0.088631
0.604501 0.985497 -0.088633
0.680843 0.985497 -0.088636
0.757135 0.985497 -0.088639
0.833281 0.985497 -0.088643
0.909437 0.985497 -0.088645
0.985497 0.985497 -0.088650
0.995428 0.924005 -0.088648
1.008716 0.873772 -0.088643
-0.088636 0.995428 -0.088636
-0.062739 0.995428 -0.088636
0.120044 0.995428 -0.088636
0.201823 0.995428 -0.088637
0.277078 0.995428 -0.088638
0.350405 0.995428 -0.088639
0.422843 0.995428 -0.088640
0.494915 0.995428 -0.088642
0.566655 0.995428 -0.088645
0.638299 0.995428 -0.088644
0.709820 0.995428 -0.088648
0.781288 0.995428 -0.088651
0.852676 0.995428 -0.088656
0.924005 0.995428 -0.088660
0.995428 0.995428 -0.088663
1.008715 0.941359 -0.088659
-0.088645 1.008716 -0.088645
-0.065471 1.008716 -0.088645
0.111325 1.008716 -0.088645
0.189829 1.008716 -0.088643
0.261364 1.008716 -0.088644
0.330900 1.008716 -0.088645
0.399563 1.008716 -0.088646
0.467756 1.008716 -0.088648
0.535681 1.008716 -0.088650
0.603465 1.008715 -0.088652
0.671191 1.008715 -0.088655
0.738757 1.008715 -0.088659
0.806301 1.008715 -0.088660
0.873771 1.008715 -0.088664
0.941359 1.008715 -0.088663
1.008715 1.008715 -0.088669
-0.088562 -0.088562 -0.065352
-0.065352 -0.088562 -0.065352
0.128504 -0.088562 -0.060804
0.232148 -0.088563 -0.058459
0.340832 -0.088564 -0.056925
0.453663 -0.088565 -0.055858
0.565694 -0.088567 -0.055198
0.671463 -0.088569 -0.054934
0.765898 -0.088572 -0.055024
0.844866 -0.088569 -0.055465
0.905169 -0.088573 -0.056218
0.945263 -0.088577 -0.057303
0.970107 -0.088581 -0.058698
0.985498 -0.088585 -0.060443
0.995429 -0.088585 -0.062656
1.008717 -0.088588 -0.065388
-0.088562 -0.065352 -0.065352
-0.065352 -0.065352 -0.065352
0.128504 -0.065352 -0.065352
0.232148 -0.065353 -0.065353
0.340832 -0.065354 -0.065354
0.453663 -0.065354 -0.065354
0.565694 -0.065357 -0.065357
0.671463 -0.065359 -0.065359
0.765898 -0.065363 -0.065363
0.844866 -0.065365 -0.065365
0.905169 -0.065370 -0.065370
0.945263 -0.065373 -0.065373
0.970107 -0.065378 -0.065378
0.985498 -0.065380 -0.065380
0.995429 -0.065384 -0.065384
1.008717 -0.065388 -0.065388
-0.088563 0.128504 -0.060805
-0.065353 0.128504 -0.065353
0.128503 0.128503 -0.065353
0.232147 0.138310 -0.065354
0.340831 0.148317 -0.065354
0.453663 0.156387 -0.065356
0.565694 0.161775 -0.065358
0.671463 0.164140 -0.065361
0.765898 0.163500 -0.065363
0.844866 0.160006 -0.065366
0.905169 0.153936 -0.065371
0.945263 0.145755 -0.065375
0.970107 0.136661 -0.065379
0.985498 0.127587 -0.065381
0.995429 0.118892 -0.065385
1.008717 0.111369 -0.065388
-0.088565 0.232147 -0.058461
-0.065354 0.232147 -0.065354
0.138309 0.232147 -0.065354
0.232146 0.232146 -0.065355
0.340831 0.248479 -0.065356
0.453663 0.261691 -0.065358
0.565694 0.270523 -0.065360
0.671463 0.274381 -0.065363
0.765898 0.273364 -0.065365
0.844866 0.267668 -0.065369
0.905168 0.257765 -0.065372
0.945263 0.244431 -0.065377
0.970107 0.229659 -0.065382
0.985498 0.215053 -0.065383
0.995429 0.201293 -0.065387
1.008717 0.189848 -0.065390
-0.088568 0.340831 -0.056931
-0.065358 0.340831 -0.065358
0.148315 0.340831 -0.065358
0.248479 0.340831 -0.065359
0.340830 0.340830 -0.065360
0.453662 0.358875 -0.065362
0.565694 0.370925 -0.065363
0.671463 0.376206 -0.065366
0.765898 0.374838 -0.065369
0.844865 0.367046 -0.065373
0.905168 0.353540 -0.065376
0.945263 0.335367 -0.065381
0.970107 0.315242 -0.065382
0.985498 0.295370 -0.065387
0.995429 0.276729 -0.065391
1.008717 0.261378 -0.065392
-0.088573 0.453661 -0.055868
-0.065364 0.453662 -0.065364
0.156383 0.453662 -0.065362
0.261689 0.453661 -0.065363
0.358874 0.453661 -0.065364
0.453661 0.453661 -0.065366
0.565693 0.468848 -0.065368
0.671462 0.475520 -0.065371
0.765898 0.473781 -0.065373
0.844865 0.463966 -0.065377
0.905168 0.446937 -0.065382
0.945263 0.424005 -0.065383
0.970107 0.398625 -0.065387
0.985498 0.373609 -0.065390
0.995429 0.350153 -0.065394
1.008717 0.330908 -0.065396
-0.088573 0.565693 -0.055210
-0.065370 0.565693 -0.065370
0.161768 0.565693 -0.065370
0.270521 0.565693 -0.065371
0.370923 0.565693 -0.065372
0.468847 0.565693 -0.065372
0.565692 0.565692 -0.065375
0.671478 0.573721 -0.065378
0.765897 0.571635 -0.065381
0.844865 0.559833 -0.065382
0.905168 0.539280 -0.065386
0.945263 0.511645 -0.065390
0.970107 0.481086 -0.065393
0.985498 0.450908 -0.065397
0.995429 0.422677 -0.065399
1.008717 0.399554 -0.065400
-0.088581 0.671478 -0.054955
-0.065378 0.671478 -0.065378
0.164130 0.671478 -0.065379
0.274376 0.671478 -0.065379
0.376202 0.671478 -0.065380
0.475512 0.671468 -0.065382
0.573714 0.671468 -0.065381
0.671468 0.671468 -0.065384
0.765897 0.668935 -0.065387
0.844864 0.655160 -0.065389
0.905167 0.631125 -0.065394
0.945262 0.598811 -0.065398
0.970106 0.563056 -0.065400
0.985497 0.527768 -0.065404
0.995429 0.494792 -0.065407
1.008717 0.467761 -0.065408
-0.088587 0.765897 -0.055056
-0.065386 0.765897 -0.065386
0.163492 0.765897 -0.065387
0.273358 0.765897 -0.065388
0.374833 0.765897 -0.065389
0.473779 0.765896 -0.065390
0.571634 0.765896 -0.065391
0.668934 0.765896 -0.065394
0.765896 0.765896 -0.065398
0.844864 0.750053 -0.065400
0.905167 0.722598 -0.065403
0.945262 0.685606 -0.065408
0.970106 0.644684 -0.065408
0.985497 0.604335 -0.065411
0.995429 0.566564 -0.065413
1.008717 0.535686 -0.065414
-0.088593 0.844864 -0.055506
-0.065398 0.844864 -0.065398
0.159993 0.844864 -0.065399
0.267660 0.844864 -0.065399
0.367041 0.844864 -0.065399
0.463963 0.844864 -0.065401
0.559831 0.844864 -0.065403
0.655159 0.844864 -0.065406
0.750053 0.844864 -0.065410
0.844863 0.844863 -0.065411
0.905166 0.813917 -0.065414
0.945262 0.772267 -0.065418
0.970106 0.726177 -0.065419
0.985497 0.680709 -0.065422
0.995429 0.638222 -0.065423
1.008717 0.603468 -0.065423
-0.088602 0.905166 -0.056268
-0.065409 0.905166 -0.065409
0.153918 0.905166 -0.065409
0.257755 0.905166 -0.065410
0.353540 0.905166 -0.065411
0.446933 0.905166 -0.065413
0.539277 0.905166 -0.065415
0.631123 0.905166 -0.065418
0.722596 0.905166 -0.065420
0.813916 0.905166 -0.065424
0.905165 0.905165 -0.065427
0.945262 0.858830 -0.065430
0.970106 0.807571 -0.065432
0.985497 0.757077 -0.065434
0.995429 0.709767 -0.065434
1.008716 0.671193 -0.065433
-0.088612 0.945262 -0.057365
-0.065423 0.945262 -0.065423
0.145732 0.945262 -0.065424
0.244420 0.945262 -0.065424
0.335361 0.945262 -0.065426
0.424001 0.945262 -0.065427
0.511641 0.945262 -0.065428
0.598809 0.945262 -0.065430
0.685605 0.945262 -0.065434
0.772266 0.945261 -0.065434
0.858829 0.945261 -0.065439
0.945261 0.945261 -0.065444
0.970106 0.888872 -0.065445
0.985497 0.833279 -0.065446
0.995428 0.781243 -0.065445
1.008716 0.738760 -0.065444
-0.088622 0.970106 -0.058767
-0.065434 0.970106 -0.065434
0.136635 0.970106 -0.065435
0.229652 0.970106 -0.065436
0.315236 0.970106 -0.065437
0.398617 0.970106 -0.065439
0.481081 0.970106 -0.065441
0.563053 0.970106 -0.065443
0.644682 0.970106 -0.065445
0.726176 0.970106 -0.065449
0.807570 0.970106 -0.065453
0.888872 0.970105 -0.065457
0.970105 0.970105 -0.065462
0.985497 0.909418 -0.065463
0.995428 0.852646 -0.065461
1.008716 0.806302 -0.065457
-0.088630 0.985497 -0.060521
-0.065450 0.985497 -0.065450
0.127555 0.985497 -0.065450
0.215033 0.985497 -0.065451
0.295360 0.985497 -0.065452
0.373601 0.985497 -0.065453
0.450904 0.985497 -0.065454
0.527764 0.985497 -0.065456
0.604334 0.985497 -0.065459
0.680707 0.985497 -0.065463
0.757076 0.985497 -0.065464
0.833279 0.985497 -0.065469
0.909418 0.985497 -0.065473
0.985497 0.985497 -0.065479
0.995428 0.923990 -0.065477
1.008716 0.873772 -0.065472
-0.088636 0.995428 -0.062739
-0.065463 0.995428 -0.065463
0.118859 0.995428 -0.065463
0.201279 0.995428 -0.065461
0.276718 0.995428 -0.065462
0.350146 0.995428 -0.065463
0.422672 0.995428 -0.065465
0.494788 0.995428 -0.065468
0.566561 0.995428 -0.065471
0.638220 0.995428 -0.065472
0.709765 0.995428 -0.065476
0.781242 0.995428 -0.065481
0.852646 0.995428 -0.065484
0.923990 0.995428 -0.065490
0.995428 0.995428 -0.065493
1.008715 0.941359 -0.065489
-0.088645 1.008716 -0.065471
-0.065471 1.008716 -0.065471
0.111326 1.008716 -0.065472
0.189829 1.008716 -0.065472
0.261364 1.008716 -0.065471
0.330900 1.008716 -0.065473
0.399563 1.008716 -0.065474
0.467756 1.008716 -0.065477
0.535681 1.008716 -0.065479
0.603465 1.008715 -0.065481
0.671191 1.008715 -0.065484
0.738757 1.008715 -0.065488
0.806301 1.008715 -0.065490
0.873771 1.008715 -0.065495
0.941359 1.008715 -0.065500
1.008715 1.008715 -0.065507
-0.088562 -0.088562 0.128504
-0.060804 -0.088562 0.128504
0.128504 -0.088562 0.128504
0.232148 -0.088563 0.140232
0.340832 -0.088564 0.151293
0.453663 -0.088565 0.160074
0.565694 -0.088567 0.165904
0.671463 -0.088569 0.168465
0.765898 -0.088572 0.167852
0.844866 -0.088569 0.164175
0.905169 -0.088573 0.157780
0.945263 -0.088577 0.149111
0.970107 -0.088581 0.139432
0.985498 -0.088585 0.129653
0.995429 -0.088586 0.120077
1.008717 -0.088588 0.111369
-0.088562 -0.060804 0.128504
-0.065352 -0.065352 0.128504
0.128504 -0.065352 0.128504
0.232148 -0.065353 0.138310
0.340832 -0.065353 0.148317
0.453663 -0.065355 0.156387
0.565694 -0.065357 0.161770
0.671463 -0.065360 0.164141
0.765898 -0.065363 0.163501
0.844866 -0.065365 0.160006
0.905169 -0.065370 0.153936
0.945263 -0.065373 0.145755
0.970107 -0.065378 0.136661
0.985498 -0.065380 0.127588
0.995429 -0.065384 0.118892
1.008717 -0.065388 0.111367
-0.088563 0.128504 0.128504
-0.065353 0.128504 0.128504
0.128503 0.128503 0.128503
0.280369 0.097331 0.097331
0.393651 0.071939 0.071939
0.498004 0.059943 0.059943
0.600571 0.055194 0.055194
0.698088 0.053611 0.053611
0.785632 0.053299 0.053299
0.858790 0.053482 0.053482
0.914053 0.053878 0.053878
0.950554 0.054351 0.054351
0.973274 0.054848 0.054848
0.987649 0.055328 0.055328
0.997155 0.055744 0.055744
1.008718 0.128485 0.128485
-0.088565 0.232147 0.140231
-0.065354 0.232147 0.138309
0.066816 0.241408 0.066816
0.234069 0.234069 0.062120
0.358819 0.243029 0.057704
0.476433 0.248555 0.054987
0.587912 0.251063 0.053701
0.690769 0.250444 0.053313
0.781475 0.246638 0.053383
0.856485 0.239626 0.053693
0.912913 0.229624 0.054116
0.949962 0.217318 0.054586
0.973015 0.204370 0.055073
0.987482 0.191946 0.055539
0.997047 0.180525 0.055941
1.008717 0.198460 0.128484
-0.088568 0.340831 0.151291
-0.065358 0.340831 0.148315
0.054748 0.347931 0.054748
0.233847 0.345410 0.054245
0.342250 0.342250 0.053747
0.462646 0.356830 0.053389
0.577775 0.364983 0.053300
0.683878 0.366821 0.053422
0.777042 0.362753 0.053701
0.853795 0.353108 0.054076
0.911424 0.338601 0.054506
0.949242 0.320262 0.054968
0.972604 0.300774 0.055427
0.987247 0.281944 0.055875
0.996915 0.264564 0.056246
1.008717 0.266849 0.128481
-0.088573 0.453661 0.160069
-0.065362 0.453662 0.156383
0.053299 0.458900 0.053299
0.238912 0.457859 0.053306
0.352034 0.456395 0.053347
0.454711 0.454711 0.053454
0.570894 0.467666 0.053651
0.678571 0.471966 0.053923
0.773232 0.468026 0.054256
0.851253 0.456441 0.054642
0.909966 0.438133 0.055061
0.948448 0.414609 0.055491
0.972193 0.389309 0.055927
0.986977 0.364757 0.056334
0.996704 0.342053 0.056674
1.008717 0.334729 0.128479
-0.088573 0.565693 0.165903
-0.065370 0.565693 0.161768
0.053805 0.569613 0.053805
0.243237 0.569120 0.053875
0.359155 0.568374 0.053996
0.464877 0.567465 0.054163
0.566455 0.566455 0.054386
0.674693 0.572890 0.054678
0.770214 0.569125 0.055010
0.849145 0.555775 0.055377
0.908628 0.533972 0.055769
0.947675 0.505542 0.056169
0.971778 0.474755 0.056564
0.986751 0.444769 0.056932
0.996525 0.416965 0.057228
1.008717 0.402399 0.128474
-0.088581 0.671478 0.168461
-0.065378 0.671478 0.164130
0.054760 0.674408 0.054760
0.244718 0.674110 0.054837
0.361522 0.673728 0.054954
0.468354 0.673254 0.055124
0.571203 0.672706 0.055342
0.672049 0.672049 0.055611
0.767978 0.668304 0.055929
0.847486 0.653184 0.056265
0.907521 0.628014 0.056623
0.947045 0.594836 0.056990
0.971398 0.558699 0.057342
0.986478 0.523427 0.057665
0.996339 0.490646 0.057906
1.008717 0.469911 0.128477
-0.088587 0.765897 0.167844
-0.065387 0.765897 0.163492
0.055877 0.768122 0.055877
0.242771 0.767940 0.055948
0.358557 0.767721 0.056059
0.464626 0.767438 0.056219
0.566854 0.767122 0.056420
0.667276 0.766731 0.056679
0.766304 0.766304 0.056989
0.846125 0.749445 0.057297
0.906575 0.720955 0.057619
0.946458 0.683079 0.057948
0.971047 0.641727 0.058258
0.986243 0.601209 0.058525
0.996141 0.563547 0.058706
1.008717 0.537343 0.128477
-0.088593 0.844864 0.164163
-0.065399 0.844864 0.159993
0.057089 0.846390 0.057089
0.237288 0.846310 0.057154
0.350237 0.846187 0.057263
0.453765 0.846074 0.057403
0.553686 0.845878 0.057592
0.651787 0.845630 0.057834
0.748831 0.845431 0.058125
0.845207 0.845207 0.058464
0.905895 0.813240 0.058756
0.945975 0.770805 0.059040
0.970769 0.724294 0.059304
0.986065 0.678592 0.059517
0.995994 0.636013 0.059635
1.008717 0.604722 0.128469
-0.088602 0.905166 0.157762
-0.065409 0.905166 0.153918
0.058360 0.906099 0.058360
0.228562 0.906101 0.058421
0.336901 0.906018 0.058518
0.436371 0.905944 0.058653
0.532444 0.905883 0.058835
0.626829 0.905739 0.059060
0.720163 0.905641 0.059335
0.812875 0.905443 0.059654
0.905338 0.905338 0.060027
0.945630 0.858215 0.060272
0.970510 0.806479 0.060481
0.985916 0.755606 0.060638
0.995853 0.708197 0.060687
1.008717 0.672164 0.128460
-0.088612 0.945262 0.149091
-0.065424 0.945262 0.145733
0.059667 0.945785 0.059667
0.217170 0.945756 0.059723
0.319518 0.945765 0.059815
0.413663 0.945721 0.059942
0.504612 0.945655 0.060110
0.594031 0.945607 0.060324
0.682526 0.945565 0.060575
0.770399 0.945498 0.060878
0.858042 0.945457 0.061228
0.945354 0.945354 0.061625
0.970329 0.888401 0.061788
0.985728 0.832438 0.061887
0.995741 0.780217 0.061857
1.008716 0.739440 0.128455
-0.088622 0.970106 0.139407
-0.065435 0.970106 0.136635
0.060970 0.970444 0.060970
0.204849 0.970429 0.061023
0.300647 0.970415 0.061106
0.388910 0.970429 0.061226
0.474296 0.970423 0.061383
0.558280 0.970372 0.061578
0.641315 0.970322 0.061815
0.723967 0.970313 0.062100
0.806270 0.970270 0.062428
0.888287 0.970204 0.062800
0.970182 0.970182 0.063224
0.985598 0.909019 0.063255
0.995585 0.852046 0.063148
1.008716 0.806802 0.128450
-0.088630 0.985497 0.129622
-0.065450 0.985497 0.127555
0.062211 0.985730 0.062211
0.192872 0.985721 0.062259
0.282207 0.985707 0.062337
0.364724 0.985699 0.062445
0.444588 0.985673 0.062587
0.523172 0.985658 0.062771
0.600991 0.985622 0.062995
0.678382 0.985597 0.063257
0.755481 0.985614 0.063558
0.832315 0.985595 0.063905
0.909003 0.985560 0.064298
0.985520 0.985520 0.064727
0.995521 0.923773 0.064538
1.008716 0.874083 0.128444
-0.088636 0.995428 0.120044
-0.065463 0.995428 0.118859
0.063289 0.995620 0.063289
0.181813 0.995613 0.063332
0.265084 0.995603 0.063403
0.342226 0.995604 0.063501
0.416974 0.995586 0.063630
0.490553 0.995593 0.063798
0.563402 0.995568 0.064004
0.635894 0.995553 0.064249
0.708126 0.995523 0.064524
0.780110 0.995502 0.064842
0.851984 0.995478 0.065201
0.923722 0.995510 0.065604
0.995484 0.995484 0.066043
1.008715 0.941462 0.128442
-0.088645 1.008716 0.111325
-0.065471 1.008716 0.111326
0.128444 1.008716 0.128444
0.198439 1.008716 0.128444
0.266842 1.008716 0.128443
0.334719 1.008716 0.128442
0.402388 1.008716 0.128440
0.469904 1.008716 0.128439
0.537337 1.008716 0.128437
0.604718 1.008715 0.128435
0.672162 1.008715 0.128446
0.739438 1.008715 0.128443
0.806801 1.008715 0.128439
0.874082 1.008715 0.128435
0.941461 1.008715 0.128431
1.008715 1.008715 0.128432
-0.088562 -0.088562 0.232148
-0.058458 -0.088562 0.232148
0.140232 -0.088562 0.232148
0.232148 -0.088563 0.232148
0.340832 -0.088564 0.249380
0.453663 -0.088565 0.263133
0.565694 -0.088567 0.272294
0.671463 -0.088570 0.276343
0.765898 -0.088572 0.275376
0.844866 -0.088570 0.269632
0.905169 -0.088573 0.259594
0.945263 -0.088577 0.246035
0.970107 -0.088581 0.230983
0.985498 -0.088582 0.216036
0.995429 -0.088586 0.201845
1.008717 -0.088588 0.189849
-0.088562 -0.058459 0.232148
-0.065352 -0.065352 0.232148
0.138310 -0.065353 0.232148
0.232148 -0.065353 0.232148
0.340832 -0.065353 0.248480
0.453663 -0.065355 0.261692
0.565694 -0.065357 0.270524
0.671463 -0.065360 0.274382
0.765898 -0.065363 0.273365
0.844866 -0.065366 0.267669
0.905169 -0.065370 0.257766
0.945263 -0.065373 0.244432
0.970107 -0.065379 0.229660
0.985498 -0.065380 0.215054
0.995429 -0.065385 0.201294
1.008717 -0.065388 0.189849
-0.088563 0.140232 0.232148
-0.065354 0.138310 0.232148
0.118249 0.118249 0.292092
0.271907 0.089580 0.271907
0.387696 0.069182 0.263175
0.494777 0.059071 0.258319
0.598870 0.054944 0.255776
0.697159 0.053552 0.252746
0.785088 0.053300 0.247752
0.858455 0.053502 0.240140
0.913944 0.053898 0.229856
0.950502 0.054373 0.217401
0.973264 0.054868 0.204387
0.987627 0.055348 0.191936
0.997129 0.055765 0.180514
1.008717 0.128485 0.198461
-0.088565 0.232147 0.232147
-0.065354 0.232147 0.232147
0.064957 0.238582 0.238582
0.232146 0.232146 0.232146
0.400409 0.205054 0.205054
0.546315 0.167188 0.167188
0.658084 0.138626 0.138626
0.750406 0.119630 0.119630
0.827709 0.107769 0.107769
0.889336 0.100722 0.100722
0.933704 0.096666 0.096666
0.962418 0.094437 0.094437
0.980704 0.093243 0.093243
0.992894 0.092673 0.092673
0.999535 0.157049 0.157049
1.008717 0.232139 0.232139
-0.088568 0.340831 0.249379
-0.065358 0.340831 0.248479
0.054552 0.347025 0.234923
0.151458 0.358629 0.151458
0.344811 0.344811 0.138829
0.491722 0.347718 0.125674
0.616389 0.343627 0.114610
0.722330 0.335120 0.106324
0.810282 0.323495 0.100640
0.879452 0.309164 0.096954
0.928640 0.292472 0.094740
0.959936 0.274563 0.093453
0.979461 0.257205 0.092779
0.992083 0.241349 0.092464
0.999536 0.247145 0.146257
1.008717 0.289875 0.232138
-0.088567 0.453661 0.263130
-0.065362 0.453662 0.261689
0.053300 0.458547 0.239265
0.112793 0.470957 0.112793
0.327259 0.464623 0.109169
0.457241 0.457241 0.105197
0.587108 0.464257 0.101304
0.700275 0.461785 0.098174
0.794993 0.451632 0.095869
0.869829 0.435084 0.094290
0.923396 0.413320 0.093289
0.957214 0.388272 0.092719
