LUTs/52.cube
LUT_3D_SIZE 6
-0.088562 -0.083875 -0.088562
0.232323 -0.083875 -0.088563
0.566108 -0.083879 -0.088567
0.845476 -0.083889 -0.088569
0.970859 -0.083895 -0.088581
1.008709 -0.083901 -0.088588
-0.088565 0.154992 -0.088565
0.232325 0.154992 -0.088566
0.566108 0.200018 -0.088570
0.845475 0.197027 -0.088573
0.970859 0.153687 -0.088584
1.008709 0.107520 -0.088591
-0.088573 0.526421 -0.088573
0.272496 0.526421 -0.088574
0.566106 0.526420 -0.088578
0.845474 0.520477 -0.088583
0.970859 0.433338 -0.088594
1.008709 0.342277 -0.088593
-0.088593 0.832020 -0.088593
0.269819 0.832020 -0.088594
0.560710 0.832020 -0.088595
0.845473 0.832019 -0.088603
0.970858 0.702674 -0.088608
1.008709 0.567992 -0.088611
-0.088622 0.968269 -0.088622
0.231154 0.968269 -0.088623
0.481822 0.968269 -0.088627
0.726888 0.968269 -0.088629
0.970857 0.968269 -0.088636
1.008708 0.789942 -0.088631
-0.088645 1.008707 -0.088645
0.189960 1.008707 -0.088643
0.399885 1.008707 -0.088646
0.603908 1.008706 -0.088652
0.806877 1.008706 -0.088660
1.008707 1.008706 -0.088669
-0.088562 -0.083875 0.232323
0.232322 -0.083876 0.232322
0.566108 -0.083879 0.272501
0.845475 -0.083890 0.269829
0.970859 -0.083895 0.231154
1.008709 -0.083901 0.189985
-0.088565 0.154992 0.232321
0.232325 0.154991 0.232325
0.658586 0.049996 0.138728
0.890007 0.036885 0.100797
0.981453 0.036885 0.093310
1.008709 0.154983 0.232315
-0.088573 0.526421 0.272497
0.098649 0.541742 0.098649
0.568892 0.529487 0.095273
0.862175 0.503585 0.092923
0.977150 0.406877 0.092429
1.008709 0.359320 0.232306
-0.088593 0.832020 0.269819
0.092530 0.838099 0.092530
0.537407 0.836267 0.092687
0.846664 0.833295 0.093093
0.973307 0.694910 0.093566
1.008709 0.575598 0.232307
-0.088623 0.968269 0.231137
0.094631 0.969716 0.094631
0.455768 0.969488 0.094864
0.718450 0.969104 0.095311
0.971102 0.968642 0.096028
1.008708 0.792888 0.232311
-0.088645 1.008707 0.189960
0.232299 1.008707 0.232299
0.415126 1.008707 0.232297
0.610814 1.008706 0.232292
0.809530 1.008706 0.232291
1.008707 1.008706 0.232292
-0.088564 -0.083876 0.566108
0.272502 -0.083877 0.566108
0.566108 -0.083880 0.566108
0.845475 -0.083891 0.560717
0.970859 -0.083896 0.481829
1.008709 -0.083902 0.399872
-0.088567 0.200020 0.566108
0.190710 0.108333 0.715707
0.636995 0.036885 0.636995
0.885239 0.036885 0.560181
0.980884 0.036885 0.459723
1.008709 0.154982 0.415133
-0.088575 0.526421 0.566106
0.097199 0.536954 0.575663
0.566106 0.526420 0.566106
0.932339 0.421979 0.471566
0.995305 0.395920 0.448079
1.008709 0.526416 0.566103
-0.088594 0.832020 0.560711
0.092581 0.837433 0.538024
0.320964 0.860397 0.320964
0.851363 0.838407 0.291073
0.986705 0.653401 0.268702
1.008708 0.663820 0.566101
-0.088624 0.968269 0.481823
0.094702 0.969682 0.455824
0.239287 0.976097 0.239287
0.669213 0.973503 0.233068
0.972388 0.970002 0.225800
1.008708 0.829135 0.566098
-0.088643 1.008707 0.399885
0.232298 1.008707 0.415127
0.566096 1.008707 0.566096
0.691335 1.008706 0.566095
0.842854 1.008706 0.566094
1.008707 1.008706 0.566093
-0.088566 -0.083878 0.845476
0.269831 -0.083879 0.845476
0.560718 -0.083882 0.845476
0.845475 -0.083890 0.845475
0.970859 -0.083898 0.726894
1.008709 -0.083904 0.603913
-0.088570 0.197027 0.845476
0.138145 0.049342 0.941693
0.575993 0.036885 0.909336
0.877607 0.036885 0.877607
0.979758 0.036885 0.724514
1.008709 0.154984 0.610819
-0.088578 0.520479 0.845475
0.095366 0.512259 0.874509
0.536514 0.493788 0.941909
0.925209 0.384874 0.925209
0.995186 0.370407 0.723101
1.008709 0.526415 0.691342
-0.088594 0.832020 0.845473
0.092695 0.836176 0.849367
0.309506 0.852373 0.864208
0.845472 0.832019 0.845472
0.992135 0.792381 0.809083
1.008708 0.832017 0.845471
-0.088627 0.968269 0.726889
0.094854 0.969472 0.718659
0.237004 0.975204 0.670721
0.644220 0.980221 0.644220
0.973547 0.971307 0.594961
1.008708 0.909118 0.845469
-0.088646 1.008707 0.603909
0.232297 1.008707 0.610815
0.566096 1.008706 0.691335
0.845467 1.008706 0.845467
0.916369 1.008706 0.845467
1.008707 1.008706 0.845466
-0.088570 -0.083881 0.970859
0.231161 -0.083882 0.970859
0.481830 -0.083889 0.970859
0.726895 -0.083892 0.970859
0.970859 -0.083901 0.970859
1.008709 -0.083906 0.806882
-0.088567 0.153693 0.970859
0.123647 0.036885 0.996542
0.465284 0.036885 0.991222
0.727526 0.036885 0.983863
0.978393 0.036885 0.978393
1.008709 0.154982 0.809536
-0.088580 0.433340 0.970859
0.094123 0.410062 0.983079
0.534437 0.491483 0.995941
0.743685 0.441505 0.995551
0.994893 0.322443 0.994893
1.008709 0.526415 0.842860
-0.088595 0.702675 0.970858
0.092725 0.696418 0.975202
0.303863 0.665715 0.994327
0.834915 0.820517 0.993259
0.991419 0.774020 0.991419
1.008708 0.832017 0.916372
-0.088631 0.968269 0.970857
0.095103 0.969273 0.971709
0.233720 0.973785 0.975929
0.626349 0.977199 0.979039
0.970857 0.968268 0.970857
1.008707 0.968268 0.970856
-0.088649 1.008707 0.806878
0.232294 1.008707 0.809531
0.566095 1.008706 0.842855
0.845467 1.008706 0.916369
0.970856 1.008706 0.970856
1.008707 1.008706 0.970856
-0.088568 -0.083883 1.008710
0.189993 -0.083889 1.008710
0.399876 -0.083889 1.008710
0.603913 -0.083893 1.008710
0.806882 -0.083901 1.008710
1.008709 -0.083910 1.008709
-0.088570 0.107528 1.008710
0.232315 0.154984 1.008710
0.415119 0.154996 1.008710
0.610821 0.154992 1.008710
0.809536 0.154985 1.008709
1.008709 0.154979 1.008709
-0.088581 0.342280 1.008710
0.232324 0.359311 1.008710
0.566105 0.526419 1.008709
0.691343 0.526417 1.008709
0.842860 0.526416 1.008709
1.008709 0.526414 1.008709
-0.088594 0.567993 1.008709
0.232307 0.575598 1.008709
0.566103 0.663822 1.008709
0.845472 0.832018 1.008709
0.916372 0.832018 1.008708
1.008708 0.832017 1.008708
-0.088623 0.789943 1.008708
0.232310 0.792890 1.008708
0.566100 0.829136 1.008708
0.845470 0.909119 1.008708
0.970857 0.968268 1.008708
1.008707 0.968268 1.008707
-0.088654 1.008706 1.008707
0.232290 1.008706 1.008707
0.566095 1.008706 1.008707
0.845467 1.008706 1.008707
0.970856 1.008706 1.008707
1.008707 1.008706 1.008707
