LUTs/52.cube
LUT_3D_SIZE 16
-0.088562 -0.083875 -0.088562
-0.065352 -0.083875 -0.088562
0.128601 -0.083875 -0.088562
0.232323 -0.083875 -0.088563
0.341075 -0.083876 -0.088564
0.453991 -0.083877 -0.088565
0.566108 -0.083879 -0.088567
0.671999 -0.083880 -0.088569
0.766447 -0.083882 -0.088572
0.845476 -0.083889 -0.088569
0.905851 -0.083889 -0.088573
0.945955 -0.083892 -0.088577
0.970859 -0.083895 -0.088581
0.986259 -0.083898 -0.088585
0.996158 -0.083901 -0.088585
1.008709 -0.083901 -0.088588
-0.088562 -0.057848 -0.088562
-0.065352 -0.057848 -0.088562
0.128601 -0.052353 -0.088562
0.232322 -0.049430 -0.088563
0.341075 -0.047468 -0.088564
0.453991 -0.046086 -0.088565
0.566108 -0.045214 -0.088567
0.671999 -0.044864 -0.088569
0.766447 -0.044987 -0.088572
0.845475 -0.045569 -0.088570
0.905851 -0.046556 -0.088573
0.945955 -0.047957 -0.088577
0.970859 -0.049729 -0.088581
0.986259 -0.051907 -0.088585
0.996158 -0.054620 -0.088586
1.008709 -0.057890 -0.088588
-0.088563 0.038629 -0.088563
-0.060805 0.038629 -0.088563
0.128600 0.038629 -0.088563
0.232322 0.051800 -0.088564
0.341075 0.064222 -0.088565
0.453991 0.074086 -0.088566
0.566108 0.080630 -0.088568
0.671999 0.083506 -0.088570
0.766447 0.082813 -0.088567
0.845476 0.078690 -0.088571
0.905851 0.071510 -0.088574
0.945955 0.061773 -0.088578
0.970859 0.050899 -0.088582
0.986259 0.039917 -0.088583
0.996158 0.036885 -0.088586
1.008709 0.036885 -0.088589
-0.088565 0.154992 -0.088565
-0.058461 0.154992 -0.088565
0.140336 0.154992 -0.088565
0.232325 0.154992 -0.088566
0.341075 0.174336 -0.088567
0.453990 0.189747 -0.088568
0.566108 0.200018 -0.088570
0.671999 0.204550 -0.088572
0.766446 0.203464 -0.088569
0.845475 0.197027 -0.088573
0.905851 0.185774 -0.088576
0.945955 0.170577 -0.088580
0.970859 0.153687 -0.088584
0.986259 0.136916 -0.088585
0.996157 0.120987 -0.088588
1.008709 0.107520 -0.088591
-0.088568 0.276727 -0.088568
-0.056931 0.276727 -0.088568
0.151404 0.276727 -0.088568
0.249562 0.276727 -0.088569
0.341074 0.276727 -0.088570
0.453989 0.297486 -0.088571
0.566107 0.311300 -0.088567
0.671999 0.317438 -0.088570
0.766446 0.315982 -0.088573
0.845475 0.307301 -0.088576
0.905850 0.292188 -0.088579
0.945955 0.271737 -0.088583
0.970859 0.249037 -0.088584
0.986259 0.226565 -0.088588
0.996157 0.205363 -0.088591
1.008709 0.187779 -0.088593
-0.088573 0.402497 -0.088573
-0.055868 0.402497 -0.088573
0.160189 0.402497 -0.088567
0.263327 0.402497 -0.088568
0.359664 0.402496 -0.088569
0.453988 0.402496 -0.088570
0.566107 0.419734 -0.088572
0.671998 0.427391 -0.088574
0.766446 0.425581 -0.088577
0.845475 0.414741 -0.088580
0.905850 0.395820 -0.088584
0.945955 0.370251 -0.088584
0.970859 0.341902 -0.088588
0.986259 0.313784 -0.088592
0.996157 0.287448 -0.088595
1.008709 0.265641 -0.088591
-0.088573 0.526421 -0.088573
-0.055210 0.526421 -0.088573
0.166018 0.526421 -0.088573
0.272496 0.526421 -0.088574
0.372030 0.526421 -0.088575
0.469557 0.526421 -0.088576
0.566106 0.526420 -0.088578
0.672016 0.535537 -0.088581
0.766445 0.533434 -0.088583
0.845474 0.520477 -0.088583
0.905850 0.497828 -0.088587
0.945955 0.467268 -0.088590
0.970859 0.433338 -0.088594
0.986259 0.399772 -0.088591
0.996157 0.368209 -0.088594
1.008709 0.342277 -0.088593
-0.088581 0.642661 -0.088581
-0.054955 0.642661 -0.088581
0.168583 0.642661 -0.088581
0.276541 0.642661 -0.088582
0.377578 0.642661 -0.088583
0.476459 0.642661 -0.088584
0.574392 0.642650 -0.088583
0.672005 0.642650 -0.088585
0.766445 0.640114 -0.088588
0.845474 0.625129 -0.088591
0.905849 0.598747 -0.088594
0.945954 0.563230 -0.088592
0.970858 0.523808 -0.088592
0.986259 0.484853 -0.088595
0.996157 0.448232 -0.088598
1.008709 0.418123 -0.088598
-0.088587 0.745859 -0.088587
-0.055056 0.745859 -0.088587
0.167973 0.745859 -0.088588
0.275569 0.745859 -0.088588
0.376229 0.745858 -0.088589
0.474824 0.745858 -0.088591
0.572468 0.745858 -0.088592
0.669654 0.745858 -0.088589
0.766444 0.745857 -0.088592
0.845473 0.728710 -0.088592
0.905848 0.698836 -0.088595
0.945954 0.658390 -0.088598
0.970858 0.613502 -0.088601
0.986258 0.569146 -0.088604
0.996157 0.527479 -0.088605
1.008709 0.493313 -0.088606
-0.088593 0.832020 -0.088593
-0.055506 0.832020 -0.088593
0.164290 0.832020 -0.088593
0.269819 0.832020 -0.088594
0.368457 0.832020 -0.088591
0.465047 0.832020 -0.088593
0.560710 0.832020 -0.088595
0.655971 0.832020 -0.088597
0.750721 0.832020 -0.088600
0.845473 0.832019 -0.088603
0.905848 0.798307 -0.088606
0.945953 0.752943 -0.088609
0.970858 0.702674 -0.088608
0.986258 0.652908 -0.088611
0.996157 0.606260 -0.088612
1.008709 0.567992 -0.088611
-0.088602 0.897694 -0.088602
-0.056268 0.897694 -0.088602
0.157883 0.897694 -0.088602
0.259772 0.897694 -0.088603
0.354880 0.897694 -0.088604
0.447995 0.897693 -0.088605
0.540177 0.897693 -0.088607
0.631900 0.897693 -0.088609
0.723300 0.897693 -0.088609
0.814550 0.897693 -0.088612
0.905847 0.897692 -0.088616
0.945953 0.847247 -0.088618
0.970858 0.791459 -0.088620
0.986258 0.736350 -0.088622
0.996157 0.684666 -0.088623
1.008708 0.642343 -0.088621
-0.088612 0.941267 -0.088612
-0.057365 0.941267 -0.088612
0.149205 0.941267 -0.088612
0.246205 0.941267 -0.088613
0.336602 0.941267 -0.088614
0.424993 0.941267 -0.088615
0.512485 0.941267 -0.088617
0.599576 0.941267 -0.088619
0.686399 0.941266 -0.088621
0.772925 0.941266 -0.088622
0.859466 0.941266 -0.088625
0.945953 0.941266 -0.088630
0.970857 0.879993 -0.088626
0.986258 0.819393 -0.088627
0.996157 0.762683 -0.088627
1.008708 0.716301 -0.088630
-0.088622 0.968269 -0.088622
-0.058767 0.968269 -0.088622
0.139508 0.968269 -0.088623
0.231154 0.968269 -0.088623
0.316272 0.968269 -0.088624
0.399495 0.968269 -0.088625
0.481822 0.968269 -0.088627
0.563750 0.968269 -0.088629
0.645358 0.968269 -0.088626
0.726888 0.968269 -0.088629
0.808219 0.968269 -0.088633
0.889549 0.968269 -0.088631
0.970857 0.968269 -0.088636
0.986258 0.902279 -0.088636
0.996156 0.840506 -0.088635
1.008708 0.789942 -0.088631
-0.088630 0.985028 -0.088630
-0.060521 0.985028 -0.088630
0.129720 0.985028 -0.088630
0.216187 0.985028 -0.088631
0.296182 0.985028 -0.088632
0.374248 0.985028 -0.088633
0.451533 0.985028 -0.088629
0.528422 0.985028 -0.088631
0.604953 0.985028 -0.088633
0.681380 0.985028 -0.088636
0.757674 0.985028 -0.088639
0.833896 0.985028 -0.088643
0.910108 0.985028 -0.088645
0.986257 0.985028 -0.088650
0.996156 0.918182 -0.088648
1.008708 0.863509 -0.088643
-0.088636 0.995828 -0.088636
-0.062739 0.995828 -0.088636
0.120130 0.995828 -0.088636
0.201962 0.995828 -0.088637
0.277281 0.995828 -0.088638
0.350686 0.995828 -0.088639
0.423146 0.995828 -0.088640
0.495275 0.995828 -0.088642
0.567076 0.995827 -0.088645
0.638786 0.995827 -0.088644
0.710301 0.995827 -0.088648
0.781825 0.995827 -0.088651
0.853293 0.995827 -0.088656
0.924700 0.995827 -0.088660
0.996156 0.995827 -0.088663
1.008707 0.937041 -0.088659
-0.088645 1.008707 -0.088645
-0.065471 1.008707 -0.088645
0.111410 1.008707 -0.088645
0.189960 1.008707 -0.088643
0.261555 1.008707 -0.088644
0.331138 1.008707 -0.088645
0.399885 1.008707 -0.088646
0.468103 1.008707 -0.088648
0.536074 1.008707 -0.088650
0.603908 1.008706 -0.088652
0.671705 1.008706 -0.088655
0.739281 1.008706 -0.088659
0.806877 1.008706 -0.088660
0.874400 1.008706 -0.088664
0.942018 1.008706 -0.088663
1.008707 1.008706 -0.088669
-0.088562 -0.083875 -0.065352
-0.065352 -0.083875 -0.065352
0.128601 -0.083875 -0.060804
0.232323 -0.083876 -0.058459
0.341075 -0.083876 -0.056925
0.453991 -0.083877 -0.055858
0.566108 -0.083879 -0.055198
0.671999 -0.083880 -0.054934
0.766447 -0.083882 -0.055024
0.845476 -0.083889 -0.055465
0.905851 -0.083889 -0.056218
0.945955 -0.083892 -0.057303
0.970859 -0.083895 -0.058698
0.986259 -0.083898 -0.060443
0.996158 -0.083901 -0.062656
1.008709 -0.083901 -0.065388
-0.088562 -0.057848 -0.065352
-0.065352 -0.057848 -0.065352
0.128601 -0.057849 -0.065352
0.232322 -0.057850 -0.065353
0.341075 -0.057850 -0.065354
0.453991 -0.057851 -0.065354
0.566108 -0.057853 -0.065357
0.671999 -0.057856 -0.065359
0.766447 -0.057860 -0.065363
0.845476 -0.057864 -0.065365
0.905851 -0.057868 -0.065370
0.945955 -0.057873 -0.065373
0.970859 -0.057876 -0.065378
0.986259 -0.057882 -0.065380
0.996158 -0.057886 -0.065384
1.008709 -0.057889 -0.065388
-0.088563 0.038629 -0.060805
-0.065353 0.038629 -0.065353
0.128600 0.038629 -0.065353
0.232322 0.049642 -0.065354
0.341075 0.060879 -0.065354
0.453991 0.069941 -0.065356
0.566108 0.075997 -0.065358
0.671999 0.078652 -0.065361
0.766447 0.077935 -0.065363
0.845476 0.074009 -0.065366
0.905851 0.067192 -0.065371
0.945955 0.058004 -0.065375
0.970859 0.047788 -0.065379
0.986259 0.037601 -0.065381
0.996158 0.036885 -0.065385
1.008709 0.036885 -0.065388
-0.088565 0.154992 -0.058461
-0.065354 0.154992 -0.065354
0.138412 0.154992 -0.065354
0.232325 0.154992 -0.065355
0.341075 0.173309 -0.065356
0.453990 0.188121 -0.065358
0.566108 0.198028 -0.065360
0.671999 0.202346 -0.065363
0.766446 0.201215 -0.065365
0.845475 0.194823 -0.065369
0.905851 0.183726 -0.065372
0.945955 0.168768 -0.065377
0.970859 0.152211 -0.065382
0.986259 0.135814 -0.065383
0.996157 0.120370 -0.065387
1.008709 0.107520 -0.065390
-0.088568 0.276727 -0.056931
-0.065358 0.276727 -0.065358
0.148427 0.276727 -0.065358
0.248660 0.276727 -0.065359
0.341074 0.276727 -0.065360
0.453989 0.296896 -0.065362
0.566107 0.310355 -0.065363
0.671999 0.316242 -0.065366
0.766446 0.314730 -0.065369
0.845475 0.306031 -0.065373
0.905851 0.290941 -0.065376
0.945955 0.270628 -0.065381
0.970859 0.248111 -0.065382
0.986259 0.225872 -0.065387
0.996157 0.204983 -0.065391
1.008709 0.187779 -0.065392
-0.088573 0.402497 -0.055868
-0.065364 0.402497 -0.065364
0.156504 0.402497 -0.065362
0.261886 0.402497 -0.065363
0.359148 0.402497 -0.065364
0.453988 0.402496 -0.065366
0.566107 0.419347 -0.065368
0.671998 0.426729 -0.065371
0.766446 0.424810 -0.065373
0.845475 0.413918 -0.065377
0.905850 0.394982 -0.065382
0.945955 0.369485 -0.065383
0.970859 0.341259 -0.065387
0.986259 0.313362 -0.065390
0.996157 0.287156 -0.065394
1.008709 0.265641 -0.065396
-0.088573 0.526421 -0.055210
-0.065370 0.526421 -0.065370
0.161892 0.526421 -0.065370
0.270726 0.526421 -0.065371
0.371186 0.526421 -0.065372
0.469202 0.526421 -0.065372
0.566106 0.526420 -0.065375
0.672016 0.535267 -0.065378
0.766445 0.532968 -0.065381
0.845475 0.519978 -0.065382
0.905850 0.497293 -0.065386
0.945955 0.466744 -0.065390
0.970859 0.432916 -0.065393
0.986259 0.399424 -0.065397
0.996157 0.368026 -0.065399
1.008709 0.342277 -0.065400
-0.088581 0.642661 -0.054955
-0.065378 0.642661 -0.065378
0.164253 0.642661 -0.065379
0.274583 0.642661 -0.065379
0.376477 0.642661 -0.065380
0.475868 0.642650 -0.065382
0.574141 0.642650 -0.065381
0.672004 0.642649 -0.065384
0.766445 0.639853 -0.065387
0.845474 0.624752 -0.065389
0.905849 0.598404 -0.065394
0.945954 0.562872 -0.065398
0.970858 0.523505 -0.065400
0.986258 0.484566 -0.065404
0.996157 0.448094 -0.065407
1.008709 0.418123 -0.065408
-0.088587 0.745859 -0.055056
-0.065386 0.745859 -0.065386
0.163622 0.745859 -0.065387
0.273561 0.745859 -0.065388
0.375117 0.745858 -0.065389
0.474133 0.745858 -0.065390
0.572065 0.745858 -0.065391
0.669421 0.745858 -0.065394
0.766444 0.745857 -0.065398
0.845473 0.728609 -0.065400
0.905848 0.698611 -0.065403
0.945954 0.658161 -0.065408
0.970858 0.613273 -0.065408
0.986258 0.568954 -0.065411
0.996157 0.527376 -0.065413
1.008709 0.493313 -0.065414
-0.088593 0.832020 -0.055506
-0.065398 0.832020 -0.065398
0.160111 0.832020 -0.065399
0.267862 0.832020 -0.065399
0.367300 0.832020 -0.065399
0.464303 0.832020 -0.065401
0.560259 0.832020 -0.065403
0.655653 0.832020 -0.065406
0.750628 0.832020 -0.065410
0.845473 0.832020 -0.065411
0.905848 0.798263 -0.065414
0.945954 0.752843 -0.065418
0.970858 0.702532 -0.065419
0.986258 0.652762 -0.065422
0.996157 0.606179 -0.065423
1.008709 0.567992 -0.065423
-0.088602 0.897694 -0.056268
-0.065409 0.897694 -0.065409
0.154028 0.897694 -0.065409
0.257948 0.897694 -0.065410
0.353808 0.897694 -0.065411
0.447259 0.897694 -0.065413
0.539677 0.897693 -0.065415
0.631581 0.897693 -0.065418
0.723171 0.897693 -0.065420
0.814509 0.897693 -0.065424
0.905847 0.897692 -0.065427
0.945953 0.847194 -0.065430
0.970858 0.791366 -0.065432
0.986258 0.736319 -0.065434
0.996157 0.684558 -0.065434
1.008708 0.642344 -0.065433
-0.088612 0.941267 -0.057365
-0.065423 0.941267 -0.065423
0.145845 0.941267 -0.065424
0.244600 0.941267 -0.065424
0.335620 0.941267 -0.065426
0.424311 0.941267 -0.065427
0.512012 0.941267 -0.065428
0.599262 0.941266 -0.065430
0.686164 0.941266 -0.065434
0.772838 0.941266 -0.065434
0.859473 0.941266 -0.065439
0.945953 0.941266 -0.065444
0.970857 0.879918 -0.065445
0.986258 0.819390 -0.065446
0.996157 0.762627 -0.065445
1.008708 0.716301 -0.065444
-0.088622 0.968269 -0.058767
-0.065434 0.968269 -0.065434
0.136734 0.968269 -0.065435
0.229815 0.968269 -0.065436
0.315457 0.968269 -0.065437
0.398909 0.968269 -0.065439
0.481443 0.968269 -0.065441
0.563458 0.968269 -0.065443
0.645135 0.968269 -0.065445
0.726719 0.968269 -0.065449
0.808161 0.968269 -0.065453
0.889530 0.968269 -0.065457
0.970857 0.968269 -0.065462
0.986257 0.902277 -0.065463
0.996156 0.840464 -0.065461
1.008708 0.789942 -0.065457
-0.088630 0.985028 -0.060521
-0.065450 0.985028 -0.065450
0.127654 0.985028 -0.065450
0.215190 0.985028 -0.065451
0.295575 0.985028 -0.065452
0.373856 0.985028 -0.065453
0.451235 0.985028 -0.065454
0.528142 0.985028 -0.065456
0.604795 0.985028 -0.065459
0.681205 0.985028 -0.065463
0.757640 0.985028 -0.065464
0.833893 0.985028 -0.065469
0.910081 0.985028 -0.065473
0.986257 0.985028 -0.065479
0.996156 0.918159 -0.065477
1.008708 0.863509 -0.065472
-0.088636 0.995828 -0.062739
-0.065463 0.995828 -0.065463
0.118949 0.995828 -0.065463
0.201433 0.995828 -0.065461
0.276917 0.995828 -0.065462
0.350424 0.995828 -0.065463
0.422981 0.995828 -0.065465
0.495156 0.995828 -0.065468
0.566972 0.995828 -0.065471
0.638671 0.995827 -0.065472
0.710246 0.995827 -0.065476
0.781812 0.995827 -0.065481
0.853289 0.995827 -0.065484
0.924679 0.995827 -0.065490
0.996156 0.995827 -0.065493
1.008707 0.937041 -0.065489
-0.088645 1.008707 -0.065471
-0.065471 1.008707 -0.065471
0.111409 1.008707 -0.065472
0.189960 1.008707 -0.065472
0.261556 1.008707 -0.065471
0.331139 1.008707 -0.065473
0.399885 1.008707 -0.065474
0.468103 1.008707 -0.065477
0.536074 1.008707 -0.065479
0.603909 1.008706 -0.065481
0.671705 1.008706 -0.065484
0.739281 1.008706 -0.065488
0.806877 1.008706 -0.065490
0.874400 1.008706 -0.065495
0.942018 1.008706 -0.065500
1.008707 1.008706 -0.065507
-0.088562 -0.083875 0.128601
-0.060804 -0.083875 0.128601
0.128601 -0.083875 0.128601
0.232322 -0.083876 0.140338
0.341075 -0.083876 0.151404
0.453991 -0.083877 0.160194
0.566108 -0.083879 0.166019
0.671999 -0.083880 0.168588
0.766447 -0.083882 0.167982
0.845475 -0.083889 0.164305
0.905851 -0.083889 0.157899
0.945955 -0.083892 0.149221
0.970859 -0.083895 0.139537
0.986259 -0.083898 0.129750
0.996158 -0.083901 0.120165
1.008709 -0.083901 0.111452
-0.088562 -0.052352 0.128601
-0.065352 -0.057849 0.128601
0.128601 -0.057849 0.128601
0.232322 -0.057850 0.138413
0.341075 -0.057850 0.148429
0.453991 -0.057851 0.156509
0.566108 -0.057853 0.161895
0.671999 -0.057856 0.164260
0.766447 -0.057860 0.163627
0.845476 -0.057864 0.160118
0.905851 -0.057868 0.154055
0.945955 -0.057873 0.145867
0.970859 -0.057877 0.136763
0.986259 -0.057882 0.127682
0.996158 -0.057886 0.118982
1.008709 -0.057889 0.111450
-0.088563 0.038629 0.128600
-0.065353 0.038629 0.128600
0.128600 0.038629 0.128600
0.280578 0.036885 0.097406
0.393928 0.036885 0.071995
0.498376 0.036885 0.059989
0.601024 0.036885 0.055236
0.698605 0.036885 0.053654
0.786193 0.036885 0.053343
0.859422 0.036885 0.053522
0.914691 0.036885 0.053919
0.951230 0.036885 0.054392
0.973987 0.036885 0.054890
0.988372 0.036885 0.055372
0.997894 0.036885 0.055785
1.008710 0.038610 0.128586
-0.088565 0.154992 0.140336
-0.065354 0.154992 0.138412
0.066869 0.165392 0.066869
0.234245 0.157151 0.062168
0.359088 0.167199 0.057748
0.476791 0.173414 0.055031
0.588348 0.176222 0.053742
0.691250 0.175526 0.053354
0.782039 0.171259 0.053426
0.857092 0.163391 0.053733
0.913570 0.152164 0.054159
0.950690 0.138356 0.054629
0.973705 0.123823 0.055116
0.988180 0.109880 0.055581
0.997789 0.097050 0.055984
1.008709 0.117188 0.128584
-0.088568 0.276727 0.151404
-0.065358 0.276727 0.148427
0.054787 0.284672 0.054787
0.234017 0.281841 0.054287
0.342507 0.278321 0.053787
0.462994 0.294618 0.053432
0.578193 0.303708 0.053342
0.684399 0.305772 0.053464
0.777603 0.301236 0.053741
0.854434 0.290460 0.054118
0.912104 0.274240 0.054549
0.949975 0.253731 0.055010
0.973308 0.231919 0.055470
0.987992 0.210830 0.055918
0.997705 0.191341 0.056290
1.008709 0.193904 0.128581
-0.088573 0.402497 0.160189
-0.065362 0.402497 0.156504
0.053343 0.408313 0.053343
0.239086 0.407126 0.053346
0.352276 0.405520 0.053388
0.455049 0.403627 0.053496
0.571321 0.418051 0.053691
0.679087 0.422791 0.053967
0.773808 0.418415 0.054298
0.851907 0.405580 0.054682
0.910639 0.385212 0.055106
0.949161 0.359043 0.055535
0.972909 0.330872 0.055971
0.987700 0.303473 0.056377
0.997499 0.278109 0.056715
1.008709 0.269917 0.128577
-0.088573 0.526421 0.166018
-0.065370 0.526421 0.161892
0.053844 0.530737 0.053844
0.243415 0.530189 0.053914
0.359406 0.529381 0.054040
0.465217 0.528372 0.054206
0.566871 0.527258 0.054428
0.675214 0.534357 0.054720
0.770755 0.530195 0.055051
0.849768 0.515505 0.055420
0.909285 0.491428 0.055810
0.948371 0.459985 0.056214
0.972501 0.425888 0.056607
0.987472 0.392613 0.056976
0.997234 0.361672 0.057272
1.008709 0.345439 0.128570
-0.088581 0.642661 0.168583
-0.065378 0.642661 0.164253
0.054801 0.645868 0.054801
0.244898 0.645534 0.054879
0.361785 0.645094 0.054996
0.468692 0.644605 0.055168
0.571628 0.643963 0.055388
0.672550 0.643273 0.055653
0.768528 0.639170 0.055973
0.848114 0.622604 0.056309
0.908204 0.594987 0.056666
0.947736 0.558507 0.057035
0.972096 0.518704 0.057386
0.987176 0.479766 0.057707
0.997068 0.443506 0.057951
1.008709 0.420522 0.128573
-0.088587 0.745859 0.167973
-0.065387 0.745859 0.163622
0.055920 0.748285 0.055920
0.242951 0.748127 0.055992
0.358809 0.747895 0.056103
0.464967 0.747629 0.056264
0.567263 0.747261 0.056464
0.667778 0.746802 0.056721
0.766877 0.746350 0.057034
0.846752 0.727898 0.057341
0.907238 0.696820 0.057662
0.947169 0.655372 0.057993
0.971785 0.610042 0.058303
0.986936 0.565524 0.058569
0.996884 0.524075 0.058750
1.008709 0.495144 0.128574
-0.088593 0.832020 0.164290
-0.065399 0.832020 0.160111
0.057134 0.833662 0.057134
0.237460 0.833576 0.057198
0.350522 0.833421 0.057307
0.454099 0.833293 0.057447
0.554074 0.833100 0.057634
0.652261 0.832849 0.057878
0.749392 0.832617 0.058172
0.845825 0.832375 0.058508
0.906591 0.797515 0.058800
0.946660 0.751250 0.059086
0.971477 0.700511 0.059350
0.986779 0.650442 0.059561
0.996719 0.603768 0.059680
1.008709 0.569386 0.128569
-0.088602 0.897694 0.157884
-0.065409 0.897694 0.154028
0.058405 0.898685 0.058405
0.228742 0.898687 0.058465
0.337153 0.898594 0.058562
0.436688 0.898487 0.058697
0.532833 0.898452 0.058880
0.627292 0.898297 0.059107
0.720688 0.898209 0.059381
0.813452 0.897974 0.059699
0.906038 0.897861 0.060074
0.946299 0.846537 0.060319
0.971250 0.790169 0.060526
0.986665 0.734653 0.060684
0.996565 0.682863 0.060734
1.008708 0.643429 0.128556
-0.088612 0.941267 0.149205
-0.065424 0.941267 0.145845
0.059712 0.941842 0.059712
0.217323 0.941798 0.059769
0.319749 0.941810 0.059861
0.413968 0.941782 0.059988
0.504989 0.941698 0.060157
0.594474 0.941663 0.060370
0.683019 0.941598 0.060620
0.770965 0.941535 0.060925
0.858666 0.941471 0.061274
0.946029 0.941354 0.061671
0.971035 0.879432 0.061836
0.986441 0.818464 0.061934
0.996455 0.761511 0.061904
1.008708 0.717029 0.128556
-0.088622 0.968269 0.139508
-0.065435 0.968269 0.136734
0.061017 0.968703 0.061017
0.204998 0.968679 0.061070
0.300863 0.968658 0.061154
0.389199 0.968679 0.061272
0.474651 0.968671 0.061429
0.558693 0.968637 0.061624
0.641783 0.968557 0.061864
0.724504 0.968544 0.062148
0.806839 0.968523 0.062475
0.888950 0.968420 0.062849
0.970920 0.968383 0.063272
0.986355 0.901875 0.063304
0.996334 0.839826 0.063197
1.008708 0.790533 0.128548
-0.088630 0.985028 0.129720
-0.065450 0.985028 0.127654
0.062259 0.985297 0.062259
0.193014 0.985283 0.062307
0.282409 0.985260 0.062384
0.364979 0.985249 0.062491
0.444910 0.985203 0.062633
0.523569 0.985179 0.062819
0.601431 0.985174 0.063044
0.678873 0.985137 0.063306
0.756049 0.985161 0.063605
0.832935 0.985133 0.063955
0.909662 0.985078 0.064348
0.986239 0.985065 0.064777
0.996238 0.917901 0.064588
1.008708 0.863830 0.128545
-0.088636 0.995828 0.120130
-0.065463 0.995828 0.118949
0.063338 0.996025 0.063338
0.181952 0.996015 0.063381
0.265280 0.996053 0.063450
0.342490 0.996055 0.063548
0.417283 0.996026 0.063678
0.490911 0.996038 0.063848
0.563811 0.995997 0.064054
0.636354 0.995975 0.064299
0.708590 0.995924 0.064572
0.780654 0.995946 0.064892
0.852624 0.995908 0.065251
0.924410 0.995961 0.065654
0.996238 0.995916 0.066094
1.008707 0.937160 0.128542
-0.088645 1.008707 0.111410
-0.065471 1.008707 0.111409
0.128545 1.008707 0.128545
0.198587 1.008707 0.128545
0.267045 1.008707 0.128544
0.334966 1.008707 0.128542
0.402721 1.008707 0.128540
0.470251 1.008707 0.128538
0.537731 1.008707 0.128536
0.605167 1.008707 0.128533
0.672698 1.008706 0.128542
0.740008 1.008706 0.128543
0.807372 1.008706 0.128538
0.874724 1.008706 0.128533
0.942122 1.008706 0.128533
1.008707 1.008706 0.128529
-0.088562 -0.083875 0.232323
-0.058458 -0.083875 0.232323
0.140338 -0.083875 0.232323
0.232322 -0.083876 0.232322
0.341075 -0.083876 0.249563
0.453991 -0.083877 0.263330
0.566108 -0.083879 0.272501
0.671999 -0.083880 0.276547
0.766447 -0.083883 0.275569
0.845475 -0.083890 0.269829
0.905851 -0.083890 0.259784
0.945955 -0.083892 0.246217
0.970859 -0.083895 0.231154
0.986259 -0.083898 0.216201
0.996158 -0.083901 0.201987
1.008709 -0.083901 0.189985
-0.088562 -0.049428 0.232323
-0.065352 -0.057849 0.232323
0.138414 -0.057849 0.232323
0.232322 -0.057850 0.232322
0.341075 -0.057850 0.248662
0.453991 -0.057852 0.261889
0.566108 -0.057854 0.270730
0.671999 -0.057857 0.274589
0.766447 -0.057860 0.273569
0.845476 -0.057864 0.267872
0.905851 -0.057869 0.257953
0.945955 -0.057873 0.244613
0.970859 -0.057877 0.229828
0.986259 -0.057882 0.215220
0.996158 -0.057886 0.201453
1.008709 -0.057890 0.189985
-0.088563 0.051799 0.232322
-0.065354 0.049642 0.232322
0.118337 0.036885 0.292317
0.272107 0.036885 0.272107
0.387979 0.036885 0.263372
0.495141 0.036885 0.258511
0.599318 0.036885 0.255966
0.697675 0.036885 0.252932
0.785672 0.036885 0.247932
0.859105 0.036885 0.240317
0.914585 0.036885 0.230032
0.951195 0.036885 0.217564
0.973973 0.036885 0.204533
0.988339 0.036885 0.192075
0.997912 0.036885 0.180649
1.008709 0.038610 0.198613
-0.088565 0.154992 0.232321
-0.065354 0.154992 0.232325
0.065007 0.162208 0.238756
0.232325 0.154991 0.232325
0.400699 0.124594 0.205197
0.546730 0.082075 0.167312
0.658586 0.049996 0.138728
0.750928 0.036885 0.119720
0.828338 0.036885 0.107850
0.890007 0.036885 0.100797
0.934404 0.036885 0.096739
0.963142 0.036885 0.094511
0.981453 0.036885 0.093310
0.993656 0.036885 0.092741
0.999965 0.070690 0.157166
1.008709 0.154983 0.232315
-0.088568 0.276727 0.249562
-0.065358 0.276727 0.248660
0.054593 0.283664 0.235100
0.151567 0.296627 0.151567
0.345069 0.281180 0.138933
0.492089 0.284434 0.125771
0.616851 0.279862 0.114696
0.722884 0.270347 0.106399
0.810857 0.257349 0.100716
0.880098 0.241309 0.097026
0.929328 0.222628 0.094810
0.960650 0.202549 0.093528
0.980197 0.183108 0.092847
0.992834 0.165321 0.092529
0.999965 0.171828 0.146369
1.008709 0.219718 0.232313
-0.088567 0.402497 0.263327
-0.065362 0.402497 0.261886
0.053341 0.407912 0.239440
0.112878 0.421679 0.112878
0.327511 0.414661 0.109252
0.457572 0.406440 0.105274
0.587536 0.414234 0.101380
0.700842 0.411494 0.098245
0.795546 0.400226 0.095940
0.870435 0.381829 0.094363
0.924084 0.357585 0.093356
0.957939 0.329695 0.092784
