LUTs/54.cube
LUT_3D_SIZE 16
-0.088562 -0.088562 -0.088562
-0.065352 -0.088562 -0.088562
0.125787 -0.088562 -0.088562
0.235244 -0.088563 -0.088563
0.355079 -0.088564 -0.088564
0.475825 -0.088565 -0.088565
0.584174 -0.088567 -0.088567
0.673077 -0.088569 -0.088569
0.745467 -0.088572 -0.088572
0.804635 -0.088569 -0.088569
0.853982 -0.088573 -0.088573
0.895887 -0.088577 -0.088577
0.932080 -0.088581 -0.088581
0.963142 -0.088585 -0.088585
0.988326 -0.088585 -0.088585
1.008709 -0.088588 -0.088588
-0.088562 -0.065352 -0.088562
-0.065352 -0.065352 -0.088562
0.125787 -0.060804 -0.088562
0.235243 -0.058459 -0.088563
0.355079 -0.056926 -0.088564
0.475825 -0.055858 -0.088565
0.584174 -0.055198 -0.088567
0.673077 -0.054934 -0.088569
0.745467 -0.055024 -0.088572
0.804635 -0.055465 -0.088570
0.853982 -0.056218 -0.088573
0.895887 -0.057304 -0.088577
0.932080 -0.058698 -0.088581
0.963142 -0.060444 -0.088585
0.988326 -0.062656 -0.088586
1.008709 -0.065389 -0.088588
-0.088563 0.127357 -0.088563
-0.060805 0.127357 -0.088563
0.125785 0.127356 -0.088563
0.235243 0.143859 -0.088564
0.355079 0.159572 -0.088565
0.475825 0.169962 -0.088566
0.584173 0.173436 -0.088568
0.673077 0.170947 -0.088570
0.745467 0.165359 -0.088567
0.804635 0.158285 -0.088571
0.853982 0.150702 -0.088574
0.895887 0.143085 -0.088578
0.932080 0.135635 -0.088582
0.963142 0.128296 -0.088583
0.988326 0.120703 -0.088586
1.008709 0.112847 -0.088589
-0.088565 0.238003 -0.088565
-0.058461 0.238003 -0.088565
0.142091 0.238002 -0.088565
0.235241 0.238002 -0.088566
0.355078 0.262825 -0.088567
0.475824 0.279133 -0.088568
0.584173 0.284373 -0.088570
0.673076 0.280159 -0.088572
0.745467 0.271085 -0.088569
0.804635 0.259758 -0.088573
0.853982 0.247770 -0.088576
0.895887 0.235918 -0.088580
0.932080 0.224571 -0.088584
0.963142 0.213657 -0.088585
0.988326 0.202801 -0.088588
1.008709 0.192282 -0.088591
-0.088568 0.358798 -0.088568
-0.056931 0.358798 -0.088568
0.157628 0.358798 -0.088568
0.259826 0.358798 -0.088569
0.355076 0.358797 -0.088570
0.475823 0.380823 -0.088571
0.584173 0.387771 -0.088567
0.673076 0.382054 -0.088570
0.745467 0.369693 -0.088573
0.804635 0.354372 -0.088576
0.853982 0.338197 -0.088579
0.895887 0.322245 -0.088583
0.932080 0.307065 -0.088584
0.963142 0.292515 -0.088588
0.988326 0.278222 -0.088591
1.008709 0.264587 -0.088593
-0.088573 0.479941 -0.088573
-0.055868 0.479941 -0.088573
0.167911 0.479941 -0.088567
0.275998 0.479941 -0.088568
0.376967 0.479941 -0.088569
0.475822 0.479941 -0.088570
0.584173 0.488641 -0.088572
0.673075 0.481373 -0.088574
0.745466 0.465864 -0.088577
0.804634 0.446653 -0.088580
0.853982 0.426375 -0.088584
0.895886 0.406458 -0.088584
0.932080 0.387405 -0.088588
0.963142 0.369324 -0.088592
0.988326 0.351531 -0.088595
1.008709 0.334712 -0.088591
-0.088573 0.588080 -0.088573
-0.055210 0.588080 -0.088573
0.171329 0.588080 -0.088573
0.281175 0.588080 -0.088574
0.383920 0.588080 -0.088575
0.484533 0.588080 -0.088576
0.584172 0.588080 -0.088578
0.673075 0.579330 -0.088581
0.745465 0.560729 -0.088583
0.804634 0.537713 -0.088583
0.853981 0.513357 -0.088587
0.895886 0.489479 -0.088590
0.932079 0.466710 -0.088594
0.963142 0.445034 -0.088591
0.988326 0.423819 -0.088594
1.008709 0.403777 -0.088593
-0.088581 0.676463 -0.088581
-0.054955 0.676463 -0.088581
0.168874 0.676463 -0.088581
0.277013 0.676462 -0.088582
0.378219 0.676462 -0.088583
0.477255 0.676462 -0.088584
0.575366 0.676454 -0.088583
0.673066 0.676454 -0.088585
0.745465 0.654788 -0.088588
0.804634 0.627968 -0.088591
0.853981 0.599624 -0.088594
0.895886 0.571790 -0.088592
0.932079 0.545338 -0.088592
0.963142 0.520110 -0.088595
0.988325 0.495460 -0.088598
1.008709 0.472207 -0.088598
-0.088587 0.748235 -0.088587
-0.055056 0.748235 -0.088587
0.163344 0.748235 -0.088588
0.268017 0.748235 -0.088588
0.365922 0.748235 -0.088589
0.461752 0.748235 -0.088591
0.556722 0.748235 -0.088592
0.651210 0.748234 -0.088589
0.745463 0.748234 -0.088592
0.804633 0.717475 -0.088592
0.853980 0.685269 -0.088595
0.895886 0.653591 -0.088598
0.932079 0.623390 -0.088601
0.963141 0.594627 -0.088604
0.988325 0.566572 -0.088605
1.008709 0.540143 -0.088606
-0.088593 0.806854 -0.088593
-0.055506 0.806854 -0.088593
0.156352 0.806854 -0.088593
0.256783 0.806854 -0.088594
0.350702 0.806854 -0.088591
0.442574 0.806854 -0.088593
0.533638 0.806854 -0.088595
0.624248 0.806854 -0.088597
0.714371 0.806854 -0.088600
0.804632 0.806854 -0.088603
0.853980 0.770539 -0.088606
0.895885 0.735058 -0.088609
0.932079 0.701111 -0.088608
0.963141 0.668839 -0.088611
0.988325 0.637339 -0.088612
1.008709 0.607708 -0.088611
-0.088602 0.855674 -0.088602
-0.056268 0.855674 -0.088602
0.148848 0.855675 -0.088602
0.244902 0.855674 -0.088603
0.334606 0.855674 -0.088604
0.422343 0.855674 -0.088605
0.509246 0.855674 -0.088607
0.595760 0.855674 -0.088609
0.681969 0.855674 -0.088609
0.767967 0.855674 -0.088612
0.853979 0.855673 -0.088616
0.895885 0.816089 -0.088618
0.932078 0.778551 -0.088620
0.963140 0.742767 -0.088622
0.988324 0.707854 -0.088623
1.008708 0.675088 -0.088621
-0.088612 0.897132 -0.088612
-0.057365 0.897132 -0.088612
0.141307 0.897132 -0.088612
0.233161 0.897132 -0.088613
0.318758 0.897132 -0.088614
0.402536 0.897132 -0.088615
0.485348 0.897132 -0.088617
0.567813 0.897132 -0.088619
0.650024 0.897132 -0.088621
0.732064 0.897132 -0.088622
0.813906 0.897132 -0.088625
0.895884 0.897131 -0.088630
0.932077 0.855781 -0.088626
0.963140 0.816527 -0.088627
0.988324 0.778210 -0.088627
1.008708 0.742172 -0.088630
-0.088622 0.932881 -0.088622
-0.058767 0.932881 -0.088622
0.133944 0.932881 -0.088623
0.221916 0.932881 -0.088623
0.303670 0.932881 -0.088624
0.383567 0.932881 -0.088625
0.462606 0.932881 -0.088627
0.541290 0.932881 -0.088629
0.619603 0.932881 -0.088626
0.697898 0.932881 -0.088629
0.776037 0.932881 -0.088633
0.854070 0.932881 -0.088631
0.932077 0.932880 -0.088636
0.963139 0.890047 -0.088636
0.988323 0.848310 -0.088635
1.008708 0.809094 -0.088631
-0.088630 0.963588 -0.088630
-0.060521 0.963588 -0.088630
0.126686 0.963588 -0.088630
0.211117 0.963588 -0.088631
0.289248 0.963588 -0.088632
0.365530 0.963588 -0.088633
0.440952 0.963588 -0.088629
0.516001 0.963588 -0.088631
0.590736 0.963588 -0.088633
0.665379 0.963588 -0.088636
0.739882 0.963587 -0.088639
0.814371 0.963587 -0.088643
0.888711 0.963587 -0.088645
0.963139 0.963587 -0.088650
0.988323 0.918336 -0.088648
1.008708 0.875878 -0.088643
-0.088636 0.988425 -0.088636
-0.062739 0.988425 -0.088636
0.119177 0.988425 -0.088636
0.200367 0.988425 -0.088637
0.275082 0.988425 -0.088638
0.347874 0.988425 -0.088639
0.419819 0.988425 -0.088640
0.491344 0.988425 -0.088642
0.562572 0.988425 -0.088645
0.633662 0.988425 -0.088644
0.704732 0.988425 -0.088648
0.775650 0.988425 -0.088651
0.846527 0.988425 -0.088656
0.917364 0.988424 -0.088660
0.988322 0.988424 -0.088663
1.008707 0.942732 -0.088659
-0.088645 1.008708 -0.088645
-0.065471 1.008708 -0.088645
0.111409 1.008708 -0.088645
0.189959 1.008708 -0.088643
0.261558 1.008708 -0.088644
0.331137 1.008708 -0.088645
0.399882 1.008708 -0.088646
0.468100 1.008708 -0.088648
0.536071 1.008708 -0.088650
0.603906 1.008708 -0.088652
0.671702 1.008707 -0.088655
0.739308 1.008707 -0.088659
0.806873 1.008707 -0.088660
0.874395 1.008707 -0.088664
0.942012 1.008707 -0.088663
1.008707 1.008707 -0.088669
-0.088562 -0.088562 -0.065352
-0.065352 -0.088562 -0.065352
0.125787 -0.088562 -0.060804
0.235244 -0.088563 -0.058459
0.355079 -0.088564 -0.056925
0.475825 -0.088565 -0.055858
0.584174 -0.088567 -0.055198
0.673077 -0.088569 -0.054934
0.745467 -0.088572 -0.055024
0.804635 -0.088569 -0.055465
0.853982 -0.088573 -0.056218
0.895887 -0.088577 -0.057303
0.932080 -0.088581 -0.058698
0.963142 -0.088585 -0.060443
0.988326 -0.088585 -0.062656
1.008709 -0.088588 -0.065388
-0.088562 -0.065352 -0.065352
-0.065352 -0.065352 -0.065352
0.125787 -0.065352 -0.065352
0.235243 -0.065353 -0.065353
0.355079 -0.065354 -0.065354
0.475825 -0.065354 -0.065354
0.584174 -0.065357 -0.065357
0.673077 -0.065359 -0.065359
0.745467 -0.065363 -0.065363
0.804635 -0.065365 -0.065365
0.853982 -0.065370 -0.065370
0.895887 -0.065373 -0.065373
0.932080 -0.065378 -0.065378
0.963142 -0.065380 -0.065380
0.988326 -0.065384 -0.065384
1.008709 -0.065388 -0.065388
-0.088563 0.127357 -0.060805
-0.065353 0.127357 -0.065353
0.125785 0.127356 -0.065353
0.235243 0.141888 -0.065354
0.355079 0.156427 -0.065354
0.475825 0.166049 -0.065356
0.584173 0.169119 -0.065358
0.673076 0.166566 -0.065361
0.745467 0.161077 -0.065363
0.804635 0.154276 -0.065366
0.853982 0.147028 -0.065371
0.895887 0.139851 -0.065375
0.932080 0.132946 -0.065379
0.963142 0.126247 -0.065381
0.988326 0.119521 -0.065385
1.008709 0.112848 -0.065388
-0.088565 0.238003 -0.058461
-0.065354 0.238002 -0.065354
0.140150 0.238002 -0.065354
0.235241 0.238002 -0.065355
0.355078 0.261876 -0.065356
0.475824 0.277612 -0.065358
0.584173 0.282519 -0.065360
0.673076 0.278181 -0.065363
0.745467 0.269112 -0.065365
0.804635 0.257871 -0.065369
0.853982 0.246038 -0.065372
0.895887 0.234403 -0.065377
0.932080 0.223286 -0.065382
0.963142 0.212686 -0.065383
0.988326 0.202246 -0.065387
1.008709 0.192282 -0.065390
-0.088568 0.358798 -0.056931
-0.065358 0.358798 -0.065358
0.154515 0.358798 -0.065358
0.258880 0.358798 -0.065359
0.355076 0.358797 -0.065360
0.475824 0.380239 -0.065362
0.584173 0.386880 -0.065363
0.673076 0.380955 -0.065366
0.745467 0.368542 -0.065369
0.804635 0.353253 -0.065373
0.853982 0.337146 -0.065376
0.895887 0.321304 -0.065381
0.932080 0.306251 -0.065382
0.963142 0.291926 -0.065387
0.988326 0.277878 -0.065391
1.008709 0.264587 -0.065392
-0.088573 0.479941 -0.055868
-0.065364 0.479942 -0.065364
0.164048 0.479942 -0.065362
0.274487 0.479941 -0.065363
0.376422 0.479941 -0.065364
0.475822 0.479941 -0.065366
0.584173 0.488262 -0.065368
0.673075 0.480802 -0.065371
0.745466 0.465194 -0.065373
0.804634 0.445958 -0.065377
0.853982 0.425683 -0.065382
0.895886 0.405801 -0.065383
0.932080 0.386890 -0.065387
0.963142 0.368874 -0.065390
0.988326 0.351295 -0.065394
1.008709 0.334712 -0.065396
-0.088573 0.588080 -0.055210
-0.065370 0.588080 -0.065370
0.167062 0.588080 -0.065370
0.279343 0.588080 -0.065371
0.383023 0.588080 -0.065372
0.484142 0.588080 -0.065372
0.584172 0.588080 -0.065375
0.673075 0.579078 -0.065378
0.745465 0.560333 -0.065381
0.804634 0.537258 -0.065382
0.853981 0.512921 -0.065386
0.895886 0.489021 -0.065390
0.932079 0.466336 -0.065393
0.963142 0.444724 -0.065397
0.988326 0.423634 -0.065399
1.008709 0.403777 -0.065400
-0.088581 0.676463 -0.054955
-0.065378 0.676462 -0.065378
0.164545 0.676462 -0.065379
0.275049 0.676462 -0.065379
0.377135 0.676462 -0.065380
0.476677 0.676454 -0.065382
0.575113 0.676454 -0.065381
0.673066 0.676454 -0.065384
0.745465 0.654637 -0.065387
0.804634 0.627702 -0.065389
0.853981 0.599333 -0.065394
0.895886 0.571492 -0.065398
0.932079 0.545068 -0.065400
0.963141 0.519916 -0.065404
0.988326 0.495324 -0.065407
1.008709 0.472207 -0.065408
-0.088587 0.748235 -0.055056
-0.065386 0.748235 -0.065386
0.159112 0.748235 -0.065387
0.266050 0.748235 -0.065388
0.364755 0.748235 -0.065389
0.461089 0.748235 -0.065390
0.556352 0.748235 -0.065391
0.651044 0.748234 -0.065394
0.745463 0.748234 -0.065398
0.804633 0.717416 -0.065400
0.853980 0.685060 -0.065403
0.895885 0.653322 -0.065408
0.932079 0.623193 -0.065408
0.963141 0.594469 -0.065411
0.988325 0.566454 -0.065413
1.008709 0.540143 -0.065414
-0.088593 0.806854 -0.055506
-0.065398 0.806855 -0.065398
0.152377 0.806855 -0.065399
0.254914 0.806855 -0.065399
0.349568 0.806854 -0.065399
0.441866 0.806854 -0.065401
0.533189 0.806854 -0.065403
0.623971 0.806854 -0.065406
0.714311 0.806854 -0.065410
0.804633 0.806854 -0.065411
0.853980 0.770432 -0.065414
0.895885 0.734868 -0.065418
0.932078 0.701009 -0.065419
0.963141 0.668692 -0.065422
0.988325 0.637247 -0.065423
1.008709 0.607708 -0.065423
-0.088602 0.855674 -0.056268
-0.065409 0.855674 -0.065409
0.145209 0.855674 -0.065409
0.243182 0.855675 -0.065410
0.333564 0.855674 -0.065411
0.421664 0.855674 -0.065413
0.508808 0.855674 -0.065415
0.595463 0.855674 -0.065418
0.681758 0.855674 -0.065420
0.767892 0.855674 -0.065424
0.853979 0.855673 -0.065427
0.895885 0.816029 -0.065430
0.932078 0.778446 -0.065432
0.963140 0.742738 -0.065434
0.988325 0.707784 -0.065434
1.008708 0.675088 -0.065433
-0.088612 0.897132 -0.057365
-0.065423 0.897132 -0.065423
0.138116 0.897132 -0.065424
0.231656 0.897132 -0.065424
0.317825 0.897132 -0.065426
0.401864 0.897132 -0.065427
0.484925 0.897132 -0.065428
0.567515 0.897132 -0.065430
0.649780 0.897132 -0.065434
0.731912 0.897132 -0.065434
0.813920 0.897132 -0.065439
0.895884 0.897131 -0.065444
0.932078 0.855742 -0.065445
0.963140 0.816474 -0.065446
0.988324 0.778157 -0.065445
1.008708 0.742172 -0.065444
-0.088622 0.932881 -0.058767
-0.065434 0.932881 -0.065434
0.131289 0.932881 -0.065435
0.220660 0.932881 -0.065436
0.302873 0.932881 -0.065437
0.383024 0.932881 -0.065439
0.462225 0.932881 -0.065441
0.541009 0.932881 -0.065443
0.619406 0.932881 -0.065445
0.697701 0.932881 -0.065449
0.775923 0.932881 -0.065453
0.854066 0.932881 -0.065457
0.932077 0.932880 -0.065462
0.963139 0.890073 -0.065463
0.988323 0.848289 -0.065461
1.008708 0.809094 -0.065457
-0.088630 0.963588 -0.060521
-0.065450 0.963588 -0.065450
0.124658 0.963588 -0.065450
0.210155 0.963588 -0.065451
0.288664 0.963588 -0.065452
0.365058 0.963588 -0.065453
0.440654 0.963588 -0.065454
0.515823 0.963588 -0.065456
0.590584 0.963588 -0.065459
0.665225 0.963588 -0.065463
0.739851 0.963587 -0.065464
0.814316 0.963587 -0.065469
0.888737 0.963587 -0.065473
0.963139 0.963587 -0.065479
0.988323 0.918316 -0.065477
1.008708 0.875878 -0.065472
-0.088636 0.988425 -0.062739
-0.065463 0.988425 -0.065463
0.118004 0.988425 -0.065463
0.199813 0.988425 -0.065461
0.274726 0.988425 -0.065462
0.347622 0.988425 -0.065463
0.419626 0.988425 -0.065465
0.491208 0.988425 -0.065468
0.562469 0.988425 -0.065471
0.633611 0.988425 -0.065472
0.704613 0.988425 -0.065476
0.775600 0.988425 -0.065481
0.846505 0.988425 -0.065484
0.917343 0.988424 -0.065490
0.988322 0.988424 -0.065493
1.008707 0.942732 -0.065489
-0.088645 1.008708 -0.065471
-0.065471 1.008708 -0.065471
0.111410 1.008708 -0.065472
0.189959 1.008708 -0.065472
0.261558 1.008708 -0.065471
0.331138 1.008708 -0.065473
0.399882 1.008708 -0.065474
0.468100 1.008708 -0.065477
0.536071 1.008708 -0.065479
0.603907 1.008708 -0.065481
0.671702 1.008707 -0.065484
0.739308 1.008707 -0.065488
0.806873 1.008707 -0.065490
0.874395 1.008707 -0.065495
0.942012 1.008707 -0.065500
1.008707 1.008707 -0.065507
-0.088562 -0.088562 0.351191
-0.060804 -0.088562 0.351190
0.125787 -0.088562 0.351190
0.235244 -0.088563 0.380824
0.355079 -0.088564 0.405038
0.475825 -0.088565 0.419016
0.584174 -0.088567 0.423373
0.673077 -0.088569 0.420257
0.745467 -0.088572 0.413008
0.804635 -0.088569 0.403190
0.853982 -0.088573 0.391814
0.895887 -0.088577 0.379525
0.932080 -0.088581 0.366625
0.963142 -0.088585 0.352999
0.988326 -0.088586 0.338018
1.008709 -0.088588 0.321415
-0.088562 -0.060804 0.351190
-0.065352 -0.065352 0.351190
0.125786 -0.065352 0.351190
0.235243 -0.065353 0.377518
0.355079 -0.065353 0.400477
0.475825 -0.065355 0.413971
0.584174 -0.065357 0.417956
0.673077 -0.065360 0.414622
0.745467 -0.065363 0.407163
0.804635 -0.065365 0.397281
0.853982 -0.065370 0.385995
0.895887 -0.065373 0.374020
0.932080 -0.065378 0.361736
0.963142 -0.065380 0.349076
0.988326 -0.065384 0.335585
1.008709 -0.065388 0.321416
-0.088563 0.127357 0.351189
-0.065353 0.127356 0.351189
0.125785 0.127356 0.351188
0.288339 0.095708 0.281592
0.412549 0.070365 0.214820
0.520545 0.058515 0.180999
0.614726 0.053842 0.167293
0.693979 0.052290 0.162693
0.760041 0.051984 0.161763
0.815378 0.052162 0.162313
0.862226 0.052550 0.163457
0.902626 0.053013 0.164825
0.937880 0.053502 0.166280
0.968144 0.053978 0.167681
0.992941 0.054381 0.168876
1.008710 0.127335 0.351157
-0.088565 0.238002 0.380821
-0.065354 0.238002 0.377515
0.064476 0.248243 0.200531
0.237338 0.240125 0.187221
0.374838 0.256445 0.174557
0.499048 0.262929 0.166697
0.603780 0.260488 0.162937
0.688288 0.252258 0.161807
0.757056 0.241683 0.162025
0.813583 0.230412 0.162903
0.861144 0.219339 0.164154
0.901889 0.208892 0.165525
0.937291 0.199234 0.166951
0.967797 0.190240 0.168281
0.992669 0.181579 0.169459
1.008709 0.199479 0.351154
-0.088568 0.358798 0.405032
-0.065358 0.358798 0.400471
0.052733 0.366682 0.165987
0.243473 0.363899 0.164542
0.356619 0.360362 0.163076
0.485044 0.377801 0.162053
0.594919 0.379495 0.161766
0.682875 0.369996 0.162127
0.753686 0.355481 0.162945
0.811522 0.339290 0.164051
0.859772 0.322955 0.165287
0.900945 0.307428 0.166642
0.936561 0.292902 0.167974
0.967296 0.279289 0.169276
0.992240 0.266152 0.170348
1.008709 0.269143 0.351150
-0.088573 0.479941 0.419006
-0.065362 0.479942 0.413961
0.051327 0.485339 0.161764
0.250123 0.484281 0.161778
0.369022 0.482778 0.161927
0.476911 0.481037 0.162220
0.588796 0.486400 0.162793
0.678685 0.476132 0.163589
0.750844 0.458556 0.164568
0.809533 0.438175 0.165692
0.858371 0.417351 0.166910
0.899910 0.397331 0.168155
0.935805 0.378557 0.169427
0.966646 0.360882 0.170604
0.991800 0.343803 0.171587
1.008709 0.337902 0.351144
-0.088573 0.588080 0.423349
-0.065370 0.588080 0.417954
0.051818 0.591577 0.163232
0.250602 0.591117 0.163452
0.370465 0.590465 0.163794
0.479793 0.589637 0.164293
0.584848 0.588752 0.164929
0.675699 0.577613 0.165786
0.748543 0.557184 0.166770
0.807864 0.532869 0.167828
0.857153 0.507883 0.168953
0.898954 0.483666 0.170121
0.935088 0.460934 0.171266
0.966044 0.439458 0.172332
0.991230 0.418628 0.173180
1.008709 0.406123 0.351137
-0.088581 0.676463 0.420249
-0.065378 0.676462 0.414624
0.052746 0.678812 0.166012
0.244874 0.678611 0.166232
0.362030 0.678260 0.166603
0.469165 0.677910 0.167094
0.572359 0.677458 0.167716
0.673551 0.676956 0.168504
0.746944 0.653582 0.169432
0.806616 0.625448 0.170395
0.856106 0.596329 0.171441
0.898147 0.568069 0.172484
0.934404 0.541521 0.173518
0.965429 0.516343 0.174436
0.990621 0.491913 0.175137
1.008709 0.474002 0.351139
-0.088587 0.748235 0.412990
-0.065387 0.748235 0.407142
0.053833 0.749745 0.169286
0.236059 0.749742 0.169481
0.348759 0.749518 0.169804
0.451927 0.749361 0.170257
0.551476 0.749042 0.170857
0.649196 0.748816 0.171596
0.745761 0.748500 0.172482
0.805658 0.716675 0.173396
0.855292 0.683502 0.174318
0.897387 0.651251 0.175272
0.933776 0.620823 0.176140
0.964872 0.592045 0.176911
0.990140 0.564130 0.177431
1.008709 0.541521 0.351130
-0.088593 0.806854 0.403182
-0.065399 0.806855 0.397276
0.055008 0.808004 0.172770
0.226002 0.807954 0.172970
0.333492 0.807872 0.173279
0.432069 0.807797 0.173714
0.527198 0.807641 0.174236
0.620667 0.807442 0.174933
0.712982 0.807281 0.175771
0.804905 0.807150 0.176745
0.854666 0.769868 0.177578
0.896819 0.733659 0.178398
0.933226 0.699596 0.179150
0.964441 0.667157 0.179771
0.989650 0.635661 0.180113
1.008709 0.608763 0.351125
-0.088602 0.855674 0.391796
-0.065409 0.855674 0.385984
0.056244 0.856512 0.176440
0.215784 0.856513 0.176625
0.317939 0.856463 0.176907
0.411741 0.856370 0.177283
0.502402 0.856316 0.177806
0.591384 0.856198 0.178456
0.679427 0.856081 0.179246
0.766942 0.855940 0.180163
0.854113 0.855827 0.181237
0.896400 0.815590 0.181944
0.932797 0.777609 0.182532
0.964014 0.741665 0.182988
0.989324 0.706693 0.183119
1.008708 0.675916 0.351118
-0.088612 0.897132 0.379479
-0.065424 0.897132 0.373990
0.057513 0.897791 0.180204
0.206022 0.897781 0.180366
0.302972 0.897731 0.180627
0.392171 0.897662 0.180997
0.478357 0.897686 0.181480
0.563091 0.897576 0.182085
0.646931 0.897549 0.182816
0.730157 0.897456 0.183678
0.813240 0.897322 0.184678
0.895995 0.897199 0.185806
0.932443 0.855437 0.186265
0.963743 0.815941 0.186551
0.989004 0.777489 0.186464
1.008708 0.742724 0.351108
-0.088622 0.932881 0.366566
-0.065435 0.932881 0.361691
0.058781 0.933523 0.183934
0.196911 0.933488 0.184080
0.288958 0.933455 0.184326
0.373791 0.933395 0.184673
0.455835 0.933382 0.185116
0.536508 0.933349 0.185679
0.616317 0.933248 0.186347
0.695698 0.933202 0.187160
0.774709 0.933102 0.188107
0.853558 0.933035 0.189160
0.932169 0.933008 0.190356
0.963474 0.889864 0.190458
0.988729 0.847948 0.190144
1.008708 0.809483 0.351099
-0.088630 0.963588 0.352945
-0.065450 0.963588 0.349019
0.059991 0.964132 0.187487
0.188393 0.964103 0.187627
0.275766 0.964057 0.187847
0.356445 0.964030 0.188149
0.434543 0.963993 0.188563
0.511402 0.964007 0.189081
0.587419 0.963897 0.189725
0.662953 0.963915 0.190465
0.738374 0.963816 0.191326
0.813472 0.963788 0.192295
0.888429 0.963739 0.193415
0.963209 0.963655 0.194627
0.988517 0.918238 0.194097
1.008708 0.876136 0.351084
-0.088636 0.988425 0.337933
-0.065463 0.988425 0.335502
0.061040 0.988869 0.190557
0.180163 0.988843 0.190671
0.263013 0.988804 0.190872
0.339694 0.988807 0.191156
0.413967 0.988791 0.191527
0.487060 0.988819 0.192000
0.559405 0.988721 0.192585
0.631370 0.988740 0.193280
0.703059 0.988675 0.194058
0.774563 0.988671 0.194950
0.845932 0.988585 0.195974
0.917116 0.988535 0.197119
0.988415 0.988514 0.198358
1.008707 0.942844 0.351081
-0.088645 1.008708 0.321331
-0.065471 1.008708 0.321332
0.125722 1.008708 0.351085
0.197081 1.008708 0.351084
0.266076 1.008708 0.351083
0.334269 1.008708 0.351081
0.402194 1.008708 0.351079
0.469860 1.008708 0.351076
0.537467 1.008708 0.351077
0.604954 1.008708 0.351072
0.672504 1.008708 0.351088
0.739876 1.008707 0.351082
0.807257 1.008707 0.351076
0.874658 1.008707 0.351073
0.942125 1.008707 0.351065
1.008707 1.008707 0.351066
-0.088562 -0.088562 0.476588
-0.058458 -0.088562 0.476588
0.142093 -0.088562 0.476588
0.235243 -0.088563 0.476588
0.355079 -0.088564 0.485328
0.475825 -0.088565 0.488291
0.584174 -0.088567 0.488820
0.673077 -0.088570 0.488403
0.745467 -0.088572 0.487074
0.804635 -0.088570 0.484556
0.853982 -0.088573 0.480684
0.895887 -0.088577 0.475591
0.932080 -0.088581 0.469421
0.963142 -0.088582 0.462197
0.988326 -0.088586 0.453697
1.008709 -0.088588 0.444103
-0.088562 -0.058459 0.476588
-0.065352 -0.065352 0.476588
0.140152 -0.065353 0.476588
0.235243 -0.065353 0.476588
0.355079 -0.065353 0.485095
0.475825 -0.065355 0.488103
0.584174 -0.065357 0.488661
0.673077 -0.065360 0.488179
0.745467 -0.065363 0.486724
0.804635 -0.065366 0.484014
0.853982 -0.065370 0.480027
0.895887 -0.065373 0.474844
0.932080 -0.065379 0.468632
0.963142 -0.065380 0.461482
0.988326 -0.065385 0.453214
1.008709 -0.065388 0.444103
-0.088563 0.143860 0.476588
-0.065354 0.141888 0.476588
0.115418 0.116866 0.489249
0.278974 0.087926 0.488615
0.406137 0.067640 0.488180
0.517356 0.057656 0.487367
0.613281 0.053595 0.485747
0.693218 0.052232 0.482866
0.759729 0.051984 0.478600
0.815153 0.052184 0.472983
0.862153 0.052568 0.466260
0.902525 0.053039 0.458722
0.937785 0.053523 0.450644
0.968126 0.053997 0.442106
0.992892 0.054401 0.432934
1.008709 0.127335 0.450806
-0.088565 0.238002 0.476587
-0.065354 0.238002 0.476587
0.062665 0.245116 0.479659
0.235241 0.238002 0.476587
0.419833 0.208289 0.458164
0.566554 0.167664 0.416057
0.662385 0.137792 0.370445
0.733811 0.118269 0.332986
0.791519 0.106221 0.306606
0.840198 0.099099 0.289883
0.882311 0.095034 0.279931
0.919510 0.092780 0.274338
0.952590 0.091600 0.271357
0.981454 0.091021 0.269920
0.999497 0.156981 0.401264
1.008709 0.237994 0.476583
-0.088568 0.358798 0.485327
-0.065358 0.358798 0.485095
0.052544 0.365642 0.480591
0.149282 0.378452 0.392476
0.359442 0.363198 0.370821
0.514339 0.366290 0.345542
0.628184 0.353032 0.322101
0.712645 0.333912 0.303240
0.778501 0.314430 0.289674
0.831926 0.296192 0.280644
0.876875 0.279803 0.275114
0.915748 0.265263 0.271879
0.949847 0.252334 0.270172
0.979353 0.240646 0.269379
0.999447 0.248922 0.383859
1.008709 0.295473 0.476582
-0.088567 0.479941 0.488290
-0.065362 0.479942 0.488102
0.051328 0.484978 0.482648
0.109939 0.497631 0.318061
0.342082 0.491192 0.309838
0.479525 0.483646 0.300584
0.603121 0.480743 0.291282
0.695615 0.462678 0.283644
0.767095 0.439888 0.277939
0.824172 0.416448 0.273986
0.871380 0.394186 0.271475
0.911707 0.373820 0.270018
