LUTs/54.cube
LUT_3D_SIZE 6
-0.088562 -0.088562 -0.088562
0.235244 -0.088563 -0.088563
0.584174 -0.088567 -0.088567
0.804635 -0.088569 -0.088569
0.932080 -0.088581 -0.088581
1.008709 -0.088588 -0.088588
-0.088565 0.238003 -0.088565
0.235241 0.238002 -0.088566
0.584173 0.284373 -0.088570
0.804635 0.259758 -0.088573
0.932080 0.224571 -0.088584
1.008709 0.192282 -0.088591
-0.088573 0.588080 -0.088573
0.281175 0.588080 -0.088574
0.584172 0.588080 -0.088578
0.804634 0.537713 -0.088583
0.932079 0.466710 -0.088594
1.008709 0.403777 -0.088593
-0.088593 0.806854 -0.088593
0.256783 0.806854 -0.088594
0.533638 0.806854 -0.088595
0.804632 0.806854 -0.088603
0.932079 0.701111 -0.088608
1.008709 0.607708 -0.088611
-0.088622 0.932881 -0.088622
0.221916 0.932881 -0.088623
0.462606 0.932881 -0.088627
0.697898 0.932881 -0.088629
0.932077 0.932880 -0.088636
1.008708 0.809094 -0.088631
-0.088645 1.008708 -0.088645
0.189959 1.008708 -0.088643
0.399882 1.008708 -0.088646
0.603906 1.008708 -0.088652
0.806873 1.008707 -0.088660
1.008707 1.008707 -0.088669
-0.088562 -0.088562 0.476588
0.235243 -0.088563 0.476588
0.584174 -0.088567 0.488820
0.804635 -0.088570 0.484556
0.932080 -0.088581 0.469421
1.008709 -0.088588 0.444103
-0.088565 0.238002 0.476587
0.235241 0.238002 0.476587
0.662385 0.137792 0.370445
0.840198 0.099099 0.289883
0.952590 0.091600 0.271357
1.008709 0.237994 0.476583
-0.088573 0.588080 0.488820
0.095737 0.600395 0.284631
0.586672 0.590569 0.276291
0.817573 0.521387 0.270336
0.943717 0.446395 0.269118
1.008709 0.420314 0.476579
-0.088593 0.806854 0.484553
0.089675 0.811122 0.269373
0.511039 0.809848 0.269752
0.805505 0.807743 0.270786
0.936561 0.695955 0.271999
1.008709 0.615143 0.476579
-0.088623 0.932881 0.469420
0.091747 0.935202 0.274646
0.438068 0.934819 0.275227
0.690240 0.934134 0.276390
0.932550 0.933320 0.278180
1.008708 0.811899 0.476575
-0.088645 1.008708 0.444081
0.235212 1.008708 0.476571
0.416323 1.008708 0.476570
0.611342 1.008708 0.476568
0.809733 1.008707 0.476572
1.008707 1.008707 0.476567
-0.088564 -0.088564 0.505997
0.281180 -0.088565 0.505997
0.584173 -0.088569 0.505997
0.804635 -0.088571 0.468838
0.932080 -0.088582 0.457088
1.008709 -0.088589 0.469006
-0.088567 0.284374 0.505997
0.190287 0.192603 0.692701
0.644861 0.124335 0.586608
0.836135 0.097185 0.466936
0.951355 0.091358 0.458955
1.008709 0.237994 0.464845
-0.088575 0.588080 0.505995
0.094314 0.596544 0.515168
0.584172 0.588080 0.505994
0.880113 0.497884 0.457654
0.985844 0.473844 0.456712
1.008709 0.588077 0.505991
-0.088594 0.806854 0.468836
0.089715 0.810584 0.460966
0.332964 0.827073 0.485577
0.809098 0.811270 0.489287
0.964221 0.671875 0.488184
1.008708 0.705381 0.505988
-0.088624 0.932881 0.457088
0.091819 0.935073 0.460223
0.242862 0.946104 0.479897
0.646914 0.941551 0.476970
0.934798 0.935565 0.472984
1.008708 0.849372 0.505984
-0.088643 1.008708 0.469003
0.235211 1.008708 0.464843
0.584162 1.008708 0.505982
0.702258 1.008707 0.505981
0.847581 1.008707 0.505980
1.008707 1.008707 0.505978
-0.088566 -0.088566 0.855567
0.256796 -0.088567 0.855567
0.533643 -0.088571 0.855566
0.804635 -0.088574 0.855566
0.932080 -0.088582 0.676319
1.008709 -0.088592 0.528501
-0.088570 0.259760 0.855566
0.135499 0.137185 0.945568
0.543191 0.109373 0.917747
0.829889 0.094531 0.888605
0.949054 0.091024 0.683194
1.008709 0.237992 0.538017
-0.088578 0.537714 0.855565
0.092487 0.527646 0.885639
0.557119 0.561099 0.945708
0.872561 0.463497 0.931441
0.985422 0.449856 0.721945
1.008709 0.588077 0.683995
-0.088594 0.806854 0.855564
0.089825 0.809808 0.859738
0.320292 0.821216 0.875269
0.804632 0.806854 0.855563
0.977651 0.779633 0.813899
1.008708 0.806852 0.855561
-0.088627 0.932881 0.676314
0.091973 0.934794 0.663653
0.240360 0.944452 0.593973
0.650791 0.953844 0.596019
0.937049 0.937816 0.535625
1.008708 0.897108 0.855559
-0.088646 1.008708 0.528515
0.235209 1.008708 0.538008
0.584162 1.008708 0.683984
0.804629 1.008707 0.855557
0.895859 1.008707 0.855557
1.008707 1.008707 0.855556
-0.088570 -0.088570 0.970796
0.221925 -0.088571 0.970796
0.462614 -0.088569 0.970796
0.697901 -0.088577 0.970795
0.932080 -0.088586 0.970795
1.008709 -0.088589 0.858769
-0.088567 0.224578 0.970796
0.120769 0.122276 0.995858
0.457647 0.100011 0.990272
0.708186 0.092894 0.982966
0.946147 0.090757 0.977670
1.008709 0.237990 0.862738
-0.088580 0.466711 0.970795
0.091248 0.452220 0.982172
0.555117 0.559158 0.995191
0.746322 0.515573 0.994796
0.984687 0.403703 0.994019
1.008709 0.588077 0.908247
-0.088595 0.701111 0.970795
0.089864 0.698374 0.974730
0.314112 0.691255 0.993398
0.796529 0.798883 0.992343
0.975838 0.767249 0.990485
1.008708 0.806852 0.949189
-0.088631 0.932881 0.970794
0.092223 0.934475 0.971569
0.236771 0.942023 0.975392
0.636082 0.948114 0.978282
0.932077 0.932916 0.970793
1.008707 0.932916 0.970793
-0.088649 1.008708 0.858764
0.235206 1.008708 0.862732
0.584162 1.008707 0.908242
0.804629 1.008707 0.949188
0.932075 1.008707 0.970793
1.008707 1.008707 0.970793
-0.088568 -0.088568 1.008716
0.189992 -0.088569 1.008716
0.399873 -0.088572 1.008716
0.603911 -0.088578 1.008716
0.806878 -0.088585 1.008716
1.008709 -0.088591 1.008715
-0.088570 0.192291 1.008716
0.235232 0.237995 1.008716
0.416318 0.238006 1.008716
0.611349 0.238002 1.008716
0.809739 0.237996 1.008716
1.008709 0.238001 1.008715
-0.088581 0.403782 1.008716
0.235240 0.420297 1.008716
0.584171 0.588079 1.008716
0.702220 0.588078 1.008715
0.847587 0.588077 1.008715
1.008709 0.588076 1.008715
-0.088594 0.607709 1.008715
0.235234 0.615143 1.008715
0.584169 0.705383 1.008715
0.804632 0.806853 1.008715
0.895862 0.806853 1.008715
1.008708 0.806852 1.008714
-0.088623 0.809095 1.008715
0.235233 0.811901 1.008715
0.584166 0.849374 1.008714
0.804631 0.897108 1.008714
0.932076 0.932916 1.008714
1.008707 0.932916 1.008713
-0.088654 1.008708 1.008713
0.235202 1.008707 1.008713
0.584161 1.008707 1.008713
0.804628 1.008707 1.008713
0.932075 1.008707 1.008713
1.008707 1.008707 1.008713
