LUTs/56.cube
TITLE "Generate by Resolve"
LUT_3D_SIZE 5
0 0.0184634 0.0267185
0.118685 0.00456245 0
0.533165 0 0
0.954986 0 0
0.980591 0 0
0 0.157473 0
0.140307 0.176013 0.00204471
0.646601 0.163836 0
0.997879 0.195468 0
0.999619 0.216968 0
0 0.634226 0
0.0677501 0.719585 0
0.859129 0.649073 0
1 0.669642 0
1 0.668772 0
0 1 0
0.138338 1 0
0.88809 0.995514 0
1 0.964858 0
1 0.964096 0
0 1 0
0.15848 1 0
0.909163 0.994537 0
1 0.965942 0
1 0.965637 0
0 0.0371099 0.195789
0.0727703 0.00584421 0.234806
0.586023 0 0.0191958
0.99173 0 0
1 0 0
0 0.169619 0.165148
0.0931258 0.20473 0.201556
0.693538 0.1794 0.0831464
1 0.21001 0.0178531
1 0.23151 0.0391394
0 0.661646 0.0919356
0.0797589 0.746365 0.174594
0.822568 0.685161 0.207523
1 0.708568 0.196368
1 0.705943 0.190066
0 1 0.157061
0.13875 1 0.221912
0.829862 0.999969 0.156176
1 0.96965 0.227893
1 0.968673 0.216144
0 1 0.172442
0.157046 1 0.23473
0.852125 1 0.176837
1 0.972976 0.252293
1 0.972885 0.245441
0 0.0605783 0.632029
0 0.0484627 0.681514
0.587137 0 0.649744
1 0 0.507729
1 0 0.515908
0 0.240253 0.547631
0 0.294041 0.634562
0.746181 0.142046 0.797116
1 0.155703 0.762936
1 0.17435 0.817853
0 0.679973 0.596307
0.0330968 0.761913 0.694194
0.664103 0.72639 0.71046
1 0.722576 0.646433
1 0.717479 0.643229
0 1 0.661799
0.0981918 1 0.737057
0.724117 1 0.735637
1 0.97966 0.741207
1 0.97438 0.734813
0 1 0.680766
0.108568 1 0.74931
0.747951 1 0.753368
1 0.982513 0.76527
1 0.982284 0.759686
0 0.0805066 0.923186
0 0.07364 0.962463
0.419226 0 0.999939
1 0 0.966247
1 0 0.994614
0 0.296498 0.866972
0 0.362463 0.950866
0.562463 0.2094 1
1 0.162112 1
1 0.182589 1
0 0.749371 0.872023
0 0.837766 0.912779
0.422721 0.811002 0.958877
1 0.701442 1
1 0.694347 0.999985
0 1 0.916304
0.0730907 1 0.941558
0.694652 1 0.946944
1 0.993164 0.973907
1 0.987976 0.972274
0 1 0.915908
0.0890364 1 0.942458
0.725963 1 0.948104
1 0.993332 0.974472
1 0.993332 0.974441
0 0.106676 1
0 0.103029 1
0.173541 0 1
1 0 1
1 0 1
0 0.363775 1
0 0.439673 1
0.314656 0.302449 1
1 0.17847 1
1 0.192615 1
0 0.843076 0.945571
0 0.931075 0.936538
0.206332 0.889433 0.988556
0.999527 0.733333 1
1 0.69781 1
0 1 0.915923
0.0142214 1 0.935943
0.526925 1 0.945098
0.974227 0.997467 0.968704
1 0.988891 0.975525
0 1 0.915908
0.10454 1 0.943221
0.739498 1 0.94873
1 0.993332 0.974487
1 0.993332 0.974487
