LUTs/56.cube
TITLE "Generate by Resolve"
LUT_3D_SIZE 33
0 0.0184634 0.0267185
0 0.0185092 0.0267643
0 0.0192569 0.0271763
0 0.0195621 0.0286717
0.0112917 0.016907 0.031754
0.0341192 0.012665 0.0305333
0.0597848 0.00936904 0.0203861
0.0865492 0.00691234 0.00704967
0.118685 0.00456245 0
0.1561 0.00381476 0
0.199344 0.00491341 0
0.249088 0.00494392 0
0.304204 0.00364691 0
0.361837 0.00120546 0
0.420066 0.000167849 0
0.477195 0 0
0.533165 0 0
0.58822 0 0
0.643824 0 0
0.69955 0 0
0.754757 0 0
0.807919 0 0
0.859586 0 0
0.908324 0 0
0.954986 0 0
0.975464 0 0
0.980056 0 0
0.980591 0 0
0.980591 0 0
0.980591 0 0
0.980591 0 0
0.980591 0 0
0.980591 0 0
0 0.0255589 0.0270848
0 0.0256199 0.0271153
0 0.0264591 0.0274205
0 0.0271 0.0276799
0.0101167 0.0260929 0.0287633
0.0313573 0.0231022 0.0271458
0.0563211 0.0202182 0.0188754
0.083299 0.0176089 0.00709544
0.115892 0.0141451 0
0.154208 0.0105898 0
0.198901 0.00801099 0
0.250095 0.00547799 0
0.307179 0.00308232 0
0.365011 0.0010071 0
0.424277 0.000137331 0
0.482277 0 0
0.539422 0 0
0.596597 0 0
0.655238 0 0
0.714 0 0
0.771588 0 0
0.826337 0 0
0.878508 0 0
0.927749 0 0
0.967849 0 0
0.979141 0 0
0.980545 0 0
0.980591 0 0
0.980591 0 0
0.980591 0 0
0.980591 0 0
0.980591 0 0
0.980591 0 0
0 0.0352331 0.024979
0 0.0351873 0.0249485
0 0.0361639 0.0254826
0 0.0368505 0.0263676
0.0113375 0.0361181 0.0275425
0.0317998 0.033814 0.0275273
0.0551919 0.0317693 0.0206912
0.0816358 0.0297856 0.00831617
0.114519 0.0264591 0
0.153704 0.022034 0
0.200275 0.0164034 0
0.254398 0.00946059 0
0.313893 0.00387579 0
0.37586 0.00047303 0
0.438239 3.0518e-05 0
0.497719 0 0
0.557473 0 0
0.617685 0 0
0.679408 0 0
0.740444 0 0
0.798779 0 0
0.853758 0 0
0.906218 0 0
0.954299 0 0
0.976699 0 0
0.98024 0 0
0.980591 0 0
0.980591 0 0
0.980591 0 0
0.980591 0 0
0.980591 0 0
0.980591 0 0
0.980591 0 0
0 0.0467384 0.021973
0 0.0467231 0.0219883
0 0.0478828 0.0226902
0 0.0489052 0.024094
0.0106813 0.0486152 0.0259251
0.0317845 0.0467384 0.026154
0.0574197 0.044419 0.0230564
0.0843671 0.0426795 0.0133669
0.115755 0.0406653 0.00231937
0.155322 0.0369421 0
0.203113 0.031632 0
0.259113 0.0247349 0
0.320882 0.0169223 0
0.386236 0.00886549 0
0.451591 0.0018616 0
0.514824 0.000137331 0
0.578058 0 0
0.641627 0 0
0.705364 0 0
0.766918 0 0
0.825528 0 0
0.880812 0 0
0.932448 0 0
0.973495 0 0
0.979965 0 0
0.980545 0 0
0.980591 0 0
0.980591 0 0
0.980591 0 0
0.980591 0 0
0.980591 0 0
0.980591 0 0
0.980591 0 0
0 0.0603952 0.018143
0 0.0606699 0.0183108
0 0.0621805 0.0192721
0 0.06392 0.0210117
0.00843824 0.0644236 0.0228428
0.0286412 0.0633707 0.0230564
0.0593729 0.0603342 0.02327
0.0917067 0.0577249 0.0191958
0.122896 0.0569467 0.00843824
0.160922 0.0552529 0
0.20911 0.0513161 0
0.265919 0.0454414 0
0.328527 0.037995 0
0.394308 0.0296178 0
0.46067 0.0213321 0
0.526055 0.0156558 0
0.592325 0.0109712 0
0.658793 0.00679026 0
0.724849 0.00349432 0
0.788144 0.00132753 0
0.847959 0.000213626 0
0.903853 0 0
0.95346 0 0
0.980606 7.62951e-05 0
0.981628 0.0009308 0
0.981643 0.000396735 0
0.981613 6.10361e-05 0
0.981079 0 0
0.981125 0 0
0.98146 0 0
0.981628 0 0
0.981643 0.000701915 0
0.981674 0.0024567 0
0 0.077409 0.0116121
0 0.0780499 0.0119478
0 0.0799573 0.0132143
0 0.082887 0.0155489
0.00491341 0.0846876 0.0176242
0.0235142 0.0847944 0.0183108
0.0573129 0.0820783 0.0189059
0.0971084 0.0781567 0.0197147
0.135088 0.0760052 0.0155337
0.173053 0.0755474 0.00482185
0.218616 0.0738994 0
0.27425 0.0697032 0
0.336385 0.0637522 0
0.40145 0.0569619 0
0.468086 0.050309 0
0.534096 0.0441138 0
0.601053 0.0382696 0
0.66865 0.0330053 0
0.735912 0.0289616 0
0.800076 0.0265354 0
0.860609 0.025742 0
0.917235 0.0265354 0
0.96556 0.0277867 0
0.982696 0.0276036 0
0.983246 0.0273747 0
0.9832 0.0263523 0
0.983139 0.0252689 0
0.982742 0.0244144 0
0.982712 0.0235599 0
0.982879 0.0227817 0
0.983108 0.0245975 0
0.983398 0.0292363 0
0.983734 0.0347143 0
0 0.0988479 0.00399786
0 0.100237 0.00421149
0 0.102617 0.00491341
0 0.106844 0.00769055
0.00154116 0.110033 0.0103151
0.0178225 0.111345 0.01178
0.0510567 0.110063 0.0118715
0.0960098 0.105882 0.0141146
0.145205 0.101045 0.0168154
0.190845 0.0987106 0.0117342
0.236728 0.0981003 0.0018616
0.289097 0.0965286 0
0.348638 0.0928969 0
0.412268 0.0882124 0
0.478187 0.08365 0
0.543923 0.079408 0
0.610636 0.0755322 0
0.678462 0.0722667 0
0.745907 0.0701152 0
0.810025 0.0695659 0
0.870604 0.0707561 0
0.927321 0.0734722 0
0.974853 0.0767071 0
0.986267 0.0767071 0
0.986648 0.0758068 0
0.986618 0.0751965 0
0.986557 0.0742351 0
0.986481 0.0732128 0
0.986389 0.0720531 0
0.986343 0.0713207 0
0.986648 0.0749218 0
0.987289 0.0823529 0
0.988022 0.0901045 0
0 0.125307 0
0 0.127611 0
0 0.13048 0
0 0.135866 0.00169375
0 0.140414 0.00341802
0.0123751 0.142977 0.00453193
0.042359 0.143359 0.00460822
0.0890211 0.140337 0.00567636
0.147143 0.134188 0.00999466
0.20618 0.128374 0.0130922
0.261799 0.125475 0.00657664
0.315511 0.124987 0
0.371679 0.124285 0
0.431693 0.122652 0
0.49482 0.120775 0
0.559091 0.118868 0
0.625086 0.117281 0
0.692576 0.116472 0
0.759533 0.116915 0
0.822995 0.118944 0
0.882841 0.122484 0
0.938888 0.127337 0
0.985306 0.132372 0
0.992294 0.132998 0
0.992401 0.132967 0
0.992432 0.13315 0
0.992416 0.133059 0
0.992386 0.132692 0
0.992325 0.132097 0
0.99234 0.132204 0
0.992813 0.136461 0
0.993698 0.144152 0
0.994598 0.152056 0
0 0.157473 0
0 0.160418 0
0 0.16376 0
0 0.170413 0
0 0.176562 0
0.00656138 0.180529 0
0.0318914 0.182452 0
0.0781872 0.181323 0
0.140307 0.176013 0.00204471
0.211856 0.168063 0.00708019
0.283497 0.161288 0.0084535
0.348882 0.158343 0.00167849
0.406668 0.158755 1.5259e-05
0.462943 0.160082 0
0.521904 0.161425 0
0.58294 0.162539 0
0.646601 0.163836 0
0.71223 0.165927 0
0.777188 0.16936 0
0.838407 0.17406 0
0.896269 0.179904 0
0.950713 0.186923 0
0.99472 0.193606 0
0.997833 0.194781 0
0.997879 0.195468 0
0.99794 0.196109 0
0.997955 0.196567 0
0.997955 0.19675 0
0.997925 0.196674 0
0.997971 0.197208 0
0.998352 0.201633 0
0.999008 0.209232 0
0.999619 0.216968 0
0 0.195148 0
0 0.198764 0
0 0.202762 0
0 0.210834 0
0 0.218906 0
0.00112917 0.22443 0
0.0209964 0.227909 0
0.0646525 0.229053 0
0.127565 0.225849 0
0.207584 0.217853 0.000656138
0.293507 0.208621 0.00296025
0.375875 0.201678 0.00387579
0.444511 0.199451 3.0518e-05
0.503304 0.201465 0
0.560616 0.205081 0
0.61799 0.2094 0
0.677546 0.214054 0
0.739055 0.219364 0
0.799664 0.22562 0
0.856794 0.232776 0
0.91136 0.240925 0
0.962036 0.249897 0
1 0.258061 0
1 0.259846 0
1 0.2607 0
1 0.261707 0
1 0.262577 0
1 0.263142 0
1 0.263493 0
1 0.264149 0
1 0.268116 0
1 0.27509 0
1 0.282368 0
0 0.239384 0
0 0.244129 0
0 0.249073 0
0 0.258732 0
0 0.268467 0
0 0.275792 0
0.0130465 0.281178 0
0.0499275 0.284535 0
0.112047 0.284001 0
0.195453 0.277821 0
0.29308 0.267247 0
0.389059 0.257588 0
0.472648 0.25185 0
0.542855 0.251194 0
0.60557 0.254124 0
0.662913 0.259922 0
0.718166 0.266987 0
0.773648 0.275029 0
0.828428 0.283925 0
0.880339 0.293462 0
0.930159 0.303731 0
0.974044 0.314473 0
1 0.323766 0
1 0.325597 0
1 0.326604 0
1 0.32781 0
1 0.328908 0
1 0.329793 0
1 0.330449 0
1 0.330663 0
1 0.333806 0
1 0.33994 0
1 0.346395 0
0 0.290852 0
0 0.296849 0
0 0.302831 0
0 0.313893 0
0 0.325368 0
0 0.334478 0
0.00588998 0.341665 0
0.0355077 0.347311 0
0.0964981 0.34963 0
0.179339 0.345663 0
0.284291 0.335302 0
0.391196 0.323964 0
0.486885 0.315663 0
0.57023 0.311315 0
0.644007 0.311635 0
0.706477 0.315465 0
0.76173 0.322347 0
0.813474 0.331395 0
0.862928 0.341894 0
0.90959 0.35314 0
0.954208 0.365057 0
0.989288 0.377264 0
1 0.387366 0
1 0.389868 0
1 0.39118 0
1 0.392157 0
1 0.39324 0
1 0.394186 0
1 0.394537 0
1 0.394614 0
1 0.397131 0
1 0.402335 0
1 0.408331 0
0 0.350378 0
0 0.357061 0
0 0.364126 0
0 0.376837 0
0 0.38999 0
0 0.400671 0
4.57771e-05 0.409674 0
0.0237125 0.416907 0
0.0837873 0.420813 0
0.164782 0.419211 0
0.271489 0.410132 0
0.3879 0.39736 0
0.492088 0.387778 0
0.585458 0.380346 0
0.668528 0.376699 0
0.738323 0.377386 0
0.798123 0.38201 0
0.851118 0.389868 0
0.899397 0.400488 0
0.943542 0.412634 0
0.980346 0.425269 0
0.999908 0.437934 0
1 0.448646 0
1 0.451957 0
1 0.452934 0
1 0.454261 0
1 0.454826 0
1 0.455192 0
1 0.455467 0
1 0.455467 0
1 0.456962 0
1 0.461143 0
1 0.466758 0
0 0.416358 0
0 0.423697 0
0 0.431388 0
0 0.445594 0
0 0.460517 0
0 0.472633 0
0 0.482444 0
0.0204776 0.490364 0
0.0756085 0.495338 0
0.154849 0.495018 0
0.259876 0.487251 0
0.381735 0.473899 0
0.492607 0.461906 0
0.591867 0.452399 0
0.681971 0.446067 0
0.758312 0.443992 0
0.823606 0.446235 0
0.881025 0.452567 0
0.931762 0.461723 0
0.97377 0.47245 0
0.998184 0.484215 0
1 0.496193 0
1 0.506447 0
1 0.510353 0
1 0.51191 0
1 0.512718 0
1 0.51313 0
1 0.513176 0
1 0.51284 0
1 0.512489 0
1 0.513207 0
1 0.516075 0
1 0.520714 0
0 0.487068 0
0 0.495048 0
0 0.504356 0
0 0.519936 0
0 0.535576 0
0 0.54789 0
0 0.557824 0
0.0179751 0.565927 0
0.0691844 0.571145 0
0.147189 0.571481 0
0.250385 0.564858 0
0.373053 0.551247 0
0.489677 0.537438 0
0.594919 0.526268 0
0.689525 0.518471 0
0.77116 0.514565 0
0.841184 0.514595 0
0.902007 0.518318 0
0.955596 0.524987 0
0.990051 0.533669 0
1 0.543618 0
1 0.553903 0
1 0.563134 0
1 0.56669 0
1 0.567529 0
1 0.568215 0
1 0.568444 0
1 0.568276 0
1 0.56788 0
1 0.567086 0
1 0.566644 0
1 0.568246 0
1 0.572091 0
0 0.560571 0
0 0.568566 0
0 0.580056 0
0 0.596048 0
0 0.611414 0
0 0.623407 0
0 0.633066 0
0.0165255 0.641001 0
0.0657816 0.64625 0
0.143526 0.64683 0
0.2448 0.640665 0
0.366171 0.627619 0
0.485863 0.612741 0
0.596231 0.599573 0
0.694652 0.590311 0
0.778759 0.585077 0
0.851865 0.5832 0
0.915831 0.584436 0
0.970001 0.588373 0
0.998138 0.594247 0
1 0.601617 0
1 0.609873 0
1 0.61706 0
1 0.619837 0
1 0.620096 0
1 0.620279 0
1 0.620325 0
1 0.620264 0
1 0.619684 0
1 0.618494 0
1 0.61738 0
1 0.618296 0
1 0.621668 0
0 0.634226 0
0 0.642359 0
0 0.655619 0
0 0.671443 0
0 0.686076 0
0 0.697536 0
0 0.706981 0
0.0172427 0.714763 0
0.0677501 0.719585 0
0.145525 0.719676 0
0.244984 0.713542 0
0.363653 0.700862 0
0.484031 0.685573 0
0.598627 0.671153 0
0.699504 0.659937 0
0.78468 0.652857 0
0.859129 0.649073 0
0.925231 0.648203 0
0.976928 0.649714 0
1 0.652934 0
1 0.65742 0
1 0.662791 0
1 0.667704 0
1 0.669673 0
1 0.669642 0
1 0.66952 0
1 0.669291 0
1 0.66894 0
1 0.668086 0
1 0.666789 0
1 0.665507 0
1 0.66598 0
1 0.668772 0
0 0.706218 0
0 0.713954 0
0 0.728634 0
0 0.744213 0
0 0.757977 0
0 0.768917 0
0 0.777813 0
0.0199893 0.784817 0
0.0747539 0.7888 0
0.152895 0.788067 0
0.250919 0.78146 0
0.365972 0.768841 0
0.485328 0.753353 0
0.60174 0.737469 0
0.704234 0.724529 0
0.790372 0.715541 0
0.865064 0.710063 0
0.932006 0.707347 0
0.980728 0.706706 0
1 0.707546 0
1 0.709392 0
1 0.712016 0
1 0.714794 0
1 0.715846 0
1 0.715816 0
1 0.71548 0
1 0.714916 0
1 0.714168 0
1 0.713115 0
1 0.711772 0
1 0.710582 0
1 0.710765 0
1 0.71281 0
0 0.776135 0
0 0.784558 0
0 0.79939 0
0 0.814206 0
0 0.827253 0
0 0.8374 0
0.00062562 0.845243 0
0.0249332 0.850965 0
0.0852369 0.853605 0
0.163714 0.851759 0
0.260624 0.844465 0
0.371969 0.83183 0
0.48893 0.815702 0
0.605097 0.798199 0
0.708537 0.783719 0
0.795682 0.773205 0
0.870756 0.766339 0
0.937911 0.762036 0
0.983795 0.75938 0
1 0.758007 0
1 0.757687 0
1 0.75819 0
1 0.759182 0
1 0.759411 0
1 0.759213 0
1 0.758633 0
1 0.757916 0
1 0.756939 0
1 0.755718 0
1 0.75433 0
1 0.753094 0
1 0.753017 0
1 0.754559 0
0 0.842451 0
0 0.852766 0
0 0.867048 0
0 0.880583 0
0 0.892439 0
0 0.901305 0
0.00401312 0.907881 0
0.0340124 0.912276 0
0.0975814 0.91342 0
0.176028 0.910216 0
0.271717 0.901793 0
0.379492 0.888777 0
0.493538 0.871931 0
0.608545 0.853361 0
0.712398 0.837446 0
0.800336 0.825696 0
0.87599 0.817548 0
0.943282 0.811856 0
0.986526 0.807568 0
1 0.804364 0
1 0.802213 0
1 0.801053 0
1 0.800687 0
1 0.80029 0
1 0.799756 0
1 0.798978 0
1 0.798169 0
1 0.797131 0
1 0.795865 0
1 0.794385 0
1 0.792981 0
1 0.792645 0
1 0.793866 0
0 0.905287 0
0 0.917327 0
0 0.931167 0
0 0.943358 0
0 0.953368 0
0 0.959823 0
0.00996414 0.963897 0
0.0462501 0.966293 0
0.110155 0.966476 0
0.188281 0.96318 0
0.282506 0.954162 0
0.386877 0.940291 0
0.498054 0.92314 0
0.611597 0.904067 0
0.715846 0.887037 0
0.804303 0.874067 0
0.880339 0.8645 0
0.94789 0.857511 0
0.988937 0.852033 0
1 0.847562 0
1 0.844007 0
1 0.841398 0
1 0.839796 0
1 0.838941 0
1 0.838224 0
1 0.837324 0
1 0.836393 0
1 0.83537 0
1 0.834104 0
1 0.832502 0
1 0.830976 0
1 0.830457 0
1 0.831403 0
0 0.961517 0
0 0.971649 0
0 0.981598 0
0 0.990234 0
0 0.997024 0
0 0.999695 0
0.0150912 1 0
0.0567025 1 0
0.120745 1 0
0.198566 0.998718 0
0.29163 0.992782 0
0.393332 0.981643 0
0.501625 0.968353 0
0.613611 0.950408 0
0.718166 0.932769 0
0.806973 0.918532 0
0.883604 0.907683 0
0.951705 0.899519 0
0.990997 0.893004 0
1 0.887678 0
1 0.883207 0
1 0.879454 0
1 0.876829 0
1 0.875608 0
1 0.874861 0
1 0.873915 0
1 0.87303 0
1 0.871824 0
1 0.870405 0
1 0.868788 0
1 0.867216 0
1 0.866621 0
1 0.867536 0
0 1 0
0 1 0
0 1 0
0 1 0
0 1 0
0 1 0
0.0192416 1 0
0.0648051 1 0
0.128511 1 0
0.206241 1 0
0.298482 1 0
0.398505 1 0
0.504646 1 0
0.614939 0.988602 0
0.718456 0.973434 0
0.807767 0.959045 0
0.88539 0.947555 0
0.954437 0.938598 0
0.992615 0.931334 0
1 0.925261 0
1 0.919921 0
1 0.915434 0
1 0.912291 0
1 0.910857 0
1 0.909941 0
1 0.909209 0
1 0.908141 0
1 0.906905 0
1 0.905425 0
1 0.903883 0
1 0.902419 0
1 0.901854 0
1 0.902647 0
0 1 0
0 1 0
0 1 0
0 1 0
0 1 0
0 1 0
0.0217746 1 0
0.0699931 1 0
0.133883 1 0
0.211643 1 0
0.303395 1 0
0.402609 1 0
0.507012 1 0
0.616037 1 0
0.718685 0.999878 0
0.807935 0.989807 0
0.886305 0.979217 0
0.956374 0.970687 0
0.993851 0.963455 0
1 0.957168 0
1 0.951629 0
1 0.946899 0
1 0.943648 0
1 0.942489 0
1 0.941573 0
1 0.940719 0
1 0.939879 0
1 0.938903 0
1 0.937713 0
1 0.936584 0
1 0.935531 0
1 0.935058 0
1 0.935622 0
0 1 0
0 1 0
0 1 0
0 1 0
0 1 0
0 1 0
0.0235294 1 0
0.0737469 1 0
0.138338 1 0
0.216999 1 0
0.308888 1 0
0.40705 1 0
0.510857 1 0
0.619165 1 0
0.720684 1 0
0.809583 0.999832 0
0.88809 0.995514 0
0.958129 0.988952 0
0.994705 0.982513 0
1 0.976959 0
1 0.972107 0
1 0.968048 0
1 0.965484 0
1 0.96495 0
1 0.964858 0
1 0.964782 0
1 0.964675 0
1 0.964569 0
1 0.964462 0
1 0.964324 0
1 0.964187 0
1 0.964096 0
1 0.964096 0
0 1 0
0 1 0
0 1 0
0 1 0
0 1 0
0 1 0
0.0249485 1 0
0.0768749 1 0
0.142123 1 0
0.221439 1 0
0.313756 1 0
0.411521 1 0
0.515419 1 0
0.623545 1 0
0.724865 1 0
0.813306 1 0
0.891356 0.995605 0
0.961074 0.988998 0
0.996155 0.98262 0
1 0.977142 0
1 0.972305 0
1 0.968292 0
1 0.965866 0
1 0.965408 0
1 0.965347 0
1 0.965286 0
1 0.965209 0
1 0.965133 0
1 0.965026 0
1 0.96492 0
1 0.964797 0
1 0.964721 0
1 0.964721 0
0 1 0
0 1 0
0 1 0
0 1 0
0 1 0
0 1 0
0.026276 1 0
0.0797284 1 0
0.145266 1 0
0.224781 1 0
0.317403 1 0
0.415106 1 0
0.519249 1 0
0.627665 1 0
0.728435 1 0
0.816327 1 0
0.89398 0.995453 0
0.963424 0.988785 0
0.997299 0.982452 0
1 0.976989 0
1 0.972183 0
1 0.968231 0
1 0.965896 0
1 0.965484 0
1 0.965423 0
1 0.965362 0
1 0.965301 0
1 0.965225 0
1 0.965133 0
1 0.965026 0
1 0.96492 0
1 0.964858 0
1 0.964858 0
0 1 0
0 1 0
0 1 0
0 1 0
0 1 0
0.000534066 1 0
0.0275425 1 0
0.0815137 1 0
0.147387 1 0
