LUTs/56.cube
TITLE "Generate by Resolve"
LUT_3D_SIZE 9
0 0.0184634 0.0267185
0.0112917 0.016907 0.031754
0.118685 0.00456245 0
0.304204 0.00364691 0
0.533165 0 0
0.754757 0 0
0.954986 0 0
0.980591 0 0
0.980591 0 0
0 0.0603952 0.018143
0.00843824 0.0644236 0.0228428
0.122896 0.0569467 0.00843824
0.328527 0.037995 0
0.592325 0.0109712 0
0.847959 0.000213626 0
0.981628 0.0009308 0
0.981125 0 0
0.981674 0.0024567 0
0 0.157473 0
0 0.176562 0
0.140307 0.176013 0.00204471
0.406668 0.158755 1.5259e-05
0.646601 0.163836 0
0.896269 0.179904 0
0.997879 0.195468 0
0.997925 0.196674 0
0.999619 0.216968 0
0 0.350378 0
0 0.38999 0
0.0837873 0.420813 0
0.492088 0.387778 0
0.798123 0.38201 0
0.980346 0.425269 0
1 0.452934 0
1 0.455467 0
1 0.466758 0
0 0.634226 0
0 0.686076 0
0.0677501 0.719585 0
0.484031 0.685573 0
0.859129 0.649073 0
1 0.65742 0
1 0.669642 0
1 0.668086 0
1 0.668772 0
0 0.905287 0
0 0.953368 0
0.110155 0.966476 0
0.498054 0.92314 0
0.880339 0.8645 0
1 0.844007 0
1 0.838224 0
1 0.834104 0
1 0.831403 0
0 1 0
0 1 0
0.138338 1 0
0.510857 1 0
0.88809 0.995514 0
1 0.972107 0
1 0.964858 0
1 0.964462 0
1 0.964096 0
0 1 0
0 1 0
0.148486 1 0
0.523644 1 0
0.896986 0.99527 0
1 0.972091 0
1 0.965576 0
1 0.965316 0
1 0.965087 0
0 1 0
0 1 0
0.15848 1 0
0.538186 1 0
0.909163 0.994537 0
1 0.97142 0
1 0.965942 0
1 0.965805 0
1 0.965637 0
0 0.0263218 0.0769055
0 0.026215 0.0852369
0.131991 0 0.0723735
0.321599 0 1.5259e-05
0.542306 0 0
0.762921 0 0
0.963577 0 0
0.980591 0 0
0.980591 0 0
0 0.064744 0.0709544
0.000854505 0.0711223 0.0749371
0.131365 0.0566567 0.0700999
0.352178 0.0354314 7.62951e-05
0.617624 0.010605 0
0.870787 0.00062562 0
0.992325 0.00227359 0
0.991379 0 0
0.99443 0.0039826 0
0 0.162722 0.041825
0 0.183688 0.0528572
0.132311 0.188754 0.0672007
0.394202 0.177996 0.0312505
0.657465 0.178973 0
0.915129 0.194369 0
1 0.208209 0
1 0.209308 0
1 0.231067 0
0 0.363256 3.0518e-05
0 0.405478 0.00292973
0.0879835 0.440192 0.0209201
0.490074 0.4103 0.0424506
0.78854 0.407858 0.0445106
0.971695 0.453162 0
1 0.476814 0
1 0.478874 0
1 0.489845 0
0 0.650462 0
0 0.703029 0
0.0764172 0.737453 0.00370794
0.473579 0.708995 0.000869764
0.854978 0.668696 0.0357519
1 0.676417 0.0643778
1 0.687739 0.0514382
1 0.685527 0.0462043
1 0.685908 0.0436713
0 0.917998 0
0 0.962905 0.00225834
0.117647 0.974289 0.018265
0.484962 0.938369 0.000946059
0.871672 0.877592 0.00653086
1 0.855177 0.0497139
1 0.849195 0.060853
1 0.845167 0.054902
1 0.842329 0.0497902
0 1 0
0 1 0.0142977
0.142626 1 0.0266117
0.497932 1 0.00248722
0.875654 0.998367 0
1 0.975113 0.0247807
1 0.968032 0.039292
1 0.967956 0.033051
1 0.967926 0.0275578
0 1 0
0 1 0.0160983
0.151919 1 0.0286564
0.509377 1 0.00427253
0.884169 0.998016 0
1 0.975204 0.0323339
1 0.969009 0.0466011
1 0.968856 0.0418555
1 0.968719 0.0377356
0 1 0.000274662
0 1 0.0192569
0.161395 1 0.0318456
0.522713 1 0.00614939
0.896681 0.997238 0.00337224
1 0.974426 0.0433814
1 0.969345 0.0569924
1 0.969253 0.054078
1 0.969146 0.0507668
0 0.0371099 0.195789
0 0.0379187 0.204791
0.0727703 0.00584421 0.234806
0.358968 0 0.145052
0.586023 0 0.0191958
0.800351 0 0
0.99173 0 0
1 0 0
1 0 0
0 0.0835584 0.173236
0 0.0925307 0.183658
0.0708171 0.0662547 0.236851
0.402838 0.0148013 0.163928
0.673915 0.000686656 0.0417945
0.917388 0 0.00198367
1 0 0
1 0 0
1 0 0.00411994
0 0.169619 0.165148
0 0.19266 0.18233
0.0931258 0.20473 0.201556
0.406149 0.182086 0.171145
0.693538 0.1794 0.0831464
0.950744 0.196323 0.0263218
1 0.21001 0.0178531
1 0.210651 0.0209049
1 0.23151 0.0391394
0 0.373541 0.111208
0 0.417441 0.13283
0.0894942 0.451286 0.186908
0.455406 0.433234 0.203494
0.734432 0.439734 0.173541
0.943893 0.479103 0.0943618
1 0.49865 0.0727092
1 0.500664 0.0738689
1 0.510521 0.0824903
0 0.661646 0.0919356
0 0.713588 0.123415
0.0797589 0.746365 0.174594
0.427405 0.730816 0.170489
0.822568 0.685161 0.207523
0.999374 0.694652 0.225071
1 0.708568 0.196368
1 0.706447 0.191959
1 0.705943 0.190066
0 0.924025 0.121843
0 0.966018 0.167834
0.117159 0.97583 0.205921
0.44979 0.947875 0.184451
0.832349 0.888869 0.17084
1 0.862684 0.231846
1 0.857053 0.244526
1 0.853162 0.238758
1 0.849973 0.233539
0 1 0.157061
0 1 0.195605
0.13875 1 0.221912
0.465904 1 0.191745
0.829862 0.999969 0.156176
1 0.977951 0.207874
1 0.96965 0.227893
1 0.968765 0.221958
1 0.968673 0.216144
0 1 0.164233
0 1 0.201556
0.147723 1 0.227863
0.476249 1 0.197971
0.838544 1 0.164828
1 0.979492 0.218235
1 0.972778 0.237232
1 0.972717 0.232563
1 0.972656 0.228367
0 1 0.172442
0 1 0.208942
0.157046 1 0.23473
0.488716 1 0.205234
0.852125 1 0.176837
1 0.978332 0.235233
1 0.972976 0.252293
1 0.97293 0.249378
1 0.972885 0.245441
0 0.0489204 0.406226
0 0.050782 0.415152
4.57771e-05 0.0305943 0.459953
0.316976 0 0.440528
0.620615 0 0.332357
0.860883 0 0.193942
1 0 0.0978561
1 0 0.0832685
1 0 0.0946975
0 0.0984207 0.384619
0 0.108659 0.405203
6.10361e-05 0.0941024 0.474083
0.366949 0.00704967 0.494377
0.715267 0 0.411368
0.972778 0 0.297658
1 0 0.252628
1 0 0.281788
1 0 0.337392
0 0.205142 0.330449
0 0.234073 0.356481
6.10361e-05 0.2533 0.389349
0.366567 0.179187 0.529564
0.766094 0.145937 0.448249
0.999573 0.171801 0.341131
1 0.186984 0.324254
1 0.186007 0.346303
1 0.203708 0.38883
0 0.382788 0.345449
0 0.427161 0.383185
0.0557259 0.464057 0.437598
0.353994 0.466484 0.449149
0.725582 0.446189 0.41944
0.962402 0.47567 0.350134
1 0.493141 0.331685
1 0.494194 0.338766
1 0.502144 0.352392
0 0.669871 0.325002
0 0.720485 0.369711
0.0678569 0.751186 0.435203
0.402899 0.732403 0.478157
0.7635 0.698146 0.478813
0.956909 0.715297 0.444312
1 0.730144 0.399573
1 0.727932 0.396612
1 0.726543 0.395117
0 0.926085 0.376959
0 0.96614 0.427497
0.104997 0.973175 0.485496
0.42533 0.941543 0.495308
0.759564 0.897688 0.455604
1 0.866468 0.502266
1 0.863401 0.507393
1 0.859831 0.502297
1 0.856321 0.497078
0 1 0.426291
0 1 0.465354
0.123461 1 0.510658
0.440467 1 0.504417
0.755917 1 0.45684
1 0.982834 0.479606
1 0.973022 0.502937
1 0.971038 0.498405
1 0.969329 0.493675
0 1 0.433906
0 1 0.47126
0.131868 1 0.516533
0.451194 1 0.513039
0.765026 1 0.466896
1 0.984054 0.491783
1 0.976364 0.513329
1 0.976318 0.509529
1 0.976272 0.506233
0 1 0.441672
0 1 0.47895
0.14136 1 0.524636
0.464073 1 0.523964
0.779263 1 0.480964
1 0.982696 0.512505
1 0.976623 0.531243
1 0.976577 0.52871
1 0.976532 0.52459
0 0.0605783 0.632029
0 0.0631266 0.64007
0 0.0484627 0.681514
0.152178 1.5259e-05 0.747173
0.587137 0 0.649744
0.86421 0 0.590875
1 0 0.507729
1 0 0.490822
1 0 0.515908
0 0.112352 0.618463
0 0.124681 0.642267
0 0.115679 0.712047
0.191043 0.0325628 0.805203
0.691081 0 0.738857
0.97528 0 0.70959
1 0 0.693828
1 0 0.719646
1 0 0.763989
0 0.240253 0.547631
0 0.274067 0.576745
0 0.294041 0.634562
0.177584 0.23032 0.798291
0.746181 0.142046 0.797116
1 0.145174 0.771405
1 0.155703 0.762936
1 0.155581 0.782422
1 0.17435 0.817853
0 0.427649 0.548486
0 0.476188 0.586725
0 0.522835 0.596902
0.16173 0.530358 0.660594
0.695171 0.445457 0.787655
0.999512 0.445289 0.738201
1 0.462104 0.70428
1 0.462058 0.712993
1 0.468376 0.72607
0 0.679973 0.596307
0 0.729824 0.639139
0.0330968 0.761913 0.694194
0.351278 0.749065 0.71043
0.664103 0.72639 0.71046
0.946868 0.713573 0.682261
1 0.722576 0.646433
1 0.719844 0.644724
1 0.717479 0.643229
0 0.929503 0.63212
0 0.967025 0.680247
0.0798505 0.974594 0.723827
0.406699 0.940002 0.732601
0.72195 0.895628 0.735897
0.966644 0.87274 0.73875
1 0.876692 0.714931
1 0.873365 0.709392
1 0.869917 0.703502
0 1 0.661799
0 1 0.702159
0.0981918 1 0.737057
0.422248 1 0.742535
0.724117 1 0.735637
0.969421 0.991455 0.721721
1 0.97966 0.741207
1 0.97702 0.737881
1 0.97438 0.734813
0 1 0.672633
0 1 0.710124
0.101854 1 0.743252
0.429679 1 0.74699
0.733028 1 0.742245
0.975067 0.991211 0.732387
1 0.981918 0.750317
1 0.981826 0.747875
1 0.98175 0.745647
0 1 0.680766
0 1 0.717449
0.108568 1 0.74931
0.44239 1 0.753567
0.747951 1 0.753368
0.98645 0.9897 0.749615
1 0.982513 0.76527
1 0.982422 0.763104
1 0.982284 0.759686
0 0.0700236 0.794644
0 0.0730602 0.802182
0 0.0609598 0.839536
0.0180972 0.000579843 0.914015
0.520592 0 0.877562
0.854704 0 0.815717
1 0 0.792569
1 0 0.790158
1 0 0.814313
0 0.125841 0.787854
0 0.140826 0.812085
0 0.134844 0.874723
0.067216 0.0648508 0.96849
0.635737 0 0.947906
0.975006 0 0.91809
1 0 0.929961
1 0 0.949004
1 0 0.976593
0 0.267597 0.723049
0 0.305943 0.75227
0 0.327016 0.813199
0.0639811 0.271794 0.946258
0.672999 0.167865 0.989075
1 0.148486 0.978637
1 0.155184 0.986328
1 0.155825 0.995865
1 0.176028 1
0 0.47985 0.682078
0 0.532067 0.717174
0 0.581247 0.727398
0.0469062 0.574685 0.814252
0.572015 0.49041 0.95494
0.999252 0.446097 0.964645
1 0.452567 0.962478
1 0.452445 0.967758
1 0.459144 0.973922
0 0.707591 0.7608
0 0.759289 0.796521
0.00454719 0.792203 0.829099
0.225895 0.79646 0.825223
0.534722 0.770748 0.842512
0.940917 0.708064 0.915434
1 0.701976 0.886183
1 0.698726 0.885756
1 0.695994 0.885634
0 0.936767 0.817761
0 0.972015 0.85713
0.0560616 0.979706 0.888853
0.37258 0.949599 0.884306
0.682811 0.907988 0.864042
0.908598 0.889845 0.868223
1 0.878569 0.849867
1 0.874693 0.845991
1 0.870619 0.841947
0 1 0.838697
0 1 0.873533
0.0775464 1 0.896101
0.39968 1 0.887297
0.714351 1 0.874083
0.943893 0.997421 0.881682
1 0.987472 0.882963
1 0.984695 0.880507
1 0.981704 0.878172
0 1 0.851804
0 1 0.884321
0.0798505 1 0.904524
0.403296 1 0.895582
0.718669 1 0.880995
0.950683 0.997269 0.888808
1 0.98883 0.891508
1 0.988724 0.889677
1 0.988632 0.88806
0 1 0.860868
0 1 0.892241
0.0845197 1 0.911971
0.412329 1 0.902678
0.73167 1 0.889784
0.963775 0.996323 0.90132
1 0.989609 0.904921
1 0.989487 0.902876
1 0.989303 0.89958
0 0.0805066 0.923186
0 0.084062 0.930053
0 0.07364 0.962463
0 0.0197604 1
0.419226 0 0.999939
0.841428 0 0.978744
1 0 0.966247
1 0 0.974395
1 0 0.994614
0 0.142123 0.922026
0 0.160449 0.945663
0 0.156832 0.995758
1.5259e-05 0.0960861 1
0.540551 0.00250248 1
0.971359 0 1
1 0 1
1 0 1
1 0 1
0 0.296498 0.866972
0 0.339971 0.894774
0 0.362463 0.950866
0 0.313283 1
0.562463 0.2094 1
1 0.159792 1
1 0.162112 1
1 0.162249 1
1 0.182589 1
0 0.527337 0.803357
0 0.583261 0.83476
0 0.630518 0.855833
0 0.616678 0.932815
0.456138 0.537453 1
0.972183 0.463096 1
1 0.458457 1
1 0.457176 1
1 0.463355 1
0 0.749371 0.872023
0 0.802411 0.905043
0 0.837766 0.912779
0.094316 0.847837 0.913848
0.422721 0.811002 0.958877
0.863539 0.734127 1
1 0.701442 1
1 0.697414 1
1 0.694347 0.999985
0 0.953643 0.930739
0 0.98468 0.934325
0.0231479 0.992126 0.955657
0.299931 0.975753 0.967056
0.572824 0.945953 0.945739
0.825986 0.91664 0.966155
1 0.871809 0.988327
1 0.866072 0.986938
1 0.861662 0.986267
0 1 0.916304
0 1 0.923812
0.0730907 1 0.941558
0.389151 1 0.945724
0.694652 1 0.946944
0.915007 0.999664 0.960845
1 0.993164 0.973907
1 0.99089 0.974136
1 0.987976 0.972274
0 1 0.915908
0 1 0.924437
0.0825666 1 0.942107
0.402441 1 0.945678
0.712749 1 0.94757
0.945251 0.998993 0.965591
1 0.993332 0.974411
1 0.993332 0.974411
1 0.993332 0.974426
0 1 0.915908
0 1 0.924758
0.0890364 1 0.942458
0.412879 1 0.945632
0.725963 1 0.948104
0.959503 0.998489 0.967163
1 0.993332 0.974472
1 0.993332 0.974456
1 0.993332 0.974441
0 0.0932174 1
0 0.0973068 1
0 0.0880903 1
0 0.03888 1
0.292332 0 1
0.801114 0 1
1 0 1
1 0 1
1 0 1
0 0.161975 1
0 0.183825 1
0 0.1823 1
0 0.127703 1
0.415854 0.0201724 1
0.94876 0 1
1 0 1
1 0 1
1 0 1
0 0.329213 0.986984
0 0.37731 0.997787
0 0.400778 1
0 0.358801 1
0.43299 0.256565 1
0.983337 0.177478 1
1 0.168185 1
1 0.166842 1
1 0.187274 1
0 0.573556 0.919509
0 0.632517 0.947814
0 0.677195 0.96466
0 0.66186 0.990524
0.333974 0.584741 1
0.903899 0.493385 1
1 0.465461 1
1 0.460761 1
1 0.466117 1
0 0.797757 0.945403
0 0.850324 0.944457
0 0.888533 0.940871
0.00440986 0.891752 0.96733
0.309133 0.851499 0.997009
0.768322 0.766964 1
1 0.71133 1
1 0.699153 1
1 0.695827 1
0 0.974685 0.932479
0 0.99942 0.92874
0.00201419 1 0.943954
0.188388 0.999969 0.961089
0.445991 0.986923 0.962005
0.739254 0.946395 0.970336
0.999512 0.889174 0.989395
1 0.867124 0.992676
1 0.862486 0.993439
0 1 0.91606
0 1 0.92163
0.0516518 1 0.940108
0.350027 1 0.945769
0.633005 1 0.945525
0.837568 1 0.955184
0.999588 0.993957 0.974273
1 0.991638 0.975158
1 0.988418 0.975586
0 1 0.915908
0 1 0.925048
0.0872969 1 0.942367
0.405936 1 0.945663
0.712734 1 0.94757
0.939086 0.999176 0.964996
1 0.993347 0.974487
1 0.993332 0.974487
1 0.993332 0.974487
0 1 0.915908
0 1 0.925887
0.0991684 1 0.942977
0.424552 1 0.945586
0.735454 1 0.948547
0.964843 0.998108 0.967803
1 0.993332 0.974487
1 0.993332 0.974487
1 0.993332 0.974487
0 0.106676 1
0 0.111391 1
0 0.103029 1
0 0.056611 1
0.173541 0 1
0.734173 0 1
1 0 1
1 0 1
1 0 1
0 0.183948 1
0 0.209384 1
0 0.209323 1
0 0.157382 1
0.296071 0.0536202 1
0.903395 0 1
1 0 1
1 0 1
1 0 1
0 0.363775 1
0 0.415778 1
0 0.439673 1
0 0.401724 1
0.314656 0.302449 1
0.933562 0.204471 1
1 0.17847 1
1 0.172076 1
1 0.192615 1
0 0.61709 0.996506
0 0.678767 0.978271
0 0.719554 0.967712
0 0.705287 0.971618
0.214801 0.632242 1
0.80325 0.531365 1
1 0.480827 1
1 0.464973 1
1 0.469703 1
0 0.843076 0.945571
0 0.89485 0.939849
0 0.931075 0.936538
0 0.928923 0.949187
0.206332 0.889433 0.988556
0.666621 0.802762 1
0.999527 0.733333 1
1 0.702846 1
1 0.69781 1
0 0.996033 0.92958
0 1 0.925017
0 1 0.927871
0.0746166 1 0.949508
0.334401 1 0.955413
0.654887 0.97464 0.960342
0.981964 0.914641 0.987701
1 0.872404 0.991836
1 0.863798 0.99321
0 1 0.915923
0 1 0.91725
0.0142214 1 0.935943
0.26743 1 0.946014
0.526925 1 0.945098
0.751995 1 0.949294
0.974227 0.997467 0.968704
1 0.992905 0.974807
1 0.988891 0.975525
0 1 0.915908
0 1 0.923644
0.0735943 1 0.941573
0.381277 1 0.945724
0.678309 1 0.946456
0.890608 0.999969 0.960006
0.999924 0.993896 0.974227
1 0.993332 0.974487
1 0.993332 0.974487
0 1 0.915908
0 1 0.926238
0.10454 1 0.943221
0.430442 1 0.945556
0.739498 1 0.94873
0.965408 0.998047 0.967849
1 0.993332 0.974487
1 0.993332 0.974487
1 0.993332 0.974487
