LUTs/6.cube
LUT_3D_SIZE 6
-0.089820 -0.088004 -0.057389
0.117251 -0.088004 -0.057390
0.531902 -0.088005 -0.057396
0.872630 -0.088012 -0.057410
0.980733 -0.088019 -0.057424
1.013591 -0.088023 -0.057432
-0.089823 0.140223 -0.057392
0.117250 0.141423 -0.057393
0.531901 0.260530 -0.057401
0.872630 0.277473 -0.057415
0.980733 0.231507 -0.057429
1.013591 0.187839 -0.057435
-0.089827 0.529732 -0.057415
0.239840 0.529732 -0.057416
0.531932 0.535271 -0.057422
0.872629 0.570640 -0.057435
0.980733 0.478373 -0.057446
1.013591 0.394353 -0.057446
-0.089855 0.863004 -0.057455
0.261888 0.863004 -0.057457
0.572067 0.863003 -0.057464
0.872627 0.858899 -0.057476
0.980732 0.720372 -0.057482
1.013590 0.595054 -0.057471
-0.089879 0.974524 -0.057503
0.215352 0.974524 -0.057504
0.478799 0.974524 -0.057510
0.737116 0.974524 -0.057520
0.980731 0.961562 -0.057539
1.013590 0.794731 -0.057512
-0.089891 0.998781 -0.057525
0.167080 0.998781 -0.057526
0.385605 0.998781 -0.057530
0.597995 0.998781 -0.057538
0.809180 0.998781 -0.057550
1.013588 0.993886 -0.057569
-0.089820 -0.088004 0.209679
0.117647 -0.088005 0.209679
0.531902 -0.088005 0.322467
0.872630 -0.088012 0.338586
0.980733 -0.088019 0.294874
1.013591 -0.088023 0.253409
-0.089823 0.141804 0.209678
0.120219 0.138960 0.213434
0.646090 0.064716 0.176499
0.910415 0.048267 0.162598
0.993084 0.047158 0.152606
1.013591 0.140211 0.214258
-0.089828 0.529732 0.319917
0.028137 0.546070 0.133320
0.537242 0.538597 0.119910
0.888385 0.549184 0.119932
0.988449 0.449766 0.120408
1.013591 0.380219 0.209657
-0.089855 0.863004 0.339831
0.028395 0.868300 0.134247
0.544476 0.866698 0.121196
0.874109 0.859381 0.121762
0.983904 0.711555 0.121977
1.013590 0.588795 0.209652
-0.089879 0.974524 0.297831
0.030000 0.976145 0.132748
0.447606 0.975896 0.122998
0.727502 0.975349 0.123361
0.981248 0.961345 0.123900
1.013590 0.792151 0.209653
-0.089891 0.998781 0.254266
0.030610 0.999935 0.132223
0.359255 0.999826 0.123671
0.587221 0.999560 0.123897
0.805598 0.999312 0.124251
1.013588 0.993765 0.209648
-0.089822 -0.088005 0.585040
0.243501 -0.088002 0.585040
0.533703 -0.088006 0.585039
0.872630 -0.088014 0.617095
0.980733 -0.088020 0.529413
1.013591 -0.088024 0.449592
-0.089826 0.261343 0.585040
0.102509 0.097882 0.773232
0.618387 0.057823 0.661983
0.906318 0.047761 0.610623
0.992268 0.047207 0.507807
1.013591 0.140211 0.438848
-0.089829 0.536947 0.585037
0.027819 0.548458 0.598169
0.543563 0.524586 0.599876
0.956986 0.397847 0.482403
0.998731 0.465866 0.522309
1.013590 0.529745 0.575799
-0.089857 0.863004 0.619667
0.028484 0.867725 0.596275
0.215200 0.891664 0.316391
0.884270 0.859136 0.267379
0.998347 0.680201 0.387272
1.013590 0.671120 0.585053
-0.089880 0.974524 0.535548
0.030052 0.976050 0.508402
0.129712 0.985009 0.240613
0.669747 0.981345 0.215644
0.984322 0.959283 0.208227
1.013589 0.826387 0.585049
-0.089892 0.998781 0.451461
0.030648 0.999838 0.428842
0.461163 0.999965 0.520181
0.626356 0.999965 0.503875
0.811286 0.999965 0.448365
1.013588 0.994295 0.585042
-0.089826 -0.088004 0.889557
0.260013 -0.088005 0.889557
0.568148 -0.088009 0.889557
0.871098 -0.088014 0.889556
0.980733 -0.088022 0.759300
1.013591 -0.088025 0.640278
-0.089830 0.277021 0.889557
0.070498 0.065145 0.964306
0.572711 0.051844 0.937516
0.897348 0.047243 0.913444
0.991015 0.047353 0.757351
1.013591 0.140210 0.635668
-0.089833 0.569690 0.889556
0.027582 0.554840 0.913464
0.494826 0.487165 0.968555
0.946779 0.346807 0.960126
0.998739 0.454273 0.763267
1.013590 0.529745 0.704894
-0.089860 0.857450 0.889555
0.028653 0.860164 0.893322
0.200188 0.868968 0.913462
0.880841 0.858549 0.900629
0.997963 0.842205 0.867350
1.013590 0.863000 0.881807
-0.089884 0.974524 0.768530
0.030158 0.975831 0.760582
0.127026 0.983663 0.713861
0.678260 0.988016 0.720155
0.988382 0.956056 0.654712
1.013589 0.926590 0.889551
-0.089894 0.998781 0.643069
0.030717 0.999792 0.633986
0.454798 0.999965 0.674524
0.850503 0.999965 0.868345
0.915759 0.999965 0.855084
1.013588 0.997075 0.889549
-0.089830 -0.088007 0.984695
0.211078 -0.088008 0.984695
0.469893 -0.088011 0.984695
0.723721 -0.088016 0.984694
0.976584 -0.088024 0.984694
1.013591 -0.088026 0.829891
-0.089833 0.230533 0.984694
0.094482 0.109808 0.999185
0.450346 0.092372 0.999181
0.724845 0.047151 0.998352
0.984797 0.047632 0.992200
1.013591 0.140210 0.828293
-0.089834 0.476357 0.984694
0.027504 0.451665 0.998552
0.509082 0.513085 0.999198
0.739125 0.491639 0.999200
0.992005 0.445174 0.999106
1.013590 0.529744 0.856188
-0.089857 0.717401 0.984694
0.028489 0.710149 0.989462
0.428978 0.709984 0.999085
0.862085 0.856813 0.998819
0.993441 0.836302 0.998498
1.013590 0.863000 0.938635
-0.089889 0.957565 0.984693
0.030327 0.957966 0.985737
0.123277 0.958982 0.992847
0.719988 0.963001 0.995914
0.985013 0.972336 0.990363
1.013589 0.974523 0.983875
-0.089898 0.998781 0.833652
0.030827 0.999679 0.830977
0.442628 0.999965 0.845832
0.845895 0.999965 0.932182
0.974725 0.999965 0.979875
1.013588 0.998503 0.984691
-0.089832 -0.088009 1.019973
0.166121 -0.088009 1.019973
0.383569 -0.088011 1.019973
0.594857 -0.088014 1.019973
0.805083 -0.088021 1.019972
1.013591 -0.088030 1.019972
-0.089824 0.187845 1.019973
0.121227 0.140221 1.019973
0.371247 0.140220 1.019973
0.589536 0.140215 1.019973
0.803104 0.140212 1.019972
1.013591 0.140208 1.019972
-0.089831 0.394358 1.019973
0.117242 0.380512 1.019973
0.524084 0.529749 1.019972
0.666960 0.529748 1.019972
0.834463 0.529746 1.019972
1.013590 0.529743 1.019972
-0.089848 0.595056 1.019972
0.117232 0.588939 1.019972
0.531925 0.669585 1.019972
0.865886 0.863001 1.019971
0.928596 0.863001 1.019971
1.013590 0.863000 1.019971
-0.089866 0.794732 1.019971
0.117231 0.792223 1.019971
0.531918 0.825722 1.019971
0.872624 0.925484 1.019971
0.980008 0.974523 1.019970
1.013589 0.974523 1.019970
-0.089899 0.993888 1.019970
0.117217 0.993770 1.019970
0.531909 0.994249 1.019970
0.872622 0.996952 1.019970
0.980730 0.998450 1.019970
1.013588 0.998780 1.019970
