LUTs/6.cube
LUT_3D_SIZE 16
-0.089820 -0.088004 -0.057389
-0.068921 -0.088004 -0.057389
0.034430 -0.088004 -0.057389
0.117251 -0.088004 -0.057390
0.238767 -0.088005 -0.057392
0.381955 -0.088003 -0.057393
0.531902 -0.088005 -0.057396
0.675310 -0.088007 -0.057400
0.790586 -0.088009 -0.057405
0.872630 -0.088012 -0.057410
0.925607 -0.088015 -0.057415
0.959270 -0.088016 -0.057420
0.980733 -0.088019 -0.057424
0.994562 -0.088021 -0.057429
1.004312 -0.088022 -0.057431
1.013591 -0.088023 -0.057432
-0.089820 -0.067524 -0.057389
-0.068921 -0.067524 -0.057389
0.034430 -0.068791 -0.057389
0.117251 -0.055276 -0.057390
0.238767 -0.045574 -0.057392
0.381955 -0.040927 -0.057393
0.531902 -0.038519 -0.057397
0.675310 -0.037103 -0.057400
0.790586 -0.038393 -0.057405
0.872630 -0.040948 -0.057410
0.925607 -0.044031 -0.057415
0.959270 -0.047536 -0.057420
0.980733 -0.051622 -0.057425
0.994562 -0.056237 -0.057429
1.004312 -0.061058 -0.057431
1.013591 -0.065598 -0.057432
-0.089821 0.055771 -0.057390
-0.070210 0.055771 -0.057390
0.034430 0.055894 -0.057390
0.117250 0.086591 -0.057392
0.238767 0.117570 -0.057392
0.381955 0.143595 -0.057395
0.531902 0.162871 -0.057398
0.675310 0.175022 -0.057402
0.790586 0.177674 -0.057407
0.872630 0.173079 -0.057411
0.925607 0.164123 -0.057417
0.959270 0.153526 -0.057421
0.980733 0.142500 -0.057426
0.994562 0.131503 -0.057430
1.004312 0.120782 -0.057432
1.013591 0.110304 -0.057433
-0.089823 0.140223 -0.057392
-0.056419 0.140223 -0.057392
0.060887 0.140223 -0.057392
0.117250 0.141423 -0.057393
0.238767 0.189148 -0.057395
0.381953 0.230068 -0.057398
0.531901 0.260530 -0.057401
0.675309 0.279698 -0.057405
0.790586 0.284280 -0.057410
0.872630 0.277473 -0.057415
0.925607 0.263912 -0.057419
0.959270 0.247862 -0.057424
0.980733 0.231507 -0.057429
0.994562 0.215707 -0.057433
1.004312 0.201130 -0.057434
1.013591 0.187839 -0.057435
-0.089827 0.253417 -0.057397
-0.046525 0.253417 -0.057397
0.090593 0.253416 -0.057398
0.164842 0.253416 -0.057399
0.238766 0.256841 -0.057400
0.381952 0.312138 -0.057403
0.531892 0.353322 -0.057407
0.675309 0.379304 -0.057411
0.790586 0.385562 -0.057415
0.872630 0.376561 -0.057419
0.925607 0.358351 -0.057424
0.959270 0.336920 -0.057429
0.980733 0.315129 -0.057433
0.994562 0.294293 -0.057436
1.004312 0.275306 -0.057438
1.013591 0.258331 -0.057438
-0.089833 0.387736 -0.057405
-0.041791 0.387736 -0.057405
0.117575 0.387736 -0.057405
0.207433 0.387736 -0.057406
0.292741 0.387735 -0.057408
0.381949 0.392831 -0.057410
0.531891 0.444631 -0.057413
0.675308 0.477278 -0.057417
0.790585 0.485255 -0.057421
0.872629 0.473977 -0.057426
0.925607 0.451202 -0.057431
0.959270 0.424331 -0.057435
0.980733 0.397102 -0.057439
0.994562 0.371156 -0.057442
1.004312 0.347663 -0.057443
1.013591 0.326782 -0.057442
-0.089827 0.529732 -0.057415
-0.039347 0.529732 -0.057415
0.138076 0.529732 -0.057415
0.239840 0.529732 -0.057416
0.336547 0.529732 -0.057417
0.431706 0.529731 -0.057420
0.531932 0.535271 -0.057422
0.675308 0.574545 -0.057427
0.790585 0.584171 -0.057431
0.872629 0.570640 -0.057435
0.925606 0.543293 -0.057440
0.959269 0.511035 -0.057443
0.980733 0.478373 -0.057446
0.994561 0.447266 -0.057448
1.004312 0.419198 -0.057448
1.013591 0.394353 -0.057446
-0.089837 0.667299 -0.057427
-0.037918 0.667299 -0.057427
0.151457 0.667299 -0.057427
0.261004 0.667299 -0.057429
0.365194 0.667299 -0.057430
0.467730 0.667299 -0.057433
0.569474 0.667299 -0.057435
0.675307 0.671550 -0.057439
0.790584 0.682728 -0.057442
0.872628 0.666964 -0.057446
0.925606 0.635050 -0.057450
0.959269 0.597381 -0.057454
0.980733 0.559267 -0.057456
0.994561 0.523048 -0.057457
1.004312 0.490353 -0.057456
1.013591 0.461498 -0.057454
-0.089845 0.780108 -0.057441
-0.039250 0.780108 -0.057441
0.155207 0.780108 -0.057442
0.267305 0.780108 -0.057443
0.373822 0.780108 -0.057443
0.478682 0.780107 -0.057445
0.582707 0.780107 -0.057448
0.686441 0.780107 -0.057452
0.790583 0.780939 -0.057457
0.872627 0.762941 -0.057460
0.925606 0.726588 -0.057464
0.959269 0.683478 -0.057466
0.980732 0.639862 -0.057468
0.994561 0.598484 -0.057468
1.004312 0.561220 -0.057466
1.013590 0.528327 -0.057462
-0.089855 0.863004 -0.057455
-0.041866 0.863004 -0.057456
0.151437 0.863004 -0.057456
0.261888 0.863004 -0.057457
0.366698 0.863004 -0.057459
0.469799 0.863004 -0.057461
0.572067 0.863003 -0.057464
0.673963 0.863003 -0.057467
0.775447 0.863003 -0.057471
0.872627 0.858899 -0.057476
0.925605 0.817806 -0.057479
0.959268 0.769398 -0.057481
0.980732 0.720372 -0.057482
0.994561 0.673918 -0.057481
1.004312 0.631961 -0.057477
1.013590 0.595054 -0.057471
-0.089862 0.917563 -0.057471
-0.045020 0.917563 -0.057471
0.142734 0.917563 -0.057472
0.248770 0.917563 -0.057473
0.349145 0.917563 -0.057474
0.447808 0.917563 -0.057476
0.545651 0.917563 -0.057479
0.643139 0.917563 -0.057483
0.740350 0.917563 -0.057487
0.837411 0.917562 -0.057492
0.925604 0.909132 -0.057497
0.959268 0.855330 -0.057498
0.980732 0.800871 -0.057498
0.994561 0.749099 -0.057495
1.004311 0.702648 -0.057490
1.013590 0.661667 -0.057484
-0.089869 0.952455 -0.057488
-0.048606 0.952455 -0.057488
0.131902 0.952455 -0.057488
0.232426 0.952455 -0.057489
0.327356 0.952455 -0.057491
0.420499 0.952455 -0.057493
0.512882 0.952455 -0.057495
0.604894 0.952455 -0.057498
0.696616 0.952454 -0.057502
0.788234 0.952454 -0.057507
0.879772 0.952454 -0.057513
0.959267 0.941105 -0.057518
0.980731 0.881220 -0.057518
0.994560 0.824312 -0.057513
1.004311 0.773228 -0.057506
1.013590 0.728140 -0.057496
-0.089879 0.974524 -0.057503
-0.052777 0.974524 -0.057503
0.120362 0.974524 -0.057503
0.215352 0.974524 -0.057504
0.304599 0.974524 -0.057506
0.392083 0.974524 -0.057508
0.478799 0.974524 -0.057510
0.565147 0.974524 -0.057513
0.651180 0.974524 -0.057517
0.737116 0.974524 -0.057520
0.822961 0.974524 -0.057526
0.908745 0.974524 -0.057532
0.980731 0.961562 -0.057539
0.994560 0.899555 -0.057532
1.004311 0.843740 -0.057522
1.013590 0.794731 -0.057512
-0.089888 0.988261 -0.057516
-0.057483 0.988261 -0.057516
0.108683 0.988261 -0.057516
0.198617 0.988261 -0.057517
0.282513 0.988261 -0.057518
0.364574 0.988261 -0.057518
0.445849 0.988261 -0.057520
0.526747 0.988261 -0.057523
0.607313 0.988261 -0.057527
0.687787 0.988261 -0.057531
0.768200 0.988261 -0.057536
0.848456 0.988260 -0.057541
0.928711 0.988260 -0.057547
0.994559 0.974623 -0.057554
1.004310 0.914214 -0.057543
1.013589 0.861049 -0.057528
-0.089888 0.995953 -0.057522
-0.062400 0.995953 -0.057522
0.096916 0.995953 -0.057522
0.182455 0.995953 -0.057523
0.261462 0.995953 -0.057524
0.338500 0.995953 -0.057526
0.414689 0.995953 -0.057528
0.490457 0.995952 -0.057530
0.565895 0.995952 -0.057533
0.641207 0.995952 -0.057537
0.716592 0.995952 -0.057541
0.791621 0.995952 -0.057545
0.866752 0.995952 -0.057551
0.941777 0.995952 -0.057557
1.004310 0.984803 -0.057564
1.013589 0.927595 -0.057547
-0.089891 0.998781 -0.057525
-0.067029 0.998781 -0.057525
0.085276 0.998781 -0.057526
0.167080 0.998781 -0.057526
0.241662 0.998781 -0.057527
0.314109 0.998781 -0.057529
0.385605 0.998781 -0.057530
0.456667 0.998781 -0.057532
0.527387 0.998781 -0.057535
0.597995 0.998781 -0.057538
0.668532 0.998781 -0.057542
0.738934 0.998781 -0.057545
0.809180 0.998781 -0.057550
0.879438 0.998780 -0.057555
0.949863 0.998780 -0.057562
1.013588 0.993886 -0.057569
-0.089820 -0.088004 0.039152
-0.068921 -0.088004 0.039152
0.034430 -0.088004 0.036051
0.117251 -0.088005 0.057394
0.238767 -0.088005 0.065264
0.381955 -0.088003 0.067968
0.531902 -0.088005 0.069165
0.675310 -0.088007 0.069809
0.790586 -0.088009 0.069223
0.872630 -0.088012 0.067961
0.925607 -0.088015 0.066224
0.959270 -0.088016 0.063939
0.980733 -0.088019 0.060781
0.994562 -0.088021 0.056401
1.004312 -0.088022 0.050551
1.013591 -0.088023 0.043178
-0.089820 -0.067524 0.039151
-0.068921 -0.067524 0.039151
0.034430 -0.067524 0.039151
0.117251 -0.067525 0.039147
0.238767 -0.067527 0.039145
0.381955 -0.067529 0.039143
0.531902 -0.067530 0.039136
0.675310 -0.067534 0.039130
0.790586 -0.067539 0.039124
0.872630 -0.067541 0.039115
0.925607 -0.067546 0.039107
0.959270 -0.067549 0.039097
0.980733 -0.067554 0.039090
0.994562 -0.067554 0.039083
1.004312 -0.067556 0.039078
1.013591 -0.067557 0.039076
-0.089821 0.055771 0.036050
-0.068920 0.055771 0.039148
0.034430 0.055894 0.039147
0.117250 0.084684 0.039146
0.238767 0.113337 0.039145
0.381954 0.137620 0.039140
0.531902 0.155659 0.039134
0.675310 0.166995 0.039128
0.790586 0.169541 0.039122
0.872630 0.165312 0.039112
0.925607 0.157006 0.039104
0.959270 0.147205 0.039096
0.980733 0.137145 0.039087
0.994562 0.127313 0.039081
1.004312 0.118031 0.039076
1.013591 0.109321 0.039074
-0.089823 0.140223 0.057391
-0.068922 0.140223 0.039143
0.059112 0.140223 0.039145
0.117250 0.141423 0.039144
0.238767 0.187845 0.039140
0.381953 0.227669 0.039135
0.531901 0.257351 0.039130
0.675309 0.276008 0.039123
0.790586 0.280426 0.039115
0.872630 0.273752 0.039107
0.925607 0.260454 0.039101
0.959270 0.244797 0.039091
0.980733 0.228912 0.039083
0.994562 0.213711 0.039076
1.004312 0.199827 0.039073
1.013591 0.187385 0.039072
-0.089827 0.253417 0.065257
-0.068929 0.253417 0.039135
0.086318 0.253416 0.039134
0.163482 0.253416 0.039133
0.238766 0.256841 0.039130
0.381951 0.311220 0.039126
0.531892 0.351775 0.039122
0.675309 0.377277 0.039113
0.790586 0.383330 0.039106
0.872630 0.374306 0.039101
0.925607 0.356257 0.039092
0.959270 0.335042 0.039083
0.980733 0.313519 0.039074
0.994562 0.293032 0.039067
1.004312 0.274490 0.039067
1.013591 0.258042 0.039067
-0.089833 0.387736 0.067961
-0.068934 0.387736 0.039124
0.111369 0.387736 0.039123
0.204950 0.387735 0.039122
0.291802 0.387735 0.039117
0.381949 0.392830 0.039114
0.531891 0.444000 0.039108
0.675308 0.476175 0.039104
0.790585 0.483901 0.039095
0.872629 0.472565 0.039088
0.925607 0.449835 0.039078
0.959270 0.423060 0.039071
0.980733 0.396009 0.039064
0.994562 0.370261 0.039060
1.004312 0.347086 0.039059
1.013591 0.326592 0.039060
-0.089827 0.529732 0.069150
-0.068941 0.529732 0.039107
0.130559 0.529732 0.039106
0.236526 0.529732 0.039104
0.334874 0.529732 0.039104
0.431017 0.529731 0.039097
0.531932 0.535271 0.039094
0.675308 0.574041 0.039085
0.790585 0.583413 0.039077
0.872629 0.569731 0.039071
0.925606 0.542382 0.039064
0.959269 0.510128 0.039057
0.980733 0.477578 0.039051
0.994561 0.446641 0.039047
1.004312 0.418781 0.039047
1.013591 0.394215 0.039051
-0.089837 0.667299 0.069790
-0.068948 0.667299 0.039085
0.143080 0.667299 0.039084
0.257118 0.667299 0.039084
0.363032 0.667299 0.039079
0.466564 0.667299 0.039075
0.568968 0.667299 0.039071
0.675307 0.671550 0.039064
0.790584 0.682377 0.039058
0.872628 0.666484 0.039052
0.925606 0.634433 0.039045
0.959269 0.596748 0.039039
0.980733 0.558701 0.039035
0.994561 0.522584 0.039032
1.004312 0.490046 0.039034
1.013591 0.461394 0.039038
-0.089845 0.780108 0.069198
-0.068960 0.780108 0.039060
0.146657 0.780108 0.039059
0.263262 0.780108 0.039059
0.371462 0.780108 0.039056
0.477257 0.780108 0.039052
0.581892 0.780107 0.039046
0.686083 0.780107 0.039041
0.790583 0.780939 0.039033
0.872627 0.762697 0.039026
0.925605 0.726145 0.039023
0.959269 0.683032 0.039018
0.980732 0.639489 0.039015
0.994561 0.598127 0.039015
1.004312 0.560978 0.039019
1.013590 0.528254 0.039024
-0.089855 0.863004 0.067925
-0.068971 0.863004 0.039035
0.143202 0.863004 0.039034
0.257942 0.863004 0.039032
0.364342 0.863004 0.039029
0.468274 0.863004 0.039027
0.571110 0.863003 0.039022
0.673434 0.863003 0.039016
0.775263 0.863003 0.039008
0.872627 0.858899 0.039000
0.925605 0.817660 0.038995
0.959268 0.769184 0.038993
0.980732 0.720078 0.038993
0.994561 0.673608 0.038994
1.004312 0.631760 0.038999
1.013590 0.594999 0.039007
-0.089863 0.917563 0.066180
-0.068985 0.917563 0.039007
0.135142 0.917563 0.039006
0.245102 0.917563 0.039004
0.346913 0.917563 0.039003
0.446338 0.917563 0.039000
0.544718 0.917563 0.038997
0.642497 0.917563 0.038989
0.739961 0.917562 0.038982
0.837193 0.917562 0.038972
0.925604 0.909132 0.038963
0.959268 0.855191 0.038960
0.980732 0.800679 0.038962
0.994561 0.748926 0.038967
1.004311 0.702554 0.038975
1.013590 0.661641 0.038988
-0.089869 0.952455 0.063883
-0.068998 0.952455 0.038978
0.125156 0.952455 0.038978
0.229164 0.952455 0.038976
0.325299 0.952455 0.038974
0.419143 0.952455 0.038971
0.511924 0.952455 0.038967
0.604233 0.952455 0.038962
0.696139 0.952454 0.038953
0.787928 0.952454 0.038947
0.879640 0.952454 0.038935
0.959267 0.941105 0.038925
0.980731 0.881147 0.038928
0.994560 0.824265 0.038935
1.004311 0.773184 0.038949
1.013590 0.728149 0.038964
-0.089879 0.974524 0.060708
-0.069008 0.974524 0.038951
0.114644 0.974524 0.038953
0.212593 0.974524 0.038952
0.302858 0.974524 0.038949
0.390915 0.974524 0.038946
0.477973 0.974524 0.038943
0.564541 0.974524 0.038935
0.650733 0.974524 0.038928
0.736803 0.974524 0.038920
0.822789 0.974524 0.038913
0.908624 0.974524 0.038901
0.980731 0.961562 0.038889
0.994560 0.899518 0.038900
1.004311 0.843700 0.038918
1.013590 0.794694 0.038937
-0.089889 0.988261 0.056311
-0.069018 0.988261 0.038931
0.104214 0.988261 0.038930
0.196467 0.988261 0.038929
0.281162 0.988261 0.038928
0.363640 0.988261 0.038924
0.445168 0.988261 0.038919
0.526272 0.988261 0.038916
0.606921 0.988261 0.038908
0.687521 0.988261 0.038902
0.767963 0.988261 0.038895
0.848349 0.988261 0.038885
0.928677 0.988260 0.038876
0.994559 0.974623 0.038863
1.004310 0.914166 0.038882
1.013589 0.861072 0.038907
-0.089888 0.995953 0.050442
-0.069023 0.995953 0.038919
0.094011 0.995953 0.038918
0.181094 0.995953 0.038917
0.260598 0.995953 0.038916
0.337894 0.995953 0.038913
0.414226 0.995953 0.038908
0.490126 0.995952 0.038904
0.565652 0.995952 0.038899
0.641030 0.995952 0.038893
0.716425 0.995952 0.038885
0.791575 0.995952 0.038876
0.866698 0.995952 0.038867
0.941780 0.995952 0.038858
1.004310 0.984803 0.038845
1.013589 0.927581 0.038876
-0.089891 0.998781 0.043037
-0.069026 0.998781 0.038914
0.084281 0.998781 0.038913
0.166606 0.998781 0.038910
0.241364 0.998781 0.038910
0.313886 0.998781 0.038907
0.385474 0.998781 0.038905
0.456545 0.998781 0.038900
0.527300 0.998781 0.038896
0.597926 0.998781 0.038890
0.668488 0.998781 0.038884
0.738863 0.998781 0.038877
0.809165 0.998781 0.038869
0.879432 0.998781 0.038860
0.949847 0.998780 0.038849
1.013588 0.993887 0.038840
-0.089820 -0.088004 0.128093
-0.070209 -0.088004 0.128093
0.034462 -0.088004 0.128093
0.117251 -0.088005 0.157225
0.238767 -0.088006 0.186654
0.381955 -0.088003 0.211372
0.531902 -0.088005 0.229675
0.675310 -0.088007 0.241222
0.790586 -0.088009 0.243768
0.872630 -0.088012 0.239381
0.925607 -0.088013 0.230887
0.959270 -0.088016 0.220807
0.980733 -0.088019 0.210332
0.994562 -0.088021 0.199873
1.004312 -0.088022 0.189705
1.013591 -0.088023 0.179739
-0.089820 -0.068791 0.128093
-0.068921 -0.067524 0.128093
0.034461 -0.067524 0.128093
0.117251 -0.067525 0.155402
0.238767 -0.067527 0.182630
0.381955 -0.067529 0.205699
0.531902 -0.067530 0.222837
0.675310 -0.067534 0.233590
0.790586 -0.067539 0.236038
0.872630 -0.067541 0.231991
0.925607 -0.067546 0.224109
0.959270 -0.067549 0.214804
0.980733 -0.067554 0.205246
0.994562 -0.067554 0.195901
1.004312 -0.067556 0.187088
1.013591 -0.067557 0.178796
-0.089821 0.055933 0.128092
-0.068920 0.055933 0.128092
0.035119 0.055388 0.129226
0.152316 0.031749 0.112253
0.274804 0.023320 0.109222
0.411836 0.022081 0.111240
0.555142 0.022334 0.113561
0.692237 0.022832 0.115119
0.801990 0.023321 0.115624
0.879584 0.023762 0.115191
0.929779 0.024189 0.114252
0.961980 0.024564 0.113213
0.982845 0.024892 0.112345
0.996243 0.025142 0.111740
1.004313 0.055762 0.132108
1.013591 0.055762 0.132108
-0.089823 0.140223 0.156533
-0.068923 0.140223 0.154719
0.010388 0.145035 0.098894
0.118860 0.142417 0.096221
0.250816 0.180127 0.095934
0.397983 0.210953 0.096138
0.547725 0.232829 0.096490
0.688452 0.245629 0.096905
0.800245 0.246906 0.097294
0.878811 0.239368 0.097672
0.929500 0.226918 0.098025
0.961869 0.212964 0.098347
0.982738 0.199160 0.098628
0.996195 0.186198 0.098830
1.004312 0.178302 0.128084
1.013591 0.168486 0.128084
-0.089827 0.253417 0.185168
-0.068929 0.253417 0.181198
0.009923 0.257543 0.099158
0.150307 0.256018 0.096258
0.240095 0.257740 0.096445
0.388285 0.306954 0.096719
0.540557 0.342448 0.097029
0.683798 0.363470 0.097370
0.797512 0.366536 0.097690
0.877449 0.355902 0.098014
0.928782 0.337642 0.098332
0.961450 0.316905 0.098616
0.982472 0.296372 0.098863
0.996025 0.277068 0.099043
1.004312 0.261669 0.128083
1.013591 0.246728 0.128083
-0.089833 0.387736 0.209613
-0.068934 0.387736 0.204004
0.010465 0.391081 0.100984
0.181841 0.390374 0.097054
0.284536 0.389389 0.097206
0.382928 0.393467 0.097394
0.535761 0.441018 0.097637
0.680213 0.469729 0.097917
0.795201 0.474784 0.098182
0.876099 0.461626 0.098457
0.928017 0.438182 0.098723
0.960978 0.411418 0.098983
0.982154 0.384729 0.099194
0.995817 0.359688 0.099336
1.004312 0.338340 0.128081
1.013591 0.318826 0.128081
-0.089827 0.529732 0.228116
-0.068941 0.529732 0.221331
0.011001 0.532349 0.102622
0.206427 0.532030 0.097836
0.321649 0.531555 0.097945
0.426333 0.530929 0.098097
0.532710 0.535779 0.098302
0.677739 0.571695 0.098538
0.793342 0.578616 0.098756
0.874982 0.563191 0.098990
0.927398 0.534863 0.099217
0.960582 0.502294 0.099427
0.981884 0.469794 0.099600
0.995607 0.439195 0.099699
1.004312 0.412457 0.128078
1.013591 0.388531 0.128078
-0.089837 0.667299 0.240180
-0.068948 0.667299 0.232629
0.011537 0.669189 0.103908
0.222441 0.669055 0.098631
0.345660 0.668775 0.098720
0.457816 0.668420 0.098849
0.565675 0.668017 0.099019
0.675899 0.671807 0.099230
0.792011 0.680552 0.099413
0.874090 0.662791 0.099600
0.926825 0.629700 0.099789
0.960236 0.591423 0.099967
0.981662 0.553188 0.100096
0.995399 0.517210 0.100149
1.004312 0.485317 0.128074
1.013591 0.457112 0.128075
-0.089846 0.780108 0.243571
-0.068960 0.780108 0.235847
0.012066 0.781405 0.104759
0.226530 0.781326 0.099393
0.351813 0.781194 0.099475
0.465998 0.781048 0.099588
0.575886 0.780787 0.099738
0.683711 0.780535 0.099927
0.790941 0.781146 0.100152
0.873412 0.761146 0.100304
0.926367 0.723327 0.100454
0.959910 0.679517 0.100588
0.981488 0.635659 0.100671
0.995219 0.594272 0.100675
1.004312 0.557417 0.128076
1.013590 0.525017 0.128078
-0.089855 0.863004 0.240159
-0.068972 0.863004 0.232739
0.012597 0.863791 0.105249
0.221196 0.863759 0.100161
0.343917 0.863715 0.100232
0.455726 0.863662 0.100337
0.563402 0.863541 0.100477
0.669194 0.863424 0.100644
0.773503 0.863316 0.100845
0.872948 0.858966 0.101086
0.926025 0.816439 0.101194
0.959659 0.767051 0.101281
0.981256 0.717494 0.101315
0.995045 0.670847 0.101265
1.004312 0.629164 0.128072
1.013590 0.592466 0.128073
-0.089863 0.917563 0.232313
-0.068985 0.917563 0.225448
0.013130 0.918103 0.105525
0.209745 0.918098 0.100925
0.326789 0.918060 0.100991
0.433495 0.918008 0.101084
0.536256 0.917933 0.101206
0.637185 0.917858 0.101360
0.736868 0.917807 0.101549
0.835995 0.917704 0.101766
0.925743 0.909130 0.102024
0.959511 0.854190 0.102070
0.981132 0.799134 0.102051
0.994943 0.747071 0.101931
1.004311 0.700594 0.128066
1.013590 0.659730 0.128069
-0.089869 0.952455 0.222534
-0.068998 0.952455 0.216463
0.013644 0.952794 0.105735
0.195862 0.952798 0.101657
0.306049 0.952794 0.101714
0.406516 0.952781 0.101803
0.503336 0.952742 0.101916
0.598408 0.952708 0.102061
0.692359 0.952668 0.102225
0.785676 0.952603 0.102419
0.878683 0.952587 0.102656
0.959326 0.941099 0.102919
0.980911 0.880439 0.102850
0.994837 0.823071 0.102666
1.004311 0.771739 0.128062
1.013590 0.726765 0.128063
-0.089879 0.974524 0.212122
-0.069008 0.974524 0.206964
0.014110 0.974763 0.105948
0.181658 0.974757 0.102307
0.284792 0.974731 0.102361
0.378900 0.974733 0.102436
0.469570 0.974761 0.102539
0.558583 0.974705 0.102666
0.646625 0.974665 0.102820
0.734055 0.974639 0.103001
0.821098 0.974658 0.103203
0.907951 0.974586 0.103449
0.980804 0.961521 0.103715
0.994702 0.898959 0.103462
1.004311 0.842813 0.128064
1.013590 0.793672 0.128065
-0.089889 0.988261 0.201593
-0.069018 0.988261 0.197555
0.014469 0.988409 0.106150
0.168060 0.988407 0.102810
0.264445 0.988393 0.102854
0.352395 0.988443 0.102924
0.437176 0.988441 0.103013
0.520438 0.988399 0.103119
0.602742 0.988380 0.103256
0.684513 0.988378 0.103421
0.765968 0.988350 0.103610
0.847183 0.988363 0.103818
0.928177 0.988329 0.104057
0.994570 0.974528 0.104320
1.004310 0.913768 0.128055
1.013589 0.860368 0.128061
-0.089888 0.995953 0.190963
-0.069023 0.995953 0.188317
0.014691 0.996095 0.106286
0.155272 0.996095 0.103113
0.245352 0.996079 0.103153
0.327571 0.996052 0.103207
0.406794 0.996024 0.103287
0.484631 0.996045 0.103388
0.561563 0.996071 0.103510
0.638072 0.996020 0.103650
0.714152 0.996061 0.103813
0.790089 0.996008 0.103997
0.865861 0.995988 0.104204
0.941459 0.995930 0.104436
1.004310 0.984692 0.128047
1.013589 0.927282 0.128053
-0.089891 0.998781 0.180238
-0.069026 0.998781 0.179294
0.014775 0.998967 0.106342
0.143446 0.998968 0.103224
0.227654 0.998955 0.103261
0.304574 0.998935 0.103314
0.378681 0.998912 0.103382
0.451495 0.998880 0.103465
0.523491 0.998884 0.103571
0.595012 0.998845 0.103691
0.666297 0.998884 0.103831
0.737264 0.998836 0.103992
0.808099 0.998837 0.104166
0.878822 0.998822 0.104373
0.949623 0.998766 0.104600
1.013588 0.993838 0.128051
-0.089820 -0.088004 0.209679
-0.056417 -0.088004 0.209679
0.061797 -0.088004 0.209679
0.117647 -0.088005 0.209679
0.238767 -0.088006 0.254655
0.381955 -0.088003 0.293527
0.531902 -0.088005 0.322467
0.675310 -0.088007 0.340698
0.790586 -0.088010 0.345027
0.872630 -0.088012 0.338586
0.925607 -0.088013 0.325653
0.959270 -0.088016 0.310436
0.980733 -0.088019 0.294874
0.994562 -0.088021 0.279896
1.004312 -0.088023 0.266033
1.013591 -0.088023 0.253409
-0.089820 -0.055275 0.209679
-0.068919 -0.067524 0.209679
0.059993 -0.067525 0.209679
0.117647 -0.067525 0.209678
0.238767 -0.067527 0.253415
0.381955 -0.067529 0.291259
0.531902 -0.067530 0.319445
0.675310 -0.067535 0.337185
0.790586 -0.067539 0.341362
0.872630 -0.067542 0.335029
0.925607 -0.067547 0.322386
0.959270 -0.067550 0.307520
0.980733 -0.067554 0.292422
0.994562 -0.067554 0.277974
1.004312 -0.067556 0.264793
1.013591 -0.067557 0.252977
-0.089821 0.086826 0.209678
-0.068920 0.084900 0.209678
0.029256 0.044259 0.267909
0.143808 0.028566 0.233450
0.269791 0.022865 0.258879
0.409361 0.022075 0.282343
0.553905 0.022382 0.300410
0.691585 0.022871 0.311348
0.801711 0.023356 0.312041
0.879451 0.023793 0.304626
0.929742 0.024210 0.292677
0.961955 0.024586 0.279359
0.982794 0.024910 0.266238
0.996196 0.025160 0.253961
1.004313 0.055762 0.246072
1.013591 0.055762 0.236855
-0.089823 0.141804 0.209678
-0.068923 0.141804 0.209678
0.010184 0.145316 0.213687
0.120219 0.138960 0.213434
0.324562 0.109813 0.198339
0.503995 0.081663 0.184608
0.646090 0.064716 0.176499
0.764657 0.055149 0.171248
0.851834 0.050443 0.166880
0.910415 0.048267 0.162598
0.949186 0.047380 0.158586
0.975061 0.047124 0.155186
0.993084 0.047158 0.152606
0.999965 0.100454 0.183148
1.004312 0.140212 0.214258
1.013591 0.140211 0.214258
-0.089828 0.253416 0.252253
-0.068929 0.253416 0.251032
0.009948 0.256967 0.240006
0.051765 0.273100 0.152739
0.247160 0.261401 0.139912
0.432930 0.302260 0.132630
0.597984 0.321982 0.127038
0.737189 0.327133 0.123302
0.838391 0.318426 0.121297
0.904311 0.301296 0.120301
0.946296 0.281382 0.119896
0.973597 0.261720 0.119818
0.992228 0.243493 0.119888
0.999965 0.236495 0.169011
1.004312 0.239682 0.209666
1.013591 0.229182 0.209665
-0.089823 0.387736 0.290696
-0.068934 0.387736 0.288456
0.010487 0.390759 0.268172
0.032725 0.407634 0.135986
0.262304 0.399978 0.124676
0.388900 0.397166 0.122924
0.560379 0.440319 0.121515
0.710646 0.459683 0.120525
0.822419 0.455162 0.120029
0.895802 0.434749 0.119834
0.941673 0.407800 0.119830
0.970946 0.380066 0.119939
0.990304 0.353904 0.120072
0.999965 0.333706 0.161061
1.004312 0.323970 0.209664
1.013591 0.307258 0.209664
-0.089828 0.529732 0.319917
-0.068941 0.529732 0.316925
0.011018 0.532217 0.290301
0.028137 0.546070 0.133320
0.281141 0.542454 0.120416
0.415657 0.537722 0.120122
