LUTs/61.cube
TITLE "Generate by Resolve"
LUT_3D_SIZE 5
0 0 0
0.0603037 0 0.00015259
0.605707 0.000122072 0.0523995
1 0 0.0404364
1 0 0.0393988
0 0.0492256 0
0.0477302 0.0477607 0
0.675563 0.0131533 0.0540017
1 0 0.0370336
1 0.00471504 0.0497139
0.0856489 0.490486 0.0909743
0.116808 0.561959 0.0937972
0.582483 0.576425 0.211627
0.903929 0.617761 0.0643778
0.918883 0.713695 0.107958
0 1 0
0 1 0
0.62771 0.978485 0.16936
0.894804 0.992828 0.0958267
0.926986 0.996674 0.0857862
0 1 0
0.0595407 1 0
0.650507 1 0.169802
0.894575 1 0.0810712
0.923552 1 0.0632181
0 0 0.127382
0.0452277 0 0.114794
0.570306 0.00216678 0.0800641
1 0 0.0597238
1 0 0.0647288
0 0.048188 0.0698711
0.0486915 0.0477913 0.0776074
0.656886 0.0234531 0.104356
1 0 0.118288
1 0.0191806 0.224857
0.089128 0.517586 0.113985
0.128679 0.585962 0.13373
0.595712 0.599649 0.254994
0.876112 0.6486 0.182071
0.894469 0.734356 0.239338
0 1 0
0 1 0
0.633936 0.968444 0.272374
0.892546 0.983841 0.235233
0.925002 0.989517 0.220142
0 1 0
0.0364843 1 0
0.648966 0.999603 0.272251
0.883909 1 0.223743
0.917693 1 0.198505
0 0 0.907073
0.0180667 0 0.850477
0.486427 0.00830091 0.574334
1 0 0.70663
1 0 0.751842
0 0.0233463 0.762631
0.0263371 0.0296025 0.784741
0.604349 0.0310979 0.675914
1 0 0.881773
1 0.0239261 0.97998
0.179599 0.503502 0.616342
0.240085 0.561502 0.695674
0.621271 0.597131 0.681773
0.915419 0.641367 0.761486
0.958083 0.713726 0.85069
0 0.985763 0.783322
0.111681 0.969039 0.865309
0.623407 0.953033 0.729244
0.879866 0.96231 0.727489
0.954452 0.96994 0.750515
0.0670787 0.995758 0.998871
0.174624 0.981231 0.993225
0.640436 0.982071 0.762814
0.875731 0.992752 0.726986
0.938704 0.997238 0.736797
0 0 1
0.0065156 0 1
0.580591 0 1
1 0 1
1 0 1
0 0.00854505 1
0.0110628 0.0201419 1
0.714794 0 1
1 0 1
1 0.0390936 1
0.0617685 0.546319 1
0.147204 0.597452 1
0.600229 0.619944 0.909072
0.906752 0.661036 0.948241
0.94583 0.723491 0.980652
0.0637827 0.947295 1
0.126925 0.955764 1
0.669444 0.925307 1
0.865965 0.954345 1
0.969329 0.964233 1
0.086656 0.98436 1
0.141161 0.982467 1
0.682673 0.956237 1
0.856306 0.990112 1
0.94725 0.998917 1
0 0 1
0.0059205 0 1
0.576196 0 1
1 0 1
1 0 1
0 0.012192 1
0.0131533 0.0333715 1
0.742885 0.000228885 1
1 0 1
1 0.0763714 1
0.0521096 0.580621 1
0.140993 0.630411 1
0.618708 0.651392 0.941161
0.915343 0.687449 0.976638
0.949599 0.740246 0.997192
0.0677195 0.951354 1
0.129793 0.95845 1
0.672038 0.92726 1
0.867124 0.953872 1
0.963943 0.963607 1
0.0871443 0.984161 1
0.14107 0.982284 1
0.680537 0.956008 1
0.856611 0.987884 1
0.946715 0.998169 1
