LUTs/61.cube
TITLE "Generate by Resolve"
LUT_3D_SIZE 33
0 0 0
0.00463874 0 0
0.00918593 3.0518e-05 3.0518e-05
0.0139773 6.10361e-05 0.000106813
0.0189975 3.0518e-05 7.62951e-05
0.0243534 0 0
0.0303349 0 0
0.037171 0 0
0.0603037 0 0.00015259
0.110323 0 0.00547799
0.166613 0 0.0133059
0.220401 0.00138857 0.0231174
0.274083 0.00679026 0.0338445
0.332357 0.0109102 0.0432288
0.393027 0.0123293 0.0508431
0.471626 0.0081178 0.0554055
0.605707 0.000122072 0.0523995
0.773861 0 0.0441138
0.924865 0 0.0378576
0.9953 0 0.0392157
1 0 0.0412451
1 0 0.0410315
1 0 0.0408026
1 0 0.0406195
1 0 0.0404364
1 0 0.0402686
1 0 0.0401312
1 0 0.0400092
1 0 0.0398871
1 0 0.039765
1 0 0.0396429
1 0 0.0395209
1 0 0.0393988
3.0518e-05 0.00430304 3.0518e-05
0.00444038 0.00418097 0
0.00868238 0.0041352 3.0518e-05
0.0134432 0.0040589 3.0518e-05
0.0184482 0.00392157 0
0.0238499 0.00367742 0
0.0298619 0.00331121 0
0.0368658 0.00271611 0
0.0589456 0.00178531 0.000122072
0.109911 0.000656138 0.00535592
0.167102 0 0.0133822
0.220996 0.00144961 0.0232395
0.2748 0.00686656 0.0339818
0.333333 0.010956 0.0433661
0.3944 0.0123445 0.0509957
0.474434 0.0077821 0.0554055
0.61033 0.000106813 0.0522011
0.779507 0 0.0438544
0.930785 0 0.0376593
0.996872 0 0.0394903
1 0 0.0412451
1 0 0.0410163
1 0 0.0407874
1 0 0.040589
1 0 0.0404059
1 0 0.040238
1 0 0.0401007
1 0 0.0399634
1 0 0.0398413
1 0 0.0397192
1 0 0.0395972
1 0 0.0394751
1 0 0.0393378
0.000183108 0.00846876 6.10361e-05
0.00424201 0.00823987 3.0518e-05
0.00822461 0.00808728 3.0518e-05
0.0129854 0.00793469 0
0.0179904 0.00767529 0
0.0234073 0.00735485 0
0.0295109 0.00689708 0
0.0368048 0.00622568 0
0.0569467 0.0049897 4.57771e-05
0.109209 0.00309758 0.0049897
0.167391 0.00222782 0.0133059
0.222477 0.00303655 0.0235447
0.276692 0.00708019 0.0343633
0.335805 0.0110475 0.0437171
0.39733 0.0123598 0.0513313
0.480659 0.00706493 0.0553902
0.619593 7.62951e-05 0.0518196
0.790799 0 0.0433356
0.941833 0 0.0372931
0.999481 0 0.0399634
1 0 0.0412146
1 0 0.0409857
1 0 0.0407416
1 0 0.0405432
1 0 0.0403601
1 0 0.0401923
1 0 0.0400549
1 0 0.0399176
1 0 0.0397803
1 0 0.0396429
1 0 0.0395209
1 0 0.0393988
1 0 0.0392462
0.000228885 0.0128176 6.10361e-05
0.00396735 0.0125887 0
0.00770581 0.0124514 0
0.0124819 0.0122835 0
0.0175021 0.0120546 0
0.0229648 0.0117037 0
0.0291447 0.0112001 0
0.0368811 0.0104524 0
0.0559548 0.00886549 0
0.109209 0.00610361 0.00459297
0.168338 0.00495918 0.0133211
0.224475 0.00682078 0.0240024
0.279301 0.0108797 0.0352026
0.3393 0.0131533 0.0445411
0.401663 0.0128328 0.0519265
0.490013 0.00596628 0.0553597
0.633478 3.0518e-05 0.0512398
0.806409 0 0.0426337
0.957626 0 0.036759
1 0 0.040238
1 0 0.0411841
1 0 0.0409247
1 0 0.0406958
1 0 0.0404822
1 0 0.0402991
1 0 0.0401312
1 0 0.0399786
1 0 0.0398413
1 0 0.0396887
1 0 0.0395666
1 0 0.0394446
1 0 0.039292
1 0 0.0391394
0.000122072 0.0172427 0
0.00357061 0.0170596 0
0.00704967 0.016907 0
0.0118715 0.0167849 0
0.0169375 0.0166171 0
0.0224918 0.0163272 0
0.0287175 0.0158846 0
0.0368963 0.0151522 0
0.0555734 0.0136568 0
0.109346 0.0108186 0.00419623
0.169528 0.00950637 0.0133211
0.226871 0.0112154 0.024506
0.282658 0.0152438 0.0362097
0.343069 0.0176242 0.0458381
0.406378 0.0175174 0.0533455
0.497459 0.0090486 0.0562295
0.64715 0 0.0509957
0.825635 0 0.0417945
0.977844 0 0.0361028
1 0 0.0404974
1 0 0.0411231
1 0 0.0408637
1 0 0.0406348
1 0 0.0404059
1 0 0.0402228
1 0 0.0400549
1 0 0.0399023
1 0 0.0397498
1 0 0.0395209
1 0 0.0392767
1 0 0.0390173
1 0 0.0387579
1 0 0.0384833
0 0.0218814 0
0.00309758 0.0217288 0
0.0061799 0.0216983 0
0.0110781 0.0216373 0
0.0162203 0.0215457 0
0.0218662 0.0213169 0
0.0281987 0.0209354 0
0.0367132 0.0202792 0
0.0558328 0.0188602 6.10361e-05
0.109209 0.0160983 0.00376898
0.170703 0.0146639 0.0132753
0.229557 0.0162661 0.0250553
0.286137 0.0203708 0.0372625
0.347021 0.022858 0.0472877
0.411948 0.0225681 0.0548104
0.503883 0.0144503 0.0576333
0.656794 0 0.0513466
0.835019 0 0.0415198
0.97409 0 0.0368505
1 0 0.0402228
1 0 0.0406958
1 0 0.0404364
1 0 0.0401923
1 0 0.0399481
1 0 0.0396887
1 0 0.0394446
1 0 0.0391852
1 0 0.0389105
1 0 0.0386664
1 0 0.0384222
1 0 0.0381628
1 0 0.0379034
1 0 0.037644
0 0.0269017 0
0.00239567 0.0269017 0
0.00515755 0.0269322 0
0.00996414 0.0269474 0
0.0152132 0.0269474 0
0.0209506 0.0268254 0
0.0274205 0.0265812 0
0.0361944 0.0260014 0
0.0559701 0.0246738 0.000106813
0.107988 0.0220035 0.0031281
0.171252 0.0204166 0.0130617
0.231907 0.0219577 0.0254978
0.289708 0.026154 0.0384222
0.351217 0.0289006 0.0489357
0.417014 0.0284428 0.0564584
0.50869 0.0208438 0.0593271
0.665843 0.00299077 0.0518196
0.844831 0 0.0411536
0.975204 0 0.0370336
1 0 0.0400092
1 0 0.0399176
1 0 0.0396429
1 0 0.0393835
1 0 0.0391241
1 0 0.0388647
1 0 0.0386206
1 0 0.0383459
1 0 0.0380865
1 0 0.0378119
1 0 0.0375372
1 0 0.0372625
1 0 0.0369879
1 0 0.0379492
0 0.0325017 0
0.00157168 0.0326238 0
0.00404364 0.0327764 0
0.00843824 0.032929 0
0.0137942 0.0330816 0
0.0196384 0.0330968 0
0.026276 0.0329747 0
0.0348669 0.032578 0
0.0537118 0.0314641 4.57771e-05
0.105608 0.0288243 0.00225834
0.170764 0.0271305 0.0126192
0.233646 0.0284276 0.0257572
0.292714 0.0328069 0.0395819
0.354894 0.0358129 0.05066
0.420951 0.0356451 0.0583658
0.513695 0.0282902 0.0610361
0.672831 0.00508125 0.0526131
0.851392 0 0.0411841
0.986007 0 0.0363165
1 0 0.0392462
1 0 0.0390631
1 0 0.0387884
1 0 0.0384985
1 0 0.0382239
1 0 0.0379492
1 0 0.0376745
1 0 0.0374151
1 0 0.0371557
1 0 0.0368963
1 0 0.0366369
1 0 0.0389563
1 0 0.0413825
1 0 0.0439002
0 0.0492256 0
0.000488289 0.050309 0
0.00213626 0.0512093 0
0.00531014 0.0521401 0
0.0106966 0.0526131 0
0.0166629 0.0526589 0
0.0234531 0.0520638 0
0.0317388 0.0505226 0
0.0477302 0.0477607 0
0.100099 0.042771 0.00140383
0.168917 0.0380255 0.0115358
0.234409 0.0368963 0.0258488
0.29456 0.0404517 0.0406348
0.357412 0.0436866 0.0523079
0.423377 0.0440986 0.0604868
0.518349 0.0369116 0.0628824
0.675563 0.0131533 0.0540017
0.85568 0 0.0413825
0.999954 0 0.0347753
1 0 0.0381018
1 0 0.038117
1 0 0.0378271
1 0 0.0375677
1 0 0.0372931
1 0 0.0370336
1 0 0.0367895
1 0 0.0365454
1 0 0.0364691
1 0 0.0390784
1 0 0.0419471
1 0 0.04477
1 0 0.0476997
1 0.00471504 0.0497139
0 0.0788739 0
0 0.0813611 0
0.000656138 0.0834516 0
0.00175479 0.08542 0
0.00712596 0.0868696 0
0.013077 0.0876631 0
0.0197757 0.087541 0
0.0276646 0.0861677 0
0.0383307 0.0831922 0
0.0872816 0.077409 0.000350958
0.16141 0.0691539 0.00704967
0.235355 0.0614023 0.0243229
0.298436 0.0595407 0.0422827
0.361913 0.0597391 0.0554208
0.42768 0.0585489 0.0640879
0.522026 0.0503243 0.0661631
0.676585 0.0267491 0.0564431
0.858351 0.00299077 0.0420691
0.991501 0 0.0351415
1 0 0.0374762
1 0 0.0375067
1 0 0.0373693
1 0 0.0372931
1 0 0.0372625
1 0 0.0372625
1 0 0.0373083
1 0.00445563 0.0382696
1 0.010132 0.0397955
1 0.0161135 0.0413977
1 0.0233616 0.0429389
1 0.0355688 0.0443885
1 0.0483864 0.0458076
1 0.0608377 0.0472725
0 0.119524 0
0 0.123049 0
0.00030518 0.126528 0
0.00157168 0.129396 0
0.00561532 0.13193 0
0.0114137 0.133745 0
0.0179599 0.134844 0
0.0254673 0.134783 0
0.0343633 0.133455 0
0.0742351 0.129549 0.00062562
0.141238 0.124193 0.00758373
0.226719 0.114427 0.0178988
0.304051 0.107912 0.043061
0.371313 0.10486 0.0616617
0.436423 0.102022 0.0725872
0.52253 0.094316 0.0761578
0.662776 0.0733196 0.0657206
0.842039 0.0413672 0.0466621
0.9785 0.0221256 0.0352789
1 0.0176547 0.0352636
1 0.0185855 0.0348058
1 0.0203403 0.0342107
1 0.0229953 0.0335241
1 0.0295872 0.0326238
1 0.0396582 0.0315404
1 0.050782 0.0324712
1 0.0625162 0.033753
1 0.0751659 0.0351415
1 0.0891432 0.0363317
1 0.103914 0.0374914
1 0.117235 0.0387579
1 0.129763 0.0399939
1 0.14258 0.0408026
0.00115969 0.164721 0.00216678
0.00151064 0.1691 0.00282292
0.00190738 0.174121 0.00358587
0.00485237 0.178408 0.00392157
0.00961318 0.182391 0.00389105
0.0153964 0.185779 0.0034638
0.0221408 0.18854 0.00361639
0.0297246 0.190387 0.00357061
0.0381323 0.190539 0.0031281
0.0646372 0.189166 0.00262455
0.131823 0.185519 0.0172122
0.202686 0.182727 0.0242161
0.293034 0.175433 0.0421607
0.37438 0.170123 0.066743
0.444221 0.167697 0.0826429
0.522469 0.163928 0.0904097
0.638712 0.151888 0.0825055
0.800671 0.128099 0.0578317
0.962509 0.103761 0.0359808
1 0.0929885 0.0268406
1 0.0945754 0.025742
1 0.0988327 0.0250095
1 0.105989 0.0242771
1 0.114946 0.0233768
1 0.125109 0.0233616
1 0.136736 0.0242466
1 0.148989 0.0251164
1 0.162051 0.0260014
1 0.175631 0.0267796
1 0.190936 0.0270237
1 0.20531 0.0271611
1 0.219638 0.0272526
1 0.233906 0.0273899
0.0104982 0.214817 0.0135348
0.0122225 0.220584 0.0153048
0.0141451 0.227008 0.0172732
0.0171817 0.233402 0.0192264
0.0236667 0.239399 0.0208591
0.0304417 0.244724 0.0222019
0.0375067 0.249424 0.0232547
0.0449378 0.252934 0.0237736
0.0527962 0.254795 0.0235294
0.0696269 0.255375 0.0220951
0.13077 0.255604 0.0290227
0.198566 0.254688 0.0465553
0.275288 0.254032 0.0564889
0.362173 0.250217 0.0750896
0.442786 0.246738 0.0937972
0.520043 0.243732 0.105501
0.617258 0.237934 0.104021
0.752911 0.223514 0.0797742
0.913848 0.202625 0.0462654
1 0.190616 0.0281071
1 0.188968 0.0216526
1 0.192477 0.0171817
1 0.198734 0.0137942
1 0.208194 0.0119783
1 0.218585 0.0101778
1 0.230243 0.00991836
1 0.243153 0.0102541
1 0.258732 0.0107729
1 0.275181 0.0093843
1 0.292622 0.00767529
1 0.309102 0.00764477
1 0.326528 0.0107118
1 0.344015 0.0139315
0.0307317 0.27303 0.0342107
0.0335393 0.280873 0.0370794
0.0366827 0.289769 0.0402838
0.0399023 0.298833 0.0435645
0.0466926 0.306767 0.046128
0.0539559 0.313787 0.0484169
0.0614023 0.320027 0.0503395
0.0690623 0.325048 0.0516976
0.0771649 0.328389 0.052491
0.0917678 0.33051 0.0526436
0.143389 0.333654 0.0568551
0.209155 0.335225 0.0747997
0.279225 0.338354 0.0892958
0.356069 0.340642 0.101854
0.434607 0.340627 0.114992
0.511833 0.338384 0.124849
0.599039 0.335073 0.127916
0.707744 0.32755 0.109651
0.849577 0.312505 0.0678874
0.960525 0.300298 0.0361944
0.992447 0.298573 0.0253147
0.999664 0.301183 0.0189364
1 0.306645 0.0131685
1 0.315145 0.00813306
1 0.32636 0.00468452
1 0.339605 0.00424201
1 0.354513 0.00512703
1 0.370977 0.00444038
1 0.388174 0.00326543
1 0.406226 0.00488289
1 0.423392 0.00955215
1 0.44004 0.0145724
1 0.456016 0.0210727
0.0539101 0.340948 0.0578927
0.0569467 0.350851 0.0610208
0.0601663 0.361303 0.0643168
0.063386 0.372122 0.067628
0.0696574 0.381369 0.0702831
0.0770886 0.389654 0.0728466
0.0848859 0.396902 0.0752728
0.09308 0.402625 0.077409
0.101717 0.406561 0.0791333
0.115312 0.408606 0.0803693
0.164218 0.412619 0.0867781
0.230961 0.416388 0.105516
0.298848 0.420325 0.12697
0.368399 0.425025 0.138842
0.437583 0.428992 0.147234
0.50695 0.430518 0.152239
0.584222 0.429435 0.153414
0.67454 0.426184 0.139742
0.790448 0.418219 0.0975814
0.904952 0.408042 0.0512551
0.945541 0.405722 0.0350652
0.964477 0.40853 0.0270542
0.978744 0.414832 0.0204776
0.985992 0.424216 0.0149386
0.994644 0.435996 0.0112917
0.996231 0.449241 0.0111086
0.994079 0.463371 0.0125887
0.995727 0.478859 0.0142367
0.999084 0.495033 0.0158541
0.997406 0.51107 0.0192416
0.991287 0.525002 0.0277104
0.984604 0.53872 0.0361639
0.977264 0.552453 0.0446937
0.0746319 0.414832 0.0792401
0.076936 0.42562 0.0816358
0.0791638 0.436728 0.0839551
0.0814374 0.448203 0.0863355
0.0877699 0.457893 0.0890364
0.0947433 0.466377 0.0910658
0.101854 0.473533 0.0927443
0.109865 0.478828 0.0946212
0.118761 0.482383 0.0965744
0.129183 0.483879 0.0984817
0.182254 0.487877 0.10808
0.25066 0.491234 0.127611
0.320867 0.494148 0.155688
0.388342 0.498589 0.172427
0.451209 0.503304 0.180072
0.512016 0.506462 0.182956
0.578042 0.508476 0.182162
0.654841 0.509239 0.170901
0.748379 0.50782 0.133974
0.84921 0.503883 0.0810407
0.895338 0.50367 0.0563363
0.913985 0.50753 0.0462654
0.927489 0.51368 0.0394903
0.937743 0.522377 0.0343481
0.944717 0.533181 0.0325628
0.948959 0.545434 0.033753
0.951934 0.558343 0.0358282
0.954787 0.571191 0.0396429
0.956954 0.584268 0.0439155
0.957031 0.597589 0.0493019
0.949386 0.610056 0.0591592
0.943755 0.622431 0.0687724
0.938155 0.63476 0.0785992
0.0856489 0.490486 0.0909743
0.0861067 0.501823 0.0915541
0.0856336 0.513893 0.0912184
0.0830396 0.526802 0.0888228
0.086717 0.537026 0.0886397
0.0932174 0.545388 0.0898756
0.100786 0.552163 0.0916762
0.107485 0.558556 0.0918441
0.116808 0.561959 0.0937972
0.128466 0.561669 0.0973068
0.186938 0.560693 0.114519
0.261784 0.560296 0.139315
0.336065 0.560876 0.171099
0.405234 0.563363 0.196201
0.46685 0.567681 0.208072
0.523766 0.572396 0.212268
0.582483 0.576425 0.211627
0.648554 0.580087 0.201831
0.723888 0.583368 0.171542
0.807523 0.585061 0.120195
0.857176 0.587137 0.0874037
0.874128 0.591531 0.0771038
0.885939 0.598321 0.0704814
0.895659 0.607279 0.0655833
0.903929 0.617761 0.0643778
0.910185 0.629404 0.0661936
0.915251 0.641962 0.0691081
0.919448 0.654841 0.0727245
0.924514 0.667643 0.0764019
0.928344 0.68043 0.0809949
0.924773 0.692027 0.0903182
0.921401 0.703182 0.0993515
0.918883 0.713695 0.107958
0.068452 0.576913 0.0749981
0.0606546 0.593042 0.0675059
0.0527504 0.60943 0.0599069
0.0446784 0.625696 0.0521096
0.0434577 0.638804 0.0463111
0.0464637 0.649104 0.0433204
0.0522774 0.657252 0.042359
0.0620432 0.661631 0.0445411
0.0756695 0.662379 0.0497902
0.0941329 0.659022 0.0579843
0.164691 0.649836 0.0890211
0.260975 0.640116 0.133654
0.347768 0.63476 0.178195
0.423545 0.633738 0.21413
0.486854 0.636652 0.233616
0.542229 0.64094 0.240818
0.596536 0.64567 0.240558
0.654749 0.651164 0.231144
0.716564 0.657008 0.205692
0.784054 0.662638 0.159869
0.833326 0.667643 0.121767
0.853147 0.672999 0.107866
0.86508 0.680629 0.101122
0.875517 0.689693 0.0957198
0.884031 0.699977 0.0939956
0.891737 0.710918 0.0950179
0.899077 0.722057 0.0967575
0.905837 0.733211 0.0990311
0.912154 0.744549 0.101732
0.91783 0.755688 0.10486
0.916915 0.765148 0.11223
0.916091 0.774258 0.119341
0.915343 0.783032 0.126268
0.0033875 0.689296 0.0111696
0 0.707027 0.00643931
0 0.725109 0.00445563
0 0.742641 0.002533
0.000961318 0.754696 0.00122072
0 0.763394 0
0.000915541 0.769482 0
0.00570687 0.773266 0
0.0119326 0.773785 0.00155642
0.0235904 0.769924 0.00480659
0.107149 0.755276 0.0240482
0.231113 0.735088 0.0856794
0.345098 0.718395 0.157702
0.438071 0.7093 0.216754
0.507439 0.707912 0.250019
0.562966 0.710704 0.263233
0.614755 0.715373 0.264027
0.667765 0.721355 0.254246
0.720974 0.728084 0.231128
0.775799 0.735531 0.191623
0.827115 0.743435 0.147082
0.848264 0.749218 0.130205
0.860197 0.756008 0.122576
0.870924 0.764309 0.116289
0.880339 0.773297 0.113329
0.888655 0.78291 0.113344
0.896315 0.792813 0.114229
0.903807 0.802609 0.1149
0.911055 0.812055 0.115724
0.918105 0.821424 0.116701
0.918318 0.829511 0.122408
0.918181 0.837217 0.12813
0.918273 0.844404 0.133074
0 0.803296 0
0 0.819684 0
0 0.835569 0
0 0.850111 0
0 0.860227 0
0 0.868864 0
0 0.875639 0
0 0.878279 0
0 0.878187 0
0.00103761 0.87451 0
0.0526741 0.859541 0
0.181552 0.836042 0.0200656
0.317845 0.809812 0.0968643
0.435279 0.789288 0.184497
0.518212 0.780255 0.241123
0.578561 0.779019 0.268284
0.629999 0.781811 0.273945
0.680552 0.786954 0.265309
0.729 0.793576 0.243961
0.776455 0.801389 0.208881
0.822309 0.809842 0.167727
0.850919 0.816892 0.141802
0.864027 0.823362 0.132174
0.874281 0.8309 0.125582
0.883482 0.838865 0.12195
0.891905 0.847044 0.120409
0.899763 0.855512 0.119631
0.907179 0.86389 0.119249
0.914244 0.872099 0.119188
0.921141 0.880018 0.119097
0.922683 0.8869 0.122164
0.922927 0.893172 0.125826
0.923186 0.899138 0.129442
0 0.899657 0
0 0.911452 0
0 0.923247 0
0 0.934524 0
0 0.942519 0
0 0.949065 0
0 0.954757 0
0 0.958434 0
0 0.959503 0
0 0.957412 0
0.0156558 0.951782 0
0.138506 0.929397 0
0.278859 0.901778 0.0187991
0.413657 0.873854 0.116365
0.513619 0.855467 0.197696
0.58439 0.84712 0.246357
0.639765 0.846265 0.264088
0.690455 0.849714 0.259953
0.736751 0.855161 0.241184
0.779919 0.86215 0.211017
0.820279 0.869993 0.175937
0.853101 0.877958 0.145373
0.869261 0.883986 0.131685
0.880095 0.890608 0.123323
0.888838 0.897322 0.120241
0.896895 0.904433 0.118181
0.904402 0.911849 0.116716
0.911452 0.918959 0.115663
0.918029 0.924941 0.11429
0.924468 0.930648 0.112993
0.926711 0.935576 0.114504
0.926879 0.939971 0.11722
0.927062 0.944366 0.119738
0 0.969726 0
0 0.980331 0
0 0.987137 0
0 0.990127 0
0 0.993378 0
0 0.997421 0
0 1 0
0 1 0
0 1 0
0 1 0
0.0213474 0.997269 0
0.121614 0.991241 0
0.250355 0.976043 0.00047303
0.38352 0.950591 0.0401007
0.4925 0.928588 0.124849
0.573877 0.914992 0.189364
0.638102 0.909056 0.223835
0.692515 0.908858 0.231235
0.739544 0.912032 0.219516
0.781842 0.917388 0.196521
0.819745 0.923873 0.16788
0.85211 0.930297 0.14078
0.873152 0.936034 0.123262
0.88452 0.940932 0.116533
0.893294 0.945937 0.112978
0.900847 0.950957 0.110521
0.907668 0.955001 0.108568
0.914031 0.958251 0.106889
0.920058 0.961364 0.105486
0.925963 0.964263 0.104005
0.928466 0.966812 0.104662
0.92845 0.969085 0.106676
0.928435 0.971222 0.108736
0 1 0
0 1 0
0 1 0
0 1 0
0 1 0
0 1 0
0 1 0
0 1 0
0 1 0
0.000213626 1 0
0.0369573 1 0
0.131594 1 0
0.246937 0.999741 0
0.372732 0.991043 0.0152285
0.479179 0.972274 0.0817731
0.563287 0.958724 0.147189
0.631418 0.951995 0.186252
0.689326 0.950286 0.200839
0.737774 0.952239 0.195163
0.780011 0.955993 0.178195
0.816907 0.960571 0.155917
0.849042 0.96527 0.133562
0.872068 0.969116 0.117693
0.886046 0.971984 0.1093
0.895201 0.974563 0.104952
0.902235 0.975723 0.102449
0.908629 0.976806 0.100465
0.91458 0.97789 0.0988174
0.920256 0.978943 0.0973831
0.925841 0.979995 0.0959029
0.928359 0.980896 0.0961624
0.928252 0.981582 0.0979171
0.928145 0.982269 0.0995651
0 1 0
0 1 0
0 1 0
0 1 0
0 1 0
0 1 0
0 1 0
0 1 0
0 1 0
0 1 0
0.0548104 1 0
0.14757 1 0
0.25745 1 0
0.378393 1 0.00703441
0.479179 0.986557 0.0751507
0.5608 0.973999 0.136492
0.628992 0.967147 0.176135
0.686198 0.965591 0.190814
0.734691 0.967147 0.18822
0.776333 0.970611 0.172732
0.812528 0.974441 0.152972
0.843793 0.97818 0.13257
0.870466 0.98143 0.114153
0.885512 0.983139 0.104799
0.895018 0.984253 0.0999161
0.90248 0.985245 0.0966201
0.908629 0.986114 0.0945449
0.914412 0.987015 0.0926833
0.919936 0.9879 0.0910658
0.925322 0.988785 0.0893416
0.927764 0.989487 0.0893721
0.927672 0.990066 0.0907149
0.927581 0.9906 0.0919966
0 1 0
0 1 0
0 1 0
0 1 0
0 1 0
0 1 0
0 1 0
0 1 0
0 1 0
0.00401312 1 0
0.0732738 1 0
0.163836 1 0
0.2701 1 0
0.384222 1 0.0125734
0.482444 0.995743 0.0725567
0.560204 0.98584 0.130449
0.62771 0.978485 0.16936
0.684581 0.976165 0.185183
0.732448 0.977188 0.183047
0.773739 0.979995 0.169497
0.809155 0.983368 0.151247
0.839689 0.986709 0.131991
0.866331 0.989776 0.113771
0.883696 0.991653 0.102327
0.894804 0.992828 0.0958267
0.90277 0.993591 0.0919814
0.908812 0.99411 0.0896162
0.914427 0.994659 0.0875563
0.919799 0.995163 0.0857557
0.925032 0.995651 0.0838788
0.927123 0.996063 0.0837873
0.927047 0.996384 0.0847639
0.926986 0.996674 0.0857862
0 1 0
0 1 0
0 1 0
0 1 0
0 1 0
0 1 0
0 1 0
0 1 0
0 1 0
0.0194705 1 0
0.0903182 1 0
0.179263 1 0
0.28043 1 0
0.391028 1 0.0110018
0.483894 0.999512 0.0699168
0.560998 0.994537 0.126864
0.627283 0.988647 0.163912
0.684031 0.985672 0.180713
0.731456 0.986252 0.178958
0.772335 0.988495 0.166934
0.80708 0.991516 0.149233
0.837034 0.994492 0.130709
0.862745 0.997009 0.113481
0.883375 0.998428 0.0995346
0.894728 0.998779 0.0925917
0.902708 0.999115 0.0884718
0.909102 0.999466 0.0855268
0.914565 0.999863 0.0833906
0.919783 1 0.0813458
0.924865 1 0.0793622
0.926497 1 0.0792859
0.926452 1 0.0800031
0.926406 1 0.0807202
0 1 0
0 1 0
0 1 0
0 1 0
0 1 0
0 1 0
0 1 0
0 1 0
0 1 0
0.02916 1 0
0.105943 1 0
0.192874 1 0
0.290883 1 0
0.396414 1 0.0117189
0.485786 1 0.0678569
0.561074 0.99968 0.122255
0.627497 0.996567 0.159991
0.683558 0.994354 0.175982
0.730922 0.994369 0.175631
0.771328 0.996155 0.163943
0.805661 0.99762 0.147158
0.835157 0.998566 0.129335
0.860777 0.999512 0.112383
0.881224 1 0.0986343
0.894163 1 0.0903182
0.902571 1 0.0855726
0.909438 1 0.0820783
0.914733 1 0.0798352
0.919829 1 0.0775921
0.924834 1 0.0754711
0.925933 1 0.0754406
0.925902 1 0.0759289
0.925872 1 0.0764324
0 1 0
0 1 0
0 1 0
0 1 0
0 1 0
0 1 0
0 1 0
0 1 0
0.00755322 1 0
