LUTs/61.cube
TITLE "Generate by Resolve"
LUT_3D_SIZE 9
0 0 0
0.0189975 3.0518e-05 7.62951e-05
0.0603037 0 0.00015259
0.274083 0.00679026 0.0338445
0.605707 0.000122072 0.0523995
1 0 0.0412451
1 0 0.0404364
1 0 0.0398871
1 0 0.0393988
0.000122072 0.0172427 0
0.0169375 0.0166171 0
0.0555734 0.0136568 0
0.282658 0.0152438 0.0362097
0.64715 0 0.0509957
1 0 0.0411231
1 0 0.0402228
1 0 0.0395209
1 0 0.0384833
0 0.0492256 0
0.0106966 0.0526131 0
0.0477302 0.0477607 0
0.29456 0.0404517 0.0406348
0.675563 0.0131533 0.0540017
1 0 0.038117
1 0 0.0370336
1 0 0.0390784
1 0.00471504 0.0497139
0.0104982 0.214817 0.0135348
0.0236667 0.239399 0.0208591
0.0527962 0.254795 0.0235294
0.275288 0.254032 0.0564889
0.617258 0.237934 0.104021
1 0.188968 0.0216526
1 0.218585 0.0101778
1 0.275181 0.0093843
1 0.344015 0.0139315
0.0856489 0.490486 0.0909743
0.086717 0.537026 0.0886397
0.116808 0.561959 0.0937972
0.336065 0.560876 0.171099
0.582483 0.576425 0.211627
0.857176 0.587137 0.0874037
0.903929 0.617761 0.0643778
0.924514 0.667643 0.0764019
0.918883 0.713695 0.107958
0 0.899657 0
0 0.942519 0
0 0.959503 0
0.278859 0.901778 0.0187991
0.639765 0.846265 0.264088
0.820279 0.869993 0.175937
0.888838 0.897322 0.120241
0.918029 0.924941 0.11429
0.927062 0.944366 0.119738
0 1 0
0 1 0
0 1 0
0.2701 1 0
0.62771 0.978485 0.16936
0.809155 0.983368 0.151247
0.894804 0.992828 0.0958267
0.919799 0.995163 0.0857557
0.926986 0.996674 0.0857862
0 1 0
0 1 0
0.0170291 1 0
0.324208 1 0
0.63061 1 0.154086
0.803662 1 0.14313
0.893278 1 0.0859693
0.919921 1 0.0711223
0.924712 1 0.0695201
0 1 0
0 1 0
0.0595407 1 0
0.374731 1 0.00831617
0.650507 1 0.169802
0.808301 1 0.140154
0.894575 1 0.0810712
0.919783 1 0.0654002
0.923552 1 0.0632181
0 0 0.0204623
0.0186465 3.0518e-05 0.019913
0.0552834 0 0.0174411
0.272847 0.00646983 0.040177
0.606546 0.000122072 0.052369
1 0 0.0412604
1 0 0.0404212
1 0 0.0398718
1 0 0.0393835
0.00015259 0.016907 0.0180209
0.0167086 0.0163729 0.0175174
0.05243 0.0136721 0.0160525
0.283299 0.0153811 0.0439307
0.651667 0 0.0538949
1 0 0.0411078
1 0 0.040177
1 0 0.043061
1 0 0.0497902
0 0.0505989 0.0106355
0.0107881 0.0543832 0.0117647
0.0497902 0.0490578 0.0129091
0.299367 0.0418402 0.0521401
0.683009 0.0152438 0.064622
1 0 0.0500954
1 0 0.0547646
1 0 0.0646677
1 0.012665 0.0739757
0.0125887 0.222858 0.0178531
0.0279088 0.249821 0.030396
0.0567788 0.267857 0.0372778
0.286137 0.270405 0.0716869
0.623987 0.256275 0.121614
1 0.211398 0.0450141
1 0.238544 0.0370031
1 0.298238 0.0358282
1 0.369711 0.0490272
0.0862745 0.505974 0.0917678
0.0893111 0.552071 0.0942092
0.120073 0.576928 0.104952
0.348638 0.573739 0.187854
0.592355 0.589471 0.228611
0.849332 0.60293 0.124102
0.891783 0.634943 0.114992
0.91458 0.683574 0.128344
0.908248 0.726421 0.162692
0 0.915541 0
0 0.955413 0
0 0.97055 0
0.293919 0.910948 0.0500649
0.646143 0.856123 0.288334
0.819852 0.87715 0.222736
0.889525 0.903334 0.17464
0.917723 0.927733 0.168521
0.925063 0.94583 0.175784
0 1 0
0 1 0
0 1 0
0.275608 1 0.000549325
0.631479 0.974884 0.213321
0.807477 0.978958 0.209888
0.895018 0.990021 0.150347
0.919875 0.993225 0.138811
0.926101 0.995102 0.139071
0 1 0
0 1 0
0.0115511 1 0
0.324071 1 0.00756847
0.632166 0.999786 0.197375
0.801755 1 0.200549
0.890349 1 0.141924
0.919066 1 0.124102
0.923491 1 0.122255
0 1 0
0 1 0
0.0516823 1 0
0.370352 1 0.0327153
0.650874 1 0.21355
0.80557 1 0.19733
0.890394 1 0.137316
0.917113 1 0.119158
0.92079 1 0.116854
0 0 0.127382
0.0153658 0 0.128252
0.0452277 0 0.114794
0.267613 0.00538643 0.0825666
0.570306 0.00216678 0.0800641
1 0 0.0632029
1 0 0.0597238
1 0 0.0605325
1 0 0.0647288
0 0.0151369 0.109071
0.0149233 0.0149538 0.110887
0.0438544 0.0130007 0.101884
0.279774 0.0144198 0.0843061
0.613718 0.00117494 0.0904097
1 0 0.0711528
1 0 0.076524
1 0 0.0948806
1 0 0.126024
0 0.048188 0.0698711
0.0145418 0.0521859 0.078172
0.0486915 0.0477913 0.0776074
0.301335 0.0421912 0.0875868
0.656886 0.0234531 0.104356
1 0 0.0978714
1 0 0.118288
1 0 0.169497
1 0.0191806 0.224857
0.0109865 0.228687 0.0408331
0.0289158 0.25893 0.0543679
0.0587015 0.279316 0.0616007
0.29218 0.283406 0.0947738
0.618448 0.27277 0.151843
0.99939 0.23093 0.0881666
1 0.258091 0.0869001
1 0.321462 0.118914
0.998779 0.395773 0.185458
0.089128 0.517586 0.113985
0.0950637 0.563348 0.119966
0.128679 0.585962 0.13373
0.354055 0.583932 0.21088
0.595712 0.599649 0.254994
0.831922 0.616434 0.188678
0.876112 0.6486 0.182071
0.900664 0.69514 0.19852
0.894469 0.734356 0.239338
0 0.92549 0
0 0.96495 0
0 0.978637 0
0.30425 0.914885 0.091783
0.648524 0.860121 0.330953
0.813458 0.877562 0.300511
0.888243 0.903807 0.254444
0.915267 0.925826 0.249729
0.921904 0.942565 0.258366
0 1 0
0 1 0
0 1 0
0.274952 1 0.0191348
0.633936 0.968444 0.272374
0.804257 0.970916 0.293019
0.892546 0.983841 0.235233
0.919142 0.987808 0.220325
0.925002 0.989517 0.220142
0 1 0
0 1 0
0 1 0
0.315892 1 0.0370794
0.63212 0.998245 0.256489
0.798932 0.996414 0.28333
0.884962 0.999893 0.22887
0.917876 1 0.205081
0.922515 1 0.202716
0 1 0
0 1 0.00164797
0.0364843 1 0
0.358846 1 0.0699626
0.648966 0.999603 0.272251
0.801465 1 0.280018
0.883909 1 0.223743
0.913603 1 0.201419
0.917693 1 0.198505
0.00151064 0.00244144 0.341695
0.012192 0.00326543 0.343511
0.030808 0.00454719 0.333364
0.220096 0.0132448 0.312184
0.473564 0.0216373 0.282612
0.944244 0 0.348669
1 0 0.344671
1 0 0.360525
1 0 0.390509
0.00404364 0.0149691 0.330144
0.0153201 0.0161135 0.334112
0.0343328 0.0163729 0.329305
0.236622 0.0207828 0.319203
0.504524 0.0223392 0.311879
0.974624 0 0.413809
1 0 0.436194
1 0 0.478996
1 0 0.52665
0.00831617 0.0404364 0.304387
0.0211795 0.0468757 0.318822
0.0434424 0.0450752 0.325093
0.267765 0.0486915 0.327932
0.547189 0.0553292 0.344167
0.964111 0 0.464378
1 0 0.508141
1 0 0.559792
1 0.0392615 0.594827
0.0516976 0.208026 0.29369
0.0760967 0.239475 0.336934
0.109346 0.259998 0.370642
0.309957 0.279072 0.349248
0.611826 0.279713 0.383291
0.833021 0.283879 0.435004
0.874372 0.314504 0.470527
0.886229 0.377295 0.524773
0.878981 0.438773 0.56997
0.102419 0.520577 0.244221
0.121187 0.561135 0.297902
0.156756 0.581003 0.33933
0.335851 0.59559 0.324681
0.601251 0.60383 0.370047
0.822293 0.618021 0.413046
0.867048 0.649393 0.45687
0.894667 0.692439 0.514321
0.902113 0.727825 0.558694
0 0.916304 0.0827192
0 0.955947 0.133303
0.000915541 0.959731 0.184176
0.352438 0.886458 0.312474
0.645777 0.852934 0.457252
0.802213 0.863508 0.486152
0.883528 0.886549 0.509407
0.911788 0.906737 0.544244
0.921599 0.922103 0.571633
0 1 0.132204
0 1 0.178836
0 1 0.202014
0.309209 0.996857 0.26096
0.649256 0.949371 0.445579
0.804349 0.9514 0.493278
0.883467 0.961837 0.491951
0.921675 0.968215 0.497307
0.928527 0.969451 0.509575
0 1 0.303273
0 1 0.338231
0 1 0.325414
0.357 1 0.328267
0.652903 0.976699 0.452308
0.802976 0.974243 0.489647
0.878492 0.983459 0.470787
0.918654 0.989761 0.458122
0.924437 0.990188 0.459556
0 1 0.440818
0 1 0.447837
0.0419013 1 0.409293
0.412589 1 0.395682
0.66775 0.978195 0.476005
0.805341 0.9832 0.489342
0.876509 0.994736 0.45481
0.913619 0.99852 0.433661
0.91902 0.998749 0.431403
0 0 0.907073
3.0518e-05 0 0.902724
0.0180667 0 0.850477
0.200504 0.00401312 0.636622
0.486427 0.00830091 0.574334
0.889494 0 0.676371
1 0 0.70663
1 0 0.725963
1 0 0.751842
0 0.000350958 0.869062
0.00015259 0.000320439 0.870619
0.0202792 0.000686656 0.835111
0.223072 0.00965896 0.650919
0.552224 0.000839246 0.640803
0.974166 0 0.763119
1 0 0.791974
1 0 0.833021
1 0 0.884901
0 0.0233463 0.762631
0.000579843 0.0301061 0.790021
0.0263371 0.0296025 0.784741
0.25124 0.045655 0.635569
0.604349 0.0310979 0.675914
0.997711 0 0.82977
1 0 0.881773
1 0 0.936996
1 0.0239261 0.97998
0.0634775 0.206607 0.544091
0.0849928 0.243137 0.591806
0.120333 0.26714 0.619486
0.293568 0.289158 0.614176
0.590738 0.293767 0.632532
0.811887 0.303365 0.6813
0.854597 0.336629 0.722408
0.882216 0.39762 0.777874
0.883604 0.457252 0.818723
0.179599 0.503502 0.616342
0.201053 0.543282 0.668605
0.240085 0.561502 0.695674
0.381704 0.580972 0.682292
0.621271 0.597131 0.681773
0.859297 0.606973 0.7149
0.915419 0.641367 0.761486
0.945815 0.681773 0.812161
0.958083 0.713726 0.85069
0.0426337 0.848035 0.686885
0.0562753 0.883787 0.751904
0.134371 0.883055 0.785916
0.408743 0.850553 0.738201
0.601801 0.864408 0.683665
0.791653 0.863233 0.693538
0.902754 0.878157 0.722927
0.949722 0.897475 0.75494
0.959884 0.912581 0.775631
0 0.985763 0.783322
0.0319219 0.979141 0.839323
0.111681 0.969039 0.865309
0.420844 0.940078 0.794003
0.623407 0.953033 0.729244
0.784817 0.958831 0.707027
0.879866 0.96231 0.727489
0.937301 0.967681 0.742885
0.954452 0.96994 0.750515
0.0266575 1 0.940505
0.079881 0.996872 0.960052
0.144869 0.98732 0.955444
0.464256 0.962142 0.845731
0.631296 0.976318 0.75256
0.786114 0.979324 0.715923
0.876158 0.981064 0.727764
0.931014 0.985199 0.73756
0.944732 0.986099 0.740734
0.0670787 0.995758 0.998871
0.108446 0.989685 1
0.174624 0.981231 0.993225
0.494392 0.959197 0.86685
0.640436 0.982071 0.762814
0.789868 0.989395 0.719173
0.875731 0.992752 0.726986
0.928069 0.996735 0.734829
0.938704 0.997238 0.736797
0 0 1
0 0 1
0.00830091 0 1
0.203525 0 1
0.591409 0 1
0.919295 0 1
1 0 1
1 0 1
1 0 1
0 0 1
0 0 1
0.0100099 0 1
0.236408 0 1
0.648157 0 1
0.97464 0 1
1 0 1
1 0 1
1 0 1
0 0.0101167 1
0 0.016434 1
0.0113069 0.0183108 1
0.279561 0.00460822 1
0.705638 0 1
1 0 1
1 0 1
1 0 1
1 0.026154 1
0 0.211963 1
0 0.255543 1
0.0214084 0.280018 1
0.277302 0.289845 0.916442
0.599237 0.295766 0.844068
0.88957 0.283085 0.935561
0.923629 0.321569 0.937636
0.920302 0.392096 0.918486
0.898222 0.458427 0.903716
0.0944228 0.53109 0.990311
0.110323 0.571252 1
0.16643 0.585214 1
0.386282 0.589685 0.889311
0.603265 0.610162 0.884459
0.819211 0.620462 0.909682
0.906111 0.651331 0.921218
0.937102 0.686503 0.937835
0.947585 0.715373 0.953964
0.0832837 0.830381 1
0.0910964 0.866316 1
0.149218 0.871702 1
0.457527 0.831922 0.999603
0.660334 0.836286 0.96965
0.786648 0.851011 0.975387
0.895613 0.864256 0.979492
0.971572 0.879362 0.982025
0.985351 0.893278 0.984802
0.0601205 0.947433 1
0.0893568 0.953246 1
0.13666 0.953445 1
0.450752 0.921874 1
0.67538 0.926802 1
0.78909 0.947204 0.998337
0.872862 0.957412 0.993667
0.937865 0.963149 0.981964
0.974929 0.966201 0.974807
0.0774548 0.985367 1
0.101717 0.984527 1
0.142855 0.981796 1
0.477256 0.948363 1
0.682094 0.949401 1
0.790127 0.968078 1
0.865385 0.978195 0.993515
0.924819 0.983597 0.977584
0.959823 0.985595 0.969436
0.0880598 0.984878 1
0.110018 0.984146 1
0.151324 0.981018 1
0.502205 0.948074 1
0.689693 0.957702 1
0.790997 0.981689 1
0.859525 0.99472 0.98732
0.915557 0.999588 0.968551
0.946426 1 0.96202
0 0 1
0 0 1
0.0065156 0 1
0.185077 0 1
0.580591 0 1
0.902907 0 1
1 0 1
1 0 1
1 0 1
0 0 1
0 0 1
0.00874342 0 1
0.222705 0 1
0.638178 0 1
0.969329 0 1
1 0 1
1 0 1
1 0 1
0 0.00854505 1
0 0.0161746 1
0.0110628 0.0201419 1
0.277501 0.00497444 1
0.714794 0 1
1 0 1
1 0 1
1 0.00334173 1
1 0.0390936 1
0 0.219471 1
0 0.265629 1
0.019501 0.292241 1
0.275883 0.300618 0.98645
0.608454 0.305211 0.891722
0.898131 0.293797 0.974258
0.93286 0.335607 0.974624
0.92604 0.407858 0.954345
0.903822 0.473365 0.936873
0.0617685 0.546319 1
0.090837 0.582605 1
0.147204 0.597452 1
0.383307 0.5991 0.940108
0.600229 0.619944 0.909072
0.809766 0.629831 0.934569
0.906752 0.661036 0.948241
0.936767 0.69575 0.964889
0.94583 0.723491 0.980652
0.067277 0.841306 1
0.0836042 0.874266 1
0.127138 0.882872 1
0.430961 0.841505 1
0.659144 0.837934 0.994568
0.782986 0.850721 0.99823
0.881926 0.86508 1
0.962386 0.87921 1
0.980133 0.892119 1
0.0637827 0.947295 1
0.0902724 0.953506 1
0.126925 0.955764 1
0.409644 0.929 1
0.669444 0.925307 1
0.787442 0.943648 1
0.865965 0.954345 1
0.927825 0.960555 1
0.969329 0.964233 1
0.0770123 0.984802 1
0.100938 0.983978 1
0.135363 0.982757 1
0.435676 0.954604 1
0.675441 0.947295 1
0.788479 0.963897 1
0.859648 0.974136 1
0.915938 0.97969 1
0.95787 0.982879 1
0.086656 0.98436 1
0.108385 0.983612 1
0.141161 0.982467 1
0.463386 0.954192 1
0.682673 0.956237 1
0.790555 0.97789 1
0.856306 0.990112 1
0.909621 0.996017 1
0.94725 0.998917 1
0 0 1
0 0 1
0.00607309 0 1
0.180804 0 1
0.575555 0 1
0.898711 0 1
1 0 1
1 0 1
1 0 1
0 0 1
0 0 1
0.00880446 0 1
0.224186 0 1
0.64181 0 1
0.974685 0 1
1 0 1
1 0 1
1 0 1
0 0.00898756 1
0 0.0209201 1
0.0119478 0.02533 1
0.290761 0.00665293 1
0.727764 0 1
1 0 1
1 0 1
1 0.0153506 1
1 0.0585946 1
0 0.235935 1
0 0.284794 1
0.0259403 0.312444 1
0.289372 0.321859 0.999619
0.620432 0.325322 0.91632
0.901442 0.316579 0.991913
0.929229 0.361578 0.983658
0.920928 0.431846 0.965133
0.902693 0.491936 0.943954
0.055024 0.56289 1
0.0860304 0.598459 1
0.141009 0.614511 1
0.398108 0.614755 0.96849
0.608896 0.635935 0.928756
0.814099 0.644816 0.953887
0.910307 0.675242 0.968353
0.938415 0.707851 0.983658
0.947051 0.732876 0.994369
0.0660258 0.856214 1
0.08542 0.884703 1
0.12372 0.895415 1
0.423468 0.856062 1
0.666026 0.847532 0.999924
0.790143 0.857847 1
0.881712 0.872374 1
0.959792 0.885222 1
0.976516 0.896742 1
0.0655985 0.949172 1
0.0917067 0.955016 1
0.128145 0.956878 1
0.395117 0.933684 1
0.670207 0.926162 1
0.790204 0.943328 1
0.866133 0.953918 1
0.925948 0.960098 1
0.966186 0.963729 1
0.0778363 0.984466 1
0.101503 0.983688 1
0.135683 0.982483 1
0.417121 0.958694 1
0.67425 0.947265 1
0.790188 0.962768 1
0.859037 0.972976 1
0.913619 0.978653 1
0.956146 0.982071 1
0.0866865 0.984176 1
0.108293 0.983459 1
0.140856 0.982284 1
0.444648 0.957717 1
0.680781 0.956008 1
0.791882 0.976684 1
0.855985 0.988754 1
0.907683 0.994873 1
0.947555 0.998611 1
0 0 1
0 0 1
0.0059205 0 1
0.180133 0 1
0.576196 0 1
0.900511 0 1
1 0 1
1 0 1
1 0 1
0 0 1
0 0 1
0.00924697 0 1
0.229282 0 1
0.649317 0 1
0.984054 0 1
1 0 1
1 0 1
1 0 1
0 0.012192 1
0 0.0276493 1
0.0131533 0.0333715 1
0.307332 0.0103914 1
0.742885 0.000228885 1
1 0 1
1 0 1
1 0.0283207 1
1 0.0763714 1
0 0.256413 1
0.000213626 0.305562 1
0.0335088 0.332387 1
0.308064 0.343282 0.998276
0.633173 0.345724 0.92607
0.89662 0.342168 0.983703
0.919158 0.387945 0.982391
0.910307 0.454902 0.953063
0.89987 0.509834 0.940505
0.0521096 0.580621 1
0.08336 0.615473 1
0.140993 0.630411 1
0.415839 0.629984 0.981979
0.618708 0.651392 0.941161
0.820554 0.65893 0.965362
0.915343 0.687449 0.976638
0.941558 0.71693 0.987549
0.949599 0.740246 0.997192
0.0645914 0.872969 1
0.0874037 0.89514 1
0.125978 0.902953 1
0.42739 0.867994 1
0.672938 0.85684 1
0.797452 0.865293 1
0.883207 0.879591 1
0.959716 0.890547 1
0.975158 0.900572 1
0.0677195 0.951354 1
0.0935836 0.956863 1
0.129793 0.95845 1
0.398352 0.935225 1
0.672038 0.92726 1
0.792935 0.943557 1
0.867124 0.953872 1
0.925307 0.960082 1
0.963943 0.963607 1
0.0791485 0.984421 1
0.102571 0.983658 1
0.136446 0.982452 1
0.421485 0.958724 1
0.67454 0.947585 1
0.791684 0.962264 1
0.859617 0.972305 1
0.91252 0.978058 1
0.954162 0.981537 1
0.0871443 0.984161 1
0.108568 0.983444 1
0.14107 0.982284 1
0.445472 0.957641 1
0.680537 0.956008 1
0.793072 0.976028 1
0.856611 0.987884 1
0.907103 0.994232 1
0.946715 0.998169 1
