LUTs/64.cube
TITLE "Generate by Resolve"
LUT_3D_SIZE 9
0 0 0
0 0 1.5259e-05
0.0192264 0 0
0.181628 0 0
0.655085 0 0
1 0 0
1 0 0
1 0 0
1 0 0
0 0 0
0 0 0
0.0237736 0 0
0.196826 0 0
0.716213 0 0
1 0 0
1 0 0
1 0 0
1 0 0
0 0.0575265 0
0 0.063035 0
0.0295872 0.0559396 0
0.227802 0.0304417 0
0.787015 0 0
1 0 0
1 0 0
1 0 0
1 0.0536202 0
0 0.197162 0
0 0.229282 0
0.00131228 0.254643 0
0.334112 0.262821 0.0504463
0.754192 0.285023 0.0199893
1 0.300206 0
1 0.369757 0
1 0.448646 0
1 0.535409 0.00434882
0 0.640955 0
0 0.742123 0
0 0.797253 0
0.514153 0.730678 0.0946822
0.8383 0.749432 0.252674
1 0.803952 0.070985
1 0.836378 0
1 0.87985 0
1 0.913985 0
0 1 0
0 1 0
0 1 0
0.424491 1 0
0.943648 0.970733 0.354803
1 0.986145 0.289525
1 1 0.125368
1 1 0.116365
1 1 0.197742
0 1 0
0 1 0
0.0277256 1 0
0.567529 1 0
0.999481 1 0.264515
1 1 0.485466
1 1 0.549722
1 1 0.594125
1 1 0.633204
0 1 0.00755322
0.00122072 1 0.00610361
0.112154 1 0.00204471
0.741466 1 0
1 1 0.446891
1 1 0.723796
1 1 0.74548
1 1 0.753704
1 1 0.757183
0 1 0.0467842
0.0310826 1 0.0398871
0.160754 1 0.0137789
0.814023 1 0
1 1 0.545586
1 1 0.755871
1 1 0.773358
1 1 0.777951
1 1 0.777951
0 0 0.0104524
0 0 0.0181277
0.0182956 0 0.015259
0.182239 0 0
0.65626 0 0
1 0 0
1 0 0
1 0 0
1 0 0
0 0 0.0204166
0 0 0.0193179
0.0256352 0 0.0180972
0.200458 0 0
0.726177 0 0
1 0 0
1 0 0
1 0 0
1 0 0
0 0.0603037 0.00885023
0 0.0666056 0.0135348
0.0275883 0.0626993 0.019379
0.252995 0.0311284 0.00115969
0.807218 0 0
1 0 0
1 0 0
1 0.00947585 0
1 0.0802167 0.00653086
0 0.207416 0
0 0.244022 0
0.00560006 0.279194 0.000808728
0.367483 0.295018 0.0755779
0.784543 0.318471 0.0460975
1 0.330968 0
1 0.393576 0.00970474
1 0.474647 0.0292363
1 0.561196 0.0552071
0 0.675242 0
0 0.773617 0
0 0.821103 0
0.535164 0.763027 0.132021
0.853864 0.77377 0.317876
1 0.824155 0.137011
1 0.852506 0.00502022
1 0.892058 0.00132753
1 0.924193 0.0353094
0 1 0
0 1 0
0 1 0
0.407401 1 0.000396735
0.946334 0.973724 0.463935
1 0.983993 0.469429
1 0.999847 0.352789
1 1 0.327291
1 1 0.436835
0 1 0
0 1 0.00729381
0.0377813 1 0.00949111
0.532128 1 0
0.998428 1 0.471183
1 1 0.680125
1 1 0.709621
1 1 0.726909
1 1 0.743664
0 1 0.068864
0.00354009 1 0.0746471
0.11368 1 0.0563211
0.702525 1 0
1 1 0.594644
1 1 0.788998
1 1 0.801755
1 1 0.806027
1 1 0.807645
0 1 0.112673
0.0370184 1 0.108919
0.155901 1 0.0793011
0.787686 1 0.00883497
1 1 0.658137
1 1 0.805112
1 1 0.817807
1 1 0.820996
1 1 0.820996
0 0 0.0738994
0 0 0.0862593
0.0111543 0 0.0964828
0.189929 0 0.0390173
0.602075 0 0
1 0 0
1 0 0
1 0 0
1 0 0
0 0.0016022 0.0791943
0 0.00221256 0.0818036
0.0163119 0 0.0996109
0.210941 0 0.0449073
0.662211 0 0
1 0 0
1 0 0
1 0 0
1 0 0
0 0.0669718 0.0675059
0 0.0747997 0.0716411
0.0162814 0.073167 0.0804761
0.289082 0.0278477 0.0523384
0.746349 0 0
1 0 0
1 9.15541e-05 0.00314336
1 0.0326696 0.0533913
1 0.105684 0.130678
0 0.224918 0.0275731
0 0.270573 0.0403143
0.00688182 0.312001 0.0579843
0.396811 0.331807 0.143282
0.819471 0.345647 0.11371
1 0.355825 0.0816205
1 0.412573 0.102495
1 0.494652 0.125216
1 0.585061 0.16144
0 0.691737 0.00456245
0 0.783032 0.0174868
0.0206302 0.827008 0.088304
0.520165 0.805127 0.203494
0.864988 0.794629 0.422889
0.999969 0.836118 0.286854
1 0.864942 0.08159
1 0.900298 0.0988479
1 0.926055 0.22739
0 1 0.00180056
0 1 0.0374456
0.000350958 1 0.0559396
0.376196 1 0.0432441
0.944717 0.975799 0.592798
1 0.980591 0.669993
1 0.996033 0.626307
1 1 0.607721
1 1 0.67599
0 1 0.0806439
0 1 0.108721
0.0497444 1 0.111666
0.503563 1 0.0434119
0.996353 1 0.640757
1 1 0.793317
1 1 0.803815
1 1 0.808667
1 1 0.815595
0 1 0.162615
0.00975052 1 0.178973
0.127001 1 0.176608
0.695476 1 0.108766
1 1 0.704845
1 1 0.84239
1 1 0.85124
1 1 0.853544
1 1 0.854292
0 1 0.218769
0.0449683 1 0.226093
0.201099 1 0.24213
0.770047 1 0.175006
1 1 0.741665
1 1 0.851972
1 1 0.862074
1 1 0.864134
1 1 0.86421
0 0 0.202029
0 0 0.217624
0 0 0.254627
0.157671 0 0.225605
0.517113 0 0.126253
0.995544 0 0.111101
1 0 0.091722
1 0 0.107301
1 0 0.142061
0 0.00819409 0.202228
0 0.00854505 0.21622
0 0.00241093 0.25774
0.1794 0 0.23856
0.572854 0 0.14876
1 0 0.184207
1 0 0.20058
1 0 0.270008
1 0 0.362249
0 0.0701762 0.216266
0 0.0806744 0.22327
0 0.0776226 0.247379
0.259495 0.0241855 0.313527
0.679835 0 0.228977
1 0 0.332265
1 0 0.408865
1 0.0332952 0.529046
1 0.106416 0.648005
0 0.258244 0.170428
0 0.313939 0.203418
0.00709544 0.359625 0.252384
0.369574 0.346654 0.423484
0.846799 0.348394 0.398154
1 0.381369 0.445106
1 0.441077 0.50016
1 0.529564 0.581399
1 0.612009 0.659632
0.00262455 0.722805 0.245548
0.00384527 0.810987 0.301717
0.087892 0.844404 0.402533
0.445884 0.841276 0.463828
0.87187 0.806546 0.585443
0.999939 0.829252 0.5308
1 0.853635 0.529747
1 0.880858 0.604761
1 0.90309 0.68011
0 1 0.199771
0 1 0.245319
0.00691234 1 0.306203
0.514916 1 0.519951
0.929305 0.980514 0.727871
1 0.980163 0.821942
1 0.993149 0.811719
1 1 0.805203
1 1 0.823255
0 1 0.299992
0 1 0.351553
0.0867628 1 0.49099
0.652735 1 0.627756
0.966751 1 0.749676
1 1 0.880385
1 1 0.885023
1 1 0.884672
1 1 0.886534
0 1 0.428962
0.0167849 1 0.520363
0.260884 1 0.708309
0.746181 1 0.712612
0.991852 1 0.774441
1 1 0.902983
1 1 0.911925
1 1 0.912947
1 1 0.912917
0 1 0.532662
0.0694438 1 0.629129
0.38352 1 0.775265
0.775082 1 0.736858
1 1 0.797513
1 1 0.909453
1 1 0.922683
1 1 0.925338
1 1 0.92546
0 0 0.627207
0 0 0.681834
0 0 0.843748
0.0822766 0 0.795605
0.540383 0 0.561563
0.973663 0 0.695842
1 0 0.698146
1 0 0.717891
1 0 0.746639
0 0.00125124 0.592203
0 0.00202945 0.652705
0 0 0.873091
0.109895 0 0.825956
0.637598 0 0.642054
1 0 0.770092
1 0 0.790005
1 0 0.828702
1 0 0.870237
0 0.0725109 0.515267
0 0.0817426 0.551492
0 0.069276 0.678462
0.142748 0.0247044 0.806256
0.735958 0 0.721981
1 0 0.885023
1 0 0.940383
1 0.033402 0.997787
1 0.107912 1
0 0.291859 0.458946
0 0.361471 0.508736
0 0.409659 0.517922
0.209277 0.404715 0.792142
0.846983 0.353979 0.82594
1 0.408469 0.917388
1 0.467918 0.93753
1 0.548653 0.959533
1 0.623346 0.977478
0 0.790463 0.553811
0 0.878981 0.634028
0.0108644 0.904433 0.710109
0.462821 0.875441 0.823438
0.867887 0.781689 0.840925
1 0.808881 0.844617
1 0.831312 0.864851
1 0.857282 0.889418
1 0.878813 0.910735
0 1 0.580026
0 1 0.642405
0.00392157 1 0.724529
0.634562 1 0.882841
0.874723 0.996719 0.849805
1 0.981338 0.905425
1 0.990173 0.889647
1 0.997299 0.889342
1 1 0.897322
0 1 0.707485
0 1 0.758556
0.0589456 1 0.869749
0.725231 1 0.908446
0.902998 1 0.874617
1 1 0.953674
1 1 0.960861
1 1 0.95346
1 1 0.9505
0 1 0.841688
0 1 0.895171
0.186709 1 0.957107
0.777615 1 0.926131
0.923186 1 0.887556
1 1 0.97586
1 1 0.998047
1 1 0.996857
1 1 0.995377
0 1 0.913069
0.00378424 1 0.946563
0.264057 1 0.976852
0.796521 1 0.93286
0.93257 1 0.891356
1 1 0.981262
1 1 1
1 1 1
1 1 1
0 0 1
0 0 1
0 0 1
0.0195926 0 1
0.686961 0 1
0.977371 0 0.961944
1 0 0.968521
1 0 0.979385
1 0 0.992004
0 0 1
0 0 1
0 0 1
0.0392309 0 1
0.74905 0 1
1 0 0.995666
1 0 1
1 0 1
1 0 1
0 0.0722515 1
0 0.0884108 1
0 0.0771801 1
0.059556 0.0276951 1
0.847211 0 1
1 0 1
1 0.00434882 1
1 0.0505684 1
1 0.117952 1
0 0.367269 0.856779
0 0.458061 0.885222
0 0.511223 0.898131
0.0425422 0.47599 1
0.845487 0.378561 1
1 0.393668 1
1 0.454154 1
1 0.544121 1
1 0.626886 1
0 0.873899 0.889403
0 0.943221 0.946334
0 0.969833 0.968353
0.297978 0.932372 0.978073
0.780301 0.821775 0.998901
1 0.813352 0.999985
1 0.83418 1
1 0.858564 1
1 0.878401 1
0 1 0.973465
0 1 0.994217
0 1 1
0.517327 1 0.998703
0.881575 1 0.999039
1 0.962524 0.993866
1 0.968933 0.996429
1 0.979141 1
1 0.988235 1
0 1 0.999832
0 1 1
0 1 1
0.66244 1 0.998917
0.909224 1 1
1 0.999924 1
1 1 1
1 0.999985 1
1 1 1
0 1 1
0 1 1
0.0462348 1 1
0.7393 1 0.996567
0.925399 1 1
1 1 1
1 0.998062 1
1 0.998062 1
1 0.998779 1
0 1 1
0 1 1
0.0827192 1 1
0.762127 1 0.996674
0.933227 1 1
1 1 1
1 0.998062 1
1 0.998062 1
1 0.998062 1
0 0 1
0 0 1
0 0 1
0.000885023 0 1
0.616236 0 1
0.970504 0 1
1 0 1
1 0 1
1 0 1
0 0 1
0 0 1
0 0 1
0.00337224 0 1
0.703639 0 1
1 0 1
1 0 1
1 0 1
1 0 1
0 0.0881971 1
0 0.108354 1
0 0.0972763 1
0.0252079 0.0486305 1
0.819059 0 1
1 0.000228885 1
1 0.0100099 1
1 0.0679332 1
1 0.133776 1
0 0.438575 0.993942
0 0.529259 0.996399
0 0.570794 1
0.00546273 0.533883 1
0.785077 0.419165 1
1 0.412818 1
1 0.475502 1
1 0.565332 1
1 0.643915 1
0 0.920562 0.997391
0 0.979736 1
0 0.993896 1
0.111391 0.993667 1
0.738628 0.855161 1
1 0.823651 1
1 0.840543 1
1 0.862867 1
1 0.881209 1
0 1 1
0 1 1
0 1 1
0.438468 1 1
0.866392 1 1
0.998276 0.969741 1
1 0.969421 1
1 0.979568 1
1 0.98819 1
0 1 1
0 1 1
0 1 1
0.645731 1 1
0.904021 1 1
1 0.999924 1
1 0.998062 1
1 0.998062 1
1 0.998062 1
0 1 1
0 1 1
0.0357519 1 1
0.722911 1 0.997009
0.918227 1 1
1 0.999313 1
1 0.998062 1
1 0.998062 1
1 0.998062 1
0 1 1
0 1 1
0.0656901 1 1
0.746578 1 0.996506
0.924941 1 1
1 0.999023 1
1 0.998062 1
1 0.998062 1
1 0.998062 1
0 0 1
0 0 1
0 0 1
0 0 1
0.571527 0 1
0.965789 0 1
1 0 1
1 0 1
1 0 1
0 0 1
0 0 1
0 0 1
0.0043946 0 1
0.680049 0 1
0.998718 0 1
1 0 1
1 0 1
1 0 1
0 0.105928 1
0 0.129076 1
0 0.119478 1
0.0167544 0.0711833 1
0.813016 0 1
1 0.00451667 1
1 0.0247807 1
1 0.0900893 1
1 0.155901 1
0 0.492027 1
0 0.583947 1
0 0.621653 1
0 0.585901 1
0.754711 0.461509 1
1 0.450828 1
1 0.509071 1
1 0.593759 1
1 0.665904 1
0 0.957412 1
0 0.997452 1
0 1 1
0.0925612 1 1
0.727916 0.882307 1
1 0.836332 1
1 0.84921 1
1 0.869169 1
1 0.885847 1
0 1 1
0 1 1
0 1 1
0.397848 1 1
0.858122 1 1
0.990341 0.98117 1
1 0.9738 1
1 0.982605 1
1 0.989151 1
0 1 1
0 1 1
0.00328069 1 1
0.644327 1 0.999802
0.899641 1 1
1 1 1
1 0.998062 1
1 0.998062 1
1 0.998062 1
0 1 1
0 1 1
0.0383154 1 1
0.722469 1 0.996933
0.916396 1 1
1 0.999313 1
1 0.998062 1
1 0.998062 1
1 0.998062 1
0 1 1
0 1 1
0.0650187 1 1
0.744137 1 0.996521
0.922469 1 1
1 0.999069 1
1 0.998062 1
1 0.998062 1
1 0.998062 1
0 0 1
0 0 1
0 0 1
0 0 1
0.532235 0 1
0.960678 0 1
1 0 1
1 0 1
1 0 1
0 0.00230411 1
0 0.00138857 1
0 0 1
0.00248722 0 1
0.663218 0 1
1 0 1
1 0 1
1 0 1
1 0 1
0 0.125475 1
0 0.150683 1
0 0.138125 1
0.012253 0.0914015 1
0.825101 0 1
1 0.0124514 1
1 0.0489052 1
1 0.11191 1
1 0.179858 1
0 0.546517 1
0 0.628916 0.999603
0 0.655879 0.999146
0.00494392 0.618753 1
0.77409 0.490608 1
1 0.483299 1
1 0.540246 1
1 0.619333 1
1 0.685222 1
0 0.985107 1
0 1 1
0 1 1
0.130053 1 1
0.750301 0.891905 1
1 0.845594 1
1 0.857267 1
1 0.875486 1
1 0.890517 1
0 1 1
0 1 1
0 1 1
0.448737 1 1
0.862837 1 1
0.99205 0.988525 1
1 0.97792 1
1 0.985702 1
1 0.990112 1
0 1 1
0 1 1
0.0071107 1 1
0.657832 1 0.999313
0.901259 1 1
1 1 1
1 0.998062 1
1 0.998062 1
1 0.998062 1
0 1 1
0 1 1
0.0423743 1 1
0.726238 1 0.99675
0.916945 1 1
1 0.999268 1
1 0.998062 1
1 0.998062 1
1 0.998062 1
0 1 1
0 1 1
0.0658579 1 1
0.744518 1 0.996521
0.922301 1 1
1 0.999084 1
1 0.998062 1
1 0.998062 1
1 0.998062 1
