LUTs/64.cube
TITLE "Generate by Resolve"
LUT_3D_SIZE 33
0 0 0
0 0 0
0 0 0
0 0 0
0 0 1.5259e-05
0 0 0
0 0 0
0.00215152 0 0
0.0192264 0 0
0.0525978 0 0
0.0914778 0 0
0.13312 0 0
0.181628 0 0
0.248844 0 0
0.339605 0 0
0.457618 0 0
0.655085 0 0
0.843976 0 0
0.943557 0 0
0.998718 0 0
1 0 0
1 0 0
1 0 0
1 0 0
1 0 0
1 0 0
1 0 0
1 0 0
1 0 0
1 0 0
1 0 0
1 0 0
1 0 0
0 0 0
0 0 0
0 0 0
0 0 0
0 0 0
0 0 0
0 0 0
0.0024567 0 0
0.0196384 0 0
0.0528878 0 0
0.091722 0 0
0.133471 0 0
0.182177 0 0
0.249973 0 0
0.341146 0 0
0.461158 0 0
0.660945 0 0
0.84773 0 0
0.946426 0 0
1 0 0
1 0 0
1 0 0
1 0 0
1 0 0
1 0 0
1 0 0
1 0 0
1 0 0
1 0 0
1 0 0
1 0 0
1 0 0
1 0 0
0 0 0
0 0 0
0 0 0
0 0 0
0 0 0
0 0 0
0 0 0
0.00296025 0 0
0.0209354 0 0
0.0546426 0 0
0.0936599 0 0
0.13492 0 0
0.183993 0 0
0.253346 0 0
0.345266 0 0
0.469581 0 0
0.673823 0 0
0.855238 0 0
0.952148 0 0
1 0 0
1 0 0
1 0 0
1 0 0
1 0 0
1 0 0
1 0 0
1 0 0
1 0 0
1 0 0
1 0 0
1 0 0
1 0 0
1 0 0
0 0 1.5259e-05
0 0 0
0 0 0
0 0 0
0 0 0
0 0 0
0 0 0
0.00306706 0 0
0.0227054 0 0
0.0572366 0 0
0.0966049 0 0
0.138903 0 0
0.189044 0 0
0.258747 0 0
0.352224 0 0
0.482887 0 0
0.693156 0 0
0.866819 0 0
0.960327 0 0
1 0 0
1 0 0
1 0 0
1 0 0
1 0 0
1 0 0
1 0 0
1 0 0
1 0 0
1 0 0
1 0 0
1 0 0
1 0 0
1 0 0
0 0 0
0 0 0
0 0 0
0 0 0
0 0 0
0 0 0
4.57771e-05 0 0
0.00259403 0 0
0.0237736 0 0
0.0598306 0 0
0.100374 0 0
0.143755 0 0
0.196826 0 0
0.271519 0 0
0.36437 0 0
0.50042 0 0
0.716213 0 0
0.881529 0 0
0.968566 0 0
1 0 0
1 0 0
1 0 0
1 0 0
1 0 0
1 0 0
1 0 0
1 0 0
1 0 0
1 0 0
1 0 0
1 0 0
1 0 0
1 0 0
0 0.00650034 0
0 0.0065156 0
0 0.00669871 0
0 0.00703441 0
0 0.00729381 0
0 0.007187 0
0.000122072 0.00674449 0
0.00326543 0.00505074 0
0.0250706 0.00317388 0
0.0622263 0.000854505 0
0.104601 0 0
0.148669 0 0
0.203571 0 0
0.284138 0 0
0.382208 0 0
0.528527 0 0
0.7458 0 0
0.900649 0 0
0.977737 0 0
1 0 0
1 0 0
1 0 0
1 0 0
1 0 0
1 0 0
1 0 0
1 0 0
1 0 0
1 0 0
1 0 0
1 0 0
1 0 0
1 0 0
0 0.0184939 0
0 0.0187991 0
0 0.0191958 0
0 0.0198825 0
0 0.0205539 0
0 0.0208286 0
0.000183108 0.0204471 0
0.00569161 0.0173342 0
0.026215 0.0147402 0
0.0598001 0.0124819 0
0.1037 0.00875868 0
0.1523 0.00451667 0
0.210605 0.00103761 0
0.293873 0 0
0.396918 0 0
0.554955 0 0
0.777005 0 0
0.920623 0 0
0.988357 0 0
1 0 0
1 0 0
1 0 0
1 0 0
1 0 0
1 0 0
1 0 0
1 0 0
1 0 0
1 0 0
1 0 0
1 0 0
1 0 0
1 0 0
0 0.0357214 0
0 0.0363928 0
0 0.037583 0
0 0.0387884 0
0 0.0398566 0
0 0.0405585 0
0 0.0405432 0
0.00607309 0.0367895 0
0.028336 0.0324865 0
0.0601511 0.0291752 0
0.102235 0.0243076 0
0.154696 0.0165866 0
0.217609 0.0078584 0
0.302983 0.000549325 0
0.40734 0 0
0.566766 0 0
0.795285 0 0
0.932158 0 0
0.998779 0 0
1 0 0
1 0 0
1 0 0
1 0 0
1 0 0
1 0 0
1 0 0
1 0 0
1 0 0
1 0 0
1 0 0
1 0 0
1 0 0
1 0 0
0 0.0575265 0
0 0.0587015 0
0 0.0601358 0
0 0.061738 0
0 0.063035 0
0 0.0640269 0
0 0.0643626 0
0.00482185 0.0612802 0
0.0295872 0.0559396 0
0.0640269 0.0516976 0.00115969
0.10341 0.0482338 0.00108339
0.157992 0.04094 1.5259e-05
0.227802 0.0304417 0
0.316564 0.0166018 0
0.418708 0.00556954 0
0.566751 0 0
0.787015 0 0
0.931075 0 0
0.997177 0 0
1 0 0
1 0 0
1 0 0
1 0 0
1 0 0
1 0 0
1 0 0
1 0 0
1 0 0
1 0 0
1 0.00383001 0
1 0.0205386 0
1 0.0371252 0
1 0.0536202 0
0 0.081239 0
0 0.0829938 0
0 0.0849622 0
0 0.0870832 0
0 0.0890364 0
0 0.0907301 0
0 0.0916457 0
0.00254826 0.090135 0
0.0267491 0.0851301 0
0.0687114 0.0793622 0.00422675
0.109651 0.0764324 0.00849927
0.16585 0.071046 0.00213626
0.240238 0.0611734 3.0518e-05
0.333272 0.0480659 0
0.43621 0.0335699 0
0.576196 0.0155795 0
0.782315 0 0
0.937133 0 0
0.999527 0 0
1 0 0
1 0 0
1 0 0
1 0 0
1 0.00352483 0
1 0.0164034 0
1 0.0307927 0
1 0.0460822 0
1 0.0628672 0
1 0.0815442 0
1 0.100191 0
1 0.119051 0
1 0.137881 0
1 0.156481 0
0 0.109606 0
0 0.112215 0
0 0.115175 0
0 0.118303 0
0 0.12137 0
0 0.124132 0
0 0.126085 0
0.000747692 0.126375 0
0.0183261 0.124025 0
0.0682078 0.118273 0.00317388
0.120699 0.114153 0.0180514
0.180484 0.111711 0.0186007
0.260395 0.105287 0.00950637
0.355337 0.0961471 0.00260929
0.4589 0.0866102 0.000122072
0.592767 0.0712291 0
0.785916 0.0442817 0
0.950011 0.0282139 0
1 0.0305333 0
1 0.0427253 0
1 0.0579995 0
1 0.0755779 0
1 0.0890211 0
1 0.102983 0
1 0.118517 0
1 0.135653 0
1 0.153567 0
1 0.172213 0
1 0.191196 0
1 0.210941 0
1 0.229923 0
1 0.248325 0
1 0.267094 0.00396735
0 0.14609 0
0 0.149996 0
0 0.155215 0
0 0.160739 0
0 0.16556 0
0 0.170138 0
0 0.173556 0
3.0518e-05 0.175845 0
0.00796521 0.176928 0
0.0584268 0.175235 0.000122072
0.129686 0.170764 0.0173648
0.204318 0.170199 0.0319524
0.291218 0.169909 0.0324865
0.38558 0.169162 0.0263676
0.483482 0.168902 0.016022
0.604852 0.164401 0.00280766
0.780224 0.149706 0
0.954833 0.137102 0
1 0.140032 0
1 0.154894 0
1 0.172 0
1 0.190173 0
1 0.205997 0
1 0.221103 0
1 0.237079 0
1 0.254124 0
1 0.272801 0
1 0.292653 0
1 0.312291 0
1 0.332235 0
1 0.353338 0
1 0.374395 0.000701915
1 0.396094 0.00675975
0 0.197162 0
0 0.204517 0
0 0.212634 0
0 0.221149 0
0 0.229282 0
0 0.23653 0
0 0.243977 0
0 0.249104 0
0.00131228 0.254643 0
0.0431373 0.260319 0
0.130327 0.25951 0.0107424
0.233509 0.258518 0.0368048
0.334112 0.262821 0.0504463
0.428 0.270848 0.0562753
0.518486 0.280079 0.0548409
0.622278 0.285374 0.0426795
0.754192 0.285023 0.0199893
0.918624 0.27779 0
1 0.274403 0
1 0.284443 0
1 0.300206 0
1 0.318334 0
1 0.335836 0
1 0.35259 0
1 0.369757 0
1 0.387869 0
1 0.406867 0
1 0.427237 0
1 0.448646 0
1 0.470726 0
1 0.492744 0
1 0.514061 0.000854505
1 0.535409 0.00434882
0 0.270512 0
0 0.281315 0
0 0.293248 0
0 0.306691 0
0 0.320897 0
0 0.333471 0
0 0.343954 0
0 0.351522 0
0 0.361028 0
0.0346685 0.373617 0
0.134524 0.376791 0.00788891
0.266575 0.373449 0.0408637
0.383261 0.376883 0.0666667
0.47805 0.387472 0.0834516
0.563851 0.399329 0.0911574
0.653712 0.409659 0.0874189
0.752285 0.417777 0.0718853
0.867628 0.423011 0.0378576
0.993042 0.423484 0.00480659
1 0.427268 0
1 0.440787 0
1 0.457679 0
1 0.475181 0
1 0.492531 0
1 0.509377 0
1 0.527321 0
1 0.546761 0
1 0.567117 0
1 0.586999 0
1 0.607523 0
1 0.628244 0
1 0.647639 0.000167849
1 0.666407 0.000549325
0 0.367193 0
0 0.38381 0
0 0.401572 0
0 0.419913 0
0 0.437919 0
0 0.455009 0
0 0.469657 0
0 0.480125 0
0 0.491218 0
0.0383764 0.505379 0
0.148013 0.508324 0.00796521
0.304173 0.497612 0.0464485
0.434379 0.494224 0.0831922
0.532311 0.501381 0.110185
0.616281 0.51339 0.127718
0.697932 0.526619 0.135683
0.778134 0.54052 0.131258
0.858503 0.554452 0.109621
0.953567 0.565026 0.0594186
0.999786 0.569162 0.0113985
1 0.576074 0
1 0.590738 0
1 0.607172 0
1 0.623987 0
1 0.641077 0
1 0.657511 0
1 0.674647 0
1 0.692851 0
1 0.710918 0
1 0.72752 0
1 0.74406 0
1 0.760464 0
1 0.774945 0
0 0.49102 0
0 0.511894 0
0 0.534844 0
0 0.558801 0
0 0.58201 0
0 0.601877 0
0 0.619272 0
0 0.631861 0
6.10361e-05 0.640269 0
0.0250706 0.648356 0
0.147402 0.64387 0.000656138
0.329366 0.624704 0.0409552
0.478965 0.614191 0.09337
0.585138 0.616068 0.136049
0.667994 0.625483 0.16553
0.742046 0.638193 0.185138
0.808255 0.65272 0.192309
0.869688 0.668498 0.182422
0.935241 0.684504 0.141085
0.992981 0.696834 0.0693828
1 0.704219 0.0156405
1 0.711849 0.000488289
1 0.724346 0
1 0.737484 0
1 0.751598 0
1 0.76672 0
1 0.780163 0
1 0.794095 0
1 0.808164 0
1 0.821469 0
1 0.833036 0
1 0.844343 0
1 0.855543 0
0 0.640955 0
0 0.666056 0
0 0.69221 0
0 0.717617 0
0 0.742123 0
0 0.76289 0
0 0.779767 0
0 0.790753 0
0 0.797253 0
0.00666819 0.801419 0
0.109468 0.79115 0
0.33489 0.755016 0.0282292
0.514153 0.730678 0.0946822
0.631907 0.723171 0.155383
0.715297 0.727092 0.201709
0.782071 0.736843 0.233738
0.8383 0.749432 0.252674
0.887282 0.763424 0.255161
0.934829 0.778347 0.228916
0.988983 0.793256 0.154681
1 0.803952 0.070985
1 0.810559 0.0190585
1 0.817578 0.000732433
1 0.826261 0
1 0.836378 0
1 0.847761 0
1 0.859327 0
1 0.86952 0
1 0.87985 0
1 0.889723 0
1 0.898405 0
1 0.906233 0
1 0.913985 0
0 0.799039 0
0 0.822705 0
0 0.846708 0
0 0.8701 0
0 0.889296 0
0 0.904967 0
0 0.91812 0
0 0.927275 0
0 0.935134 0
0 0.939712 0
0.0581369 0.934081 0
0.291508 0.889265 0.00775158
0.535927 0.839353 0.0794232
0.676478 0.817945 0.163607
0.76109 0.814084 0.230869
0.82063 0.818326 0.277775
0.868055 0.826535 0.306935
0.907988 0.836683 0.319219
0.945602 0.848005 0.305745
0.987854 0.860624 0.247471
1 0.87245 0.153567
1 0.880201 0.0729686
1 0.885496 0.022034
1 0.891051 0.00282292
1 0.898268 0.000900282
1 0.906981 0.000671397
1 0.916091 0
1 0.924804 4.57771e-05
1 0.932799 0.000350958
1 0.940322 0
1 0.947005 0
1 0.953277 0.00128176
1 0.958984 0.0118257
0 0.933715 0
0 0.951537 0
0 0.968948 0
0 0.985901 0
0 0.998215 0
0 0.997116 0
0 0.996353 0
0 0.996597 0
0 0.998657 0
0 1 0
0.0443427 1 0
0.218326 1 0
0.518395 0.944045 0.0297704
0.711391 0.899107 0.141695
0.801328 0.884321 0.242267
0.855573 0.882216 0.310048
0.89572 0.88574 0.350179
0.929595 0.891905 0.368231
0.961456 0.899794 0.361746
0.995239 0.909148 0.318227
1 0.919142 0.233173
1 0.927901 0.138506
1 0.93373 0.0706035
1 0.938689 0.0303655
1 0.945129 0.0159762
1 0.9523 0.0153658
1 0.959777 0.014435
1 0.967132 0.013077
1 0.974319 0.0102083
1 0.980728 0.0140993
1 0.985855 0.0284123
1 0.990662 0.0434272
1 0.995148 0.0590677
0 0.999527 0
0 0.999908 0
0 1 0
0 1 0
0 1 0
0 1 0
0 1 0
0 1 0
0 1 0
0.00271611 1 0
0.0651408 1 0
0.186053 1 0
0.457176 0.997848 0.00155642
0.715404 0.975158 0.0655222
0.832547 0.943343 0.203815
0.88542 0.932555 0.314183
0.920897 0.931319 0.372076
0.950805 0.934325 0.395911
0.979904 0.939666 0.391714
0.999359 0.946624 0.355795
1 0.955032 0.281483
1 0.96347 0.190265
1 0.969924 0.115755
1 0.975708 0.0754406
1 0.982055 0.0663005
1 0.988739 0.0641031
1 0.995041 0.0619669
1 0.99762 0.0607767
1 0.999237 0.0590829
1 0.999985 0.060029
1 0.999985 0.0789197
1 1 0.0978866
1 1 0.118593
0 1 0
0 1 0
0 1 0
0 1 0
0 1 0
0 1 0
0 1 0
0 1 0
0 1 0
0.00576791 1 0
0.0790265 1 0
0.194125 1 0
0.424491 1 0
0.694057 1 0.00946059
0.847608 0.990524 0.106416
0.90956 0.978332 0.257343
0.943648 0.970733 0.354803
0.971725 0.970367 0.393393
0.995682 0.973617 0.391272
1 0.978958 0.356939
1 0.986145 0.289525
1 0.99295 0.210483
1 0.99675 0.151629
1 0.999191 0.127932
1 1 0.125368
1 1 0.123903
1 1 0.12221
1 1 0.120012
1 1 0.116365
1 1 0.112718
1 1 0.139818
1 1 0.168704
1 1 0.197742
0 1 0
0 1 0
0 1 0
0 1 0
0 1 0
0 1 0
0 1 0
0 1 0
0 1 0
0.0133822 1 0
0.0899977 1 0
0.209186 1 0
0.434043 1 0
0.676234 1 0
0.853452 1 0.0190127
0.927703 1 0.152453
0.964294 1 0.2878
0.991348 0.999588 0.353155
0.999969 0.999298 0.360464
1 0.999573 0.327367
1 0.999985 0.270649
1 1 0.210178
1 1 0.187884
1 1 0.185199
1 1 0.186191
1 1 0.190311
1 1 0.197101
1 1 0.204349
1 1 0.212497
1 1 0.226627
1 1 0.2607
1 1 0.294865
1 1 0.326726
0 1 0
0 1 0
0 1 0
0 1 0
0 1 0
0 1 0
0 1 0
0 1 0
0.000350958 1 0
0.0361028 1 0
0.110353 1 0
0.22974 1 0
0.457633 1 0
0.689723 1 0
0.851011 1 0.00451667
0.937041 1 0.0723888
0.979889 1 0.203098
0.999451 1 0.287968
1 1 0.31516
1 1 0.296788
1 1 0.263935
1 1 0.258625
1 1 0.267582
1 1 0.279881
1 1 0.296986
1 1 0.315496
1 1 0.335683
1 1 0.354543
1 1 0.371832
1 1 0.387015
1 1 0.411521
1 1 0.436164
1 1 0.458534
0 1 0
0 1 0
0 1 0
0 1 0
0 1 0
0 1 0
0 1 0
0 1 0
0.00154116 1 0
0.0600137 1 0
0.134356 1 0
0.279057 1 0
0.511193 1 0
0.738323 1 0
0.876463 1 0
0.953689 1 0.0645762
0.994293 1 0.203494
1 1 0.3093
1 1 0.350103
1 1 0.353567
1 1 0.364385
1 1 0.385504
1 1 0.404669
1 1 0.421942
1 1 0.438941
1 1 0.454231
1 1 0.471092
1 1 0.486748
1 1 0.50161
1 1 0.513649
1 1 0.529747
1 1 0.544732
1 1 0.558648
0 1 0
0 1 0
0 1 0
0 1 0
0 1 0
0 1 0
0 1 0
0.000396735 1 0
0.0277256 1 0
0.0845045 1 0
0.166934 1 0
0.328283 1 0
0.567529 1 0
0.780529 1 0
0.906371 1 0.00445563
0.975418 1 0.09337
0.999481 1 0.264515
1 1 0.381491
1 1 0.429358
1 1 0.455528
1 1 0.485466
1 1 0.507378
1 1 0.522988
1 1 0.536431
1 1 0.549722
1 1 0.561303
1 1 0.573312
1 1 0.584604
1 1 0.594125
1 1 0.603555
1 1 0.614832
1 1 0.62472
1 1 0.633204
0 1 0
0 1 0
0 1 0
0 1 0
0 1 0
0 1 0
0.000244144 1 0
0.00631724 1 0
0.0525826 1 0
0.109117 1 0
0.195972 1 0
0.38349 1 0
0.619715 1 0
0.822812 1 0
0.929549 1 0.00819409
0.989334 1 0.131563
1 1 0.323415
1 1 0.442329
1 1 0.504967
1 1 0.552102
1 1 0.58204
1 1 0.599496
1 1 0.611841
1 1 0.621118
1 1 0.630213
1 1 0.638437
1 1 0.645457
1 1 0.653086
1 1 0.658808
1 1 0.662745
1 1 0.669154
1 1 0.674189
1 1 0.678859
0 1 0
0 1 0
0 1 0
0 1 0
0 1 0.000320439
0 1 0.000106813
0.00225834 1 0
0.0309453 1 0
0.0751965 1 0
0.131365 1 0
0.237659 1 0
0.43299 1 0
0.669276 1 0
0.849989 1 0
0.951019 1 0.00349432
0.996353 1 0.168414
1 1 0.3691
1 1 0.492561
1 1 0.572366
1 1 0.62475
1 1 0.653117
1 1 0.666636
1 1 0.674586
1 1 0.681117
1 1 0.686839
1 1 0.692592
1 1 0.696818
1 1 0.700679
1 1 0.703319
1 1 0.705882
1 1 0.709087
1 1 0.711543
1 1 0.714
0 1 0
0 1 0.00146487
0 1 0.00306706
0 1 0.00273136
0 1 0.0009308
0.00187686 1 0
0.0152743 1 0
0.0515145 1 6.10361e-05
0.0949264 1 0.000213626
