LUTs/64.cube
TITLE "Generate by Resolve"
LUT_3D_SIZE 5
0 0 0
0.0192264 0 0
0.655085 0 0
1 0 0
1 0 0
0 0.0575265 0
0.0295872 0.0559396 0
0.787015 0 0
1 0 0
1 0.0536202 0
0 0.640955 0
0 0.797253 0
0.8383 0.749432 0.252674
1 0.836378 0
1 0.913985 0
0 1 0
0.0277256 1 0
0.999481 1 0.264515
1 1 0.549722
1 1 0.633204
0 1 0.0467842
0.160754 1 0.0137789
1 1 0.545586
1 1 0.773358
1 1 0.777951
0 0 0.0738994
0.0111543 0 0.0964828
0.602075 0 0
1 0 0
1 0 0
0 0.0669718 0.0675059
0.0162814 0.073167 0.0804761
0.746349 0 0
1 9.15541e-05 0.00314336
1 0.105684 0.130678
0 0.691737 0.00456245
0.0206302 0.827008 0.088304
0.864988 0.794629 0.422889
1 0.864942 0.08159
1 0.926055 0.22739
0 1 0.0806439
0.0497444 1 0.111666
0.996353 1 0.640757
1 1 0.803815
1 1 0.815595
0 1 0.218769
0.201099 1 0.24213
1 1 0.741665
1 1 0.862074
1 1 0.86421
0 0 0.627207
0 0 0.843748
0.540383 0 0.561563
1 0 0.698146
1 0 0.746639
0 0.0725109 0.515267
0 0.069276 0.678462
0.735958 0 0.721981
1 0 0.940383
1 0.107912 1
0 0.790463 0.553811
0.0108644 0.904433 0.710109
0.867887 0.781689 0.840925
1 0.831312 0.864851
1 0.878813 0.910735
0 1 0.707485
0.0589456 1 0.869749
0.902998 1 0.874617
1 1 0.960861
1 1 0.9505
0 1 0.913069
0.264057 1 0.976852
0.93257 1 0.891356
1 1 1
1 1 1
0 0 1
0 0 1
0.616236 0 1
1 0 1
1 0 1
0 0.0881971 1
0 0.0972763 1
0.819059 0 1
1 0.0100099 1
1 0.133776 1
0 0.920562 0.997391
0 0.993896 1
0.738628 0.855161 1
1 0.840543 1
1 0.881209 1
0 1 1
0 1 1
0.904021 1 1
1 0.998062 1
1 0.998062 1
0 1 1
0.0656901 1 1
0.924941 1 1
1 0.998062 1
1 0.998062 1
0 0 1
0 0 1
0.532235 0 1
1 0 1
1 0 1
0 0.125475 1
0 0.138125 1
0.825101 0 1
1 0.0489052 1
1 0.179858 1
0 0.985107 1
0 1 1
0.750301 0.891905 1
1 0.857267 1
1 0.890517 1
0 1 1
0.0071107 1 1
0.901259 1 1
1 0.998062 1
1 0.998062 1
0 1 1
0.0658579 1 1
0.922301 1 1
1 0.998062 1
1 0.998062 1
