LUTs/66.cube
TITLE "Generate by Resolve"
LUT_3D_SIZE 9
0 0 0
0.0499886 0 1.5259e-05
0.111528 0 0
0.258976 0 0
0.593042 0 0
0.850004 0 0
0.899992 0 0
0.949996 0 0
1 0 0
0 0.0499886 0
0.0499886 0.0499886 0
0.11426 0.0499886 0
0.268086 0.0499886 0
0.629725 0.0499886 0
0.850004 0.0499886 0
0.899992 0.0499886 0
0.949996 0.0499886 0
1 0.0499886 0
0 0.134508 0
0.0499886 0.137819 0
0.117754 0.133562 0
0.286671 0.118257 0
0.672206 0.0999924 0
0.850004 0.0999924 0
0.899992 0.0999924 0
0.949996 0.0999924 0
1 0.132174 0
0 0.268299 0
0.0499886 0.287572 0
0.100786 0.302785 0
0.350469 0.307683 0.0302739
0.652506 0.321004 0.0119936
0.850004 0.330114 0
0.899992 0.371847 0
0.949996 0.419181 0
1 0.471244 0.00260929
0 0.584573 0
0.0499886 0.645274 0
0.0999924 0.678355 0
0.458488 0.638407 0.0568093
0.702983 0.649653 0.151598
0.850004 0.682368 0.0425879
0.899992 0.701823 0
0.949996 0.727901 0
1 0.748394 0
0 0.850004 0
0.0499886 0.850004 0
0.0999924 0.850004 0
0.404685 0.850004 0
0.766186 0.832441 0.212879
0.850004 0.841688 0.173709
0.899992 0.850004 0.075227
0.949996 0.850004 0.0698253
1 0.850004 0.118639
0 0.899992 0
0.0499886 0.899992 0
0.116625 0.899992 0
0.490517 0.899992 0
0.79968 0.899992 0.158709
0.850004 0.899992 0.291279
0.899992 0.899992 0.329839
0.949996 0.899992 0.356481
1 0.899992 0.379919
0 0.949996 0.00453193
0.050721 0.949996 0.00366217
0.167285 0.949996 0.00122072
0.594873 0.949996 0
0.8 0.949996 0.268132
0.850004 0.949996 0.434272
0.899992 0.949996 0.447288
0.949996 0.949996 0.452216
1 0.949996 0.454307
0 1 0.0280766
0.0686503 1 0.0239261
0.196445 1 0.00827039
0.638407 1 0
0.8 1 0.327352
0.850004 1 0.453529
0.899992 1 0.464012
0.949996 1 0.466773
1 1 0.466773
0 0 0.05626
0.0499886 0 0.0608682
0.110979 0 0.059144
0.259342 0 0.0499886
0.593759 0 0.0499886
0.850004 0 0.0499886
0.899992 0 0.0499886
0.949996 0 0.0499886
1 0 0.0499886
0 0.0499886 0.0622416
0.0499886 0.0499886 0.0615854
0.115373 0.0499886 0.060853
0.270268 0.0499886 0.0499886
0.635706 0.0499886 0.0499886
0.850004 0.0499886 0.0499886
0.899992 0.0499886 0.0499886
0.949996 0.0499886 0.0499886
1 0.0499886 0.0499886
0 0.136172 0.0552987
0.0499886 0.139956 0.0581216
0.116548 0.137621 0.0616159
0.301793 0.118669 0.0506905
0.684321 0.0999924 0.0499886
0.850004 0.0999924 0.0499886
0.899992 0.0999924 0.0499886
0.949996 0.105684 0.0499886
1 0.148119 0.0539101
0 0.274449 0.0499886
0.0499886 0.296407 0.0499886
0.103349 0.31751 0.0504768
0.370489 0.327001 0.0953384
0.670726 0.341085 0.0776532
0.850004 0.348577 0.0499886
0.899992 0.386145 0.0558175
0.949996 0.434791 0.0675364
1 0.486717 0.0831159
0 0.605142 0.0499886
0.0499886 0.664164 0.0499886
0.0999924 0.692653 0.0499886
0.471092 0.657816 0.129213
0.712322 0.664256 0.240726
0.850004 0.694484 0.132204
0.899992 0.711498 0.0530098
0.949996 0.735225 0.0507973
1 0.754513 0.0711833
0 0.850004 0.0499886
0.0499886 0.850004 0.0499886
0.0999924 0.850004 0.0499886
0.39443 0.850004 0.0502327
0.767803 0.834226 0.328359
0.850004 0.840391 0.331655
0.899992 0.849912 0.261662
0.949996 0.850004 0.246372
1 0.850004 0.312093
0 0.899992 0.0499886
0.0499886 0.899992 0.0543679
0.122667 0.899992 0.0556954
0.469276 0.899992 0.0499886
0.799054 0.899992 0.332708
0.850004 0.899992 0.458076
0.899992 0.899992 0.475761
0.949996 0.899992 0.486137
1 0.899992 0.496193
0 0.949996 0.09131
0.0521248 0.949996 0.094789
0.1682 0.949996 0.0837873
0.571511 0.949996 0.0499886
0.8 0.949996 0.406775
0.850004 0.949996 0.5234
0.899992 0.949996 0.531044
0.949996 0.949996 0.533608
1 0.949996 0.534585
0 1 0.117601
0.0722057 1 0.115343
0.19353 1 0.0975814
0.622614 1 0.0552987
0.8 1 0.444877
0.850004 1 0.533059
0.899992 1 0.540673
0.949996 1 0.542596
1 1 0.542596
0 0 0.144335
0.0499886 0 0.151751
0.106691 0 0.157885
0.263951 0 0.1234
0.561242 0 0.0999924
0.850004 0 0.0999924
0.899992 0 0.0999924
0.949996 0 0.0999924
1 0 0.0999924
0 0.0509499 0.147509
0.0499886 0.0513161 0.149081
0.109789 0.0499886 0.159762
0.276555 0.0499886 0.12694
0.59733 0.0499886 0.0999924
0.850004 0.0499886 0.0999924
0.899992 0.0499886 0.0999924
0.949996 0.0499886 0.0999924
1 0.0499886 0.0999924
0 0.140185 0.140505
0.0499886 0.144869 0.142977
0.109758 0.143893 0.148287
0.323445 0.116701 0.131395
0.647807 0.0999924 0.0999924
0.850004 0.0999924 0.0999924
0.899992 0.100053 0.101884
0.949996 0.1196 0.132036
1 0.163409 0.178408
0 0.284947 0.116533
0.0499886 0.312337 0.124178
0.104128 0.337194 0.134783
0.388083 0.349081 0.185962
0.691676 0.357382 0.168215
0.850004 0.363485 0.148974
0.899992 0.397543 0.161486
0.949996 0.446784 0.175128
1 0.50103 0.196857
0 0.615045 0.102739
0.0499886 0.66981 0.110491
0.112367 0.696208 0.152972
0.462089 0.68307 0.222095
0.71899 0.676768 0.353735
0.849973 0.701671 0.272114
0.899992 0.718959 0.148943
0.949996 0.740169 0.159304
1 0.755627 0.236423
0 0.850004 0.101076
0.0499886 0.850004 0.122469
0.100206 0.850004 0.133562
0.375708 0.850004 0.125948
0.766827 0.835477 0.45568
0.850004 0.838346 0.501991
0.899992 0.847623 0.475776
0.949996 0.850004 0.464622
1 0.850004 0.505592
0 0.899992 0.148379
0.0499886 0.899992 0.165225
0.129839 0.899992 0.166995
0.45214 0.899992 0.12604
0.797803 0.899992 0.484443
0.850004 0.899992 0.575982
0.899992 0.899992 0.582284
0.949996 0.899992 0.585199
1 0.899992 0.589349
0 0.949996 0.197559
0.055848 0.949996 0.207385
0.176196 0.949996 0.205966
0.567285 0.949996 0.165255
0.8 0.949996 0.522896
0.850004 0.949996 0.605432
0.899992 0.949996 0.610742
0.949996 0.949996 0.612116
1 0.949996 0.612573
0 1 0.23125
0.0769818 1 0.235645
0.220661 1 0.245274
0.612024 1 0.205005
0.8 1 0.544991
0.850004 1 0.611185
0.899992 1 0.617243
0.949996 1 0.618479
1 1 0.618524
0 0 0.271214
0.0499886 0 0.280568
0.0999924 0 0.30277
0.244602 0 0.285359
0.510262 0 0.225742
0.847318 0 0.216663
0.899992 0 0.205035
0.949996 0 0.214374
1 0 0.235233
0 0.0549172 0.271336
0.0499886 0.0551156 0.279728
0.0999924 0.0514382 0.304646
0.257633 0.0499886 0.293126
0.543709 0.0499886 0.239246
0.850004 0.0499886 0.260517
0.899992 0.0499886 0.270344
0.949996 0.0499886 0.312001
1 0.0499886 0.367346
0 0.142107 0.279759
0.0499886 0.148394 0.283955
0.0999924 0.146563 0.298421
0.305699 0.114504 0.338109
0.607904 0.0999924 0.287388
0.850004 0.0999924 0.349355
0.899992 0.0999924 0.395315
0.949996 0.119966 0.46743
1 0.163851 0.538796
0 0.304936 0.252247
0.0499886 0.338354 0.272053
0.10425 0.365774 0.301427
0.37174 0.357992 0.404089
0.70808 0.35903 0.388891
0.850004 0.37882 0.41706
0.899992 0.414649 0.450095
0.949996 0.467735 0.498833
1 0.517205 0.545769
0.00157168 0.633677 0.297322
0.0523079 0.686595 0.331029
0.152728 0.706645 0.391516
0.417533 0.704768 0.42829
0.723125 0.683925 0.501259
0.849958 0.697551 0.468482
0.899992 0.712184 0.467842
0.949996 0.728511 0.512856
1 0.741848 0.558068
0 0.850004 0.269856
0.0499886 0.850004 0.297185
0.104143 0.850004 0.333715
0.458946 0.850004 0.461967
0.75758 0.8383 0.586725
0.850004 0.838102 0.643168
0.899992 0.845884 0.637034
0.949996 0.850004 0.633112
1 0.850004 0.643946
0 0.899992 0.329992
0.0499886 0.899992 0.360922
0.152056 0.899992 0.444587
0.541634 0.899992 0.52665
0.780041 0.899992 0.599802
0.850004 0.899992 0.678233
0.899992 0.899992 0.68101
0.949996 0.899992 0.680797
1 0.899992 0.68191
0 0.949996 0.40737
0.0600595 0.949996 0.462211
0.256519 0.949996 0.574975
0.597711 0.949996 0.577569
0.795102 0.949996 0.614664
0.850004 0.949996 0.691783
0.899992 0.949996 0.697154
0.949996 0.949996 0.697765
1 0.949996 0.697749
0 1 0.469596
0.0916609 1 0.527474
0.330114 1 0.615152
0.615045 1 0.592111
0.8 1 0.628504
0.850004 1 0.695674
0.899992 1 0.703609
0.949996 1 0.705196
1 1 0.705272
0 0 0.576318
0.0499886 0 0.609094
0.0999924 0 0.706249
0.199359 0 0.677363
0.524224 0 0.536934
0.834195 0 0.617502
0.899992 0 0.618891
0.949996 0 0.630732
1 0 0.647974
0 0.0507515 0.555322
0.0499886 0.0512093 0.591623
0.0999924 0.0499886 0.723857
0.21593 0.0499886 0.695567
0.582559 0.0499886 0.585229
0.850004 0.0499886 0.662058
0.899992 0.0499886 0.674006
0.949996 0.0499886 0.697215
1 0.0499886 0.722133
0 0.143496 0.509163
0.0499886 0.149035 0.530892
0.0999924 0.141558 0.60708
0.235645 0.114824 0.683757
0.641566 0.0999924 0.633188
0.850004 0.0999924 0.731014
0.899992 0.0999924 0.764233
0.949996 0.120043 0.798672
1 0.164736 0.8
0 0.325109 0.475364
0.0499886 0.366873 0.505241
0.0999924 0.395789 0.51075
0.275563 0.392828 0.675288
0.708186 0.362387 0.695567
0.850004 0.395071 0.750423
0.899992 0.430747 0.762509
0.949996 0.479194 0.775723
1 0.52401 0.78648
0 0.674281 0.53228
0.0499886 0.727382 0.580407
0.106508 0.742657 0.626062
0.427695 0.725261 0.694057
0.720729 0.669017 0.704555
0.850004 0.685328 0.706767
0.899992 0.698787 0.718914
0.949996 0.714366 0.733654
1 0.727291 0.746441
0 0.850004 0.548012
0.0499886 0.850004 0.585443
0.102342 0.850004 0.634714
0.530739 0.850004 0.729702
0.724834 0.848035 0.70988
0.850004 0.838804 0.743252
0.899992 0.844099 0.733791
0.949996 0.848371 0.733608
1 0.850004 0.738384
0 0.899992 0.624491
0.0499886 0.899992 0.655131
0.135363 0.899992 0.721843
0.585138 0.899992 0.745068
0.741802 0.899992 0.724773
0.850004 0.899992 0.772198
0.899992 0.899992 0.776516
0.949996 0.899992 0.772076
1 0.899992 0.770291
0 0.949996 0.705013
0.0499886 0.949996 0.737102
0.212024 0.949996 0.774258
0.616571 0.949996 0.755673
0.753902 0.949996 0.732525
0.850004 0.949996 0.785519
0.899992 0.949996 0.798825
0.949996 0.949996 0.798108
1 0.949996 0.797223
0 1 0.747845
0.0522621 1 0.767941
0.258427 1 0.786114
0.627909 1 0.759716
0.759533 1 0.734813
0.850004 1 0.788754
0.899992 1 0.8
0.949996 1 0.8
1 1 0.8
0 0 0.850004
0.0499886 0 0.850004
0.0999924 0 0.850004
0.161746 0 0.850004
0.612177 0 0.850004
0.836423 0 0.827161
0.899992 0 0.831113
0.949996 0 0.837629
1 0 0.845197
0 0.0499886 0.850004
0.0499886 0.0499886 0.850004
0.0999924 0.0499886 0.850004
0.173541 0.0499886 0.850004
0.649424 0.0499886 0.850004
0.850004 0.0499886 0.847395
0.899992 0.0499886 0.850004
0.949996 0.0499886 0.850004
1 0.0499886 0.850004
0 0.143343 0.850004
0.0499886 0.153048 0.850004
0.0999924 0.146304 0.850004
0.185733 0.116609 0.850004
0.708324 0.0999924 0.850004
0.850004 0.0999924 0.850004
0.899992 0.102602 0.850004
0.949996 0.130343 0.850004
1 0.170764 0.850004
0 0.370352 0.764065
0.0499886 0.424826 0.781125
0.0999924 0.456733 0.788876
0.175525 0.435584 0.850004
0.707286 0.377127 0.850004
0.850004 0.386191 0.850004
0.899992 0.422492 0.850004
0.949996 0.476463 0.850004
1 0.526131 0.850004
0 0.72433 0.783642
0.0499886 0.765927 0.817792
0.0999924 0.781903 0.831006
0.328786 0.759426 0.836835
0.668177 0.693065 0.849332
0.850004 0.688014 0.849989
0.899992 0.700511 0.850004
0.949996 0.715129 0.850004
1 0.727031 0.850004
0 0.850004 0.834073
0.0499886 0.850004 0.846525
0.0999924 0.850004 0.850004
0.460395 0.850004 0.849226
0.728939 0.850004 0.849424
0.850004 0.827512 0.846311
0.899992 0.831357 0.847852
0.949996 0.837476 0.850004
1 0.842939 0.850004
0 0.899992 0.849897
0.0499886 0.899992 0.850004
0.0999924 0.899992 0.850004
0.547463 0.899992 0.849348
0.745525 0.899992 0.850004
0.850004 0.899947 0.850004
0.899992 0.899992 0.850004
0.949996 0.899992 0.850004
1 0.899992 0.850004
0 0.949996 0.850004
0.0499886 0.949996 0.850004
0.127733 0.949996 0.850004
0.593576 0.949996 0.847944
0.75523 0.949996 0.850004
0.850004 0.949996 0.850004
0.899992 0.948837 0.850004
0.949996 0.948837 0.850004
1 0.949264 0.850004
0 1 0.850004
0.0499886 1 0.850004
0.14963 1 0.850004
0.607279 1 0.848005
0.75993 1 0.850004
0.850004 1 0.850004
0.899992 0.99884 0.850004
0.949996 0.99884 0.850004
1 0.99884 0.850004
0 0 0.899992
0.0499886 0 0.899992
0.0999924 0 0.899992
0.15053 0 0.899992
0.569741 0 0.899992
0.832303 0 0.899992
0.899992 0 0.899992
0.949996 0 0.899992
1 0 0.899992
0 0.0499886 0.899992
0.0499886 0.0499886 0.899992
0.0999924 0.0499886 0.899992
0.152026 0.0499886 0.899992
0.622187 0.0499886 0.899992
0.850004 0.0499886 0.899992
0.899992 0.0499886 0.899992
0.949996 0.0499886 0.899992
1 0.0499886 0.899992
0 0.152911 0.899992
0.0499886 0.165011 0.899992
0.0999924 0.158358 0.899992
0.165118 0.129168 0.899992
0.691432 0.0999924 0.899992
0.850004 0.10013 0.899992
0.899992 0.106004 0.899992
0.949996 0.140749 0.899992
1 0.180255 0.899992
0 0.413138 0.896361
0.0499886 0.467552 0.897841
0.0999924 0.49247 0.899992
0.153277 0.470329 0.899992
0.671046 0.401495 0.899992
0.850004 0.397681 0.899992
0.899992 0.435294 0.899992
0.949996 0.489189 0.899992
1 0.536339 0.899992
0 0.752331 0.898436
0.0499886 0.787839 0.899992
0.0999924 0.796338 0.899992
0.216831 0.796201 0.899992
0.643168 0.7131 0.899992
0.850004 0.694194 0.899992
0.899992 0.704326 0.899992
0.949996 0.717723 0.899992
1 0.728725 0.899992
0 0.850004 0.899992
0.0499886 0.850004 0.899992
0.0999924 0.850004 0.899992
0.413077 0.850004 0.899992
0.719829 0.850004 0.899992
0.848966 0.831846 0.899992
0.899992 0.831647 0.899992
0.949996 0.837736 0.899992
1 0.842908 0.899992
0 0.899992 0.899992
0.0499886 0.899992 0.899992
0.0999924 0.899992 0.899992
0.537438 0.899992 0.899992
0.742412 0.899992 0.899992
0.850004 0.899947 0.899992
0.899992 0.898833 0.899992
0.949996 0.898833 0.899992
1 0.898833 0.899992
0 0.949996 0.899992
0.0499886 0.949996 0.899992
0.121447 0.949996 0.899992
0.583749 0.949996 0.898207
0.750927 0.949996 0.899992
0.850004 0.949584 0.899992
0.899992 0.948837 0.899992
0.949996 0.948837 0.899992
1 0.948837 0.899992
0 1 0.899992
0.0499886 1 0.899992
0.139406 1 0.899992
0.59794 1 0.897902
0.754955 1 0.899992
0.850004 0.99942 0.899992
0.899992 0.99884 0.899992
0.949996 0.99884 0.899992
1 0.99884 0.899992
0 0 0.949996
0.0499886 0 0.949996
0.0999924 0 0.949996
0.149996 0 0.949996
0.542916 0 0.949996
0.829465 0 0.949996
0.899992 0 0.949996
0.949996 0 0.949996
1 0 0.949996
0 0.0499886 0.949996
0.0499886 0.0499886 0.949996
0.0999924 0.0499886 0.949996
0.152636 0.0499886 0.949996
0.608026 0.0499886 0.949996
0.849226 0.0499886 0.949996
0.899992 0.0499886 0.949996
0.949996 0.0499886 0.949996
1 0.0499886 0.949996
0 0.163546 0.949996
0.0499886 0.177447 0.949996
0.0999924 0.171679 0.949996
0.160052 0.142702 0.949996
0.6878 0.0999924 0.949996
0.850004 0.102708 0.949996
0.899992 0.11487 0.949996
0.949996 0.154055 0.949996
1 0.19353 0.949996
0 0.445212 0.949996
0.0499886 0.500359 0.949996
0.0999924 0.522988 0.949996
0.149996 0.501534 0.949996
0.652827 0.426902 0.949996
0.850004 0.420493 0.949996
0.899992 0.455436 0.949996
0.949996 0.506249 0.949996
1 0.549538 0.949996
0 0.774441 0.949996
0.0499886 0.798474 0.949996
0.0999924 0.8 0.949996
0.205539 0.8 0.949996
0.636744 0.729381 0.949996
0.850004 0.701793 0.949996
0.899992 0.709529 0.949996
0.949996 0.721492 0.949996
1 0.731502 0.949996
0 0.850004 0.949996
0.0499886 0.850004 0.949996
0.0999924 0.850004 0.949996
0.388708 0.850004 0.949996
0.71487 0.850004 0.949996
0.844205 0.838697 0.949996
0.899992 0.834272 0.949996
0.949996 0.839567 0.949996
1 0.843488 0.949996
0 0.899992 0.949996
0.0499886 0.899992 0.949996
0.101961 0.899992 0.949996
0.536599 0.899992 0.949874
0.739788 0.899992 0.949996
0.850004 0.899992 0.949996
0.899992 0.898833 0.949996
0.949996 0.898833 0.949996
1 0.898833 0.949996
0 0.949996 0.949996
0.0499886 0.949996 0.949996
0.122988 0.949996 0.949996
0.583474 0.949996 0.948165
0.749828 0.949996 0.949996
0.850004 0.949584 0.949996
0.899992 0.948837 0.949996
0.949996 0.948837 0.949996
1 0.948837 0.949996
0 1 0.949996
0.0499886 1 0.949996
0.13901 1 0.949996
0.596475 1 0.947906
0.753475 1 0.949996
0.850004 0.999435 0.949996
0.899992 0.99884 0.949996
0.949996 0.99884 0.949996
1 0.99884 0.949996
0 0 1
0.0499886 0 1
0.0999924 0 1
0.149996 0 1
0.519341 0 1
0.826398 0 1
0.899992 0 1
0.949996 0 1
1 0 1
0 0.0513771 1
0.0499886 0.0508278 1
0.0999924 0.0499886 1
0.151492 0.0499886 1
0.597925 0.0499886 1
0.850004 0.0499886 1
0.899992 0.0499886 1
0.949996 0.0499886 1
1 0.0499886 1
0 0.17528 1
0.0499886 0.190402 1
0.0999924 0.182864 1
0.157351 0.154833 1
0.695064 0.0999924 1
0.850004 0.107469 1
0.899992 0.129335 1
0.949996 0.167147 1
1 0.207904 1
0 0.477913 1
0.0499886 0.527352 0.999756
0.0999924 0.543526 0.999481
0.152956 0.521248 1
0.664454 0.444358 1
0.850004 0.439979 1
0.899992 0.474144 1
0.949996 0.521599 1
1 0.561135 1
0 0.791058 1
0.0499886 0.8 1
0.0999924 0.8 1
0.228031 0.8 1
0.650172 0.735134 1
0.850004 0.707347 1
0.899992 0.714351 1
0.949996 0.725292 1
1 0.73431 1
0 0.850004 1
0.0499886 0.850004 1
0.0999924 0.850004 1
0.419242 0.850004 1
0.717693 0.850004 1
0.845228 0.843107 1
0.899992 0.836744 1
0.949996 0.841413 1
1 0.844068 1
0 0.899992 1
0.0499886 0.899992 1
0.104265 0.899992 1
0.544701 0.899992 0.999588
0.740749 0.899992 1
0.850004 0.899992 1
0.899992 0.898833 1
0.949996 0.898833 1
1 0.898833 1
0 0.949996 1
0.0499886 0.949996 1
0.125414 0.949996 1
0.585733 0.949996 0.998047
0.750164 0.949996 1
0.850004 0.949554 1
0.899992 0.948837 1
0.949996 0.948837 1
1 0.948837 1
0 1 1
0.0499886 1 1
0.139513 1 1
0.596704 1 0.997909
0.753384 1 1
0.850004 0.999451 1
0.899992 0.99884 1
0.949996 0.99884 1
1 0.99884 1
