LUTs/66.cube
TITLE "Generate by Resolve"
LUT_3D_SIZE 33
0 0 0
0.0124971 0 0
0.0249943 0 0
0.0374914 0 0
0.0499886 0 1.5259e-05
0.062501 0 0
0.0749981 0 0
0.0887922 0 0
0.111528 0 0
0.14406 0 0
0.179889 0 0
0.217365 0 0
0.258976 0 0
0.311803 0 0
0.378759 0 0
0.462074 0 0
0.593042 0 0
0.718883 0 0
0.791135 0 0
0.836728 0 0
0.850004 0 0
0.862501 0 0
0.874998 0 0
0.887495 0 0
0.899992 0 0
0.912505 0 0
0.925002 0 0
0.937499 0 0
0.949996 0 0
0.962493 0 0
0.975006 0 0
0.987503 0 0
1 0 0
0 0.0124971 0
0.0124971 0.0124971 0
0.0249943 0.0124971 0
0.0374914 0.0124971 0
0.0499886 0.0124971 0
0.062501 0.0124971 0
0.0749981 0.0124971 0
0.0889754 0.0124971 0
0.111772 0.0124971 0
0.144228 0.0124971 0
0.180026 0.0124971 0
0.217578 0.0124971 0
0.259297 0.0124971 0
0.312474 0.0124971 0
0.37969 0.0124971 0
0.464195 0.0124971 0
0.596567 0.0124971 0
0.721141 0.0124971 0
0.792859 0.0124971 0
0.837491 0.0124971 0
0.850004 0.0124971 0
0.862501 0.0124971 0
0.874998 0.0124971 0
0.887495 0.0124971 0
0.899992 0.0124971 0
0.912505 0.0124971 0
0.925002 0.0124971 0
0.937499 0.0124971 0
0.949996 0.0124971 0
0.962493 0.0124971 0
0.975006 0.0124971 0
0.987503 0.0124971 0
1 0.0124971 0
0 0.0249943 0
0.0124971 0.0249943 0
0.0249943 0.0249943 0
0.0374914 0.0249943 0
0.0499886 0.0249943 0
0.062501 0.0249943 0
0.0749981 0.0249943 0
0.0892653 0.0249943 0
0.112551 0.0249943 0
0.145281 0.0249943 0
0.181186 0.0249943 0
0.218448 0.0249943 0
0.260395 0.0249943 0
0.314504 0.0249943 0
0.382162 0.0249943 0
0.469245 0.0249943 0
0.604288 0.0249943 0
0.725643 0.0249943 0
0.796292 0.0249943 0
0.837491 0.0249943 0
0.850004 0.0249943 0
0.862501 0.0249943 0
0.874998 0.0249943 0
0.887495 0.0249943 0
0.899992 0.0249943 0
0.912505 0.0249943 0
0.925002 0.0249943 0
0.937499 0.0249943 0
0.949996 0.0249943 0
0.962493 0.0249943 0
0.975006 0.0249943 0
0.987503 0.0249943 0
1 0.0249943 0
0 0.0374914 1.5259e-05
0.0124971 0.0374914 0
0.0249943 0.0374914 0
0.0374914 0.0374914 0
0.0499886 0.0374914 0
0.062501 0.0374914 0
0.0749981 0.0374914 0
0.0893416 0.0374914 0
0.113619 0.0374914 0
0.146838 0.0374914 0
0.182956 0.0374914 0
0.220844 0.0374914 0
0.263416 0.0374914 0
0.317739 0.0374914 0
0.386328 0.0374914 0
0.477226 0.0374914 0
0.615885 0.0374914 0
0.732586 0.0374914 0
0.80119 0.0374914 0
0.837491 0.0374914 0
0.850004 0.0374914 0
0.862501 0.0374914 0
0.874998 0.0374914 0
0.887495 0.0374914 0
0.899992 0.0374914 0
0.912505 0.0374914 0
0.925002 0.0374914 0
0.937499 0.0374914 0
0.949996 0.0374914 0
0.962493 0.0374914 0
0.975006 0.0374914 0
0.987503 0.0374914 0
1 0.0374914 0
0 0.0499886 0
0.0124971 0.0499886 0
0.0249943 0.0499886 0
0.0374914 0.0499886 0
0.0499886 0.0499886 0
0.062501 0.0499886 0
0.0750286 0.0499886 0
0.0890516 0.0499886 0
0.11426 0.0499886 0
0.148394 0.0499886 0
0.185214 0.0499886 0
0.223743 0.0499886 0
0.268086 0.0499886 0
0.325414 0.0499886 0
0.393622 0.0499886 0
0.487755 0.0499886 0
0.629725 0.0499886 0
0.741421 0.0499886 0
0.806134 0.0499886 0
0.837491 0.0499886 0
0.850004 0.0499886 0
0.862501 0.0499886 0
0.874998 0.0499886 0
0.887495 0.0499886 0
0.899992 0.0499886 0
0.912505 0.0499886 0
0.925002 0.0499886 0
0.937499 0.0499886 0
0.949996 0.0499886 0
0.962493 0.0499886 0
0.975006 0.0499886 0
0.987503 0.0499886 0
1 0.0499886 0
0 0.066392 0
0.0124971 0.0664073 0
0.0249943 0.0665141 0
0.0374914 0.0667124 0
0.0499886 0.066865 0
0.062501 0.066804 0
0.0750744 0.0665446 0
0.0894484 0.0655222 0
0.115038 0.0643931 0
0.149828 0.0630045 0
0.187762 0.062501 0
0.226703 0.062501 0
0.272145 0.062501 0
0.332982 0.062501 0
0.404318 0.062501 0
0.504616 0.062501 0
0.647471 0.062501 0
0.75288 0.062501 0
0.811643 0.062501 0
0.837491 0.062501 0
0.850004 0.062501 0
0.862501 0.062501 0
0.874998 0.062501 0
0.887495 0.062501 0
0.899992 0.062501 0
0.912505 0.062501 0
0.925002 0.062501 0
0.937499 0.062501 0
0.949996 0.062501 0
0.962493 0.062501 0
0.975006 0.062501 0
0.987503 0.062501 0
1 0.062501 0
0 0.0860914 0
0.0124971 0.0862745 0
0.0249943 0.0865187 0
0.0374914 0.0869306 0
0.0499886 0.0873274 0
0.062501 0.0874952 0
0.0751049 0.0872663 0
0.0909133 0.0853895 0
0.115724 0.0838331 0
0.148379 0.0824903 0
0.187213 0.0802472 0
0.22887 0.0776989 0
0.276356 0.0756237 0
0.338827 0.0749981 0
0.413153 0.0749981 0
0.52047 0.0749981 0
0.666194 0.0749981 0
0.764874 0.0749981 0
0.818006 0.0749981 0
0.837491 0.0749981 0
0.850004 0.0749981 0
0.862501 0.0749981 0
0.874998 0.0749981 0
0.887495 0.0749981 0
0.899992 0.0749981 0
0.912505 0.0749981 0
0.925002 0.0749981 0
0.937499 0.0749981 0
0.949996 0.0749981 0
0.962493 0.0749981 0
0.975006 0.0749981 0
0.987503 0.0749981 0
1 0.0749981 0
0 0.108934 0
0.0124971 0.109331 0
0.0249943 0.110048 0
0.0374914 0.110765 0
0.0499886 0.111406 0
0.062501 0.111833 0
0.0749981 0.111818 0
0.0911421 0.109575 0
0.116991 0.106981 0
0.148592 0.104997 0
0.186343 0.102083 0
0.23032 0.0974441 0
0.280568 0.0922103 0
0.344289 0.0878309 0
0.419394 0.0874952 0
0.52755 0.0874952 0
0.677165 0.0874952 0
0.771786 0.0874952 0
0.824262 0.0874952 0
0.837491 0.0874952 0
0.850004 0.0874952 0
0.862501 0.0874952 0
0.874998 0.0874952 0
0.887495 0.0874952 0
0.899992 0.0874952 0
0.912505 0.0874952 0
0.925002 0.0874952 0
0.937499 0.0874952 0
0.949996 0.0874952 0
0.962493 0.0874952 0
0.975006 0.0874952 0
0.987503 0.0874952 0
1 0.0874952 0
0 0.134508 0
0.0124971 0.13521 0
0.0249943 0.13608 0
0.0374914 0.137041 0
0.0499886 0.137819 0
0.062501 0.138415 0
0.0749981 0.138613 0
0.0903944 0.136767 0
0.117754 0.133562 0
0.150912 0.131014 0.000701915
0.187045 0.128939 0.000656138
0.232288 0.124559 1.5259e-05
0.286671 0.118257 0
0.352438 0.109957 0
0.426215 0.103334 0
0.52755 0.0999924 0
0.672206 0.0999924 0
0.771145 0.0999924 0
0.823301 0.0999924 0
0.837491 0.0999924 0
0.850004 0.0999924 0
0.862501 0.0999924 0
0.874998 0.0999924 0
0.887495 0.0999924 0
0.899992 0.0999924 0
0.912505 0.0999924 0
0.925002 0.0999924 0
0.937499 0.0999924 0
0.949996 0.0999924 0
0.962493 0.102296 0
0.975006 0.112322 0
0.987503 0.122271 0
1 0.132174 0
0 0.161242 0
0.0124971 0.162295 0
0.0249943 0.16347 0
0.0374914 0.164752 0
0.0499886 0.165911 0
0.062501 0.166934 0
0.0749981 0.167483 0
0.0890211 0.166583 0
0.116045 0.163577 0
0.153719 0.160113 0.002533
0.190784 0.158358 0.00509651
0.237003 0.155123 0.00128176
0.294133 0.149203 1.5259e-05
0.362463 0.141329 0
0.436728 0.132631 0
0.533211 0.121843 0
0.669383 0.11249 0
0.774777 0.11249 0
0.82472 0.11249 0
0.837491 0.11249 0
0.850004 0.11249 0
0.862501 0.11249 0
0.874998 0.11249 0
0.887495 0.114611 0
0.899992 0.122332 0
0.912505 0.130968 0
0.925002 0.140139 0
0.937499 0.15021 0
0.949996 0.161425 0
0.962493 0.17261 0
0.975006 0.183932 0
0.987503 0.195224 0
1 0.206378 0
0 0.190753 0
0.0124971 0.192325 0
0.0249943 0.194095 0
0.0374914 0.195972 0
0.0499886 0.197818 0
0.062501 0.199481 0
0.0749981 0.200641 0
0.0879377 0.200824 0
0.110994 0.199405 0
0.153414 0.195956 0.00190738
0.197421 0.193484 0.0108339
0.245792 0.19202 0.0111543
0.306233 0.188174 0.00570687
0.375692 0.182681 0.00157168
0.45034 0.176959 7.62951e-05
0.54316 0.167727 0
0.67155 0.151568 0
0.782498 0.141924 0
0.824994 0.143313 0
0.837491 0.150637 0
0.850004 0.159792 0
0.862501 0.170336 0
0.874998 0.178408 0
0.887495 0.186786 0
0.899992 0.196109 0
0.912505 0.206394 0
0.925002 0.217136 0
0.937499 0.228321 0
0.949996 0.239719 0
0.962493 0.25156 0
0.975006 0.262943 0
0.987503 0.273991 0
1 0.285252 0.00238041
0 0.225147 0
0.0124971 0.227497 0
0.0249943 0.230625 0
0.0374914 0.233936 0
0.0499886 0.236835 0
0.062501 0.239582 0
0.0749981 0.241627 0
0.0875105 0.243 0
0.104768 0.243656 0
0.147555 0.242634 7.62951e-05
0.202808 0.239948 0.0104219
0.26009 0.239612 0.0191653
0.324727 0.239445 0.0194858
0.393851 0.238987 0.0158236
0.46508 0.238834 0.00961318
0.550408 0.236133 0.00167849
0.668132 0.227314 0
0.785397 0.21976 0
0.824994 0.221515 0
0.837491 0.230426 0
0.850004 0.240696 0
0.862501 0.251606 0
0.874998 0.261097 0
0.887495 0.270161 0
0.899992 0.279744 0
0.912505 0.289967 0
0.925002 0.301183 0
0.937499 0.313085 0
0.949996 0.324865 0
0.962493 0.336843 0
0.975006 0.349493 0
0.987503 0.362127 0.000427253
1 0.375158 0.0040589
0 0.268299 0
0.0124971 0.272709 0
0.0249943 0.277577 0
0.0374914 0.282689 0
0.0499886 0.287572 0
0.062501 0.29192 0
0.0749981 0.296376 0
0.0874952 0.299458 0
0.100786 0.302785 0
0.138384 0.306188 0
0.203189 0.305699 0.00643931
0.277607 0.305104 0.0220798
0.350469 0.307683 0.0302739
0.419303 0.312505 0.0337682
0.486091 0.318044 0.0328985
0.560861 0.321218 0.0256046
0.652506 0.321004 0.0119936
0.763668 0.31667 0
0.824994 0.314641 0
0.837491 0.320668 0
0.850004 0.330114 0
0.862501 0.340993 0
0.874998 0.351492 0
0.887495 0.361547 0
0.899992 0.371847 0
0.912505 0.382712 0
0.925002 0.39411 0
0.937499 0.406332 0
0.949996 0.419181 0
0.962493 0.432425 0
0.975006 0.44564 0
0.987503 0.458427 0.000518807
1 0.471244 0.00260929
0 0.324804 0
0.0124971 0.331289 0
0.0249943 0.338445 0
0.0374914 0.346517 0
0.0499886 0.355032 0
0.062501 0.362585 0
0.0749981 0.368872 0
0.0874952 0.373404 0
0.0999924 0.37911 0
0.133303 0.386664 0
0.205707 0.388571 0.0047303
0.297444 0.386572 0.0245212
0.37995 0.388632 0.0399939
0.449332 0.39498 0.0500649
0.513313 0.40209 0.0546883
0.579721 0.408286 0.0524453
0.651362 0.413169 0.0431373
0.733074 0.416297 0.0227207
0.820829 0.416587 0.00288396
0.837491 0.41886 0
0.850004 0.426963 0
0.862501 0.43711 0
0.874998 0.447608 0
0.887495 0.458015 0
0.899992 0.468116 0
0.912505 0.478889 0
0.925002 0.490547 0
0.937499 0.50277 0
0.949996 0.514702 0
0.962493 0.527016 0
0.975006 0.539437 0
0.987503 0.55108 0.000106813
1 0.562341 0.000335698
0 0.395315 0
0.0124971 0.40528 0
0.0249943 0.415946 0
0.0374914 0.426947 0
0.0499886 0.437751 0
0.062501 0.448005 0
0.0749981 0.456794 0
0.0874952 0.463066 0
0.0999924 0.469734 0
0.135515 0.478218 0
0.213809 0.479988 0.00477607
0.319997 0.473564 0.027863
0.41062 0.471534 0.0499123
0.48188 0.475822 0.0661173
0.544762 0.483024 0.0766308
0.606256 0.490974 0.0814069
0.66688 0.499306 0.0787518
0.727596 0.507668 0.0657664
0.797131 0.514015 0.0356451
0.837369 0.516487 0.00683604
0.850004 0.520638 0
0.862501 0.529442 0
0.874998 0.5393 0
0.887495 0.549386 0
0.899992 0.55964 0
0.912505 0.569497 0
0.925002 0.579782 0
0.937499 0.590707 0
0.949996 0.601541 0
0.962493 0.611505 0
0.975006 0.621439 0
0.987503 0.631281 0
1 0.639963 0
0 0.482109 0
0.0124971 0.494636 0
0.0249943 0.5084 0
0.0374914 0.522774 0
0.0499886 0.536706 0
0.062501 0.548623 0
0.0749981 0.55906 0
0.0874952 0.566613 0
0.100038 0.571664 0
0.127535 0.576516 0
0.213443 0.573816 0.000396735
0.335119 0.562325 0.024567
0.437369 0.556008 0.0560159
0.513573 0.557137 0.0816358
0.575799 0.562783 0.099321
0.632731 0.570413 0.111086
0.684947 0.579126 0.115389
0.73431 0.588602 0.109453
0.786145 0.598199 0.0846571
0.83328 0.6056 0.0416266
0.850004 0.610025 0.0093843
0.862501 0.614603 0.000289921
0.874998 0.62211 0
0.887495 0.629984 0
0.899992 0.638453 0
0.912505 0.647532 0
0.925002 0.655589 0
0.937499 0.663951 0
0.949996 0.672389 0
0.962493 0.680385 0
0.975006 0.687312 0
0.987503 0.694102 0
1 0.700816 0
0 0.584573 0
0.0124971 0.599634 0
0.0249943 0.61532 0
0.0374914 0.630564 0
0.0499886 0.645274 0
0.062501 0.657725 0
0.0749981 0.667857 0
0.0874952 0.674449 0
0.0999924 0.678355 0
0.116503 0.680842 0
0.190677 0.674693 0
0.33843 0.65301 0.0169375
0.458488 0.638407 0.0568093
0.541634 0.633906 0.0932326
0.604181 0.636255 0.121019
0.656733 0.6421 0.140246
0.702983 0.649653 0.151598
0.744869 0.658045 0.153094
0.785901 0.667002 0.137346
0.830884 0.675944 0.0928054
0.850004 0.682368 0.0425879
0.862501 0.686336 0.011429
0.874998 0.690547 0.000442512
0.887495 0.69575 0
0.899992 0.701823 0
0.912505 0.708659 0
0.925002 0.715587 0
0.937499 0.721706 0
0.949996 0.727901 0
0.962493 0.733837 0
0.975006 0.73904 0
0.987503 0.74374 0
1 0.748394 0
0 0.69192 0
0.0124971 0.706127 0
0.0249943 0.720516 0
0.0374914 0.734554 0
0.0499886 0.746075 0
0.062501 0.755474 0
0.0749981 0.763363 0
0.0874952 0.768856 0
0.0999924 0.773571 0
0.11249 0.776318 0
0.159884 0.772946 0
0.312398 0.746059 0.004654
0.47155 0.716106 0.0476539
0.568383 0.703258 0.0981613
0.631647 0.700954 0.138521
0.679881 0.703487 0.166659
0.720836 0.708415 0.184161
0.75729 0.714504 0.191531
0.792355 0.721294 0.183444
0.830213 0.728878 0.148486
0.850004 0.735973 0.092134
0.862501 0.740612 0.0437781
0.874998 0.743801 0.0132143
0.887495 0.747127 0.00169375
0.899992 0.751461 0.000534066
0.912505 0.75668 0.000396735
0.925002 0.762158 0
0.937499 0.767376 3.0518e-05
0.949996 0.772183 0.000213626
0.962493 0.776684 0
0.975006 0.780697 0
0.987503 0.784466 0.000762951
1 0.787884 0.00709544
0 0.785229 0
0.0124971 0.795926 0
0.0249943 0.806363 0
0.0374914 0.816541 0
0.0499886 0.823926 0
0.062501 0.82327 0
0.0749981 0.822812 0
0.0874952 0.82295 0
0.0999924 0.824186 0
0.11249 0.824994 0
0.151598 0.824994 0
0.268498 0.824994 0
0.461036 0.791424 0.0178683
0.589334 0.764462 0.0850233
0.655787 0.755596 0.145357
0.700847 0.75433 0.186023
0.737423 0.756436 0.210101
0.77026 0.760143 0.220935
0.801877 0.764874 0.217044
0.834638 0.770489 0.190936
0.850004 0.776486 0.13991
0.862501 0.781735 0.0831006
0.874998 0.785229 0.042359
0.887495 0.788205 0.0182193
0.899992 0.792081 0.00958267
0.912505 0.796384 0.00921645
0.925002 0.80087 0.00866712
0.937499 0.80528 0.00784314
0.949996 0.809583 0.00611887
0.962493 0.813428 0.0084535
0.975006 0.81651 0.0170443
0.987503 0.819394 0.0260624
1 0.82208 0.0354467
0 0.837217 0
0.0124971 0.837446 0
0.0249943 0.837491 0
0.0374914 0.837491 0
0.0499886 0.837491 0
0.062501 0.837491 0
0.0749981 0.837491 0
0.0874952 0.837491 0
0.0999924 0.837491 0
0.114122 0.837491 0
0.16408 0.837491 0
0.249134 0.837491 0
0.424308 0.83621 0.0009308
0.591745 0.822599 0.0393072
0.674525 0.80351 0.122286
0.718746 0.797024 0.18851
0.752529 0.796292 0.223239
0.782986 0.798093 0.237552
0.81294 0.801297 0.235035
0.83711 0.805478 0.213474
0.850004 0.810513 0.168887
0.862501 0.815579 0.114153
0.874998 0.819455 0.0694591
0.887495 0.822919 0.0452583
0.899992 0.826734 0.0397803
0.912505 0.830747 0.038468
0.925002 0.834516 0.0371862
0.937499 0.836072 0.0364691
0.949996 0.837034 0.0354467
0.962493 0.837491 0.0360113
0.975006 0.837491 0.0473487
0.987503 0.837491 0.058732
1 0.837491 0.0711528
0 0.850004 0
0.0124971 0.850004 0
0.0249943 0.850004 0
0.0374914 0.850004 0
0.0499886 0.850004 0
0.062501 0.850004 0
0.0749981 0.850004 0
0.0874952 0.850004 0
0.0999924 0.850004 0
0.115953 0.850004 0
0.172412 0.850004 0
0.253971 0.850004 0
0.404685 0.850004 0
0.578927 0.850004 0.00567636
0.683558 0.844312 0.0638437
0.733227 0.837003 0.154406
0.766186 0.832441 0.212879
0.795529 0.832212 0.236042
0.8224 0.834165 0.23476
0.837491 0.837369 0.21416
0.850004 0.841688 0.173709
0.862501 0.845762 0.126284
0.874998 0.848051 0.0909743
0.887495 0.849515 0.0767529
0.899992 0.850004 0.075227
0.912505 0.850004 0.074342
0.925002 0.850004 0.0733196
0.937499 0.850004 0.0720073
0.949996 0.850004 0.0698253
0.962493 0.850004 0.067628
0.975006 0.850004 0.0838941
0.987503 0.850004 0.101228
1 0.850004 0.118639
0 0.862501 0
0.0124971 0.862501 0
0.0249943 0.862501 0
0.0374914 0.862501 0
0.0499886 0.862501 0
0.062501 0.862501 0
0.0749981 0.862501 0
0.0874952 0.862501 0
0.0999924 0.862501 0
0.120531 0.862501 0
0.178988 0.862501 0
0.263005 0.862501 0
0.410422 0.862501 0
0.568231 0.862501 0
0.687068 0.862501 0.0114137
0.744121 0.862501 0.0914778
0.778576 0.862501 0.172686
0.807309 0.862257 0.211887
0.824979 0.862074 0.216281
0.837491 0.862242 0.196414
0.850004 0.862486 0.162387
0.862501 0.862501 0.126101
0.874998 0.862501 0.112734
0.887495 0.862501 0.111116
0.899992 0.862501 0.111711
0.912505 0.862501 0.114183
0.925002 0.862501 0.118257
0.937499 0.862501 0.122606
0.949996 0.862501 0.127504
0.962493 0.862501 0.135973
0.975006 0.862501 0.15642
0.987503 0.862501 0.176913
1 0.862501 0.196033
0 0.874998 0
0.0124971 0.874998 0
0.0249943 0.874998 0
0.0374914 0.874998 0
0.0499886 0.874998 0
0.062501 0.874998 0
0.0749981 0.874998 0
0.0874952 0.874998 0
0.100206 0.874998 0
0.134157 0.874998 0
0.191211 0.874998 0
0.275334 0.874998 0
0.424582 0.874998 0
0.576333 0.874998 0
0.685603 0.874998 0.00271611
0.749722 0.874998 0.0434272
0.78793 0.874998 0.121859
0.812161 0.874998 0.172778
0.824994 0.874998 0.18909
0.837491 0.874998 0.178073
0.850004 0.874998 0.158358
0.862501 0.874998 0.155169
0.874998 0.874998 0.160555
0.887495 0.874998 0.167926
0.899992 0.874998 0.178195
0.912505 0.874998 0.189303
0.925002 0.874998 0.201404
0.937499 0.874998 0.212726
0.949996 0.874998 0.223102
0.962493 0.874998 0.232212
0.975006 0.874998 0.246906
0.987503 0.874998 0.261692
1 0.874998 0.27512
0 0.887495 0
0.0124971 0.887495 0
0.0249943 0.887495 0
0.0374914 0.887495 0
0.0499886 0.887495 0
0.062501 0.887495 0
0.0749981 0.887495 0
0.0874952 0.887495 0
0.100923 0.887495 0
0.148501 0.887495 0
0.205615 0.887495 0
0.304936 0.887495 0
0.456718 0.887495 0
0.605493 0.887495 0
0.700877 0.887495 0
0.759716 0.887495 0.0387427
0.796567 0.887495 0.122103
0.812497 0.887495 0.18558
0.824994 0.887495 0.210056
0.837491 0.887495 0.212146
0.850004 0.887495 0.218631
0.862501 0.887495 0.231296
0.874998 0.887495 0.242802
0.887495 0.887495 0.253162
0.899992 0.887495 0.263371
0.912505 0.887495 0.272541
0.925002 0.887495 0.282658
0.937499 0.887495 0.292042
0.949996 0.887495 0.300969
0.962493 0.887495 0.308186
0.975006 0.887495 0.317845
0.987503 0.887495 0.326833
1 0.887495 0.335195
0 0.899992 0
0.0124971 0.899992 0
0.0249943 0.899992 0
0.0374914 0.899992 0
0.0499886 0.899992 0
0.062501 0.899992 0
0.0749981 0.899992 0
0.0877394 0.899992 0
0.116625 0.899992 0
0.163195 0.899992 0
0.225162 0.899992 0
0.334462 0.899992 0
0.490517 0.899992 0
0.630808 0.899992 0
0.718822 0.899992 0.00267033
0.772747 0.899992 0.0560159
0.79968 0.899992 0.158709
0.812497 0.899992 0.228901
0.824994 0.899992 0.257618
0.837491 0.899992 0.27332
0.850004 0.899992 0.291279
0.862501 0.899992 0.304433
0.874998 0.899992 0.313787
0.887495 0.899992 0.321859
0.899992 0.899992 0.329839
0.912505 0.899992 0.336782
0.925002 0.899992 0.343984
0.937499 0.899992 0.350759
0.949996 0.899992 0.356481
0.962493 0.899992 0.362127
0.975006 0.899992 0.368902
0.987503 0.899992 0.374838
1 0.899992 0.379919
0 0.912505 0
0.0124971 0.912505 0
0.0249943 0.912505 0
0.0374914 0.912505 0
0.0499886 0.912505 0
0.062501 0.912505 0
0.0751354 0.912505 0
0.0912795 0.912505 0
0.131548 0.912505 0
0.177966 0.912505 0
0.242573 0.912505 0
0.36759 0.912505 0
0.521828 0.912505 0
0.656184 0.912505 0
0.732723 0.912505 0.00491341
0.781094 0.912505 0.0789349
0.8 0.912505 0.194049
0.812497 0.912505 0.2654
0.824994 0.912505 0.302983
0.837491 0.912505 0.331258
0.850004 0.912505 0.349218
0.862501 0.912505 0.359701
0.874998 0.912505 0.367102
0.887495 0.912505 0.372671
0.899992 0.912505 0.378134
0.912505 0.912505 0.383062
0.925002 0.912505 0.387274
0.937499 0.912505 0.391852
0.949996 0.912505 0.395285
0.962493 0.912505 0.39765
0.975006 0.912505 0.401495
0.987503 0.912505 0.404517
1 0.912505 0.407309
0 0.925002 0
0.0124971 0.925002 0
0.0249943 0.925002 0
0.0374914 0.925002 0
0.0499886 0.925002 0.000198367
0.062501 0.925002 6.10361e-05
0.0763561 0.925002 0
0.106065 0.925002 0
0.145113 0.925002 0
0.191318 0.925002 0
0.267597 0.925002 0
0.397284 0.925002 0
0.551568 0.925002 0
0.672496 0.925002 0
0.745602 0.925002 0.00209049
0.785306 0.925002 0.101045
0.8 0.925002 0.221454
0.812497 0.925002 0.295537
0.824994 0.925002 0.34342
0.837491 0.925002 0.374853
0.850004 0.925002 0.391867
0.862501 0.925002 0.399985
0.874998 0.925002 0.404746
0.887495 0.925002 0.408667
0.899992 0.925002 0.4121
0.912505 0.925002 0.415549
0.925002 0.925002 0.418097
0.937499 0.925002 0.420401
0.949996 0.925002 0.421988
0.962493 0.925002 0.423529
0.975006 0.925002 0.425452
0.987503 0.925002 0.426932
1 0.925002 0.428397
0 0.937499 0
0.0124971 0.937499 0.000885023
0.0249943 0.937499 0.00184634
0.0374914 0.937499 0.00163272
0.0499886 0.937499 0.000564584
0.0636149 0.937499 0
0.0841535 0.937499 0
0.11841 0.937499 3.0518e-05
0.156954 0.937499 0.000122072
