LUTs/66.cube
TITLE "Generate by Resolve"
LUT_3D_SIZE 5
0 0 0
0.111528 0 0
0.593042 0 0
0.899992 0 0
1 0 0
0 0.134508 0
0.117754 0.133562 0
0.672206 0.0999924 0
0.899992 0.0999924 0
1 0.132174 0
0 0.584573 0
0.0999924 0.678355 0
0.702983 0.649653 0.151598
0.899992 0.701823 0
1 0.748394 0
0 0.899992 0
0.116625 0.899992 0
0.79968 0.899992 0.158709
0.899992 0.899992 0.329839
1 0.899992 0.379919
0 1 0.0280766
0.196445 1 0.00827039
0.8 1 0.327352
0.899992 1 0.464012
1 1 0.466773
0 0 0.144335
0.106691 0 0.157885
0.561242 0 0.0999924
0.899992 0 0.0999924
1 0 0.0999924
0 0.140185 0.140505
0.109758 0.143893 0.148287
0.647807 0.0999924 0.0999924
0.899992 0.100053 0.101884
1 0.163409 0.178408
0 0.615045 0.102739
0.112367 0.696208 0.152972
0.71899 0.676768 0.353735
0.899992 0.718959 0.148943
1 0.755627 0.236423
0 0.899992 0.148379
0.129839 0.899992 0.166995
0.797803 0.899992 0.484443
0.899992 0.899992 0.582284
1 0.899992 0.589349
0 1 0.23125
0.220661 1 0.245274
0.8 1 0.544991
0.899992 1 0.617243
1 1 0.618524
0 0 0.576318
0.0999924 0 0.706249
0.524224 0 0.536934
0.899992 0 0.618891
1 0 0.647974
0 0.143496 0.509163
0.0999924 0.141558 0.60708
0.641566 0.0999924 0.633188
0.899992 0.0999924 0.764233
1 0.164736 0.8
0 0.674281 0.53228
0.106508 0.742657 0.626062
0.720729 0.669017 0.704555
0.899992 0.698787 0.718914
1 0.727291 0.746441
0 0.899992 0.624491
0.135363 0.899992 0.721843
0.741802 0.899992 0.724773
0.899992 0.899992 0.776516
1 0.899992 0.770291
0 1 0.747845
0.258427 1 0.786114
0.759533 1 0.734813
0.899992 1 0.8
1 1 0.8
0 0 0.899992
0.0999924 0 0.899992
0.569741 0 0.899992
0.899992 0 0.899992
1 0 0.899992
0 0.152911 0.899992
0.0999924 0.158358 0.899992
0.691432 0.0999924 0.899992
0.899992 0.106004 0.899992
1 0.180255 0.899992
0 0.752331 0.898436
0.0999924 0.796338 0.899992
0.643168 0.7131 0.899992
0.899992 0.704326 0.899992
1 0.728725 0.899992
0 0.899992 0.899992
0.0999924 0.899992 0.899992
0.742412 0.899992 0.899992
0.899992 0.898833 0.899992
1 0.898833 0.899992
0 1 0.899992
0.139406 1 0.899992
0.754955 1 0.899992
0.899992 0.99884 0.899992
1 0.99884 0.899992
0 0 1
0.0999924 0 1
0.519341 0 1
0.899992 0 1
1 0 1
0 0.17528 1
0.0999924 0.182864 1
0.695064 0.0999924 1
0.899992 0.129335 1
1 0.207904 1
0 0.791058 1
0.0999924 0.8 1
0.650172 0.735134 1
0.899992 0.714351 1
1 0.73431 1
0 0.899992 1
0.104265 0.899992 1
0.740749 0.899992 1
0.899992 0.898833 1
1 0.898833 1
0 1 1
0.139513 1 1
0.753384 1 1
0.899992 0.99884 1
1 0.99884 1
