LUTs/68.cube
TITLE "Generate by Resolve"
LUT_3D_SIZE 33
0 0.00727855 0.0266423
0 0.00611887 0.0255894
0.00141909 0.00440986 0.0240024
0.00575265 0.00271611 0.0223697
0.0147402 0.0015259 0.0210422
0.0299077 0.000534066 0.0188907
0.0485237 0.000259403 0.0153964
0.0717937 0.000366217 0.0107118
0.101488 0.000488289 0.00444038
0.139742 0.000213626 0.000534066
0.187671 0 0
0.252262 0 0
0.338293 0 0
0.433433 0 0
0.523873 0 0
0.611978 0 0
0.700877 0 0
0.781918 0 0
0.850401 0 0
0.909606 0 0
0.944976 0 0
0.951705 0 0
0.951705 0 0
0.951705 0 0
0.951705 0 0
0.951705 0 0
0.951705 0 0
0.951705 0 0
0.951705 0 0
0.951705 0 0
0.951705 0 0
0.951705 0 0
0.951705 0 0
0 0.014435 0.0211948
0 0.0136721 0.0205692
0.000579843 0.0123903 0.0196841
0.00373846 0.0109407 0.0189212
0.0116579 0.00955215 0.0186007
0.0270085 0.00779736 0.0165103
0.045655 0.00596628 0.0133669
0.0690929 0.00390631 0.00906386
0.0991379 0.00187686 0.0033875
0.137896 0.000411994 0.000244144
0.186084 0 0
0.251041 0 0
0.337667 0 0
0.433783 0 0
0.524636 0 0
0.613199 0 0
0.702632 0 0
0.783749 0 0
0.852415 0 0
0.911025 0 0
0.945357 0 0
0.951705 0 0
0.951705 0 0
0.951705 0 0
0.951705 0 0
0.951705 0 0
0.951705 0 0
0.951705 0 0
0.951705 0 0
0.951705 0 0
0.951705 0 0
0.951705 0 0
0.951705 0 0
1.5259e-05 0.0224308 0.0171817
1.5259e-05 0.0218357 0.0167391
0.000320439 0.0207828 0.016083
0.002533 0.0195468 0.0155947
0.00865187 0.0181888 0.0155947
0.024445 0.0159304 0.0144961
0.0427863 0.01355 0.0113375
0.0660716 0.0102693 0.00706493
0.0964523 0.00608835 0.00222782
0.135439 0.00239567 0
0.183795 0.000396735 0
0.24889 1.5259e-05 0
0.335225 0 0
0.432258 0 0
0.52398 0 0
0.613306 0 0
0.703761 0 0
0.785718 0 0
0.854917 0 0
0.913085 0 0
0.945922 0 0
0.951705 0 0
0.951705 0 0
0.951705 0 0
0.951705 0 0
0.951705 0 0
0.951705 0 0
0.951705 0 0
0.951705 0 0
0.951705 0 0
0.951705 0 0
0.951705 0 0
0.951705 0 0
6.10361e-05 0.0312657 0.0140993
7.62951e-05 0.0307317 0.0137179
0.000320439 0.0298161 0.013077
0.00173953 0.0287633 0.0125277
0.00572213 0.0276799 0.0123598
0.0217441 0.0251926 0.0118563
0.0404517 0.0224918 0.0096437
0.0635691 0.0189364 0.00549325
0.0937057 0.0137484 0.00146487
0.133181 0.00749218 0
0.18262 0.00172427 0
0.248707 7.62951e-05 0
0.336675 0 0
0.43505 0 0
0.527764 0 0
0.618051 0 0
0.708843 0 0
0.790936 0 0
0.859419 0 0
0.916793 0 0
0.946838 0 0
0.951705 0 0
0.951705 0 0
0.951705 0 0
0.951705 0 0
0.951705 0 0
0.951705 0 0
0.951705 0 0
0.951705 0 0
0.951705 0 0
0.951705 0 0
0.951705 0 0
0.951705 0 0
0.000198367 0.0410315 0.0113527
0.000198367 0.04065 0.0110323
0.000244144 0.0398871 0.0104372
0.000793469 0.0391089 0.00976577
0.00285344 0.0383307 0.00921645
0.0178531 0.0361791 0.00741588
0.0395209 0.0324865 0.00848402
0.0623178 0.0292363 0.00547799
0.0913558 0.0247349 0.00129702
0.130831 0.0177005 0
0.18088 0.00851453 0
0.248707 0.000549325 0
0.339086 0 0
0.439384 0 0
0.533593 0 0
0.6262 0 0
0.718624 0 0
0.800427 0 0
0.868299 0 0
0.923552 0 0
0.948455 0 0
0.951705 0 0
0.951705 0 0
0.951705 0 0
0.951705 0 0
0.951705 0 0
0.951705 0 0
0.951705 0 0
0.951705 0 0
0.951705 0 0
0.951705 0 0
0.951705 0 0
0.951705 0 0
0.000167849 0.0524758 0.00689708
0.000167849 0.0522316 0.00662242
0.000183108 0.0518044 0.0061799
0.000274662 0.0513466 0.00569161
0.000823987 0.0510109 0.00527962
0.0132753 0.0493629 0.00393683
0.0364385 0.0453498 0.00410468
0.0623331 0.0411231 0.00537118
0.0907149 0.0371405 0.00282292
0.128695 0.0309148 0.000289921
0.179278 0.0213626 0
0.248112 0.00914015 0
0.342 0.000793469 0
0.444831 0 0
0.541207 0 0
0.636622 0 0
0.731258 0 0
0.81236 0 0
0.880568 0 0
0.932082 0 0
0.950134 0 0
0.951705 0 0
0.951705 0 0
0.951705 0 0
0.951705 0 0
0.951705 0 0
0.951705 0 0
0.951705 0 0
0.951705 0 0
0.951705 0 0
0.951705 0 0
0.951705 0 0
0.951705 0 0
0.00015259 0.0658274 0.00241093
0.00015259 0.0657969 0.00227359
0.00015259 0.0657511 0.00205997
0.00015259 0.0657206 0.00183108
0.00015259 0.0657664 0.00163272
0.00907912 0.0646677 0.00106813
0.0287327 0.0617533 0.000991836
0.0580606 0.0568704 0.00358587
0.0904097 0.0519112 0.00540169
0.127428 0.0468605 0.00225834
0.176852 0.0386511 0.00015259
0.246632 0.0257572 0
0.344289 0.00941482 0
0.450111 0.00166323 0
0.549218 0 0
0.647761 0 0
0.743954 0 0
0.823316 0 0
0.891981 0 0
0.938552 0 0
0.951019 0 0
0.951705 0 0
0.951705 0 0
0.951705 0 0
0.951705 0 0
0.951705 0 0
0.951705 0 0
0.951705 0 0
0.951705 0 0
0.951705 0 0
0.951705 0 0
0.951705 0 0
0.951705 0 0
7.62951e-05 0.0818189 0.000183108
6.10361e-05 0.0821546 0.000183108
6.10361e-05 0.0825971 0.000167849
6.10361e-05 0.0830854 0.00015259
6.10361e-05 0.0836805 0.000106813
0.0047303 0.0834516 3.0518e-05
0.0182193 0.0819562 0
0.0474708 0.0777295 0.00106813
0.0867018 0.0716411 0.00547799
0.127382 0.065919 0.00662242
0.174365 0.0595712 0.00184634
0.243 0.0483864 0
0.342794 0.0307164 0
0.452277 0.0129244 0
0.554589 0.00328069 0
0.656458 0.000183108 0
0.753323 0 0
0.831647 0 0
0.900175 0 0
0.942596 0 0
0.951614 0 0
0.951705 0 0
0.951705 0 0
0.951705 0 0
0.951705 0 0
0.951705 0 0
0.951705 0 0
0.951705 0 0
0.951705 0 0
0.951705 0 0
0.951705 0 0
0.951705 0 0
0.951705 0 0
0 0.101335 0
0 0.102052 0
0 0.10312 0
0 0.104402 0
0 0.105974 0
0.0011902 0.10695 0
0.007187 0.106691 0
0.0307927 0.104463 0
0.0746166 0.0984054 0.00209049
0.124666 0.0907301 0.00830091
0.174594 0.084184 0.00793469
0.237766 0.0759747 0.0011902
0.336172 0.0605783 0
0.448508 0.0416114 0
0.553506 0.0225986 0
0.658183 0.00984207 0
0.756436 0.00436408 0
0.835828 0.00112917 0
0.904295 0 0
0.945586 0 0
0.952667 0 0
0.952392 0 0
0.952331 0 0
0.952239 0 0
0.952041 0 0
0.951797 0 0
0.951705 0 0
0.951705 0 0
0.951705 0 0
0.951705 0 0
0.951797 0 0
0.951843 0 0
0.951873 0 0
0 0.125475 0
0 0.126833 0
0 0.128496 0
0 0.130785 0
0 0.133486 0
0 0.135958 0
0.000976577 0.137316 0
0.0152895 0.136828 0
0.0538643 0.132921 0.000122072
0.112001 0.124315 0.00416571
0.173632 0.114961 0.0119631
0.237858 0.107088 0.00907912
0.328237 0.0957809 0.000701915
0.439078 0.0793622 0
0.546441 0.0620279 0
0.653254 0.0451362 0
0.754726 0.0319524 0
0.836118 0.0227665 0
0.905501 0.0177615 0
0.950057 0.0144961 0
0.957671 0.0104067 0
0.956664 0.00608835 0
0.955886 0.00204471 0
0.9552 0 0
0.954543 0 0
0.954177 0 0
0.954116 0 0
0.954131 0 0
0.954314 0.000885023 0
0.954665 0.00230411 0
0.954955 0.00329595 0
0.954971 0.00386053 0
0.955535 0.00474556 0
0 0.155459 0
0 0.157412 0
0 0.160174 0
0 0.163348 0
0 0.167452 0
0 0.171633 0
0 0.174365 0
0.00488289 0.175189 0
0.0304112 0.173709 0
0.0873426 0.167224 0.00047303
0.161593 0.155917 0.00682078
0.238651 0.144533 0.0157931
0.327337 0.134447 0.00856031
0.431678 0.122667 0.000289921
0.538949 0.108568 0
0.645853 0.0937362 0
0.75053 0.082002 0
0.83473 0.074342 0
0.906203 0.0687572 0
0.957183 0.0633097 0
0.968109 0.0551308 0
0.966323 0.0468757 0
0.964858 0.0400549 0
0.963729 0.0352483 0
0.962844 0.0313573 0
0.962234 0.0277104 0
0.96228 0.0274662 0
0.962676 0.0290532 0
0.963226 0.0314794 0
0.963973 0.0349432 0
0.964706 0.0385138 0
0.965454 0.0421759 0
0.966476 0.0472725 0
0 0.19295 0
0 0.195621 0
0 0.199969 0
0 0.204669 0
0 0.210407 0
0 0.216556 0
0 0.221286 0
0.000183108 0.223667 0
0.0116732 0.223682 0
0.0560311 0.220645 0
0.13373 0.210117 6.10361e-05
0.226307 0.194827 0.00972
0.328817 0.180499 0.0175479
0.433341 0.170657 0.0087129
0.536034 0.16141 0.000671397
0.639719 0.150011 0
0.746181 0.14052 0
0.833524 0.134905 0
0.907439 0.131182 0
0.965469 0.12752 0
0.983612 0.120226 0
0.981491 0.111833 0
0.979843 0.105226 0
0.978561 0.100023 0
0.977615 0.0961013 0
0.977157 0.0940871 0
0.977264 0.0943618 0
0.977737 0.0962081 0
0.978546 0.0994888 0
0.979507 0.103395 0
0.980575 0.107759 0
0.981659 0.112184 0
0.983108 0.118181 0
0 0.242802 0
0 0.246601 0
0 0.252583 0
0 0.258839 0
0 0.266758 0
0 0.275517 0
0 0.283314 0
0 0.288365 0
0.00125124 0.29012 0
0.0256657 0.289158 0
0.0924697 0.28365 0
0.193133 0.269337 0
0.314412 0.249928 0.0116884
0.438117 0.234348 0.0205539
0.545037 0.224872 0.0149691
0.64268 0.217395 0.00442512
0.745007 0.211078 0.00227359
0.832685 0.206973 0.00138857
0.907378 0.204395 0.00144961
0.970871 0.20206 0.00192264
0.998383 0.196185 0.002121
0.997024 0.188022 0.00177005
0.995697 0.181292 0.00128176
0.99469 0.175738 0.000671397
0.994141 0.171756 0.000167849
0.99411 0.169802 0
0.994659 0.170306 0
0.995651 0.172717 0
0.996963 0.176562 0
0.998428 0.181277 0
0.999649 0.186648 0.000137331
0.99939 0.192874 0.00131228
0.999435 0.200229 0.00244144
0 0.30692 0
0 0.312062 0
0 0.319524 0
0 0.328054 0
0 0.338338 0
0 0.349737 0
0 0.360143 0
0 0.367239 0
0 0.370169 0
0.007187 0.370169 0
0.0548104 0.3691 0
0.146777 0.360876 0
0.27982 0.340124 0.00207523
0.425849 0.318425 0.0164492
0.554788 0.304341 0.0281376
0.658534 0.297337 0.0272374
0.751965 0.294484 0.0198978
0.833677 0.29192 0.0149844
0.905806 0.289921 0.0138247
0.968795 0.287678 0.0146639
1 0.28307 0.015198
1 0.275013 0.013962
1 0.267323 0.0125124
1 0.261692 0.0114595
1 0.257816 0.0109407
1 0.25597 0.0109407
1 0.256992 0.0113222
1 0.260273 0.011902
1 0.265736 0.0127565
1 0.272145 0.0137636
1 0.279652 0.0149844
1 0.286839 0.0161593
1 0.295247 0.0175784
0 0.383185 0
0 0.389853 0
0 0.399298 0
0 0.409308 0
0 0.42092 0
0 0.433371 0
0 0.445014 0
0 0.45333 0
0 0.45771 0
0.000244144 0.458137 0
0.0302892 0.458808 0
0.107301 0.456657 0
0.233249 0.441245 0.000183108
0.396689 0.417136 0.00672923
0.550134 0.398093 0.0245823
0.670924 0.38584 0.037995
0.763287 0.38088 0.0406806
0.83946 0.380468 0.0375067
0.90602 0.381262 0.0339971
0.96524 0.380865 0.0322423
1 0.378592 0.0316777
1 0.372091 0.0306401
1 0.364645 0.0293126
1 0.359594 0.028397
1 0.356207 0.0277714
1 0.35494 0.0276036
1 0.356909 0.0280613
1 0.361364 0.0289006
1 0.367803 0.0300755
1 0.375311 0.0314183
1 0.383658 0.0328985
1 0.39176 0.0343175
1 0.400671 0.0358892
0 0.467262 0
0 0.474418 0
0 0.484184 0
0 0.494896 0
0 0.506172 0
0 0.518746 0
0 0.530724 0
0 0.539345 0
0 0.544427 0
0 0.544762 0
0.0113069 0.5449 0
0.0758068 0.545892 0
0.185183 0.537697 0
0.348196 0.515724 0
0.523125 0.491005 0.0123598
0.662913 0.472694 0.0333104
0.766812 0.466087 0.0494392
0.848875 0.466239 0.0572824
0.914153 0.469108 0.0575723
0.96907 0.472221 0.0551003
1 0.473915 0.0525216
1 0.471702 0.050782
1 0.465812 0.049424
1 0.461357 0.0484016
1 0.458595 0.047837
1 0.458412 0.0478828
1 0.460929 0.0485389
1 0.465965 0.0497292
1 0.472816 0.0513466
1 0.480629 0.0531624
1 0.488823 0.0550393
1 0.497246 0.0569772
1 0.505806 0.0589456
0 0.552193 0
0 0.559213 0
0 0.569543 0
0 0.580499 0
0 0.592248 0
0 0.605798 0
0 0.62031 0
0 0.631342 0
0 0.63743 0
0 0.638209 0
0 0.63679 0
0.0493782 0.637461 0
0.143481 0.633433 0
0.287877 0.613184 0
0.471916 0.578332 0.00228885
0.626413 0.544839 0.0202182
0.744228 0.539269 0.0421302
0.845365 0.549371 0.0612955
0.91899 0.553048 0.0720836
0.975677 0.555917 0.0751965
1 0.559853 0.074052
1 0.561502 0.0721141
1 0.557977 0.0709087
1 0.554772 0.070161
1 0.553002 0.0697795
1 0.553491 0.0699016
1 0.556329 0.0705577
1 0.561135 0.0716716
1 0.567132 0.0730602
1 0.574258 0.0747082
1 0.58088 0.0760662
1 0.58761 0.077348
1 0.594263 0.0786145
0 0.644266 0
0 0.652964 0
0 0.664546 0
0 0.676844 0
0 0.689372 0
0 0.703777 0
0 0.71812 0
0 0.728878 0
0 0.735012 0
0 0.736095 0
0 0.734051 0
0.0341955 0.733364 0
0.120455 0.727642 0
0.24744 0.700832 0
0.42501 0.656413 0
0.591959 0.617533 0.00840772
0.722316 0.623194 0.029984
0.833768 0.639261 0.053315
0.915633 0.64065 0.0721599
0.977279 0.639887 0.0831311
1 0.641184 0.0873884
1 0.642573 0.087892
1 0.641306 0.0871748
1 0.639002 0.0867628
1 0.637751 0.0866255
1 0.638148 0.0867781
1 0.64036 0.0872816
1 0.644526 0.0880598
1 0.649622 0.0886702
1 0.655558 0.0894026
1 0.662211 0.0902419
1 0.668467 0.0910506
1 0.674907 0.0918746
0 0.742153 0
0 0.750042 0
0.000106813 0.76141 0
0.000442512 0.773312 0
0.00102235 0.785367 0.000167849
0.00202945 0.798276 0.000900282
0.00355535 0.811963 0.00224308
0.00488289 0.82237 0.00343328
0.00576791 0.828626 0.00421149
0.00595102 0.830533 0.00433356
0.00538643 0.82829 0.00373846
0.0305791 0.826307 0.00474556
0.108019 0.824506 0.00805676
0.21471 0.811185 0.00735485
0.370169 0.785779 0.00181582
0.558801 0.76025 0.00254826
0.715312 0.744472 0.0193942
0.822583 0.735698 0.0413214
0.906462 0.72903 0.0626078
0.972366 0.724575 0.0788128
1 0.722393 0.089128
1 0.721996 0.0948653
1 0.721355 0.0966812
1 0.719585 0.096788
1 0.718288 0.096788
1 0.718135 0.0966659
1 0.720043 0.0967422
1 0.723476 0.0969253
1 0.728145 0.0972
1 0.732937 0.0974594
1 0.73814 0.0977646
1 0.743221 0.0980697
1 0.748608 0.0983902
0.00502022 0.834791 0.0043946
0.00688182 0.842329 0.00602731
0.00926223 0.852842 0.00794995
0.0120089 0.863935 0.0101778
0.014786 0.874815 0.012665
0.0178378 0.886748 0.0156405
0.0210422 0.899275 0.0188144
0.0236057 0.909316 0.0213474
0.0252384 0.915709 0.0229648
0.0256046 0.917281 0.023331
0.0251469 0.915541 0.0228733
0.0369573 0.912062 0.0228733
0.103166 0.911635 0.0260471
0.195315 0.907759 0.0258793
0.325444 0.89424 0.0181888
0.512551 0.865873 0.00782788
0.689815 0.835523 0.0132906
0.80618 0.817487 0.0303655
0.893965 0.806897 0.0506447
0.963043 0.800153 0.0684367
1 0.795026 0.0823072
1 0.792111 0.0925307
1 0.790204 0.0979324
1 0.78819 0.0993057
1 0.786725 0.0994125
1 0.786633 0.0993668
1 0.788251 0.099321
1 0.791318 0.0993057
1 0.795285 0.0993057
1 0.799558 0.0993057
1 0.803983 0.0993057
1 0.808316 0.099321
1 0.812894 0.099321
0.0259556 0.919432 0.0236667
0.0276493 0.926284 0.0253605
0.0300603 0.93611 0.0277409
0.0326238 0.946593 0.0302586
0.0350195 0.956634 0.032639
0.0375677 0.967071 0.0351415
0.0399329 0.975967 0.0374762
0.0416419 0.981964 0.0391699
0.0426184 0.985031 0.0401312
0.0429236 0.98555 0.0404212
0.0426795 0.984161 0.0401923
0.0458228 0.981613 0.0397803
0.0995804 0.980011 0.0414435
0.185077 0.977249 0.0411231
0.298573 0.968963 0.0338903
0.469429 0.947723 0.0187076
0.655329 0.913878 0.0126192
0.784512 0.89041 0.0218662
0.878538 0.877211 0.0390326
0.951904 0.869108 0.0565194
0.998352 0.862181 0.0716564
1 0.856931 0.0843671
1 0.853193 0.0931716
1 0.850553 0.0971237
1 0.84918 0.0979477
1 0.849042 0.0979477
1 0.850446 0.0978866
1 0.852903 0.0977798
1 0.855985 0.0976577
1 0.859876 0.0974899
1 0.863691 0.097322
1 0.86746 0.0971695
1 0.871122 0.09691
0.0431983 0.987167 0.0406958
0.0445411 0.99234 0.0420233
0.04654 0.998032 0.0439918
0.0479133 1 0.0453498
0.0488136 1 0.0462196
0.0496986 1 0.0470893
0.0504616 1 0.047837
0.0509346 1 0.0482948
0.0511788 1 0.0485237
0.0512245 1 0.0485847
0.0511788 1 0.0485389
0.0537423 1 0.0484627
0.0938735 1 0.0495613
0.173632 1 0.0495918
0.276768 1 0.0437018
0.434669 0.994873 0.0275731
0.618433 0.976318 0.0142824
0.759106 0.955627 0.0155489
0.860304 0.941207 0.0281224
0.938216 0.931777 0.0445869
0.990433 0.923812 0.0601053
1 0.917357 0.0739757
1 0.91249 0.0852674
1 0.909255 0.0921187
1 0.907469 0.0939498
1 0.906844 0.0940414
1 0.907622 0.0939956
1 0.909697 0.0938277
1 0.912444 0.0936141
1 0.915816 0.0933547
1 0.918715 0.0931106
1 0.921279 0.0928359
1 0.923781 0.0925612
0.052079 1 0.0494087
0.052369 1 0.0496986
0.052369 1 0.0496986
0.052369 1 0.0496986
0.052369 1 0.0496986
0.052369 1 0.0496986
0.052369 1 0.0496986
0.052369 1 0.0496986
0.052369 1 0.0496986
0.052369 1 0.0496986
0.052369 1 0.0496986
0.0540322 1 0.0497597
0.0840314 1 0.0507515
0.160037 1 0.0514534
0.25745 1 0.0469978
0.406012 1 0.0320134
0.586267 0.998535 0.0160372
0.734432 0.989181 0.0122377
0.840009 0.976974 0.020798
0.920882 0.968734 0.0357214
0.980636 0.962753 0.0509041
1 0.958129 0.0649119
1 0.954498 0.0773327
1 0.951598 0.0864576
1 0.950011 0.0895094
1 0.949401 0.0898756
1 0.94995 0.0898299
1 0.951385 0.0896773
1 0.953536 0.0894484
1 0.955566 0.0892348
1 0.956725 0.0890974
1 0.9579 0.0889601
1 0.958495 0.0888991
0.052369 1 0.0496986
0.052369 1 0.0496986
0.052369 1 0.0496986
0.052369 1 0.0496986
0.052369 1 0.0496986
0.052369 1 0.0496986
0.052369 1 0.0496986
0.052369 1 0.0496986
0.052369 1 0.0496986
0.052369 1 0.0496986
0.052369 1 0.0496986
0.0525063 1 0.0496986
0.0767834 1 0.0505837
0.148302 1 0.0517281
0.244862 1 0.0476997
0.385946 1 0.0341192
0.562478 1 0.0174411
0.714519 0.995621 0.0111086
0.82031 0.983825 0.0178988
0.903151 0.976242 0.0313268
0.972305 0.971176 0.0462043
0.99913 0.967407 0.0602426
1 0.964523 0.0728618
1 0.962325 0.0830701
1 0.961273 0.0877546
1 0.961028 0.0886091
1 0.96112 0.0885939
1 0.96141 0.0885634
1 0.961776 0.0885176
1 0.961822 0.0885176
1 0.961822 0.0885176
1 0.961822 0.0885176
1 0.961822 0.0885176
0.052369 1 0.0496986
0.052369 1 0.0496986
0.052369 1 0.0496986
0.052369 1 0.0496986
0.052369 1 0.0496986
0.052369 1 0.0496986
0.052369 1 0.0496986
0.052369 1 0.0496986
0.052369 1 0.0496986
0.052369 1 0.0496986
0.052369 1 0.0496986
0.052369 1 0.0496986
0.0693523 1 0.05037
0.142031 1 0.051667
0.237858 1 0.0480201
0.373831 1 0.0352636
0.546242 1 0.0184176
0.698604 0.998749 0.0107576
0.804761 0.985565 0.0163729
0.888258 0.977478 0.0285649
0.960449 0.972091 0.0432136
0.995789 0.968124 0.0572976
1 0.965194 0.0700084
1 0.963104 0.0807813
1 0.96199 0.0874342
1 0.961822 0.0885176
1 0.961822 0.0885176
1 0.961822 0.0885176
1 0.961822 0.0885176
1 0.961822 0.0885176
1 0.961822 0.0885176
1 0.961822 0.0885176
1 0.961822 0.0885176
0.052369 1 0.0496986
0.052369 1 0.0496986
0.052369 1 0.0496986
0.052369 1 0.0496986
0.052369 1 0.0496986
0.052369 1 0.0496986
0.052369 1 0.0496986
0.052369 1 0.0496986
0.052369 1 0.0496986
0.052369 1 0.0496986
0.052369 1 0.0496986
0.052369 1 0.0496986
0.0615549 1 0.0500496
0.142687 1 0.0514839
0.237354 1 0.0480201
0.371405 1 0.0354467
0.539956 1 0.018616
0.688045 0.998077 0.0112459
0.795209 0.986664 0.0155184
0.878752 0.978286 0.0268711
0.951415 0.972671 0.0412604
0.995758 0.968612 0.0552682
1 0.965591 0.0680552
1 0.963378 0.0792096
1 0.961975 0.087541
1 0.961822 0.0884718
1 0.961822 0.0885176
1 0.961822 0.0885176
1 0.961822 0.0885176
1 0.961822 0.0885176
1 0.961822 0.0885176
1 0.961822 0.0885176
1 0.961822 0.0885176
0.052369 1 0.0496986
0.052369 1 0.0496986
0.052369 1 0.0496986
0.052369 1 0.0496986
0.052369 1 0.0496986
0.052369 1 0.0496986
0.052369 1 0.0496986
0.052369 1 0.0496986
0.052369 1 0.0496986
0.052369 1 0.0496986
0.052369 1 0.0496986
0.0524605 1 0.0496986
0.0736095 1 0.0504158
0.14902 1 0.0514076
0.243412 1 0.0476997
0.377035 1 0.0349126
0.539818 1 0.0188602
0.684932 0.997253 0.0115511
0.790448 0.987213 0.0150759
0.874006 0.978683 0.0259861
0.946487 0.972992 0.040177
0.999466 0.968856 0.0541695
1 0.965835 0.0669108
1 0.963577 0.0781262
1 0.962051 0.0870069
1 0.961852 0.088304
1 0.961822 0.0885023
1 0.961822 0.0885176
1 0.961822 0.0885176
1 0.961822 0.0885176
1 0.961822 0.0885176
1 0.961822 0.0885176
1 0.961822 0.0885176
0.052369 1 0.0496986
0.052369 1 0.0496986
0.052369 1 0.0496986
0.052369 1 0.0496986
0.052369 1 0.0496986
0.052369 1 0.0496986
0.052369 1 0.0496986
0.052369 1 0.0496986
0.052369 1 0.0496986
