LUTs/68.cube
TITLE "Generate by Resolve"
LUT_3D_SIZE 5
0 0.00727855 0.0266423
0.101488 0.000488289 0.00444038
0.700877 0 0
0.951705 0 0
0.951705 0 0
0 0.101335 0
0.0746166 0.0984054 0.00209049
0.756436 0.00436408 0
0.952041 0 0
0.951873 0 0
0 0.552193 0
0 0.63743 0
0.744228 0.539269 0.0421302
1 0.553002 0.0697795
1 0.594263 0.0786145
0.052369 1 0.0496986
0.052369 1 0.0496986
0.546242 1 0.0184176
1 0.96199 0.0874342
1 0.961822 0.0885176
0.052369 1 0.0496986
0.052369 1 0.0496986
0.65687 1 0.0119631
1 0.962173 0.086244
1 0.961822 0.0885176
0 0 0.20708
0.090074 0 0.170489
0.695766 0 0.000457771
0.951705 0 0
0.951705 0 0
0 0.102373 0.118334
0.0617533 0.10576 0.132799
0.775601 0.00746166 0.0134585
0.953155 0 0
0.953323 0 0
0 0.576669 0
0 0.666117 0
0.764752 0.562356 0.0531167
1 0.577005 0.0750896
1 0.616053 0.0827344
0.052369 1 0.0496986
0.052369 1 0.0496986
0.577417 1 0.0157015
1 0.961898 0.0880751
1 0.961822 0.0885176
0.052369 1 0.0496986
0.052369 1 0.0496986
0.654902 1 0.0120546
1 0.962188 0.0861524
1 0.961822 0.0885176
0 0 0.941802
0.0238346 0 0.913207
0.623468 0 0.676875
0.959792 0 0.460731
0.960067 0 0.436042
0 0.0523842 0.885801
0.0217441 0.0632029 0.915663
0.741695 0 0.786923
0.957443 0 0.705684
0.957732 0 0.766674
0 0.58468 0.527138
0 0.672129 0.621073
0.647837 0.618173 0.675547
1 0.592218 0.62681
1 0.629114 0.67686
0.0554055 1 0.416007
0.053254 1 0.502251
0.469474 1 0.475303
1 0.977966 0.522744
1 0.974731 0.424491
0.0465248 1 0.611917
0.0441596 1 0.641001
0.494697 1 0.529381
0.999954 0.978668 0.499062
1 0.972992 0.336645
0 0 0.983688
0 0 0.983688
0.537911 0 0.956832
0.961913 0 0.964569
0.961913 0 0.964569
0 0.00758373 0.983413
0 0.024445 0.98352
0.695216 0 0.951263
0.961913 0 0.964569
0.961913 0 0.964569
0 0.553292 0.935576
0 0.641642 0.925139
0.619959 0.589624 1
1 0.561318 1
1 0.600427 1
0.0104524 1 0.942809
0.0104524 1 0.942809
0.3906 1 0.971786
0.974929 1 0.997009
1 0.999588 1
0.0104524 1 0.942809
0.0104524 1 0.942809
0.39147 1 0.971908
0.926436 1 0.990738
1 1 1
0 0 0.983688
0 0 0.983688
0.527245 0 0.957534
0.961913 0 0.964569
0.961913 0 0.964569
0 0.011368 0.983429
0 0.0326848 0.983627
0.720226 0 0.9514
0.961913 0 0.964569
0.961913 0 0.964569
0 0.574609 0.932387
0 0.670573 0.922927
0.642008 0.613336 1
1 0.584848 1
1 0.619989 1
0.0104524 1 0.942809
0.0104524 1 0.942809
0.402548 1 0.971771
0.976303 1 0.997208
1 0.999542 1
0.0104524 1 0.942809
0.0104524 1 0.942809
0.38587 1 0.971939
0.918746 1 0.989761
1 1 1
