LUTs/68.cube
TITLE "Generate by Resolve"
LUT_3D_SIZE 9
0 0.00727855 0.0266423
0.0147402 0.0015259 0.0210422
0.101488 0.000488289 0.00444038
0.338293 0 0
0.700877 0 0
0.944976 0 0
0.951705 0 0
0.951705 0 0
0.951705 0 0
0.000198367 0.0410315 0.0113527
0.00285344 0.0383307 0.00921645
0.0913558 0.0247349 0.00129702
0.339086 0 0
0.718624 0 0
0.948455 0 0
0.951705 0 0
0.951705 0 0
0.951705 0 0
0 0.101335 0
0 0.105974 0
0.0746166 0.0984054 0.00209049
0.336172 0.0605783 0
0.756436 0.00436408 0
0.952667 0 0
0.952041 0 0
0.951705 0 0
0.951873 0 0
0 0.242802 0
0 0.266758 0
0.00125124 0.29012 0
0.314412 0.249928 0.0116884
0.745007 0.211078 0.00227359
0.998383 0.196185 0.002121
0.994141 0.171756 0.000167849
0.996963 0.176562 0
0.999435 0.200229 0.00244144
0 0.552193 0
0 0.592248 0
0 0.63743 0
0.143481 0.633433 0
0.744228 0.539269 0.0421302
1 0.559853 0.074052
1 0.553002 0.0697795
1 0.567132 0.0730602
1 0.594263 0.0786145
0.0259556 0.919432 0.0236667
0.0350195 0.956634 0.032639
0.0426184 0.985031 0.0401312
0.0995804 0.980011 0.0414435
0.655329 0.913878 0.0126192
0.998352 0.862181 0.0716564
1 0.84918 0.0979477
1 0.855985 0.0976577
1 0.871122 0.09691
0.052369 1 0.0496986
0.052369 1 0.0496986
0.052369 1 0.0496986
0.0693523 1 0.05037
0.546242 1 0.0184176
0.960449 0.972091 0.0432136
1 0.96199 0.0874342
1 0.961822 0.0885176
1 0.961822 0.0885176
0.052369 1 0.0496986
0.052369 1 0.0496986
0.052369 1 0.0496986
0.109926 1 0.0513161
0.594034 1 0.015259
0.956542 0.972229 0.0424811
1 0.962249 0.0857862
1 0.961822 0.0885176
1 0.961822 0.0885176
0.052369 1 0.0496986
0.052369 1 0.0496986
0.052369 1 0.0496986
0.157565 1 0.0515908
0.65687 1 0.0119631
0.971633 0.971054 0.0464637
1 0.962173 0.086244
1 0.961822 0.0885176
1 0.961822 0.0885176
0 0.00392157 0.0819867
0.0114748 0.00015259 0.0766003
0.099855 7.62951e-05 0.0564736
0.337301 0 0.000289921
0.700191 0 0
0.945006 0 0
0.951705 0 0
0.951705 0 0
0.951705 0 0
0 0.0406653 0.060502
0.000640879 0.0381933 0.0588235
0.0910658 0.0238651 0.0480812
0.342641 0 0
0.72343 0 0
0.949065 0 0
0.951705 0 0
0.951705 0 0
0.951705 0 0
0.000137331 0.102434 0.0268711
0.000106813 0.108202 0.0289464
0.0730449 0.103197 0.0273442
0.348119 0.0635843 0
0.767117 0.00621042 0
0.953079 0 0
0.952148 0 0
0.951705 0 0
0.952056 0 0
0 0.249912 0
0 0.277058 0
0.00181582 0.301885 0
0.33228 0.26096 0.0120394
0.761624 0.224475 0.00392157
0.9991 0.208988 0.00369268
0.995941 0.184222 0.000396735
0.999191 0.190372 0
1 0.216327 0.00450141
0 0.564813 0
0 0.608667 0
0 0.653819 0
0.159136 0.647288 0
0.75671 0.551278 0.0436866
1 0.574502 0.0767071
1 0.567163 0.0729229
1 0.582147 0.0764324
1 0.608438 0.0813153
0.0289158 0.931411 0.0265965
0.037995 0.968139 0.0355688
0.0447547 0.990646 0.042237
0.111421 0.986343 0.0436713
0.672923 0.921935 0.0132448
0.998734 0.871702 0.0720531
1 0.858228 0.0974899
1 0.864866 0.0972305
1 0.879149 0.0962997
0.052369 1 0.0496986
0.052369 1 0.0496986
0.052369 1 0.0496986
0.0721752 1 0.0504616
0.563851 1 0.0168307
0.966064 0.97171 0.044419
1 0.961913 0.0879072
1 0.961822 0.0885176
1 0.961822 0.0885176
0.052369 1 0.0496986
0.052369 1 0.0496986
0.052369 1 0.0496986
0.118959 1 0.0514687
0.608942 1 0.014374
0.960708 0.971908 0.043534
1 0.962219 0.0860151
1 0.961822 0.0885176
1 0.961822 0.0885176
0.052369 1 0.0496986
0.052369 1 0.0496986
0.052369 1 0.0496986
0.163333 1 0.0514687
0.66247 1 0.0117647
0.972351 0.971008 0.0466773
1 0.962158 0.0862898
1 0.961822 0.0885176
1 0.961822 0.0885176
0 0 0.20708
0.00247196 0 0.200168
0.090074 0 0.170489
0.328084 0 0.0884871
0.695766 0 0.000457771
0.94551 0 0
0.951705 0 0
0.951705 0 0
0.951705 0 0
0 0.0324865 0.183291
9.15541e-05 0.0308232 0.181201
0.0840467 0.0188754 0.162234
0.338735 0 0.0906386
0.725109 0 0.0016022
0.950484 0 0
0.953368 0 0
0.951904 0 0
0.952605 0 0
0 0.102373 0.118334
0 0.109255 0.124529
0.0617533 0.10576 0.132799
0.353964 0.0641489 0.0881666
0.775601 0.00746166 0.0134585
0.954955 0 0
0.953155 0 0
0.953124 0 0
0.953323 0 0
0 0.255894 0.0361181
0 0.285664 0.0432746
0.0027924 0.311391 0.0498207
0.327337 0.27657 0.0660563
0.769619 0.237095 0.026627
0.999649 0.218509 0.0124208
0.99707 0.192615 0.00170901
1 0.199588 0.0030518
1 0.225834 0.00827039
0 0.576669 0
0 0.622171 0
0 0.666117 0
0.171283 0.657099 0
0.764752 0.562356 0.0531167
1 0.585092 0.0786145
1 0.577005 0.0750896
1 0.59115 0.0781567
1 0.616053 0.0827344
0.0314946 0.942107 0.02916
0.0399786 0.974975 0.0375219
0.046128 0.993744 0.0435798
0.120974 0.990173 0.0451667
0.688472 0.92163 0.0137789
0.999344 0.878279 0.0723888
1 0.863828 0.0971847
1 0.86952 0.0969711
1 0.882521 0.0960403
0.052369 1 0.0496986
0.052369 1 0.0496986
0.052369 1 0.0496986
0.0776074 1 0.0506294
0.577417 1 0.0157015
0.969635 0.971466 0.0451972
1 0.961898 0.0880751
1 0.961822 0.0885176
1 0.961822 0.0885176
0.052369 1 0.0496986
0.052369 1 0.0496986
0.052369 1 0.0496986
0.121614 1 0.0514992
0.611109 1 0.0142367
0.960098 0.971969 0.0433661
1 0.962203 0.0860609
1 0.961822 0.0885176
1 0.961822 0.0885176
0.052369 1 0.0496986
0.052369 1 0.0496986
0.052369 1 0.0496986
0.160403 1 0.0515602
0.654902 1 0.0120546
0.969024 0.971298 0.0456703
1 0.962188 0.0861524
1 0.961822 0.0885176
1 0.961822 0.0885176
0 0 0.564523
0 0 0.557198
0.0590982 0 0.518471
0.285603 0 0.401373
0.672984 0 0.221225
0.945846 0 0.106844
0.957534 0 0.0585794
0.956634 0 0.0367285
0.956512 0 0.0338293
0 0.00863661 0.539757
0 0.00770581 0.538598
0.0567025 0.00112917 0.513436
0.301213 0 0.414099
0.709026 0 0.250263
0.955489 0 0.146227
0.959121 0 0.103822
0.958968 0 0.0976883
0.959442 0 0.115755
0 0.0799573 0.464912
0 0.0874342 0.482765
0.0446174 0.086717 0.490242
0.332876 0.0497597 0.428061
0.769665 0.0018616 0.304555
0.96228 0 0.223484
0.960861 0 0.185382
0.961089 0 0.186709
0.961089 0 0.215
0 0.25565 0.257084
0 0.286503 0.281483
0 0.313588 0.306294
0.267628 0.292332 0.344884
0.763851 0.241443 0.274556
1 0.221851 0.235111
0.999969 0.197131 0.203967
1 0.204913 0.208682
1 0.23122 0.236423
0 0.582376 0.132479
0 0.627161 0.155627
0 0.671077 0.184405
0.157488 0.670878 0.205035
0.72462 0.586648 0.229511
0.994568 0.603632 0.197971
1 0.593606 0.179263
1 0.60795 0.183963
1 0.632334 0.200458
0.0340276 0.944335 0.10515
0.0424811 0.976059 0.130068
0.0489509 0.994476 0.159777
0.12282 0.991043 0.157382
0.646082 0.895003 0.155718
0.96936 0.853346 0.183185
1 0.865888 0.146166
1 0.870756 0.144778
1 0.882399 0.148821
0.0528267 1 0.0787366
0.0530861 1 0.0947738
0.0534829 1 0.11429
0.0791638 1 0.107012
0.558343 1 0.0534524
0.961303 0.973419 0.0653544
1 0.9626 0.0962997
1 0.96231 0.0950332
1 0.962142 0.0929122
0.0533608 1 0.107698
0.0540017 1 0.137682
0.0542763 1 0.150164
0.11548 1 0.129259
0.5785 1 0.056199
0.948852 0.973587 0.0530404
1 0.962356 0.0864424
1 0.961822 0.0885176
1 0.961822 0.0885176
0.0545968 1 0.164904
0.0551156 1 0.190234
0.0551003 1 0.189242
0.147936 1 0.155428
0.609232 1 0.0687419
0.954879 0.973556 0.0599069
1 0.962432 0.0860609
1 0.961822 0.0885176
1 0.961822 0.0885176
0 0 0.941802
0 0 0.937896
0.0238346 0 0.913207
0.23151 0 0.823316
0.623468 0 0.676875
0.924285 0 0.541955
0.959792 0 0.460731
0.960143 0 0.432334
0.960067 0 0.436042
0 0 0.930022
0 0 0.931289
0.0244144 0 0.916197
0.250935 0 0.8421
0.667338 0 0.715846
0.947112 0 0.615915
0.958511 0 0.558495
0.958358 0 0.567956
0.957916 0 0.615228
0 0.0523842 0.885801
0 0.0611124 0.906233
0.0217441 0.0632029 0.915663
0.295705 0.0301213 0.873259
0.741695 0 0.786923
0.958404 0 0.737652
0.957443 0 0.705684
0.957382 0 0.727657
0.957732 0 0.766674
0 0.227558 0.758923
0 0.259602 0.793103
0 0.289555 0.818143
0.249348 0.273442 0.836545
0.7514 0.222492 0.791562
1 0.203387 0.763409
1 0.180301 0.737514
1 0.187945 0.760922
1 0.213504 0.80264
0 0.58468 0.527138
0 0.628794 0.573541
0 0.672129 0.621073
0.123339 0.669032 0.652506
0.647837 0.618173 0.675547
0.968917 0.602869 0.64329
1 0.592218 0.62681
1 0.605585 0.643305
1 0.629114 0.67686
0.0349126 0.93962 0.450095
0.0404517 0.971084 0.497566
0.0435035 0.990784 0.548104
0.111727 0.986496 0.558602
0.549386 0.948791 0.557336
0.90602 0.861585 0.560067
1 0.870848 0.544182
1 0.875044 0.551232
1 0.885527 0.570932
0.0554055 1 0.416007
0.0545205 1 0.462211
0.053254 1 0.502251
0.0742199 1 0.493294
0.469474 1 0.475303
0.854932 0.995117 0.469474
1 0.977966 0.522744
1 0.974945 0.433783
1 0.974731 0.424491
0.0528572 1 0.504814
0.0502632 1 0.556832
0.0491188 1 0.575891
0.0993057 1 0.546212
0.4748 1 0.498222
0.847288 0.995438 0.402396
1 0.978347 0.492302
1 0.974716 0.424903
1 0.973297 0.352163
0.0465248 1 0.611917
0.0435187 1 0.647593
0.0441596 1 0.641001
0.123812 1 0.596948
0.494697 1 0.529381
0.848844 0.995666 0.416342
0.999954 0.978668 0.499062
1 0.974578 0.418326
1 0.972992 0.336645
0 0 0.983688
0 0 0.983688
0.00205997 0 0.983719
0.184375 0 0.981476
0.576944 0 0.954559
0.903563 0 0.953246
0.961135 0 0.935332
0.9608 0 0.922591
0.961044 0 0.932326
0 0 0.983688
0 0 0.983688
0.00540169 0 0.983719
0.206775 0 0.980468
0.628931 0 0.952255
0.940719 0 0.962798
0.961837 0 0.962112
0.961883 0 0.963729
0.961913 0 0.964569
0 0.0280156 0.983444
0 0.0373846 0.983536
0.00720226 0.0410925 0.983841
0.259022 0.0151522 0.978729
0.715038 0 0.951949
0.960571 0 0.964523
0.961913 0 0.964569
0.961913 0 0.964569
0.961913 0 0.964569
0 0.201617 0.981857
0 0.231601 0.979538
0 0.261494 0.976318
0.228626 0.250523 1
0.732219 0.203326 0.999405
0.999649 0.1879 1
1 0.167193 1
1 0.175494 1
1 0.199023 1
0 0.57377 0.932509
0 0.616648 0.927169
0 0.66009 0.923873
0.101213 0.655222 0.966293
0.635233 0.606149 1
0.964614 0.586191 1
1 0.575891 1
1 0.588937 1
1 0.611322 1
4.57771e-05 0.939254 0.913237
0.00111391 0.970123 0.938064
0.0033875 0.98941 0.94052
0.0591592 0.985534 0.94757
0.492866 0.94493 0.967132
0.853193 0.887785 0.970031
0.999893 0.870817 0.962463
0.999939 0.874022 0.972015
1 0.883848 0.991455
0.0178988 1 0.881224
0.0137789 1 0.915221
0.0108949 1 0.93904
0.0254063 1 0.931014
0.417777 1 0.9299
0.781567 1 0.901854
0.991196 0.993652 0.896696
1 0.991928 0.892989
1 0.991928 0.893263
0.0119478 1 0.930251
0.0108492 1 0.939467
0.0106661 1 0.941054
0.0449683 1 0.939162
0.41207 1 0.934783
0.751598 1 0.883558
0.970565 0.993591 0.859846
1 0.990387 0.872801
1 0.988846 0.850446
0.0104524 1 0.942809
0.0104524 1 0.942809
0.0104524 1 0.942809
0.0644236 1 0.947692
0.426444 1 0.945037
0.752956 1 0.890272
0.965209 0.993729 0.854017
1 0.989944 0.866529
1 0.988678 0.848264
0 0 0.983688
0 0 0.983688
0 0 0.983688
0.149752 0 0.982757
0.537911 0 0.956832
0.878416 0 0.957839
0.961913 0 0.964569
0.961913 0 0.964569
0.961913 0 0.964569
0 0 0.983688
0 0 0.983688
0 0 0.983688
0.175494 0 0.981949
0.598245 0 0.953521
0.923659 0 0.96141
0.961913 0 0.964569
0.961913 0 0.964569
0.961913 0 0.964569
0 0.00758373 0.983413
0 0.0188754 0.983429
0 0.024445 0.98352
0.234806 0.00610361 0.979324
0.695216 0 0.951263
0.955612 0 0.96405
0.961913 0 0.964569
0.961913 0 0.964569
0.961913 0 0.964569
0 0.178988 0.983154
0 0.209598 0.981247
0 0.240345 0.978469
0.210163 0.229389 0.999878
0.711711 0.183047 0.997101
0.99379 0.169696 1
1 0.15108 1
1 0.162982 1
1 0.1897 1
0 0.553292 0.935576
0 0.596887 0.929595
0 0.641642 0.925139
0.0883345 0.636378 0.964874
0.619959 0.589624 1
0.955215 0.570123 1
1 0.561318 1
1 0.576364 1
1 0.600427 1
0 0.927672 0.937102
0.000381476 0.960876 0.939681
0.00234989 0.983963 0.941512
0.0477455 0.981109 0.949081
0.473976 0.935332 0.980804
0.841108 0.875807 0.998016
0.999832 0.858869 1
1 0.860822 1
1 0.870512 1
0.0104524 1 0.942809
0.0104524 1 0.942809
0.0104524 1 0.942809
0.0164797 1 0.943648
0.3906 1 0.971786
0.757519 1 0.973922
0.974929 1 0.997009
1 0.999969 1
1 0.999588 1
0.0104524 1 0.942809
0.0104524 1 0.942809
0.0104524 1 0.942809
0.0351263 1 0.946197
0.378805 1 0.972
0.71722 1 0.971939
0.936309 1 0.99202
1 1 1
1 1 1
0.0104524 1 0.942809
0.0104524 1 0.942809
0.0104524 1 0.942809
0.0506752 1 0.948318
0.39147 1 0.971908
0.715663 1 0.971832
0.926436 1 0.990738
1 1 1
1 1 1
0 0 0.983688
0 0 0.983688
0 0 0.983688
0.140627 0 0.983017
0.5234 0 0.957778
0.86714 0 0.957
0.961913 0 0.964569
0.961913 0 0.964569
0.961913 0 0.964569
0 0 0.983688
0 0 0.983688
0 0 0.983688
0.175311 0 0.981979
0.599649 0 0.953399
0.923278 0 0.961379
0.961913 0 0.964569
0.961913 0 0.964569
0.961913 0 0.964569
0 0.00770581 0.983429
0 0.0210727 0.983444
0 0.0276493 0.983551
0.245838 0.00643931 0.978744
0.705623 0 0.951293
0.956909 0 0.964141
0.961913 0 0.964569
0.961913 0 0.964569
0.961913 0 0.964569
0 0.181369 0.983124
0 0.21799 0.980514
0 0.250248 0.977493
0.221469 0.23949 0.999954
0.72398 0.192111 0.998093
0.996216 0.178912 1
1 0.161349 1
1 0.174594 1
1 0.201801 1
0 0.558999 0.934569
0 0.606897 0.928496
0 0.653986 0.924132
0.0962387 0.648615 0.965682
0.629572 0.599954 1
0.959197 0.580911 1
1 0.572503 1
1 0.58677 1
1 0.610132 1
0 0.93257 0.937591
0.000564584 0.967803 0.940139
0.00303655 0.98912 0.941909
0.0546883 0.987076 0.95021
0.482689 0.940505 0.98024
0.843381 0.880369 0.997955
0.999786 0.862562 1
1 0.864775 1
0.999985 0.874449 1
0.0104524 1 0.942809
0.0104524 1 0.942809
0.0104524 1 0.942809
0.0174868 1 0.943786
0.394781 1 0.971801
0.75729 1 0.973907
0.97438 1 0.996948
1 0.999939 1
1 0.999481 1
0.0104524 1 0.942809
0.0104524 1 0.942809
0.0104524 1 0.942809
0.0365759 1 0.946395
0.378241 1 0.972
0.713832 1 0.971817
0.931792 1 0.99144
1 1 1
1 1 1
0.0104524 1 0.942809
0.0104524 1 0.942809
0.0104524 1 0.942809
0.0493935 1 0.94815
0.387304 1 0.971939
0.710338 1 0.971664
0.920241 1 0.98996
0.999969 1 1
1 1 1
0 0 0.983688
0 0 0.983688
0 0 0.983688
0.14139 0 0.983001
0.527245 0 0.957534
0.871519 0 0.957305
0.961913 0 0.964569
0.961913 0 0.964569
0.961913 0 0.964569
0 0 0.983688
0 0 0.983688
0 0 0.983688
0.182788 0 0.98172
0.614404 0 0.952667
0.930938 0 0.962005
0.961913 0 0.964569
0.961913 0 0.964569
0.961913 0 0.964569
0 0.011368 0.983429
0 0.0259251 0.983459
0 0.0326848 0.983627
0.261295 0.00743114 0.977981
0.720226 0 0.9514
0.958709 0 0.964309
0.961913 0 0.964569
0.961913 0 0.964569
0.961913 0 0.964569
0 0.191714 0.982574
0 0.232151 0.979263
0 0.263661 0.97615
0.235462 0.252033 1
0.740322 0.204456 0.999176
0.998581 0.191531 1
1 0.173632 1
1 0.186999 1
1 0.214191 1
0 0.574609 0.932387
0 0.624704 0.926619
0 0.670573 0.922927
0.106416 0.664927 0.96672
0.642008 0.613336 1
0.964721 0.594308 1
1 0.584848 1
1 0.597482 1
1 0.619989 1
1.5259e-05 0.945266 0.938537
0.00123598 0.977966 0.940917
0.00404364 0.99472 0.942351
0.0632334 0.993774 0.951522
0.494759 0.94786 0.9794
0.848508 0.88806 0.99794
0.999893 0.869307 1
1 0.870695 1
0.999969 0.879225 1
0.0104524 1 0.942809
0.0104524 1 0.942809
0.0104524 1 0.942809
0.0216526 1 0.94435
0.402548 1 0.971771
0.760693 1 0.97409
0.976303 1 0.997208
1 0.999939 1
1 0.999542 1
0.0104524 1 0.942809
0.0104524 1 0.942809
0.0104524 1 0.942809
0.0387274 1 0.946685
0.380636 1 0.971984
0.714153 1 0.971817
0.931243 1 0.991363
1 1 1
1 1 1
0.0104524 1 0.942809
0.0104524 1 0.942809
0.0104524 1 0.942809
0.0493782 1 0.948135
0.38587 1 0.971939
0.708431 1 0.971588
0.918746 1 0.989761
0.999954 1 1
1 1 1
