LUTs/69.cube
TITLE "Generate by Resolve"
LUT_3D_SIZE 9
0 0.00582895 0.0213169
0.0367895 0.00122072 0.0168307
0.131182 0.000396735 0.00355535
0.345632 0 0
0.6607 0 0
0.88098 0 0
0.91136 0 0
0.93637 0 0
0.961364 0 0
0.00015259 0.0578164 0.00907912
0.0272831 0.0556649 0.00737011
0.123079 0.0447852 0.00103761
0.346273 0.0249943 0
0.674891 0.0249943 0
0.883757 0.0249943 0
0.91136 0.0249943 0
0.93637 0.0249943 0
0.961364 0.0249943 0
0 0.13106 0
0.0249943 0.134783 0
0.109697 0.128725 0.00167849
0.343938 0.0984665 0
0.70515 0.0534829 0
0.887129 0.0500038 0
0.911635 0.0500038 0
0.93637 0.0500038 0
0.961501 0.0500038 0
0 0.269245 0
0.0249943 0.288411 0
0.0509957 0.307088 0
0.326528 0.274937 0.00935378
0.69601 0.243854 0.00181582
0.923705 0.231952 0.00169375
0.945312 0.212406 0.000137331
0.972564 0.216251 0
0.999542 0.235187 0.00195315
0 0.541756 0
0.0249943 0.5738 0
0.0500038 0.609949 0
0.189776 0.606744 0
0.695384 0.531411 0.0337072
0.925002 0.547875 0.0592355
0.949996 0.542397 0.0558175
0.975006 0.553704 0.0584421
1 0.575402 0.0628977
0.0207675 0.860548 0.0189364
0.0530098 0.890303 0.0261082
0.0840925 0.913024 0.032105
0.154665 0.90901 0.0331579
0.624262 0.856107 0.0101015
0.923674 0.81474 0.0573281
0.949996 0.804349 0.0783551
0.975006 0.809781 0.0781262
1 0.821897 0.0775311
0.0419013 0.949996 0.039765
0.0668956 0.949996 0.039765
0.0918898 0.949996 0.039765
0.13048 0.949996 0.0402991
0.536995 0.949996 0.0147402
0.893355 0.927672 0.0345769
0.949996 0.919585 0.0699474
0.975006 0.919463 0.0708171
1 0.919463 0.0708171
0.0419013 0.975006 0.039765
0.0668956 0.975006 0.039765
0.0918898 0.975006 0.039765
0.162936 0.975006 0.0410468
0.575219 0.975006 0.0122072
0.890227 0.952789 0.0339818
0.949996 0.944793 0.0686351
0.975006 0.944457 0.0708171
1 0.944457 0.0708171
0.0419013 1 0.039765
0.0668956 1 0.039765
0.0918898 1 0.039765
0.201053 1 0.0412757
0.625498 1 0.00956741
0.902312 0.976837 0.037171
0.949996 0.969741 0.0690013
0.975006 0.969451 0.0708171
1 0.969451 0.0708171
0 0.00314336 0.0905928
0.0341802 0.000122072 0.0862745
0.129885 6.10361e-05 0.0701762
0.344839 0 0.0252232
0.660151 0 0.0249943
0.88101 0 0.0249943
0.91136 0 0.0249943
0.93637 0 0.0249943
0.961364 0 0.0249943
0 0.0575265 0.0733959
0.0255131 0.0555581 0.0720531
0.12285 0.0440833 0.0634623
0.349111 0.0249943 0.0249943
0.678737 0.0249943 0.0249943
0.884245 0.0249943 0.0249943
0.91136 0.0249943 0.0249943
0.93637 0.0249943 0.0249943
0.961364 0.0249943 0.0249943
0.000106813 0.131945 0.0464942
0.0250858 0.136553 0.0481575
0.108431 0.132555 0.0468757
0.353491 0.100862 0.0249943
0.713695 0.054963 0.0249943
0.887465 0.0500038 0.0249943
0.911711 0.0500038 0.0249943
0.93637 0.0500038 0.0249943
0.961639 0.0500038 0.0249943
0 0.274922 0.0249943
0.0249943 0.296651 0.0249943
0.0514534 0.316503 0.0249943
0.340825 0.283772 0.0346227
0.7093 0.254582 0.0281376
0.924285 0.242191 0.0279545
0.946746 0.22237 0.0253147
0.97435 0.227298 0.0249943
1 0.248066 0.0285954
0 0.551843 0.0249943
0.0249943 0.586938 0.0249943
0.0500038 0.623056 0.0249943
0.202304 0.617823 0.0249943
0.705364 0.541024 0.0599527
0.925002 0.559594 0.0863661
0.949996 0.553735 0.0833295
0.975006 0.565713 0.0861372
1 0.586755 0.0900435
0.0231327 0.87013 0.0462806
0.0553902 0.899504 0.0534524
0.0858015 0.91751 0.058793
0.164141 0.914076 0.0599374
0.638331 0.862547 0.0355993
0.92398 0.822354 0.0826429
0.949996 0.811582 0.102983
0.975006 0.816892 0.102785
1 0.828321 0.102037
0.0419013 0.949996 0.0647593
0.0668956 0.949996 0.0647593
0.0918898 0.949996 0.0647593
0.132738 0.949996 0.0653697
0.55108 0.949996 0.038468
0.897856 0.927367 0.0605325
0.949996 0.919524 0.0953231
0.975006 0.919463 0.0958114
1 0.919463 0.0958114
0.0419013 0.975006 0.0647593
0.0668956 0.975006 0.0647593
0.0918898 0.975006 0.0647593
0.170169 0.975006 0.0661784
0.587152 0.975006 0.0364996
0.893568 0.952529 0.0598306
0.949996 0.944778 0.0938125
0.975006 0.944457 0.0958114
1 0.944457 0.0958114
0.0419013 1 0.0647593
0.0668956 1 0.0647593
0.0918898 1 0.0647593
0.205661 1 0.0661784
0.629969 1 0.0344091
0.902876 0.976806 0.0623331
0.949996 0.969726 0.0940261
0.975006 0.969451 0.0958114
1 0.969451 0.0958114
0 0 0.215656
0.026978 0 0.210132
0.122057 0 0.186389
0.337469 0 0.12079
0.656611 0 0.05037
0.881407 0 0.0500038
0.91136 0 0.0500038
0.93637 0 0.0500038
0.961364 0 0.0500038
0 0.0509804 0.196628
0.0250706 0.0496529 0.194965
0.117235 0.0401007 0.179782
0.345983 0.0249943 0.122515
0.680079 0.0249943 0.0512856
0.88539 0.0249943 0.0500038
0.912688 0.0249943 0.0500038
0.936522 0.0249943 0.0500038
0.962081 0.0249943 0.0500038
0 0.131899 0.144671
0.0249943 0.137407 0.149615
0.0993973 0.1346 0.156237
0.358175 0.10132 0.120531
0.720485 0.0559701 0.0607614
0.88896 0.0500038 0.0500038
0.91252 0.0500038 0.0500038
0.937499 0.0500038 0.0500038
0.962661 0.0500038 0.0500038
0 0.279713 0.0788891
0.0249943 0.303532 0.0846113
0.0522316 0.324117 0.0898604
0.336873 0.296254 0.102846
0.715694 0.264668 0.0713054
0.924712 0.249805 0.0599374
0.947662 0.229084 0.0513619
0.975006 0.234668 0.0524453
1 0.255665 0.056611
0 0.561334 0.0500038
0.0249943 0.597742 0.0500038
0.0500038 0.632898 0.0500038
0.212024 0.625681 0.0500038
0.711803 0.549889 0.0924849
0.925002 0.568078 0.112886
0.949996 0.561608 0.110063
0.975006 0.572915 0.11252
1 0.592844 0.116182
0.0251926 0.878691 0.0733196
0.0569772 0.904982 0.0800183
0.0869001 0.919997 0.0848554
0.171771 0.917144 0.0861372
0.650782 0.862303 0.0610208
0.924468 0.827619 0.107912
0.949996 0.816068 0.127749
0.975006 0.820615 0.127581
1 0.831022 0.126833
0.0419013 0.949996 0.0897536
0.0668956 0.949996 0.0897536
0.0918898 0.949996 0.0897536
0.137087 0.949996 0.0905013
0.561929 0.949996 0.062562
0.90071 0.927169 0.0861524
0.949996 0.919524 0.120455
0.975006 0.919463 0.120806
1 0.919463 0.120806
0.0419013 0.975006 0.0897536
0.0668956 0.975006 0.0897536
0.0918898 0.975006 0.0897536
0.17229 0.975006 0.0912032
0.588891 0.975006 0.061387
0.89308 0.952575 0.0846876
0.949996 0.944762 0.118853
0.975006 0.944457 0.120806
1 0.944457 0.120806
0.0419013 1 0.0897536
0.0668956 1 0.0897536
0.0918898 1 0.0897536
0.203326 1 0.091249
0.623926 1 0.0596475
0.900221 0.977035 0.0865339
0.949996 0.969757 0.118914
0.975006 0.969451 0.120806
1 0.969451 0.120806
0 0 0.526619
0.0249943 0 0.52076
0.0972763 0 0.489769
0.303487 0 0.396094
0.638392 0 0.251972
0.881682 0 0.160479
0.91603 0 0.121859
0.940307 0 0.104387
0.965209 0 0.102068
0 0.0319066 0.506798
0.0249943 0.0311589 0.505882
0.0953536 0.0258946 0.48574
0.315969 0.0249943 0.406271
0.667216 0.0249943 0.275212
0.889387 0.0249943 0.191974
0.917296 0.0249943 0.158053
0.942168 0.0249943 0.153155
0.967559 0.0249943 0.167605
0 0.11397 0.446921
0.0249943 0.119951 0.461204
0.0856947 0.119371 0.467185
0.341299 0.0897993 0.417441
0.715724 0.0514839 0.318639
0.89482 0.0500038 0.253788
0.918685 0.0500038 0.223301
0.943877 0.0500038 0.224369
0.968872 0.0500038 0.246998
0 0.279515 0.280659
0.0249943 0.304204 0.300191
0.0500038 0.325872 0.320027
0.289097 0.308858 0.350912
0.711086 0.268147 0.294636
0.925002 0.252476 0.263081
0.949981 0.2327 0.238178
0.975006 0.238926 0.241947
1 0.259968 0.264134
0 0.565896 0.180987
0.0249943 0.601724 0.199496
0.0500038 0.636866 0.222522
0.200992 0.636698 0.239033
0.679698 0.569314 0.25861
0.920653 0.58291 0.233371
0.949996 0.574884 0.218402
0.975006 0.586358 0.222171
1 0.605859 0.23537
0.0272221 0.880461 0.159121
0.0589761 0.905852 0.179049
0.0891585 0.920577 0.202823
0.173251 0.91783 0.2009
0.616861 0.841001 0.199573
0.900481 0.807675 0.221546
0.949996 0.817716 0.191928
0.975006 0.821607 0.190814
1 0.830915 0.194049
0.0422675 0.949996 0.137987
0.0674601 0.949996 0.15082
0.0927901 0.949996 0.16643
0.138323 0.949996 0.160601
0.54667 0.949996 0.117754
0.894041 0.92874 0.127275
0.949996 0.920073 0.152041
0.975006 0.919844 0.151019
1 0.919707 0.149325
0.0426947 0.975006 0.161151
0.0681926 0.975006 0.185138
0.0934157 0.975006 0.195132
0.167376 0.975006 0.178408
0.562799 0.975006 0.119951
0.884077 0.953872 0.117433
0.949996 0.944884 0.144152
0.975006 0.944457 0.145815
1 0.944457 0.145815
0.0436713 1 0.206928
0.0690929 1 0.227192
0.0940719 1 0.226398
0.193347 1 0.199344
0.587381 1 0.129992
0.888899 0.978851 0.122927
0.949996 0.96994 0.143847
0.975006 0.969451 0.145815
1 0.969451 0.145815
0 0 0.853437
0.0249943 0 0.850309
0.0690623 0 0.830564
0.260212 0 0.758648
0.598779 0 0.641505
0.864424 0 0.533562
0.91783 0 0.468589
0.943114 0 0.445869
0.968048 0 0.448829
0 0.0249943 0.844022
0.0249943 0.0249943 0.845029
0.0695354 0.0249943 0.832959
0.275746 0.0249943 0.773678
0.633875 0.0249943 0.672679
0.882689 0.0249943 0.592737
0.916808 0.0249943 0.546792
0.94168 0.0249943 0.55436
0.966339 0.0249943 0.592187
0 0.0919051 0.808637
0.0249943 0.0988937 0.824979
0.0673991 0.100557 0.832532
0.311559 0.0740978 0.798611
0.693355 0.0500038 0.729534
0.891722 0.0500038 0.69012
0.915953 0.0500038 0.664546
0.940902 0.0500038 0.682124
0.966186 0.0500038 0.713344
0 0.257038 0.707134
0.0249943 0.282673 0.734478
0.0500038 0.306645 0.754513
0.274479 0.293751 0.769238
0.701122 0.252995 0.733242
0.925002 0.237705 0.710719
0.949996 0.219242 0.690013
0.975006 0.22536 0.708736
1 0.245808 0.742107
0 0.567742 0.521706
0.0249943 0.603037 0.558831
0.0500038 0.637705 0.596857
0.173663 0.635218 0.622003
0.618265 0.594537 0.640436
0.90013 0.5823 0.614633
0.949996 0.57377 0.60145
0.975006 0.584466 0.614649
1 0.603296 0.641489
0.027924 0.876692 0.460075
0.0573587 0.901869 0.498054
0.0847944 0.917632 0.538476
0.164385 0.914199 0.546883
0.539513 0.884031 0.545861
0.849821 0.814267 0.548058
0.949996 0.821683 0.535348
0.975006 0.82504 0.540978
1 0.833417 0.556741
0.0443275 0.949996 0.432807
0.0686198 0.949996 0.469764
0.092607 0.949996 0.501793
0.134371 0.949996 0.494636
0.475578 0.949996 0.480247
0.808942 0.94609 0.475578
0.949996 0.932372 0.518196
0.975006 0.929961 0.447028
1 0.929778 0.439597
0.0422827 0.975006 0.503853
0.0652018 0.975006 0.545464
0.0892958 0.975006 0.560708
0.154437 0.975006 0.536965
0.479835 0.975006 0.498573
0.802823 0.971344 0.421912
0.949996 0.957671 0.493843
0.975006 0.954772 0.439918
1 0.953643 0.381735
0.0372168 1 0.589532
0.0598154 1 0.618067
0.0853285 1 0.612802
0.174044 1 0.577554
0.49575 1 0.523507
0.804074 0.996536 0.433066
0.949966 0.98294 0.499245
0.975006 0.97966 0.434653
1 0.978393 0.369314
0 0 0.911955
0.0249943 0 0.911955
0.0516518 0 0.911971
0.222492 0 0.910185
0.561547 0 0.88864
0.847852 0 0.887602
0.918914 0 0.873259
0.943633 0 0.863066
0.968841 0 0.870863
0 0.0249943 0.911955
0.0249943 0.0249943 0.911955
0.0543221 0.0249943 0.911971
0.240421 0.0249943 0.909377
0.603143 0.0249943 0.886809
0.877577 0.0249943 0.895232
0.919463 0.0249943 0.894682
0.944503 0.0249943 0.895979
0.969528 0.0249943 0.896651
0 0.0724041 0.911757
0.0249943 0.0799115 0.911833
0.0557565 0.0828717 0.912077
0.282216 0.0621195 0.907988
0.672023 0.0500038 0.886564
0.893462 0.0500038 0.89662
0.919524 0.0500038 0.896651
0.944533 0.0500038 0.896651
0.969528 0.0500038 0.896651
0 0.236286 0.910491
0.0249943 0.260273 0.908629
0.0500038 0.284199 0.90605
0.257893 0.27541 0.925002
0.685771 0.237659 0.924529
0.924712 0.225315 0.925002
0.949996 0.208759 0.925002
0.975006 0.215396 0.925002
1 0.234211 0.925002
0 0.559014 0.871
0.0249943 0.593317 0.866728
0.0500038 0.628077 0.864103
0.155962 0.62417 0.898039
0.608179 0.584924 0.925002
0.896696 0.568948 0.925002
0.949996 0.560708 0.925002
0.975006 0.571145 0.925002
1 0.589059 0.925002
3.0518e-05 0.876402 0.855589
0.0258946 0.901091 0.875456
0.0527047 0.916533 0.877409
0.122332 0.91342 0.883055
0.494285 0.880949 0.898711
0.807553 0.835233 0.90103
0.94992 0.821653 0.894972
0.974945 0.824216 0.902617
1 0.832074 0.918166
0.014313 0.949996 0.829984
0.0360266 0.949996 0.857176
0.0587167 0.949996 0.876234
0.0953231 0.949996 0.86981
0.434226 0.949996 0.868925
0.750256 0.949996 0.846479
0.942962 0.944915 0.842359
0.975006 0.943542 0.839384
1 0.943542 0.839612
0.00955215 0.975006 0.8692
0.0336767 0.975006 0.87657
0.0585336 0.975006 0.877836
0.110979 0.975006 0.876326
0.429648 0.975006 0.872831
0.726284 0.975006 0.831846
0.926452 0.969879 0.812879
0.975006 0.967315 0.82324
1 0.966079 0.805356
0.00836194 1 0.87924
0.0333562 1 0.87924
0.0583658 1 0.87924
0.126543 1 0.883146
0.441154 1 0.881025
0.727367 1 0.837217
0.922164 0.99498 0.808209
0.975006 0.991958 0.818219
1 0.990936 0.803616
0 0 0.93695
0.0249943 0 0.93695
0.0500038 0 0.93695
0.194797 0 0.936202
0.530327 0 0.915465
0.827726 0 0.916274
0.919524 0 0.92166
0.944533 0 0.92166
0.969528 0 0.92166
0 0.0249943 0.93695
0.0249943 0.0249943 0.93695
0.0500038 0.0249943 0.93695
0.215396 0.0249943 0.935561
0.578592 0.0249943 0.91281
0.86392 0.0249943 0.919127
0.919524 0.0249943 0.92166
0.944533 0.0249943 0.92166
0.969528 0.0249943 0.92166
0 0.0560616 0.936736
0.0249943 0.065095 0.936736
0.0500038 0.0695506 0.936812
0.262837 0.0548867 0.933455
0.656168 0.0500038 0.911009
0.889494 0.0500038 0.921233
0.919524 0.0500038 0.92166
0.944533 0.0500038 0.92166
0.969528 0.0500038 0.92166
0 0.218189 0.936522
0.0249943 0.242679 0.934997
0.0500038 0.267277 0.932769
0.243122 0.258503 0.949905
0.669367 0.221439 0.947677
0.920027 0.210758 0.949996
0.949996 0.195865 0.949996
0.975006 0.205386 0.949996
1 0.226764 0.949996
0 0.542626 0.898466
0.0249943 0.577508 0.893675
0.0500038 0.613306 0.890105
0.145663 0.609094 0.921904
0.595972 0.571694 0.949996
0.889174 0.5561 0.949996
0.949996 0.54905 0.949996
0.975006 0.56109 0.949996
1 0.580346 0.949996
0 0.86714 0.899687
0.0252995 0.893706 0.901747
0.0518807 0.912169 0.903212
0.113191 0.90988 0.90927
0.479179 0.873259 0.934646
0.797879 0.82565 0.948409
0.949859 0.8121 0.949996
0.975006 0.813657 0.949996
1 0.821408 0.949996
0.00836194 0.949996 0.90425
0.0333562 0.949996 0.90425
0.0583658 0.949996 0.90425
0.0881819 0.949996 0.904921
0.412482 0.949996 0.927428
0.731014 0.949996 0.929137
0.929946 0.949996 0.947601
0.975006 0.949981 0.949996
1 0.949676 0.949996
0.00836194 0.975006 0.90425
0.0333562 0.975006 0.90425
0.0583658 0.975006 0.90425
0.103105 0.975006 0.90695
0.403037 0.975006 0.927596
0.698772 0.975006 0.92755
0.899046 0.975006 0.943618
0.975006 0.975006 0.949996
1 0.975006 0.949996
0.00836194 1 0.90425
0.0333562 1 0.90425
0.0583658 1 0.90425
0.115541 1 0.90866
0.413169 1 0.92752
0.697536 1 0.927459
0.891142 1 0.942596
0.975006 1 0.949996
1 1 0.949996
0 0 0.961944
0.0249943 0 0.961944
0.0500038 0 0.961944
0.187503 0 0.96141
0.518715 0 0.941222
0.818708 0 0.940597
0.919524 0 0.946654
0.944533 0 0.946654
0.969528 0 0.946654
0 0.0249943 0.961944
0.0249943 0.0249943 0.961944
0.0500038 0.0249943 0.961944
0.215244 0.0249943 0.960586
0.579721 0.0249943 0.937713
0.863615 0.0249943 0.944106
0.919524 0.0249943 0.946654
0.944533 0.0249943 0.946654
0.969528 0.0249943 0.946654
0 0.0561685 0.961746
0.0249943 0.0668498 0.961761
0.0500038 0.0721141 0.961837
0.271672 0.0551461 0.957992
0.6645 0.0500038 0.936034
0.890532 0.0500038 0.946319
0.919524 0.0500038 0.946654
0.944533 0.0500038 0.946654
0.969528 0.0500038 0.946654
0 0.220096 0.961501
0.0249943 0.249393 0.959411
0.0500038 0.275196 0.957
0.252171 0.26659 0.97496
0.679179 0.228687 0.97348
0.921965 0.218128 0.975006
0.949996 0.204074 0.975006
0.975006 0.214679 0.975006
1 0.236439 0.975006
0 0.547204 0.922652
0.0249943 0.585519 0.9178
0.0500038 0.623194 0.914305
0.151995 0.618891 0.94754
0.603662 0.579965 0.975006
0.892363 0.564721 0.975006
0.949996 0.558007 0.975006
0.975006 0.569421 0.975006
1 0.588098 0.975006
0 0.871061 0.925078
0.025452 0.899245 0.927108
0.05243 0.916289 0.928527
0.118746 0.914656 0.935164
0.486152 0.877409 0.959197
0.79971 0.829297 0.973358
0.949828 0.815045 0.975006
0.975006 0.816815 0.975006
0.999985 0.824552 0.975006
0.00836194 0.949996 0.929244
0.0333562 0.949996 0.929244
0.0583658 0.949996 0.929244
0.0889906 0.949996 0.930022
0.415824 0.949996 0.952438
0.730831 0.949996 0.954131
0.929503 0.949996 0.972564
0.975006 0.94995 0.975006
1 0.949584 0.975006
0.00836194 0.975006 0.929244
0.0333562 0.975006 0.929244
0.0583658 0.975006 0.929244
0.104265 0.975006 0.932113
0.402594 0.975006 0.952605
0.696071 0.975006 0.952453
0.89543 0.975006 0.968154
0.975006 0.975006 0.975006
1 0.975006 0.975006
0.00836194 1 0.929244
0.0333562 1 0.929244
0.0583658 1 0.929244
0.114519 1 0.933516
0.409842 1 0.952544
0.693263 1 0.952331
0.886198 1 0.966964
0.974975 1 0.975006
1 1 0.975006
0 0 0.986954
0.0249943 0 0.986954
0.0500038 0 0.986954
0.188113 0 0.986404
0.521798 0 0.966033
0.822217 0 0.96585
0.919524 0 0.971649
0.944533 0 0.971649
0.969528 0 0.971649
0 0.0249943 0.986954
0.0249943 0.0249943 0.986954
0.0500038 0.0249943 0.986954
0.221225 0.0249943 0.985382
0.591516 0.0249943 0.962127
0.869749 0.0249943 0.969604
0.919524 0.0249943 0.971649
0.944533 0.0249943 0.971649
0.969528 0.0249943 0.971649
0 0.0590982 0.98674
0.0249943 0.0707408 0.98677
0.0500038 0.0761425 0.986908
0.284031 0.0559396 0.982391
0.676173 0.0500038 0.96112
0.891966 0.0500038 0.97145
0.919524 0.0500038 0.971649
0.944533 0.0500038 0.971649
0.969528 0.0500038 0.971649
0 0.228367 0.986053
0.0249943 0.260716 0.983413
0.0500038 0.285924 0.980926
0.263371 0.276631 1
0.692256 0.23856 0.999344
0.923858 0.228229 1
0.949996 0.213901 1
0.975006 0.224598 1
1 0.246357 1
0 0.559686 0.945907
0.0249943 0.599756 0.941299
0.0500038 0.636454 0.938338
0.160128 0.631937 0.973373
0.613611 0.590661 1
0.896773 0.575448 1
0.949996 0.56788 1
0.975006 0.577981 1
1 0.595987 1
1.5259e-05 0.881209 0.950835
0.0259861 0.907378 0.952728
0.0532387 0.920775 0.953887
0.125582 0.920012 0.961212
0.495811 0.883284 0.98352
0.8038 0.835447 0.998352
0.94992 0.820447 1
0.975006 0.821561 1
0.999969 0.828382 1
0.00836194 0.949996 0.954253
0.0333562 0.949996 0.954253
0.0583658 0.949996 0.954253
0.0923171 0.949996 0.955474
0.422034 0.949996 0.977417
0.733547 0.949996 0.979278
0.931044 0.949996 0.997772
0.975006 0.94995 1
1 0.94963 1
0.00836194 0.975006 0.954253
0.0333562 0.975006 0.954253
0.0583658 0.975006 0.954253
0.105974 0.975006 0.957351
0.404501 0.975006 0.977584
0.696315 0.975006 0.977447
0.894987 0.975006 0.993088
0.975006 0.975006 1
1 0.975006 1
0.00836194 1 0.954253
0.0333562 1 0.954253
0.0583658 1 0.954253
0.114504 1 0.958511
0.408698 1 0.977554
0.691737 1 0.977264
0.884993 1 0.991806
0.97496 1 1
1 1 1
