LUTs/69.cube
TITLE "Generate by Resolve"
LUT_3D_SIZE 33
0 0.00582895 0.0213169
0.00624094 0.00489815 0.0204776
0.0136263 0.00352483 0.0191958
0.0233463 0.00216678 0.0178988
0.0367895 0.00122072 0.0168307
0.0551766 0.000427253 0.0151064
0.0763104 0.000213626 0.012314
0.101183 0.000289921 0.00857557
0.131182 0.000396735 0.00355535
0.168048 0.000167849 0.000427253
0.212634 0 0
0.270558 0 0
0.345632 0 0
0.428 0 0
0.5066 0 0
0.583337 0 0
0.6607 0 0
0.731777 0 0
0.792813 0 0
0.846433 0 0
0.88098 0 0
0.892607 0 0
0.898863 0 0
0.905119 0 0
0.91136 0 0
0.917617 0 0
0.923858 0 0
0.930114 0 0
0.93637 0 0
0.942611 0 0
0.948867 0 0
0.955108 0 0
0.961364 0 0
0 0.017792 0.0169528
0.00624094 0.0171817 0.0164492
0.0129549 0.0161593 0.0157473
0.0217441 0.0149996 0.0151369
0.0343175 0.0138857 0.0148775
0.0528572 0.0124819 0.0132143
0.0740215 0.011017 0.0106966
0.0990158 0.00936904 0.00724804
0.129305 0.00775158 0.00271611
0.166567 0.00657664 0.000198367
0.211368 0.00624094 0
0.269581 0.00624094 0
0.345129 0.00624094 0
0.428275 0.00624094 0
0.50721 0.00624094 0
0.584314 0.00624094 0
0.662104 0.00624094 0
0.733242 0.00624094 0
0.79443 0.00624094 0
0.847562 0.00624094 0
0.881285 0.00624094 0
0.892607 0.00624094 0
0.898863 0.00624094 0
0.905119 0.00624094 0
0.91136 0.00624094 0
0.917617 0.00624094 0
0.923858 0.00624094 0
0.930114 0.00624094 0
0.93637 0.00624094 0
0.942611 0.00624094 0
0.948867 0.00624094 0
0.955108 0.00624094 0
0.961364 0.00624094 0
1.5259e-05 0.0304417 0.0137484
0.0062562 0.0299687 0.0133974
0.0127565 0.0291295 0.0128634
0.0207675 0.0281376 0.0124819
0.0319219 0.0270542 0.0124819
0.0507973 0.0252384 0.0115969
0.0717327 0.023331 0.00906386
0.0966049 0.0207065 0.00564584
0.127153 0.0173648 0.00178531
0.164599 0.0144198 0
0.209537 0.0128176 0
0.267857 0.0125124 0
0.343175 0.0124971 0
0.427054 0.0124971 0
0.506676 0.0124971 0
0.58439 0.0124971 0
0.663005 0.0124971 0
0.734829 0.0124971 0
0.796429 0.0124971 0
0.84921 0.0124971 0
0.881743 0.0124971 0
0.892607 0.0124971 0
0.898863 0.0124971 0
0.905119 0.0124971 0
0.91136 0.0124971 0
0.917617 0.0124971 0
0.923858 0.0124971 0
0.930114 0.0124971 0
0.93637 0.0124971 0
0.942611 0.0124971 0
0.948867 0.0124971 0
0.955108 0.0124971 0
0.961364 0.0124971 0
4.57771e-05 0.0437629 0.0112764
0.00630198 0.0433356 0.0109712
0.0127565 0.0426032 0.0104677
0.0201419 0.0417639 0.0100252
0.029572 0.0408942 0.00988785
0.0486458 0.0388952 0.00949111
0.0698558 0.0367437 0.00772107
0.0946059 0.0338903 0.0043946
0.124956 0.0297398 0.00117494
0.162799 0.0247349 0
0.208591 0.0201267 0
0.26772 0.0188144 0
0.344335 0.0187533 0
0.429282 0.0187533 0
0.509712 0.0187533 0
0.58819 0.0187533 0
0.667079 0.0187533 0
0.738994 0.0187533 0
0.800031 0.0187533 0
0.852186 0.0187533 0
0.882475 0.0187533 0
0.892607 0.0187533 0
0.898863 0.0187533 0
0.905119 0.0187533 0
0.91136 0.0187533 0
0.917617 0.0187533 0
0.923858 0.0187533 0
0.930114 0.0187533 0
0.93637 0.0187533 0
0.942611 0.0187533 0
0.948867 0.0187533 0
0.955108 0.0187533 0
0.961364 0.0187533 0
0.00015259 0.0578164 0.00907912
0.00640879 0.0575113 0.00881971
0.0126955 0.0569009 0.00834669
0.019379 0.0562905 0.00781262
0.0272831 0.0556649 0.00737011
0.0455329 0.0539406 0.00593576
0.0691081 0.0509804 0.00679026
0.0935988 0.0483864 0.00437934
0.123079 0.0447852 0.00103761
0.160906 0.0391546 0
0.207202 0.0318151 0
0.26772 0.0254368 0
0.346273 0.0249943 0
0.432761 0.0249943 0
0.514366 0.0249943 0
0.594705 0.0249943 0
0.674891 0.0249943 0
0.746593 0.0249943 0
0.807141 0.0249943 0
0.857588 0.0249943 0
0.883757 0.0249943 0
0.892607 0.0249943 0
0.898863 0.0249943 0
0.905119 0.0249943 0
0.91136 0.0249943 0
0.917617 0.0249943 0
0.923858 0.0249943 0
0.930114 0.0249943 0
0.93637 0.0249943 0
0.942611 0.0249943 0
0.948867 0.0249943 0
0.955108 0.0249943 0
0.961364 0.0249943 0
0.000137331 0.073228 0.00552377
0.00637827 0.0730297 0.00529488
0.0126497 0.072694 0.00494392
0.018967 0.0723278 0.00454719
0.0256504 0.0720531 0.00422675
0.0418708 0.0707408 0.00314336
0.0666514 0.0675212 0.00328069
0.0936141 0.0641489 0.00430304
0.122576 0.0609598 0.00225834
0.159197 0.0559854 0.000228885
0.205921 0.0483406 0
0.267231 0.0385595 0
0.348592 0.0318761 0
0.43711 0.0312505 0
0.52047 0.0312505 0
0.603052 0.0312505 0
0.685008 0.0312505 0
0.75613 0.0312505 0
0.816953 0.0312505 0
0.864408 0.0312505 0
0.8851 0.0312505 0
0.892607 0.0312505 0
0.898863 0.0312505 0
0.905119 0.0312505 0
0.91136 0.0312505 0
0.917617 0.0312505 0
0.923858 0.0312505 0
0.930114 0.0312505 0
0.93637 0.0312505 0
0.942611 0.0312505 0
0.948867 0.0312505 0
0.955108 0.0312505 0
0.961364 0.0312505 0
0.000122072 0.0901656 0.00192264
0.00636301 0.090135 0.00181582
0.0126192 0.0901045 0.00164797
0.0188754 0.090074 0.00146487
0.0251164 0.0901045 0.00131228
0.0385138 0.0892348 0.000854505
0.0604868 0.0869001 0.000793469
0.0901961 0.0829938 0.0028687
0.122332 0.0790265 0.0043183
0.15819 0.0749828 0.00180056
0.203983 0.0684215 0.000122072
0.266056 0.0581064 0
0.350423 0.0450294 0
0.441337 0.0388342 0
0.526879 0.0374914 0
0.611963 0.0374914 0
0.695155 0.0374914 0
0.764904 0.0374914 0
0.826078 0.0374914 0
0.869596 0.0374914 0
0.885817 0.0374914 0
0.892607 0.0374914 0
0.898863 0.0374914 0
0.905119 0.0374914 0
0.91136 0.0374914 0
0.917617 0.0374914 0
0.923858 0.0374914 0
0.930114 0.0374914 0
0.93637 0.0374914 0
0.942611 0.0374914 0
0.948867 0.0374914 0
0.955108 0.0374914 0
0.961364 0.0374914 0
6.10361e-05 0.109209 0.00015259
0.00630198 0.109468 0.00015259
0.0125429 0.109819 0.000137331
0.0187991 0.110216 0.000122072
0.0250401 0.110689 9.15541e-05
0.0350347 0.110506 3.0518e-05
0.052079 0.109316 0
0.0817273 0.105928 0.000854505
0.119356 0.101061 0.00437934
0.15816 0.0964828 0.00529488
0.201984 0.0914015 0.00148013
0.263142 0.0824598 0
0.349233 0.0683146 0
0.443076 0.0540932 0
0.531167 0.0463722 0
0.618921 0.0439002 0
0.702663 0.0437476 0
0.771572 0.0437476 0
0.832639 0.0437476 0
0.872831 0.0437476 0
0.88629 0.0437476 0
0.892607 0.0437476 0
0.898863 0.0437476 0
0.905119 0.0437476 0
0.91136 0.0437476 0
0.917617 0.0437476 0
0.923858 0.0437476 0
0.930114 0.0437476 0
0.93637 0.0437476 0
0.942611 0.0437476 0
0.948867 0.0437476 0
0.955108 0.0437476 0
0.961364 0.0437476 0
0 0.13106 0
0.00624094 0.13164 0
0.0124971 0.132494 0
0.0187533 0.133516 0
0.0249943 0.134783 0
0.0321965 0.135561 0
0.0432441 0.135348 0
0.0683757 0.133562 0
0.109697 0.128725 0.00167849
0.155978 0.122576 0.00663767
0.202167 0.117342 0.00634775
0.258961 0.11078 0.000946059
0.343938 0.0984665 0
0.440055 0.0832837 0
0.530297 0.0680705 0
0.620295 0.0578775 0
0.70515 0.0534829 0
0.774914 0.0509041 0
0.835935 0.0500038 0
0.875212 0.0500038 0
0.887129 0.0500038 0
0.893156 0.0500038 0
0.899367 0.0500038 0
0.905547 0.0500038 0
0.911635 0.0500038 0
0.917693 0.0500038 0
0.923858 0.0500038 0
0.930114 0.0500038 0
0.93637 0.0500038 0
0.942611 0.0500038 0
0.948943 0.0500038 0
0.95523 0.0500038 0
0.961501 0.0500038 0
0 0.156634 0
0.00624094 0.157717 0
0.0124971 0.159045 0
0.0187533 0.160876 0
0.0249943 0.163043 0
0.0312505 0.165011 0
0.0382849 0.166094 0
0.0559854 0.165713 0
0.0930953 0.162585 9.15541e-05
0.145846 0.155703 0.00332647
0.201404 0.148211 0.00956741
0.259037 0.141924 0.00726329
0.337591 0.132876 0.000564584
0.432517 0.119738 0
0.524651 0.105867 0
0.616358 0.0923629 0
0.703777 0.0818036 0
0.775143 0.074464 0
0.836896 0.0704509 0
0.878798 0.0678416 0
0.891142 0.0645762 0
0.896574 0.0611124 0
0.902205 0.0578775 0
0.907912 0.0562448 0
0.913634 0.0562448 0
0.919585 0.0562448 0
0.925795 0.0562448 0
0.932052 0.0562448 0
0.938445 0.0569619 0
0.944976 0.0580911 0
0.951461 0.0588846 0
0.957732 0.0593423 0
0.964431 0.0600443 0
0 0.186862 0
0.00624094 0.188434 0
0.0124971 0.190631 0
0.0187533 0.193179 0
0.0249943 0.19646 0
0.0312505 0.199802 0
0.0374914 0.201984 0
0.0476539 0.202655 0
0.0743267 0.201465 0
0.126116 0.196277 0.000381476
0.191775 0.187228 0.00546273
0.259663 0.178119 0.0126345
0.336873 0.170062 0.0068513
0.426596 0.160632 0.000228885
0.518654 0.149355 0
0.610437 0.137484 0
0.70042 0.128099 0
0.774029 0.121965 0
0.837461 0.11751 0
0.884489 0.113146 0
0.899489 0.1066 0
0.904311 0.0999924 0
0.909392 0.0945449 0
0.914733 0.0906996 0
0.920272 0.0875868 0
0.92604 0.0846723 0
0.932326 0.0844739 0
0.938888 0.0857404 0
0.945586 0.0876783 0
0.952422 0.0904555 0
0.959258 0.0933089 0
0.96611 0.0962387 0
0.973175 0.100313 0
0 0.223102 0
0.00624094 0.225238 0
0.0124971 0.228717 0
0.0187533 0.232486 0
0.0249943 0.237079 0
0.0312505 0.241993 0
0.0374914 0.245777 0
0.0439002 0.247684 0
0.0593423 0.2477 0
0.101076 0.245258 0
0.169482 0.236835 4.57771e-05
0.24979 0.224613 0.0077821
0.338048 0.213153 0.0140383
0.427924 0.20528 0.00697337
0.51632 0.197879 0.000534066
0.605524 0.188754 0
0.696941 0.18117 0
0.773068 0.176669 0
0.838453 0.173693 0
0.891127 0.170764 0
0.911894 0.164935 0
0.916442 0.158221 0
0.92137 0.152926 0
0.926604 0.14876 0
0.932097 0.145632 0
0.937972 0.144015 0
0.944305 0.144244 0
0.950942 0.145708 0
0.957839 0.148333 0
0.964858 0.151461 0
0.971954 0.154955 0
0.97908 0.158495 0
0.986481 0.163287 0
0 0.269245 0
0.00624094 0.272282 0
0.0124971 0.277058 0
0.0187533 0.282063 0
0.0249943 0.288411 0
0.0312505 0.295415 0
0.0374914 0.301656 0
0.0437476 0.305684 0
0.0509957 0.307088 0
0.0767834 0.306325 0
0.136477 0.301915 0
0.223255 0.290471 0
0.326528 0.274937 0.00935378
0.431739 0.26247 0.0164492
0.523522 0.254902 0.0119783
0.607889 0.24892 0.00354009
0.69601 0.243854 0.00181582
0.772396 0.240574 0.00111391
0.838407 0.238514 0.00115969
0.895445 0.236652 0.00154116
0.923705 0.231952 0.00169375
0.928862 0.225422 0.00141909
0.934051 0.220035 0.00102235
0.939498 0.215595 0.000534066
0.945312 0.212406 0.000137331
0.951537 0.210834 0
0.958221 0.211246 0
0.96527 0.213169 0
0.972564 0.216251 0
0.979995 0.22002 0
0.987213 0.224323 0.000106813
0.993255 0.229297 0.00105287
0.999542 0.235187 0.00195315
0 0.326787 0
0.00624094 0.330892 0
0.0124971 0.336873 0
0.0187533 0.343694 0
0.0249943 0.351919 0
0.0312505 0.361044 0
0.0374914 0.36936 0
0.0437476 0.375036 0
0.0500038 0.377386 0
0.0619974 0.377386 0
0.10634 0.376532 0
0.186175 0.369955 0
0.298848 0.353353 0.00166323
0.421927 0.335988 0.0131533
0.531334 0.324727 0.0225071
0.620569 0.319112 0.0217899
0.701564 0.316838 0.0159152
0.77319 0.314778 0.0119936
0.83714 0.313191 0.0110628
0.893782 0.311391 0.0117342
0.925002 0.307698 0.0121614
0.931243 0.301259 0.0111696
0.937499 0.295109 0.0100099
0.943755 0.290608 0.00917067
0.949996 0.287495 0.00875868
0.956252 0.28603 0.00875868
0.962493 0.286839 0.00906386
0.96875 0.289464 0.00952163
0.975006 0.293843 0.0102083
0.981247 0.29897 0.011017
0.987503 0.304967 0.0119936
0.993744 0.310719 0.0129244
1 0.317449 0.0140688
0 0.394049 0
0.00624094 0.399374 0
0.0124971 0.406943 0
0.0187533 0.414939 0
0.0249943 0.424231 0
0.0312505 0.434195 0
0.0374914 0.443503 0
0.0437476 0.450156 0
0.0500038 0.453666 0
0.0564431 0.454002 0
0.0867323 0.454551 0
0.154589 0.452827 0
0.261601 0.440497 0.00015259
0.398596 0.42121 0.00538643
0.527611 0.405966 0.0196689
0.630488 0.39617 0.030396
0.710628 0.392203 0.0325475
0.777813 0.391867 0.0299992
0.837308 0.392508 0.0271916
0.890944 0.392187 0.0257877
0.925002 0.390372 0.0253452
0.931243 0.385168 0.024506
0.937499 0.379217 0.0234531
0.943755 0.375174 0.0227207
0.949996 0.372457 0.0222171
0.956252 0.37145 0.0220798
0.962493 0.373022 0.022446
0.96875 0.376593 0.0231174
0.975006 0.381735 0.0240635
0.981247 0.387747 0.0251316
0.987503 0.39443 0.0263218
0.993744 0.4009 0.027451
1 0.408042 0.0287175
0 0.467552 0
0.00624094 0.473289 0
0.0124971 0.481102 0
0.0187533 0.489662 0
0.0249943 0.49868 0
0.0312505 0.508751 0
0.0374914 0.518334 0
0.0437476 0.525231 0
0.0500038 0.52929 0
0.0562448 0.529564 0
0.0715496 0.529671 0
0.129396 0.530465 0
0.223148 0.523903 0
0.359808 0.506325 0
0.506004 0.486549 0.00988785
0.624079 0.471901 0.0266423
0.713451 0.466621 0.0395514
0.785351 0.466743 0.0458228
0.843824 0.469032 0.0460517
0.894011 0.471519 0.0440833
0.925002 0.472877 0.0420233
0.931243 0.471107 0.0406195
0.937499 0.466392 0.0395361
0.943755 0.462837 0.0387274
0.949996 0.460624 0.0382696
0.956252 0.460472 0.0383001
0.962493 0.462486 0.0388342
0.96875 0.466514 0.0397803
0.975006 0.472007 0.0410773
0.981247 0.478248 0.0425269
0.987503 0.48481 0.0440375
0.993744 0.491539 0.0455787
1 0.49839 0.0471504
0 0.541756 0
0.00624094 0.547372 0
0.0124971 0.555627 0
0.0187533 0.564401 0
0.0249943 0.5738 0
0.0312505 0.584634 0
0.0374914 0.596246 0
0.0437476 0.605066 0
0.0500038 0.609949 0
0.0562448 0.610559 0
0.062501 0.60943 0
0.108248 0.609964 0
0.189776 0.606744 0
0.311543 0.590539 0
0.465034 0.562661 0.00183108
0.594873 0.535866 0.0161746
0.695384 0.531411 0.0337072
0.782544 0.539498 0.0490425
0.847684 0.542443 0.0576638
0.89929 0.544732 0.0601511
0.925002 0.547875 0.0592355
0.931243 0.549203 0.0576944
0.937499 0.54638 0.056733
0.943755 0.543816 0.0561227
0.949996 0.542397 0.0558175
0.956252 0.542794 0.0559243
0.962493 0.545068 0.0564431
0.96875 0.548913 0.0573434
0.975006 0.553704 0.0584421
0.981247 0.559411 0.0597696
0.987503 0.564706 0.060853
0.993744 0.570092 0.0618753
1 0.575402 0.0628977
0 0.621668 0
0.00624094 0.628626 0
0.0124971 0.637888 0
0.0187533 0.64773 0
0.0249943 0.65774 0
0.0312505 0.669276 0
0.0374914 0.680751 0
0.0437476 0.689357 0
0.0500038 0.694255 0
0.0562448 0.695125 0
0.062501 0.693492 0
0.0961013 0.692943 0
0.171359 0.688365 0
0.279194 0.666911 0
0.427512 0.631373 0
0.567315 0.600275 0.00672923
0.677852 0.604807 0.0239872
0.773266 0.617655 0.042649
0.844999 0.618769 0.0577249
0.900572 0.618158 0.0664988
0.925002 0.619196 0.0699168
0.931243 0.62031 0.0703136
0.937499 0.619287 0.0697337
0.943755 0.617456 0.0694133
0.949996 0.616449 0.0693065
0.956252 0.61677 0.0694285
0.962493 0.61854 0.0698253
0.96875 0.621866 0.0704509
0.975006 0.62594 0.0709392
0.981247 0.630701 0.071519
0.987503 0.636011 0.0721904
0.993744 0.641016 0.0728466
1 0.646174 0.0735027
0 0.706218 0
0.00624094 0.712535 0
0.0125887 0.72163 0
0.0191043 0.731151 0
0.0258183 0.740795 0.000137331
0.0328679 0.751125 0.000717174
0.0403449 0.762066 0.00180056
0.0476539 0.770397 0.00274662
0.054612 0.775402 0.00337224
0.0610056 0.776928 0.0034638
0.066804 0.775128 0.00299077
0.0932174 0.773541 0.0037995
0.16141 0.772107 0.00643931
0.25301 0.76144 0.00588998
0.383627 0.741115 0.00144961
0.540795 0.720699 0.00204471
0.672251 0.70808 0.0155184
0.764309 0.70106 0.033051
0.837674 0.69572 0.0500801
0.896635 0.692164 0.0630503
0.925002 0.69041 0.0713054
0.931243 0.690089 0.0758984
0.937499 0.689586 0.077348
0.943755 0.688167 0.0774243
0.949996 0.687129 0.0774243
0.956252 0.687007 0.0773327
0.962493 0.688533 0.0773938
0.96875 0.691279 0.0775464
0.975006 0.695018 0.07776
0.981247 0.698848 0.0779736
0.987503 0.703014 0.0782177
0.993744 0.707073 0.0784619
1 0.711391 0.078706
0.00401312 0.786587 0.00350958
0.0117494 0.792615 0.00482185
0.019913 0.801022 0.00636301
0.0283513 0.809903 0.00814832
0.03682 0.818601 0.010132
0.0455177 0.828153 0.0125124
0.0543374 0.838163 0.0150454
0.0626383 0.846204 0.0170748
0.0701915 0.851316 0.0183719
0.0767376 0.852567 0.0186618
0.0826123 0.851179 0.0182956
0.0983139 0.848402 0.0182956
0.157534 0.848051 0.0208438
0.237507 0.844953 0.0207065
0.34786 0.834134 0.0145571
0.503792 0.811444 0.0062562
0.65185 0.787167 0.0106355
0.751186 0.772732 0.0242924
0.827665 0.764263 0.0405127
0.889189 0.758877 0.0547494
0.925002 0.754772 0.0658427
0.931243 0.752438 0.0740215
0.937499 0.750912 0.0783398
0.943755 0.749294 0.0794385
0.949996 0.748135 0.07953
0.956252 0.748058 0.0794995
0.962493 0.749355 0.0794537
0.96875 0.751797 0.0794385
0.975006 0.754971 0.0794385
0.981247 0.758389 0.0794385
0.987503 0.761929 0.0794385
0.993744 0.765408 0.0794537
1 0.76907 0.0794537
0.0207675 0.860548 0.0189364
0.0283665 0.866026 0.0202945
0.0365454 0.873884 0.0221866
0.0448463 0.882277 0.0242008
0.0530098 0.890303 0.0261082
0.0612955 0.89865 0.0281071
0.0694438 0.905776 0.029984
0.0770581 0.910567 0.031342
0.0840925 0.913024 0.032105
0.0905928 0.913436 0.0323339
0.0966354 0.912322 0.0321508
0.105409 0.910292 0.0318303
0.154665 0.90901 0.0331579
0.229313 0.906798 0.0328985
0.32636 0.900175 0.0271153
0.469291 0.883177 0.0149691
0.624262 0.856107 0.0101015
0.733852 0.837324 0.0174868
0.815335 0.826764 0.03122
0.880278 0.820279 0.0452125
0.923674 0.81474 0.0573281
0.931243 0.810544 0.0674907
0.937499 0.807553 0.0745403
0.943755 0.805447 0.0776989
0.949996 0.804349 0.0783551
0.956252 0.804227 0.0783551
0.962493 0.805356 0.0783093
0.96875 0.807324 0.0782177
0.975006 0.809781 0.0781262
0.981247 0.812894 0.0779889
0.987503 0.815946 0.0778515
0.993744 0.818967 0.0777295
1 0.821897 0.0775311
0.0345617 0.920989 0.0325628
0.041886 0.925124 0.0336156
0.0497292 0.929671 0.0351873
0.057084 0.931243 0.036286
0.0640421 0.931243 0.0369726
0.0710002 0.931243 0.0376745
0.0778668 0.931243 0.0382696
0.0844892 0.931243 0.0386358
0.0909438 0.931243 0.038819
0.0972305 0.931243 0.0388647
0.103441 0.931243 0.0388342
0.111742 0.931243 0.0387732
0.150103 0.931243 0.0396429
0.220157 0.931243 0.0396735
0.308919 0.931243 0.0349584
0.441489 0.927153 0.0220645
0.594751 0.912306 0.011429
0.713527 0.89575 0.0124361
0.800748 0.884215 0.0224918
0.869322 0.876677 0.0356756
0.917342 0.870298 0.0480812
0.931243 0.865141 0.0591745
0.937499 0.861234 0.0682078
0.943755 0.858656 0.0737011
0.949996 0.857221 0.0751659
0.956252 0.856718 0.075227
0.962493 0.857343 0.0751965
0.96875 0.859007 0.0750591
0.975006 0.861204 0.0748913
0.981247 0.863905 0.0746777
0.987503 0.866224 0.0744945
0.993744 0.868269 0.0742657
1 0.870268 0.074052
0.0416571 0.937499 0.0395209
0.0481422 0.937499 0.039765
0.0543984 0.937499 0.039765
0.0606394 0.937499 0.039765
0.0668956 0.937499 0.039765
0.0731365 0.937499 0.039765
0.0793927 0.937499 0.039765
0.0856489 0.937499 0.039765
0.0918898 0.937499 0.039765
0.098146 0.937499 0.039765
0.104387 0.937499 0.039765
0.111971 0.937499 0.0398108
0.142229 0.937499 0.0406043
0.209277 0.937499 0.0411688
0.293462 0.937499 0.0375982
0.418555 0.937499 0.0256046
0.569009 0.936324 0.0128328
0.693797 0.928847 0.00979629
0.784512 0.919081 0.0166323
0.855451 0.91249 0.0285801
0.909514 0.907698 0.0407263
0.931243 0.904005 0.0519265
0.937499 0.901091 0.0618601
0.943755 0.898772 0.0691691
0.949996 0.897505 0.0716106
0.956252 0.897017 0.0719005
0.962493 0.897459 0.07187
0.96875 0.898604 0.0717479
0.975006 0.900328 0.0715648
0.981247 0.901946 0.0713817
0.987503 0.902876 0.0712749
0.993744 0.903822 0.0711681
1 0.904295 0.0711223
0.0419013 0.943755 0.039765
0.0481422 0.943755 0.039765
0.0543984 0.943755 0.039765
0.0606394 0.943755 0.039765
0.0668956 0.943755 0.039765
0.0731365 0.943755 0.039765
0.0793927 0.943755 0.039765
0.0856489 0.943755 0.039765
0.0918898 0.943755 0.039765
0.098146 0.943755 0.039765
0.104387 0.943755 0.039765
0.11075 0.943755 0.039765
0.136431 0.943755 0.0404669
0.199893 0.943755 0.0413825
0.283391 0.943755 0.0381628
0.402502 0.943755 0.0272984
0.549981 0.943755 0.0139467
0.677867 0.940246 0.00888075
0.76875 0.930816 0.014313
0.841276 0.924743 0.0250553
0.902846 0.920684 0.0369573
0.930556 0.917678 0.048188
0.937499 0.915373 0.0582895
0.943755 0.913603 0.066453
0.949996 0.912764 0.0702068
0.956252 0.912566 0.0708934
0.962493 0.912642 0.0708782
0.96875 0.912871 0.0708476
0.975006 0.913176 0.0708171
0.981247 0.913207 0.0708171
0.987503 0.913207 0.0708171
0.993744 0.913207 0.0708171
1 0.913207 0.0708171
0.0419013 0.949996 0.039765
0.0481422 0.949996 0.039765
0.0543984 0.949996 0.039765
0.0606394 0.949996 0.039765
0.0668956 0.949996 0.039765
0.0731365 0.949996 0.039765
0.0793927 0.949996 0.039765
0.0856489 0.949996 0.039765
0.0918898 0.949996 0.039765
0.098146 0.949996 0.039765
0.104387 0.949996 0.039765
0.110643 0.949996 0.039765
0.13048 0.949996 0.0402991
0.194873 0.949996 0.0413367
0.27779 0.949996 0.0384222
0.392813 0.949996 0.0282139
0.536995 0.949996 0.0147402
0.665125 0.949004 0.00860609
0.756313 0.938445 0.0130922
0.829358 0.931975 0.022858
0.893355 0.927672 0.0345769
0.927886 0.924498 0.0458381
0.937499 0.922148 0.0560006
0.943755 0.920485 0.064622
0.949996 0.919585 0.0699474
0.956252 0.919463 0.0708171
0.962493 0.919463 0.0708171
0.96875 0.919463 0.0708171
0.975006 0.919463 0.0708171
0.981247 0.919463 0.0708171
0.987503 0.919463 0.0708171
0.993744 0.919463 0.0708171
1 0.919463 0.0708171
0.0419013 0.956252 0.039765
0.0481422 0.956252 0.039765
0.0543984 0.956252 0.039765
0.0606394 0.956252 0.039765
0.0668956 0.956252 0.039765
0.0731365 0.956252 0.039765
0.0793927 0.956252 0.039765
0.0856489 0.956252 0.039765
0.0918898 0.956252 0.039765
0.098146 0.956252 0.039765
0.104387 0.956252 0.039765
0.110643 0.956252 0.039765
0.124239 0.956252 0.0400397
0.195392 0.956252 0.0411841
0.277378 0.956252 0.0384222
0.390875 0.956252 0.0283513
0.53196 0.956252 0.0148928
0.656687 0.954711 0.00900282
0.748669 0.945586 0.0124208
0.821744 0.938872 0.0215
0.886137 0.934386 0.0330053
0.927855 0.931136 0.0442206
0.937499 0.928725 0.0544442
0.943755 0.926955 0.0633707
0.949996 0.925826 0.0700389
0.956252 0.925704 0.0707713
0.962493 0.925704 0.0708171
0.96875 0.925704 0.0708171
0.975006 0.925704 0.0708171
0.981247 0.925704 0.0708171
0.987503 0.925704 0.0708171
0.993744 0.925704 0.0708171
1 0.925704 0.0708171
0.0419013 0.962493 0.039765
0.0481422 0.962493 0.039765
0.0543984 0.962493 0.039765
0.0606394 0.962493 0.039765
0.0668956 0.962493 0.039765
0.0731365 0.962493 0.039765
0.0793927 0.962493 0.039765
0.0856489 0.962493 0.039765
0.0918898 0.962493 0.039765
0.098146 0.962493 0.039765
0.104387 0.962493 0.039765
0.110719 0.962493 0.039765
0.133883 0.962493 0.0403296
0.200458 0.962493 0.0411231
0.282231 0.962493 0.0381628
0.395377 0.962493 0.027924
0.531853 0.962493 0.0150912
0.6542 0.960296 0.00924697
0.744854 0.95227 0.0120546
0.81796 0.945449 0.0207828
0.882185 0.940887 0.0321355
0.930816 0.937591 0.0433356
0.937499 0.935164 0.0535286
0.943755 0.933364 0.062501
0.949996 0.932143 0.0696117
0.956252 0.931975 0.0706493
0.962493 0.93196 0.0708019
0.96875 0.93196 0.0708171
0.975006 0.93196 0.0708171
0.981247 0.93196 0.0708171
0.987503 0.93196 0.0708171
0.993744 0.93196 0.0708171
1 0.93196 0.0708171
0.0419013 0.96875 0.039765
0.0481422 0.96875 0.039765
0.0543984 0.96875 0.039765
0.0606394 0.96875 0.039765
0.0668956 0.96875 0.039765
0.0731365 0.96875 0.039765
0.0793927 0.96875 0.039765
0.0856489 0.96875 0.039765
0.0918898 0.96875 0.039765
