LUTs/69.cube
TITLE "Generate by Resolve"
LUT_3D_SIZE 5
0 0.00582895 0.0213169
0.131182 0.000396735 0.00355535
0.6607 0 0
0.91136 0 0
0.961364 0 0
0 0.13106 0
0.109697 0.128725 0.00167849
0.70515 0.0534829 0
0.911635 0.0500038 0
0.961501 0.0500038 0
0 0.541756 0
0.0500038 0.609949 0
0.695384 0.531411 0.0337072
0.949996 0.542397 0.0558175
1 0.575402 0.0628977
0.0419013 0.949996 0.039765
0.0918898 0.949996 0.039765
0.536995 0.949996 0.0147402
0.949996 0.919585 0.0699474
1 0.919463 0.0708171
0.0419013 1 0.039765
0.0918898 1 0.039765
0.625498 1 0.00956741
0.949996 0.969741 0.0690013
1 0.969451 0.0708171
0 0 0.215656
0.122057 0 0.186389
0.656611 0 0.05037
0.91136 0 0.0500038
0.961364 0 0.0500038
0 0.131899 0.144671
0.0993973 0.1346 0.156237
0.720485 0.0559701 0.0607614
0.91252 0.0500038 0.0500038
0.962661 0.0500038 0.0500038
0 0.561334 0.0500038
0.0500038 0.632898 0.0500038
0.711803 0.549889 0.0924849
0.949996 0.561608 0.110063
1 0.592844 0.116182
0.0419013 0.949996 0.0897536
0.0918898 0.949996 0.0897536
0.561929 0.949996 0.062562
0.949996 0.919524 0.120455
1 0.919463 0.120806
0.0419013 1 0.0897536
0.0918898 1 0.0897536
0.623926 1 0.0596475
0.949996 0.969757 0.118914
1 0.969451 0.120806
0 0 0.853437
0.0690623 0 0.830564
0.598779 0 0.641505
0.91783 0 0.468589
0.968048 0 0.448829
0 0.0919051 0.808637
0.0673991 0.100557 0.832532
0.693355 0.0500038 0.729534
0.915953 0.0500038 0.664546
0.966186 0.0500038 0.713344
0 0.567742 0.521706
0.0500038 0.637705 0.596857
0.618265 0.594537 0.640436
0.949996 0.57377 0.60145
1 0.603296 0.641489
0.0443275 0.949996 0.432807
0.092607 0.949996 0.501793
0.475578 0.949996 0.480247
0.949996 0.932372 0.518196
1 0.929778 0.439597
0.0372168 1 0.589532
0.0853285 1 0.612802
0.49575 1 0.523507
0.949966 0.98294 0.499245
1 0.978393 0.369314
0 0 0.93695
0.0500038 0 0.93695
0.530327 0 0.915465
0.919524 0 0.92166
0.969528 0 0.92166
0 0.0560616 0.936736
0.0500038 0.0695506 0.936812
0.656168 0.0500038 0.911009
0.919524 0.0500038 0.92166
0.969528 0.0500038 0.92166
0 0.542626 0.898466
0.0500038 0.613306 0.890105
0.595972 0.571694 0.949996
0.949996 0.54905 0.949996
1 0.580346 0.949996
0.00836194 0.949996 0.90425
0.0583658 0.949996 0.90425
0.412482 0.949996 0.927428
0.929946 0.949996 0.947601
1 0.949676 0.949996
0.00836194 1 0.90425
0.0583658 1 0.90425
0.413169 1 0.92752
0.891142 1 0.942596
1 1 0.949996
0 0 0.986954
0.0500038 0 0.986954
0.521798 0 0.966033
0.919524 0 0.971649
0.969528 0 0.971649
0 0.0590982 0.98674
0.0500038 0.0761425 0.986908
0.676173 0.0500038 0.96112
0.919524 0.0500038 0.971649
0.969528 0.0500038 0.971649
0 0.559686 0.945907
0.0500038 0.636454 0.938338
0.613611 0.590661 1
0.949996 0.56788 1
1 0.595987 1
0.00836194 0.949996 0.954253
0.0583658 0.949996 0.954253
0.422034 0.949996 0.977417
0.931044 0.949996 0.997772
1 0.94963 1
0.00836194 1 0.954253
0.0583658 1 0.954253
0.408698 1 0.977554
0.884993 1 0.991806
1 1 1
