LUTs/7.cube
LUT_3D_SIZE 16
-0.089649 -0.088072 -0.056945
-0.068997 -0.087527 -0.055915
0.014556 -0.086130 -0.053250
0.045075 -0.082251 -0.045004
0.101055 -0.072684 0.016608
0.197708 -0.048885 0.060466
0.338630 0.030310 0.095285
0.505448 0.045156 0.110921
0.662094 0.057788 0.123466
0.787643 0.069338 0.134997
0.873058 0.080117 0.145817
0.924704 0.090133 0.155784
0.956005 0.099111 0.164586
0.975154 0.106500 0.171760
0.986309 0.111596 0.176646
0.992862 0.114873 0.179784
-0.087907 -0.066112 -0.053544
-0.066439 -0.065279 -0.052421
0.014967 -0.072210 -0.050822
0.045364 -0.065424 -0.041556
0.101396 -0.044314 0.027409
0.198107 0.036383 0.063522
0.339034 0.064409 0.096820
0.505796 0.082644 0.111844
0.662371 0.096371 0.124231
0.787833 0.105629 0.135666
0.873159 0.111627 0.146428
0.924789 0.116071 0.156343
0.956039 0.120042 0.165092
0.975141 0.123455 0.172195
0.986357 0.125580 0.177034
0.992840 0.126614 0.180132
-0.083366 0.031632 -0.043494
-0.068986 0.031820 -0.042503
0.016667 0.032651 -0.037845
0.046575 0.041279 -0.015809
0.102845 0.060038 0.048797
0.199734 0.089078 0.074737
0.340709 0.121151 0.102253
0.507327 0.151173 0.115549
0.663606 0.171862 0.127373
0.788617 0.182319 0.138480
0.873678 0.184405 0.149007
0.925104 0.181820 0.158692
0.956260 0.177902 0.167229
0.975333 0.173829 0.174150
0.986454 0.169456 0.178768
0.993009 0.165068 0.181646
-0.069085 0.071252 0.038144
-0.045724 0.071354 0.039402
0.025128 0.071792 0.044229
0.049037 0.073095 0.052259
0.105766 0.098220 0.071754
0.203071 0.135351 0.097962
0.344172 0.181065 0.110549
0.510406 0.224216 0.122277
0.666012 0.253253 0.133381
0.790336 0.266537 0.143995
0.874665 0.266601 0.154110
0.925690 0.259014 0.163408
0.956638 0.248893 0.171550
0.975579 0.238421 0.178032
0.986679 0.228027 0.182240
0.993200 0.218214 0.184707
0.006521 0.130960 0.089268
0.019001 0.131064 0.089843
0.044049 0.131501 0.091999
0.074430 0.132392 0.095480
0.110427 0.135221 0.099840
0.208445 0.183691 0.110384
0.349675 0.243558 0.120811
0.515338 0.299806 0.131708
0.669917 0.337042 0.142262
0.793051 0.353213 0.152383
0.876349 0.351615 0.161985
0.926690 0.339626 0.170750
0.957305 0.324125 0.178311
0.976179 0.308074 0.184214
0.987012 0.292257 0.187737
0.993547 0.277475 0.189552
0.023255 0.226522 0.113762
0.036452 0.226623 0.113971
0.071084 0.227149 0.114839
0.115535 0.228157 0.116560
0.163142 0.229792 0.119190
0.216007 0.235538 0.122716
0.357422 0.309397 0.132779
0.522191 0.378118 0.143576
0.675350 0.423026 0.153927
0.796825 0.441595 0.163688
0.878589 0.438069 0.172771
0.928041 0.421820 0.180928
0.958152 0.401208 0.187780
0.976782 0.379897 0.192829
0.987539 0.358982 0.195442
0.993873 0.339537 0.196351
0.040938 0.365421 0.134510
0.058492 0.365537 0.134683
0.107446 0.366041 0.135414
0.167436 0.367083 0.136885
0.230421 0.368751 0.139198
0.295312 0.371102 0.142398
0.367537 0.379457 0.146523
0.531298 0.459895 0.157819
0.682517 0.511456 0.168352
0.801689 0.531619 0.177942
0.881495 0.525631 0.186599
0.929818 0.505015 0.194048
0.959315 0.479301 0.200037
0.977638 0.452861 0.204081
0.988259 0.427033 0.205519
0.994557 0.402991 0.205269
0.063032 0.528837 0.157657
0.084255 0.529033 0.157821
0.144503 0.529465 0.158535
0.217288 0.530361 0.159940
0.294232 0.531843 0.162187
0.373352 0.533979 0.165347
0.454165 0.536733 0.169462
0.542495 0.545696 0.174605
0.691340 0.602712 0.185645
0.807658 0.623399 0.195249
0.885151 0.614354 0.203525
0.932052 0.588964 0.210273
0.960771 0.558122 0.215265
0.978649 0.526608 0.218091
0.989057 0.495921 0.218107
0.995280 0.467360 0.216415
0.089193 0.681427 0.182758
0.110932 0.681515 0.182919
0.173920 0.681834 0.183609
0.253209 0.682602 0.185008
0.338144 0.683771 0.187218
0.425764 0.685395 0.190366
0.515159 0.687556 0.194502
0.605973 0.690235 0.199701
0.701638 0.696985 0.205995
0.814839 0.716972 0.215814
0.889421 0.703857 0.223771
0.934700 0.673457 0.229737
0.962523 0.637307 0.233624
0.980004 0.600772 0.235008
0.990165 0.565301 0.233300
0.996117 0.532286 0.229898
0.118555 0.802299 0.209294
0.137172 0.802312 0.209461
0.195759 0.802612 0.210136
0.274217 0.803105 0.211512
0.360465 0.803926 0.213720
0.450151 0.805067 0.216826
0.541778 0.806439 0.220941
0.634846 0.808288 0.226101
0.728974 0.810603 0.232409
0.823048 0.812273 0.239880
0.894366 0.794395 0.247569
0.937726 0.758344 0.252684
0.964582 0.716893 0.255281
0.981532 0.675287 0.254990
0.991407 0.635049 0.251297
0.997167 0.597644 0.245839
0.148877 0.883200 0.236562
0.163305 0.883239 0.236719
0.212806 0.883402 0.237394
0.284221 0.883655 0.238716
0.365669 0.884156 0.240864
0.451869 0.884819 0.243920
0.540547 0.885748 0.247927
0.630782 0.886796 0.253007
0.721899 0.888093 0.259201
0.813812 0.889710 0.266583
0.899867 0.885404 0.275194
0.941148 0.843571 0.279388
0.966902 0.796534 0.280510
0.983241 0.749928 0.278247
0.992838 0.705013 0.272227
0.998450 0.663291 0.264383
0.178527 0.931774 0.263223
0.189302 0.931771 0.263409
0.228638 0.931879 0.264042
0.289770 0.931989 0.265332
0.362821 0.932287 0.267371
0.442012 0.932767 0.270298
0.524558 0.933241 0.274183
0.609024 0.933891 0.279055
0.694613 0.934748 0.285009
0.780962 0.935673 0.292079
0.867873 0.936769 0.300292
0.944881 0.928398 0.309696
0.969502 0.875993 0.309127
0.985225 0.824474 0.304759
0.994489 0.775013 0.296108
0.999789 0.728952 0.285600
0.205884 0.961102 0.287812
0.213874 0.961140 0.287955
0.244507 0.961202 0.288547
0.295239 0.961323 0.289772
0.358709 0.961518 0.291691
0.429605 0.961773 0.294417
0.504712 0.962084 0.298028
0.582360 0.962558 0.302612
0.661473 0.963077 0.308165
0.741530 0.963671 0.314708
0.822296 0.964442 0.322360
0.903354 0.965270 0.331042
0.972313 0.954633 0.340915
0.987362 0.898465 0.334212
0.996234 0.844673 0.322810
1.000963 0.795017 0.309427
0.228632 0.979251 0.308223
0.234707 0.979280 0.308318
0.258763 0.979289 0.308874
0.300504 0.979384 0.309958
0.355012 0.979535 0.311722
0.417600 0.979688 0.314242
0.485210 0.979985 0.317475
0.555906 0.980318 0.321648
0.628496 0.980697 0.326663
0.702294 0.981180 0.332677
0.777003 0.981713 0.339601
0.852106 0.982250 0.347539
0.927468 0.983037 0.356464
0.989797 0.971518 0.366419
0.998345 0.913754 0.352092
1.005797 0.863131 0.335741
0.244232 0.989873 0.322227
0.249079 0.989897 0.322355
0.268513 0.989966 0.322822
0.303338 0.989978 0.323851
0.350240 0.990107 0.325379
0.405478 0.990318 0.327595
0.466112 0.990470 0.330504
0.530313 0.990671 0.334164
0.596706 0.991097 0.338656
0.664684 0.991444 0.343949
0.733749 0.991905 0.350173
0.803298 0.992316 0.357177
0.873315 0.992909 0.365146
0.943436 0.993567 0.373957
0.999965 0.981903 0.383759
1.011150 0.931549 0.364289
0.254217 0.996242 0.331180
0.258184 0.996235 0.331302
0.274333 0.996235 0.331726
0.303814 0.996325 0.332574
0.344534 0.996419 0.333951
0.393535 0.996528 0.335932
0.448108 0.996789 0.338492
0.506507 0.996980 0.341737
0.567392 0.997239 0.345674
0.630054 0.997611 0.350325
0.694012 0.997946 0.355781
0.758591 0.998346 0.361955
0.823742 0.998777 0.368970
0.889105 0.999315 0.376764
0.954731 0.999894 0.385368
1.017015 0.999550 0.394815
-0.089472 -0.087881 0.038034
-0.068727 -0.087330 0.039766
0.014601 -0.086005 0.017021
0.045100 -0.082100 0.039893
0.101094 -0.072462 0.062846
0.197766 -0.048422 0.104905
0.338643 0.023729 0.131595
0.505464 0.039817 0.148486
0.662094 0.053163 0.161247
0.787678 0.065525 0.169962
0.873084 0.077174 0.175739
0.924722 0.087908 0.180084
0.956021 0.097402 0.183979
0.975164 0.105113 0.187284
0.986317 0.110404 0.189329
0.992870 0.113792 0.190316
-0.087720 -0.065826 0.043257
-0.066155 -0.064989 0.044715
0.015250 -0.062852 0.048061
0.045518 -0.056575 0.055703
0.101481 -0.037376 0.068701
0.198124 0.022854 0.093184
0.338964 0.036311 0.106108
0.505711 0.048810 0.117769
0.662277 0.060687 0.128960
0.787753 0.072080 0.139821
0.873127 0.082986 0.150270
0.924769 0.093163 0.159992
0.956016 0.102272 0.168634
0.975179 0.109764 0.175723
0.986355 0.114936 0.180580
0.992850 0.118237 0.183680
-0.083228 0.031697 0.038161
-0.059120 0.032015 0.054467
0.016729 0.032748 0.057052
0.046692 0.042831 0.064711
0.102919 0.060671 0.082853
0.199767 0.084247 0.098862
0.340706 0.113103 0.109986
0.507261 0.140576 0.121058
0.663539 0.159758 0.131929
0.788637 0.169813 0.142539
0.873670 0.172452 0.152773
0.925065 0.171068 0.162306
0.956237 0.168563 0.170765
0.975322 0.165880 0.177633
0.986452 0.162780 0.182269
0.992980 0.159500 0.185182
-0.068892 0.071288 0.065054
-0.028386 0.071451 0.072830
0.026134 0.071868 0.074941
0.049087 0.073141 0.086014
0.105836 0.097654 0.097547
0.203081 0.133120 0.107014
0.344150 0.177107 0.116768
0.510328 0.218784 0.127225
0.665976 0.246850 0.137664
0.790300 0.259765 0.147904
0.874680 0.259957 0.157782
0.925688 0.252862 0.166954
0.956628 0.243368 0.175039
0.975568 0.233571 0.181508
0.986678 0.223816 0.185712
0.993207 0.214618 0.188191
0.006229 0.131002 0.108312
0.014469 0.131113 0.102422
0.042383 0.131552 0.103460
0.073839 0.132435 0.105450
0.110471 0.135202 0.108357
0.208498 0.182839 0.116717
0.349657 0.241542 0.125961
0.515271 0.296712 0.136126
0.669873 0.333216 0.146254
0.792994 0.349056 0.156125
0.876328 0.347422 0.165566
0.926655 0.335727 0.174235
0.957336 0.320547 0.181758
0.976168 0.304885 0.187641
0.987011 0.289460 0.191187
0.993555 0.275032 0.193019
0.023006 0.226557 0.129552
0.027917 0.226676 0.119840
0.067026 0.227163 0.120613
0.113533 0.228199 0.122153
0.162414 0.229826 0.124533
0.216065 0.235516 0.127781
0.357423 0.308585 0.137238
0.522193 0.376418 0.147599
0.675329 0.420717 0.157658
0.796803 0.438920 0.167257
0.878575 0.435283 0.176249
0.928010 0.419179 0.184326
0.958132 0.398703 0.191161
0.976771 0.377697 0.196204
0.987538 0.357041 0.198842
0.993881 0.337801 0.199786
0.040616 0.365455 0.153104
0.044826 0.365564 0.139064
0.100392 0.366050 0.139766
0.163833 0.367119 0.141182
0.228584 0.368779 0.143414
0.294583 0.371108 0.146527
0.367577 0.379462 0.150550
0.531292 0.459147 0.161571
0.682416 0.510108 0.171905
0.801644 0.529946 0.181389
0.881481 0.523815 0.189957
0.929844 0.503190 0.197392
0.959299 0.477572 0.203363
0.977629 0.451314 0.207414
0.988258 0.425639 0.208882
0.994565 0.401753 0.208673
0.062695 0.528929 0.178136
0.066712 0.529025 0.161574
0.135367 0.529462 0.162267
0.212292 0.530363 0.163677
0.291379 0.531854 0.165880
0.371767 0.533974 0.169014
0.453539 0.536752 0.173082
0.542484 0.545626 0.178158
0.691335 0.602119 0.189117
0.807689 0.622432 0.198625
0.885158 0.613187 0.206838
0.932031 0.587718 0.213565
0.960801 0.556884 0.218561
0.978642 0.525515 0.221398
0.989057 0.494927 0.221437
0.995287 0.466512 0.219790
0.088880 0.681445 0.202374
0.092898 0.681506 0.186384
0.164072 0.681840 0.187082
0.247482 0.682596 0.188472
0.334627 0.683769 0.190670
0.423614 0.685396 0.193813
0.513922 0.687564 0.197951
0.605455 0.690219 0.203119
0.701638 0.696969 0.209386
0.814834 0.716534 0.219149
0.889432 0.703226 0.227056
0.934722 0.672686 0.233009
0.962580 0.636518 0.236887
0.979999 0.600033 0.238278
0.990166 0.564596 0.236612
0.996125 0.531670 0.233238
0.118340 0.802317 0.225980
0.122243 0.802301 0.212789
0.186508 0.802602 0.213483
0.268505 0.803097 0.214851
0.356732 0.803920 0.217049
0.447768 0.805065 0.220162
0.540307 0.806441 0.224268
0.633976 0.808296 0.229428
0.728674 0.810619 0.235731
0.823038 0.812206 0.243217
0.894365 0.794066 0.250852
0.937719 0.757938 0.255968
0.964576 0.716371 0.258543
0.981529 0.674814 0.258248
0.991409 0.634555 0.254594
0.997174 0.597223 0.249177
0.148738 0.883225 0.249474
0.152518 0.883232 0.239973
0.205252 0.883396 0.240659
0.279219 0.883649 0.242000
0.362294 0.884151 0.244151
0.449566 0.884816 0.247202
0.538990 0.885748 0.251228
0.629769 0.886799 0.256308
0.721295 0.888100 0.262495
0.813555 0.889720 0.269890
0.899882 0.885375 0.278491
0.941150 0.843351 0.282661
0.966900 0.796237 0.283747
0.983241 0.749689 0.281522
0.992841 0.704739 0.275501
0.998457 0.663002 0.267694
0.178495 0.931773 0.272850
0.182192 0.931768 0.266643
0.223131 0.931875 0.267274
0.285854 0.931986 0.268572
0.360053 0.932285 0.270649
0.440076 0.932766 0.273573
0.523165 0.933241 0.277435
0.608052 0.933893 0.282346
0.694052 0.934752 0.288282
0.780621 0.935679 0.295322
0.867737 0.936778 0.303556
0.944892 0.928407 0.312894
0.969505 0.875857 0.312340
0.985228 0.824350 0.307982
0.994492 0.774813 0.299369
0.999747 0.728847 0.288900
0.205884 0.961115 0.294936
0.209573 0.961139 0.291195
0.240919 0.961202 0.291788
0.292503 0.961323 0.292997
0.356688 0.961518 0.294926
0.428131 0.961774 0.297662
0.503602 0.962085 0.301267
0.581548 0.962560 0.305825
0.660941 0.963080 0.311331
0.741146 0.963675 0.317928
0.822078 0.964447 0.325527
0.903296 0.965277 0.334243
0.972299 0.954629 0.344057
0.987367 0.898502 0.337357
0.996239 0.844650 0.325973
1.000969 0.794944 0.312706
0.228613 0.979260 0.313632
0.232229 0.979281 0.311513
0.256624 0.979291 0.312059
0.298805 0.979386 0.313186
0.353723 0.979537 0.314910
0.416644 0.979690 0.317387
0.484465 0.979988 0.320720
0.555336 0.980321 0.324860
0.628096 0.980701 0.329825
0.702057 0.981152 0.335830
0.776795 0.981718 0.342772
0.852032 0.982256 0.350678
0.927411 0.983044 0.359570
0.989804 0.971526 0.369488
0.998351 0.913731 0.355193
1.005803 0.863119 0.338896
0.244279 0.989881 0.326554
0.247821 0.989902 0.325517
0.267371 0.989918 0.325967
0.302405 0.989983 0.326965
0.349524 0.990112 0.328552
0.404930 0.990323 0.330743
0.465704 0.990475 0.333692
0.530026 0.990676 0.337351
0.596542 0.991103 0.341825
0.664546 0.991450 0.347093
0.733625 0.991911 0.353240
0.803288 0.992322 0.360275
0.873301 0.992915 0.368184
0.943424 0.993574 0.377066
0.999965 0.981919 0.386770
1.011156 0.931540 0.367340
0.254275 0.996249 0.334731
0.257821 0.996242 0.334493
0.273986 0.996242 0.334887
0.303546 0.996332 0.335768
0.344368 0.996426 0.337166
0.393335 0.996535 0.339084
0.447996 0.996796 0.341620
0.506437 0.996987 0.344850
0.567353 0.997247 0.348767
0.630043 0.997618 0.353420
0.694023 0.997953 0.358873
0.758587 0.998356 0.365044
0.823770 0.998786 0.372000
0.889143 0.999322 0.379777
0.954756 0.999901 0.388338
1.017021 0.999539 0.397717
-0.089015 -0.087418 0.102370
-0.076168 -0.087047 0.102555
0.014801 -0.085448 0.103331
0.045238 -0.081444 0.111345
0.101248 -0.071516 0.128653
0.197917 -0.046373 0.155315
0.338871 0.024447 0.187233
0.505639 0.040262 0.215595
0.662266 0.053539 0.235145
0.787697 0.065854 0.244988
0.873165 0.077476 0.246835
0.924752 0.088186 0.244201
0.956048 0.097647 0.240247
0.975163 0.105350 0.236169
0.986357 0.110611 0.231864
0.992863 0.113962 0.227572
-0.087854 -0.073842 0.102962
-0.065448 -0.064265 0.103537
0.015422 -0.062092 0.104191
0.045639 -0.055502 0.113491
0.101639 -0.034891 0.130039
0.198277 0.021330 0.153032
0.339143 0.034597 0.180362
0.505871 0.046998 0.206380
0.662432 0.058998 0.224520
0.787840 0.070679 0.233952
0.873177 0.081930 0.236266
0.924781 0.092391 0.234718
0.956048 0.101724 0.232057
0.975178 0.109345 0.229268
0.986345 0.114564 0.226155
0.992881 0.117896 0.222924
-0.082644 0.032040 0.105335
-0.058290 0.032318 0.105583
0.016881 0.032928 0.106199
0.046594 0.034672 0.107965
0.102525 0.038196 0.111529
0.199082 0.043771 0.117186
0.339855 0.051378 0.124837
0.506450 0.060802 0.133936
0.662813 0.071114 0.143482
0.788135 0.081763 0.153061
0.873363 0.092341 0.162465
0.924866 0.102423 0.171406
0.956134 0.111499 0.179498
0.975266 0.118956 0.186206
0.986387 0.124087 0.190819
0.992962 0.127399 0.193821
-0.068058 0.071442 0.116301
-0.025387 0.071591 0.117681
0.020512 0.071917 0.111016
0.049189 0.073140 0.112344
0.105632 0.091807 0.116087
0.202607 0.120086 0.121462
0.343445 0.156146 0.128545
0.509602 0.190750 0.137207
0.665347 0.214297 0.146555
0.789813 0.225495 0.156157
0.874376 0.226429 0.165658
0.925530 0.221633 0.174645
0.956546 0.215153 0.182676
0.975557 0.208483 0.189184
0.986611 0.201713 0.193515
0.993144 0.195189 0.196162
0.006682 0.131151 0.138262
0.014634 0.131269 0.136556
0.027549 0.131505 0.119848
0.068894 0.132446 0.121125
0.110566 0.135159 0.123271
0.208213 0.177861 0.129208
0.349178 0.231265 0.136641
0.514633 0.281614 0.145507
0.669363 0.314884 0.154802
0.792565 0.329134 0.164143
0.876059 0.327513 0.173294
0.926491 0.316718 0.181811
0.957201 0.303009 0.189338
0.976125 0.288935 0.195246
0.986981 0.275116 0.198921
0.993491 0.262190 0.200925
0.023242 0.226742 0.165972
0.028013 0.226860 0.162138
0.038621 0.227048 0.132753
0.101269 0.228130 0.133949
0.157897 0.229813 0.136098
0.216142 0.235441 0.139070
0.357167 0.304211 0.147189
0.521741 0.368203 0.156536
0.674881 0.409670 0.165938
0.796393 0.426312 0.175125
0.878325 0.422329 0.183870
0.927913 0.406580 0.191831
0.958074 0.386876 0.198659
0.976703 0.366752 0.203776
0.987514 0.347074 0.206533
0.993903 0.328768 0.207647
0.040844 0.365602 0.199694
0.044887 0.365728 0.193490
0.054510 0.365863 0.149850
0.143832 0.366955 0.150981
0.218760 0.368657 0.153131
0.290668 0.371101 0.156169
0.367648 0.379326 0.160106
0.531081 0.455516 0.170309
0.682126 0.503803 0.180075
0.801332 0.521946 0.189160
0.881302 0.515231 0.197530
0.929735 0.494527 0.204849
0.959233 0.469259 0.210832
0.977575 0.443529 0.214945
0.988228 0.418434 0.216543
0.994509 0.395197 0.216478
0.062930 0.529113 0.233045
0.066763 0.529195 0.224958
0.076083 0.529272 0.171254
0.185721 0.530223 0.172388
0.276791 0.531732 0.174602
0.363923 0.533885 0.177694
0.450263 0.536725 0.181777
0.542546 0.545560 0.186910
0.691174 0.599319 0.197277
0.807460 0.617789 0.206434
0.884986 0.607612 0.214438
0.931921 0.581801 0.221055
0.960697 0.551053 0.226032
0.978623 0.519918 0.228919
0.988974 0.489672 0.229062
0.995197 0.461625 0.227554
0.089142 0.681528 0.259463
0.092993 0.681569 0.250721
0.102393 0.681633 0.195473
0.217468 0.682411 0.196646
0.317079 0.683619 0.198864
0.413040 0.685291 0.202019
0.507971 0.687476 0.206174
0.602890 0.690234 0.211396
0.701756 0.696937 0.217746
0.814707 0.714382 0.227103
0.889381 0.700016 0.234787
0.934618 0.668790 0.240556
0.962498 0.632490 0.244393
0.979900 0.596027 0.245822
0.990097 0.560811 0.244228
0.996140 0.528088 0.240976
0.118589 0.802440 0.279021
0.122374 0.802451 0.270820
0.131561 0.802466 0.221573
0.238649 0.802989 0.222763
0.338306 0.803789 0.224981
0.435851 0.804934 0.228135
0.532747 0.806370 0.232269
0.629671 0.808231 0.237480
0.726732 0.810609 0.243858
0.823084 0.812156 0.251437
0.894293 0.792554 0.258749
0.937695 0.755663 0.263673
0.964550 0.713734 0.266147
0.981493 0.672141 0.265867
0.991437 0.631842 0.262257
0.997145 0.594623 0.256911
0.148987 0.883223 0.294229
0.152691 0.883251 0.287543
0.161732 0.883280 0.248575
0.252588 0.883615 0.249819
0.344926 0.884046 0.251971
0.437805 0.884784 0.255048
0.531061 0.885716 0.259123
0.624582 0.886738 0.264259
0.718333 0.888127 0.270501
0.812221 0.889718 0.277954
0.899880 0.885331 0.286639
0.941097 0.842321 0.290537
0.966878 0.794819 0.291474
0.983269 0.747886 0.289204
0.992805 0.702953 0.283206
0.998397 0.661209 0.275464
0.178729 0.931776 0.308306
0.182391 0.931806 0.303487
0.191413 0.931848 0.275137
0.264175 0.931990 0.276374
0.345049 0.932282 0.278448
0.429472 0.932703 0.281387
0.515671 0.933207 0.285287
0.602842 0.933872 0.290199
0.690526 0.934712 0.296130
0.778558 0.935659 0.303236
0.866875 0.936781 0.311457
0.944879 0.928370 0.320899
0.969545 0.875213 0.320081
0.985227 0.823321 0.315577
0.994478 0.773682 0.307100
0.999743 0.727707 0.296684
0.206092 0.961170 0.322487
0.209782 0.961194 0.319355
0.218714 0.961203 0.299583
0.275854 0.961302 0.300709
0.344519 0.961507 0.302658
0.419161 0.961779 0.305424
0.497032 0.962097 0.309000
0.576752 0.962516 0.313563
0.657529 0.963045 0.319092
0.738937 0.963718 0.325622
0.820733 0.964438 0.333285
0.902671 0.965274 0.341981
0.972320 0.954624 0.351755
0.987386 0.898050 0.344985
0.996204 0.843966 0.333638
1.000940 0.794206 0.320382
0.228837 0.979272 0.335233
0.232427 0.979271 0.333392
0.241236 0.979255 0.319747
0.286548 0.979390 0.320862
0.344250 0.979493 0.322599
0.409403 0.979699 0.325058
0.479000 0.980001 0.328347
0.551223 0.980289 0.332466
0.625043 0.980679 0.337473
0.699930 0.981164 0.343435
0.775365 0.981706 0.350360
0.851147 0.982253 0.358259
0.927027 0.983052 0.367135
0.989825 0.971549 0.376995
0.998342 0.913424 0.362722
1.005787 0.862699 0.346498
0.244426 0.989922 0.343933
0.248023 0.989939 0.343046
0.256734 0.989938 0.333641
0.293546 0.989987 0.334616
0.342412 0.990084 0.336138
0.399349 0.990294 0.338385
0.461346 0.990502 0.341291
0.526658 0.990691 0.344944
0.593939 0.991083 0.349370
0.662679 0.991447 0.354650
0.732214 0.991903 0.360767
0.802349 0.992318 0.367739
0.872702 0.992918 0.375682
0.943131 0.993584 0.384426
0.999965 0.981886 0.394107
1.011155 0.931408 0.374838
0.254446 0.996255 0.349208
0.257996 0.996221 0.348938
0.266636 0.996219 0.342510
0.297257 0.996312 0.343381
0.339149 0.996407 0.344705
0.389157 0.996517 0.346617
0.444686 0.996780 0.349205
0.503823 0.996970 0.352443
0.565333 0.997235 0.356341
0.628516 0.997609 0.360943
0.692848 0.997947 0.366352
0.757787 0.998354 0.372484
0.823165 0.998788 0.379490
0.888829 0.999329 0.387187
0.954634 0.999913 0.395689
1.017036 0.999580 0.405021
-0.087762 -0.086129 0.139206
-0.073153 -0.085723 0.139303
0.019985 -0.083922 0.139714
0.045613 -0.080102 0.140549
0.101568 -0.069524 0.163301
0.198273 -0.041770 0.198734
0.339221 0.025816 0.242951
0.505960 0.041166 0.284264
0.662483 0.054292 0.312161
0.787903 0.066531 0.324978
0.873250 0.078084 0.325101
0.924809 0.088730 0.317772
0.956034 0.098144 0.307921
0.975193 0.105806 0.297733
0.986350 0.111013 0.287677
0.992877 0.114326 0.278266
-0.086464 -0.070656 0.139506
-0.063505 -0.062266 0.139766
0.021726 -0.059496 0.140164
0.046015 -0.053228 0.140971
0.101950 -0.028881 0.163946
0.198641 0.022722 0.197725
0.339472 0.035531 0.239757
0.506229 0.047785 0.279652
0.662743 0.059705 0.306628
0.787967 0.071323 0.319042
0.873328 0.082520 0.319274
0.924829 0.092947 0.312349
0.956108 0.102223 0.303086
0.975239 0.109795 0.293531
0.986381 0.114961 0.284088
0.992908 0.118246 0.275236
-0.080589 0.039606 0.140830
-0.054203 0.041401 0.141042
0.017413 0.033536 0.141141
0.046960 0.035249 0.142006
0.102865 0.038841 0.159791
0.199471 0.044437 0.186964
0.340213 0.052051 0.221688
0.506771 0.061470 0.254964
0.663101 0.071745 0.277569
0.788263 0.082363 0.288258
0.873411 0.092921 0.288976
0.924946 0.102951 0.284137
0.956164 0.111978 0.277590
0.975288 0.119412 0.270962
0.986428 0.124501 0.264304
0.992976 0.127754 0.258018
-0.066315 0.072277 0.143444
-0.016887 0.072431 0.143584
0.020880 0.072619 0.143902
0.049472 0.073172 0.144760
0.105328 0.075201 0.147395
0.201772 0.078733 0.152132
0.342242 0.084102 0.159144
0.508365 0.091447 0.167672
0.664172 0.100094 0.176347
0.789160 0.109508 0.184730
0.873923 0.119226 0.192711
0.925247 0.128671 0.200315
0.956384 0.137314 0.207363
0.975482 0.144498 0.213332
0.986584 0.149481 0.217521
0.993137 0.152681 0.220241
0.007543 0.131463 0.168962
0.015145 0.131587 0.168463
0.027946 0.131832 0.163946
0.055078 0.132535 0.150756
0.110840 0.135035 0.152364
0.207824 0.165344 0.156302
0.348231 0.205190 0.161845
0.513562 0.243774 0.169056
0.668415 0.269496 0.177139
0.791844 0.280703 0.185711
0.875612 0.279985 0.194419
0.926222 0.272633 0.202744
0.957023 0.263420 0.210228
0.975973 0.254167 0.216301
0.986894 0.244961 0.220252
0.993433 0.236285 0.222588
0.023728 0.227092 0.206731
0.028461 0.227182 0.205022
0.039045 0.227427 0.194336
0.064916 0.228026 0.160944
0.146654 0.229868 0.162432
0.216421 0.235281 0.165195
0.356733 0.294121 0.171612
0.521015 0.349279 0.179510
0.674087 0.384622 0.187887
0.795827 0.398248 0.196412
0.877944 0.393861 0.204786
0.927665 0.379451 0.212601
0.957918 0.362008 0.219439
0.976670 0.344472 0.224730
0.987379 0.327391 0.227790
0.993865 0.311579 0.229214
0.041311 0.365969 0.253556
0.045347 0.366084 0.250422
0.054971 0.366242 0.232790
0.080162 0.366712 0.175991
0.194405 0.368535 0.177295
0.281679 0.371134 0.180243
0.367857 0.379136 0.184096
0.530721 0.447440 0.192982
0.681593 0.490060 0.201798
0.800871 0.504897 0.210298
0.880981 0.497022 0.218327
0.929510 0.476662 0.225517
0.959095 0.452506 0.231551
0.977380 0.428239 0.235817
0.988187 0.404800 0.237674
0.994478 0.383140 0.237932
0.063414 0.529430 0.298540
0.067253 0.529482 0.294170
0.076585 0.529586 0.270602
0.101798 0.530008 0.195974
0.241277 0.531547 0.197242
