LUTs/7.cube
LUT_3D_SIZE 6
-0.089649 -0.088072 -0.056945
0.045075 -0.082251 -0.045004
0.338630 0.030310 0.095285
0.787643 0.069338 0.134997
0.956005 0.099111 0.164586
0.992862 0.114873 0.179784
-0.069085 0.071252 0.038144
0.049037 0.073095 0.052259
0.344172 0.181065 0.110549
0.790336 0.266537 0.143995
0.956638 0.248893 0.171550
0.993200 0.218214 0.184707
0.040938 0.365421 0.134510
0.167436 0.367083 0.136885
0.367537 0.379457 0.146523
0.801689 0.531619 0.177942
0.959315 0.479301 0.200037
0.994557 0.402991 0.205269
0.118555 0.802299 0.209294
0.274217 0.803105 0.211512
0.541778 0.806439 0.220941
0.823048 0.812273 0.239880
0.964582 0.716893 0.255281
0.997167 0.597644 0.245839
0.205884 0.961102 0.287812
0.295239 0.961323 0.289772
0.504712 0.962084 0.298028
0.741530 0.963671 0.314708
0.972313 0.954633 0.340915
1.000963 0.795017 0.309427
0.254217 0.996242 0.331180
0.303814 0.996325 0.332574
0.448108 0.996789 0.338492
0.630054 0.997611 0.350325
0.823742 0.998777 0.368970
1.017015 0.999550 0.394815
-0.087762 -0.086129 0.139206
0.045613 -0.080102 0.140549
0.339221 0.025816 0.242951
0.787903 0.066531 0.324978
0.956034 0.098144 0.307921
0.992877 0.114326 0.278266
-0.066315 0.072277 0.143444
0.049472 0.073172 0.144760
0.342242 0.084102 0.159144
0.789160 0.109508 0.184730
0.956384 0.137314 0.207363
0.993137 0.152681 0.220241
0.041311 0.365969 0.253556
0.080162 0.366712 0.175991
0.367857 0.379136 0.184096
0.800871 0.504897 0.210298
0.959095 0.452506 0.231551
0.994478 0.383140 0.237932
0.119115 0.802566 0.349799
0.156538 0.802802 0.244812
0.517035 0.806315 0.253752
0.823129 0.812045 0.273273
0.964480 0.708819 0.287036
0.997142 0.590344 0.278245
0.206574 0.961229 0.368111
0.242879 0.961260 0.321660
0.485219 0.962090 0.329756
0.734981 0.963706 0.346297
0.972290 0.954637 0.372079
1.000929 0.793204 0.341101
0.254762 0.996223 0.375575
0.289976 0.996316 0.363713
0.441076 0.996787 0.369420
0.626994 0.997624 0.380922
0.822756 0.998817 0.399110
1.017078 0.999626 0.424138
-0.069905 -0.067645 0.405382
0.150596 -0.051266 0.406945
0.343751 0.033537 0.413600
0.789264 0.071041 0.569985
0.956352 0.101615 0.524589
0.993069 0.116773 0.452175
0.008502 0.177915 0.410411
0.056569 0.077027 0.409250
0.346744 0.087730 0.416512
0.790369 0.113378 0.547010
0.956692 0.140590 0.499930
0.993243 0.155029 0.433969
0.044469 0.375543 0.431381
0.083456 0.375637 0.432271
0.370619 0.377221 0.439309
0.800320 0.396458 0.459651
0.959292 0.418415 0.474608
0.995116 0.430614 0.483484
0.122760 0.803794 0.589737
0.160242 0.803996 0.567834
0.431595 0.806885 0.494102
0.824137 0.811485 0.509877
0.964696 0.708758 0.519975
0.997774 0.625433 0.517716
0.209780 0.961480 0.556365
0.246108 0.961540 0.538816
0.497026 0.962290 0.551284
0.741755 0.963946 0.564390
0.972552 0.955776 0.583441
1.001994 0.814245 0.562816
0.257010 0.996407 0.504797
0.292188 0.996460 0.498557
0.531581 0.997036 0.581672
0.678250 0.997862 0.590958
0.845020 0.999085 0.603652
1.017573 0.999965 0.621127
0.012226 0.036361 0.807551
0.240448 0.033659 0.808295
0.513547 0.052360 0.811595
0.792078 0.079775 0.818158
0.956989 0.108564 0.745597
0.993316 0.121710 0.633679
0.024065 0.260620 0.810082
0.068464 0.086364 0.809132
0.487238 0.098245 0.812548
0.793234 0.121122 0.819334
0.957324 0.147214 0.737479
0.993576 0.159789 0.625811
0.060840 0.525573 0.820257
0.096748 0.498559 0.819846
0.380289 0.383896 0.821136
0.802283 0.403039 0.828056
0.959927 0.423723 0.731925
0.995396 0.434231 0.650538
0.130125 0.805506 0.839659
0.167800 0.805325 0.839949
0.437887 0.805891 0.842481
0.826342 0.816892 0.848530
0.966358 0.825066 0.848922
0.999965 0.829645 0.850976
0.216244 0.962044 0.769328
0.252477 0.962072 0.763193
0.501798 0.962921 0.768553
0.850420 0.964937 0.868168
0.973160 0.963037 0.875373
1.006191 0.915033 0.872182
0.261643 0.996692 0.668157
0.296643 0.996804 0.665162
0.534684 0.997302 0.710325
0.862557 0.998845 0.878504
0.930861 0.999829 0.883602
1.018831 1.000789 0.888487
0.026204 0.051043 0.959574
0.216300 0.050573 0.959737
0.460904 0.063939 0.960575
0.706978 0.086949 0.962141
0.954331 0.119448 0.964559
0.993813 0.129533 0.816904
0.034624 0.237455 0.960186
0.076143 0.096773 0.959999
0.431530 0.106973 0.960810
0.697536 0.126933 0.962400
0.954615 0.157726 0.964874
0.994033 0.167364 0.814002
0.066606 0.471315 0.962632
0.102491 0.442558 0.962512
0.384193 0.391678 0.963198
0.687914 0.407454 0.964734
0.957109 0.432132 0.967144
0.995838 0.440050 0.825455
0.129391 0.709037 0.967440
0.165389 0.700471 0.967431
0.435554 0.696159 0.968042
0.823205 0.819640 0.970683
0.965341 0.827911 0.972620
0.999965 0.831375 0.919705
0.226515 0.947839 0.974434
0.262672 0.947840 0.974519
0.509326 0.949407 0.975139
0.852753 0.960042 0.976702
0.973748 0.967857 0.978512
1.012524 0.969078 0.978612
0.268950 0.997141 0.842734
0.303742 0.997166 0.841687
0.539634 0.997820 0.860551
0.863947 0.999186 0.938175
0.977430 0.999965 0.981487
1.020291 1.002290 0.982607
0.032688 0.058060 0.992864
0.176452 0.057637 0.992947
0.378141 0.066902 0.993269
0.581595 0.083780 0.994133
0.785762 0.108170 0.995362
0.990282 0.140484 0.997031
0.038554 0.199728 0.993128
0.080450 0.102527 0.993113
0.354116 0.109834 0.993504
0.571562 0.124317 0.994299
0.782204 0.146826 0.995489
0.990416 0.178092 0.997182
0.061959 0.392174 0.994405
0.099342 0.368485 0.994378
0.386726 0.396009 0.995302
0.590616 0.407015 0.996018
0.793155 0.424308 0.997110
0.992312 0.448179 0.998759
0.108225 0.587989 0.996728
0.145276 0.578968 0.996752
0.424924 0.604802 0.997598
0.823174 0.821348 0.999967
0.903602 0.826615 1.001315
0.999965 0.833854 1.005311
0.180398 0.785575 0.999967
0.216981 0.783167 0.999967
0.477968 0.801301 1.000877
0.846383 0.908795 1.007504
0.973344 0.968243 1.016628
1.013367 0.969488 1.019047
0.279219 0.991148 1.014852
0.313770 0.991331 1.015036
0.546623 0.993494 1.016482
0.865894 0.998549 1.020122
0.977861 1.000668 1.024353
1.021124 1.003141 1.026750
