LUTs/70.cube
TITLE "Generate by Resolve"
LUT_3D_SIZE 33
0 0.00859083 0.0486
0 0.00856031 0.0482795
0 0.00856031 0.0480507
0 0.00860609 0.0478523
0 0.00856031 0.0474708
0 0.00854505 0.0470741
0.00183108 0.00637827 0.0441138
0.0162051 0.00389105 0.0402991
0.0471962 0.00138857 0.0347448
0.0946059 0 0.026276
0.157809 0 0.0145724
0.237125 0 0.00175479
0.346654 0 0
0.473289 0 0
0.587289 0 0
0.686641 0 0
0.789837 0 0
0.890822 0 0
0.973678 0 0
0.997848 0 0
1 0 0
1 0 0
1 0 0
1 0 0
1 0 0
1 0 0
1 0 0
1 0 0
1 0 0
1 0 0
1 0 0
1 0 0
1 0 0
0.000213626 0.0155642 0.0465858
0.000213626 0.0154574 0.0462959
0.000228885 0.0154726 0.046067
0.000244144 0.0154421 0.0458076
0.000244144 0.0153353 0.0454719
0.000244144 0.0151522 0.0452277
0.00183108 0.013077 0.0425727
0.0146639 0.0101778 0.0385748
0.044831 0.0059968 0.0331579
0.0930648 0.00163272 0.0255131
0.156878 7.62951e-05 0.0144961
0.236622 0 0.00183108
0.346273 0 0
0.473655 0 0
0.58761 0 0
0.687556 0 0
0.791363 0 0
0.892851 0 0
0.974548 0 0
0.997986 0 0
1 0 0
1 0 0
1 0 0
1 0 0
1 0 0
1 0 0
1 0 0
1 0 0
1 0 0
1 0 0
1 0 0
1 0 0
1 0 0
0.000289921 0.0230564 0.0448615
0.00030518 0.0230106 0.0445411
0.000320439 0.0229038 0.0441596
0.000335698 0.0228733 0.0439155
0.000350958 0.0227207 0.0436713
0.000366217 0.022446 0.0434119
0.00167849 0.0207218 0.0409552
0.013077 0.0180056 0.0364385
0.0421607 0.0129702 0.0305791
0.091371 0.00526436 0.0235294
0.156435 0.000503548 0.013138
0.23714 0 0.00154116
0.348959 0 0
0.476753 0 0
0.590814 0 0
0.691188 0 0
0.795911 0 0
0.897765 0 0
0.976562 0 0
0.998276 0 0
1 0 0
1 0 0
1 0 0
1 0 0
1 0 0
1 0 0
1 0 0
1 0 0
1 0 0
1 0 0
1 0 0
1 0 0
1 0 0
9.15541e-05 0.0323796 0.0433661
9.15541e-05 0.0322728 0.0429541
0.000106813 0.0322423 0.0426337
0.000106813 0.0322271 0.0423438
0.000106813 0.032166 0.0420539
0.000122072 0.0319219 0.0417639
0.000595102 0.030396 0.0398413
0.0104829 0.0280919 0.0345617
0.0386664 0.0233768 0.0274052
0.0889448 0.0143435 0.0203098
0.155795 0.00488289 0.0107881
0.238895 0.000183108 0.000991836
0.353979 0 0
0.48304 0 0
0.597971 0 0
0.698848 0 0
0.804257 0 0
0.906142 0 0
0.979644 0 0
0.998718 0 0
1 0 0
1 0 0
1 0 0
1 0 0
1 0 0
1 0 0
1 0 0
1 0 0
1 0 0
1 0 0
1 0 0
1 0 0
1 0 0
0 0.0433661 0.038941
0 0.0433356 0.0385595
0 0.0433051 0.0381933
0 0.0434577 0.0377813
0 0.0434577 0.0374151
0 0.0433204 0.0371252
0 0.0420386 0.035874
0.0078584 0.0398718 0.0307469
0.0350347 0.0350652 0.0241245
0.086183 0.0262303 0.0168765
0.154711 0.0137942 0.00726329
0.239261 0.000656138 0.000350958
0.358083 0 0
0.490242 0 0
0.606149 0 0
0.708659 0 0
0.816266 0 0
0.918074 0 0
0.984436 0 0
0.999329 0 0
1 0 0
1 0 0
1 0 0
1 0 0
1 0 0
1 0 0
1 0 0
1 0 0
1 0 0
1 0 0
1 0 0
1 0 0
1 0 0
0 0.0561685 0.0319982
0 0.0562448 0.0315251
0 0.0564736 0.03093
0 0.0567025 0.030396
0 0.0568551 0.0299077
0 0.0568399 0.0294652
0 0.0561837 0.0285039
0.00515755 0.0542763 0.0239261
0.0302281 0.0492103 0.0213016
0.0812085 0.0408179 0.0168002
0.150622 0.028748 0.00444038
0.237797 0.0116274 1.5259e-05
0.361166 0.00175479 0
0.49691 0 0
0.613794 0 0
0.718441 0 0
0.828092 0 0
0.929381 0 0
0.98909 0 0
0.999985 0 0
1 0 0
1 0 0
1 0 0
1 0 0
1 0 0
1 0 0
1 0 0
1 0 0
1 0 0
1 0 0
1 0 0
1 0 0
1 0 0
0 0.071107 0.0228275
0 0.0713359 0.0223392
0 0.0717174 0.0216526
0 0.072221 0.0209659
0 0.0726329 0.020325
0 0.0728466 0.0197604
0 0.0727703 0.0190127
0.00204471 0.0712291 0.0158999
0.02533 0.06598 0.0149386
0.0759289 0.0576333 0.016022
0.14374 0.0469062 0.00411994
0.234134 0.0299077 0
0.361257 0.00813306 0
0.501228 9.15541e-05 0
0.619608 0 0
0.727642 0 0
0.839811 0 0
0.939956 0 0
0.993759 0 0
1 0 0
1 0 0
1 0 0
1 0 0
1 0 0
1 0 0
1 0 0
1 0 0
1 0 0
1 0 0
1 0 0
1 0 0
1 0 0
1 0 0
0 0.0880751 0.0128481
0 0.0885939 0.0123445
0 0.08925 0.0115663
0 0.0900587 0.0107729
0 0.0908675 0.00996414
0 0.0915084 0.00923171
0 0.0920577 0.00869764
0.000274662 0.0913252 0.00697337
0.0195163 0.086656 0.0061799
0.0697642 0.0779431 0.0128328
0.133959 0.0685893 0.0077821
0.224674 0.0531167 0
0.355123 0.0280308 0
0.499977 0.00120546 0
0.621027 0 0
0.733227 0 0
0.848234 0 0
0.949599 0 0
0.998276 0 0
1 0 0
1 0 0
1 0 0
1 0 0
1 0 0
1 0 0
1 0 0
1 0 0
1 0 0
1 0 0
1 0 0
1 0 0
1 0 0
1 0 0
0 0.107897 0.00318914
0 0.108904 0.00297551
0 0.110033 0.00254826
0 0.111406 0.00213626
0 0.112688 0.00175479
0 0.113909 0.00138857
0 0.115236 0.0012665
0 0.115663 0.000747692
0.0123445 0.112398 0
0.0606851 0.103059 0.00627146
0.125521 0.0934615 0.0133974
0.20911 0.0814069 0.00207523
0.34052 0.0581216 0
0.491478 0.0297551 0
0.616083 0.00689708 0
0.732937 0 0
0.852247 0 0
0.958007 0 0
0.999847 0 0
1 0 0
1 0 0
1 0 0
1 0 0
1 0 0
1 0 0
1 0 0
1 0 0
1 0 0
1 0 0
1 0 0
1 0 0
1 0 0
1 0 0
0 0.131838 0
0 0.133532 0
0 0.135317 0
0 0.137346 0
0 0.139406 0
0 0.141238 0
0 0.14342 0
0 0.145144 0
0.00486763 0.143572 0
0.044358 0.135088 0.00140383
0.117952 0.123476 0.0130465
0.19379 0.114076 0.0127565
0.315908 0.0956283 0.00115969
0.471778 0.0687419 0
0.602411 0.0449531 0
0.725399 0.0226749 0
0.850584 0.00572213 0
0.961883 0.0016022 0
1 0.000961318 0
1 0.00117494 0
1 0.00123598 0
1 0.00102235 0
1 0.00030518 0
1 0 0
1 0 0
1 0 0
1 0 0
1 1.5259e-05 0
1 0 0
1 0 0
1 0 0
1 0 0
1 0.000259403 0
0 0.161227 0
0 0.163714 0
0 0.166384 0
0 0.169329 0
0 0.172229 0
0 0.17499 0
0 0.177966 0
0 0.181353 0
0.000457771 0.181781 0
0.0228428 0.17583 0
0.103044 0.162753 0.00570687
0.183368 0.15227 0.0200198
0.289097 0.139712 0.00898756
0.440635 0.117525 0
0.578485 0.0952163 0
0.708293 0.0737621 0
0.841016 0.0551003 0
0.956878 0.0415503 0
1 0.0374914 0
1 0.0421149 0
1 0.0357824 0
1 0.0291142 0
1 0.0247501 0
1 0.0224155 0
1 0.0193179 0
1 0.0178988 0
1 0.0188449 0
1 0.0210727 0
1 0.0237278 0
1 0.025391 0
1 0.0262913 0
1 0.0339208 0
1 0.0422827 0
0 0.197803 0
0 0.201602 0
0 0.205676 0
0 0.209857 0
0 0.214221 0
0 0.218463 0
0 0.222431 0
0 0.228489 0
0 0.231113 0
0.0077821 0.227939 0
0.0743725 0.216007 0
0.17229 0.200778 0.0143893
0.270237 0.19057 0.0215152
0.403738 0.175906 0.00248722
0.543114 0.157443 0
0.679591 0.137789 0
0.821866 0.11986 0
0.945449 0.107576 0
1 0.101732 0
1 0.105577 0
1 0.099321 0
1 0.0926528 0
1 0.0879377 0
1 0.0848096 0
1 0.0833295 0
1 0.0833906 0
1 0.0841077 0
1 0.0857099 0
1 0.0886244 0
1 0.0914778 0
1 0.094728 0
1 0.103578 0
1 0.113359 0
0 0.246357 0
0 0.252064 0
0 0.258305 0
0 0.264714 0
0 0.271061 0
0 0.277684 0
0 0.284504 0
0 0.293812 0
0 0.299992 0
0.000381476 0.299733 0
0.0357977 0.291798 0
0.145006 0.275257 0
0.25684 0.260502 0.0177005
0.381292 0.248356 0.0217594
0.506722 0.235492 0.00784314
0.638849 0.220111 0
0.788632 0.20267 0
0.922942 0.189868 0
0.996704 0.182712 0
1 0.18291 0
1 0.176959 0
1 0.169772 0
1 0.16466 0
1 0.16144 0
1 0.159991 0
1 0.160311 0
1 0.161776 0
1 0.164706 0
1 0.168231 0
1 0.171954 0
1 0.176349 0
1 0.188006 0
1 0.200473 0
0 0.31107 0
0 0.318898 0
0 0.327565 0
0 0.337209 0
0 0.346548 0
0 0.356008 0
0 0.364523 0
0 0.376303 0
0 0.385046 0
0 0.386831 0
0.00994888 0.38262 0
0.10045 0.37026 0
0.235615 0.349813 0.00482185
0.368353 0.335027 0.0235904
0.484947 0.326177 0.0246281
0.602121 0.316854 0.0131533
0.745159 0.303532 0.000106813
0.884153 0.290654 0
0.982391 0.281483 0
1 0.276417 0
1 0.270512 0
1 0.262409 0
1 0.256748 0
1 0.253239 0
1 0.252216 0
1 0.253483 0
1 0.256016 0
1 0.259678 0
1 0.265431 0
1 0.271656 0
1 0.277852 0
1 0.291264 0
1 0.305699 0
0 0.390677 0
0 0.401389 0
0 0.412833 0
0 0.424125 0
0 0.435203 0
0 0.445945 0
0 0.455955 0
0 0.469139 0
0 0.479118 0
0 0.482506 0
0 0.480598 0
0.0584726 0.473045 0
0.202533 0.452415 0
0.354849 0.432456 0.0080415
0.477485 0.42356 0.0252232
0.590539 0.415732 0.0275578
0.713664 0.406271 0.0168002
0.840452 0.396841 0.00485237
0.950759 0.389136 1.5259e-05
1 0.383719 0
1 0.378058 0
1 0.370443 0
1 0.364996 0
1 0.362051 0
1 0.361471 0
1 0.363836 0
1 0.367941 0
1 0.373342 0
1 0.37969 0
1 0.386542 0
1 0.393439 1.5259e-05
1 0.408194 0
1 0.423697 0
0 0.480903 0
0 0.492561 0
0 0.504707 0
0 0.516823 0
0 0.528313 0
0 0.539086 0
0 0.548913 0
0 0.562295 0
0 0.572335 0
0 0.576028 0
0 0.574746 0
0.0180056 0.570535 0
0.15964 0.554864 0
0.328634 0.529961 0.000213626
0.464088 0.515038 0.0141604
0.578485 0.504112 0.0290074
0.69369 0.498726 0.0315557
0.809827 0.494438 0.0256199
0.911269 0.491737 0.0146029
0.999313 0.489815 0.00422675
1 0.487098 0.0037995
1 0.4813 0.00366217
1 0.476905 0.00347906
1 0.474845 0.00433356
1 0.475242 0.00505074
1 0.478157 0.00544747
1 0.482597 0.00534066
1 0.48838 0.00511177
1 0.493782 0.00643931
1 0.500175 0.00798047
1 0.506798 0.0096437
1 0.520424 0.0124971
1 0.533959 0.0153964
0 0.572229 0
0 0.583902 0
0 0.595804 0
0 0.607553 0
0 0.61883 0
0 0.629557 0
0 0.640482 0
0 0.654841 0
0 0.666102 0
0 0.67039 0
0 0.668574 0
0 0.66482 0
0.111315 0.651591 0
0.281819 0.622782 0
0.43418 0.59176 0.00274662
0.550271 0.568109 0.0208591
0.668803 0.57145 0.0326696
0.78996 0.581033 0.0385138
0.884565 0.581415 0.0355077
0.967544 0.582376 0.0284886
1 0.582879 0.0260929
1 0.579797 0.026627
1 0.577218 0.0260929
1 0.57644 0.0258335
1 0.577264 0.0259861
1 0.579339 0.0265965
1 0.582452 0.027451
1 0.586694 0.0285496
1 0.591653 0.0298009
1 0.597513 0.03122
1 0.602686 0.0326085
1 0.612345 0.0352026
1 0.622705 0.037995
0 0.664759 0
0 0.677729 0
0 0.6907 0
0 0.703777 0
0 0.715862 0
0 0.727367 0
0 0.737606 0
0 0.751904 0
0 0.762127 0
0 0.766201 0
0 0.76434 0
0 0.761059 0
0.0756237 0.746242 0
0.244388 0.705058 0
0.407523 0.659754 0
0.530938 0.629053 0.00903334
0.641215 0.630549 0.0275273
0.771756 0.661326 0.0424353
0.867018 0.66688 0.0488594
0.943816 0.66688 0.0476844
0.996551 0.667185 0.0471962
1 0.665431 0.0496223
1 0.662821 0.0493935
1 0.66183 0.049134
1 0.662547 0.0493782
1 0.664469 0.0498665
1 0.667536 0.0506294
1 0.671336 0.0517739
1 0.675731 0.0533303
1 0.680537 0.0549172
1 0.685344 0.0563973
1 0.694484 0.0592355
1 0.704265 0.0622873
0 0.762142 0
0 0.774395 0
0 0.786648 0
0 0.798749 0
0 0.810162 0
0 0.820722 0
0 0.829847 0
0 0.842771 0
0 0.852964 0
0 0.857221 0
0 0.855924 0
0 0.852369 0
0.0568704 0.8336 0
0.228946 0.774075 0
0.393027 0.735821 0
0.529854 0.727703 0.000228885
0.65597 0.740246 0.0191348
0.771603 0.750072 0.0420996
0.858488 0.74757 0.0551461
0.930694 0.746609 0.0611887
0.986114 0.746532 0.068452
1 0.745632 0.0767071
1 0.743328 0.0771344
1 0.742473 0.0766003
1 0.742885 0.0767376
1 0.743862 0.077348
1 0.745815 0.078294
1 0.748653 0.0794995
1 0.751934 0.0807813
1 0.755642 0.0821241
1 0.758892 0.0834211
1 0.76492 0.0863508
1 0.772045 0.0897383
0 0.852918 0
0 0.864363 0
0 0.875792 0
0 0.886595 0
0 0.896498 0
0 0.90634 0
0 0.915114 0
0 0.927047 0
0 0.935668 0
0 0.939376 0
0 0.938109 0
0 0.93489 0
0.0404364 0.929808 0
0.17705 0.914061 0
0.347936 0.886427 0
0.522484 0.857939 0
0.662913 0.835676 0.00924697
0.770535 0.822614 0.0372778
0.855192 0.816587 0.0569772
0.924773 0.81355 0.0696574
0.98175 0.812161 0.0877699
1 0.810529 0.105165
1 0.808362 0.107988
1 0.807004 0.107424
1 0.806867 0.107393
1 0.807874 0.107927
1 0.809491 0.108675
1 0.811963 0.109758
1 0.814389 0.111208
1 0.816831 0.112902
1 0.819089 0.114412
1 0.823529 0.117067
1 0.829313 0.120531
0 0.933806 0
0 0.942626 0
0 0.951812 0
0 0.961013 0
0 0.969787 0
0 0.978302 0
0 0.982269 0
0 0.988037 0
0 0.991089 0
0 0.99205 0
0 0.991409 0
0 0.990814 0
0.0406348 0.989746 0
0.163989 0.983108 0
0.325826 0.964065 0
0.506325 0.931212 0
0.659129 0.901991 0.00140383
0.769757 0.885542 0.0274052
0.854826 0.877668 0.055024
0.923064 0.872496 0.0772564
0.980529 0.869017 0.107622
0.999573 0.866178 0.136645
1 0.863874 0.143862
1 0.862608 0.143008
1 0.862196 0.142565
1 0.862913 0.142809
1 0.863874 0.143725
1 0.865324 0.145022
1 0.866987 0.146395
1 0.868833 0.147829
1 0.870527 0.149081
1 0.873793 0.151446
1 0.878477 0.154894
0 0.988388 0
0 0.992462 0
0 0.996551 0
0 1 0
0 1 0
0 1 0
0 1 0
0 1 0
0 1 0
0 1 0
0 1 0
0.00892653 1 0
0.0648508 1 0
0.167971 1 0
0.314687 0.999481 0
0.496239 0.991058 0
0.657786 0.9617 0
0.77023 0.94229 0.0161135
0.856596 0.932403 0.0539406
0.923293 0.925338 0.0896162
0.979614 0.919524 0.133623
0.999451 0.915419 0.173922
1 0.912673 0.183139
1 0.910979 0.181674
1 0.910033 0.180926
1 0.909941 0.18088
1 0.910475 0.181369
1 0.911437 0.182223
1 0.912551 0.183169
1 0.913741 0.184161
1 0.915007 0.185183
1 0.917098 0.186892
1 0.920806 0.190036
0 1 0
0.000442512 1 0.000335698
0.00329595 1 0.00251774
0.00619516 1 0.00476081
0.00894179 1 0.00686656
0.0115663 1 0.00888075
0.0139315 1 0.0106813
0.0140383 1 0.0107729
0.0140383 1 0.0107729
0.0140383 1 0.0107729
0.0140383 1 0.0107729
0.0289921 1 0.00428778
0.0947585 1 0
0.190829 1 0
0.324422 1 0
0.498466 1 0
0.658259 0.998856 0
0.772686 0.98819 0.016022
0.858961 0.978668 0.0618296
0.925124 0.970031 0.112612
0.980652 0.963348 0.166964
1 0.958663 0.211429
1 0.955398 0.220737
1 0.95314 0.21886
1 0.951797 0.217655
1 0.951217 0.21706
1 0.951171 0.217044
1 0.951614 0.217456
1 0.952361 0.218173
1 0.953063 0.218814
1 0.953872 0.219577
1 0.955367 0.22092
1 0.95816 0.223377
0.0140383 1 0.0107729
0.0140383 1 0.0107729
0.0140383 1 0.0107729
0.0140383 1 0.0107729
0.0140383 1 0.0107729
0.0140383 1 0.0107729
0.0140383 1 0.0107729
0.0140383 1 0.0107729
0.0140383 1 0.0107729
0.0140383 1 0.0107729
0.0140383 1 0.0107729
0.0243839 1 0.00636301
0.0975967 1 0
0.190082 1 0
0.32845 1 0
0.502403 1 0
0.659022 1 0
0.77467 1 0.0168307
0.858946 0.997787 0.0698253
0.92578 0.992706 0.129091
0.980621 0.989639 0.189105
1 0.986786 0.233539
1 0.984131 0.245075
1 0.981918 0.244236
1 0.980301 0.242817
1 0.979461 0.242069
1 0.979202 0.241825
1 0.97969 0.242237
1 0.980667 0.243076
1 0.982101 0.244297
1 0.983841 0.245823
1 0.985946 0.247654
1 0.987945 0.249393
0.0140383 1 0.0107729
0.0140383 1 0.0107729
0.0140383 1 0.0107729
0.0140383 1 0.0107729
0.0140383 1 0.0107729
0.0140383 1 0.0107729
0.0140383 1 0.0107729
0.0140383 1 0.0107729
0.0140383 1 0.0107729
0.0140383 1 0.0107729
0.0140383 1 0.0107729
0.0316625 1 0.00602731
0.101518 1 0
0.195636 1 0
0.33196 1 0
0.505806 1 0
0.66183 1 0
0.774258 1 0.0154879
0.857633 0.99765 0.0688945
0.924666 0.992721 0.127367
0.977279 0.989822 0.187213
1 0.988632 0.231373
1 0.988449 0.247425
1 0.988449 0.249836
1 0.988449 0.249836
1 0.988449 0.249836
1 0.988449 0.249836
1 0.988449 0.249836
1 0.988449 0.249836
1 0.988449 0.249836
1 0.988449 0.249836
1 0.988449 0.249836
1 0.988449 0.249836
0.0140383 1 0.0107729
0.0140383 1 0.0107729
0.0140383 1 0.0107729
0.0140383 1 0.0107729
0.0140383 1 0.0107729
0.0140383 1 0.0107729
0.0140383 1 0.0107729
0.0140383 1 0.0107729
0.0140383 1 0.0107729
0.0140383 1 0.0107729
0.0143893 1 0.010605
0.037583 1 0.00248722
0.106905 1 0
0.20058 1 0
0.339223 1 0
0.514107 1 0
0.668498 1 0
0.774731 1 0.0167697
0.858 0.997513 0.0687266
0.924193 0.992798 0.127214
0.977676 0.989883 0.186404
0.999496 0.988663 0.230182
1 0.988449 0.247211
1 0.988449 0.249836
1 0.988449 0.249836
1 0.988449 0.249836
1 0.988449 0.249836
1 0.988449 0.249836
1 0.988449 0.249836
1 0.988449 0.249836
1 0.988449 0.249836
1 0.988449 0.249836
1 0.988449 0.249836
0.0140383 1 0.0107729
0.0140383 1 0.0107729
0.0140383 1 0.0107729
0.0140383 1 0.0107729
0.0140383 1 0.0107729
0.0140383 1 0.0107729
0.0140383 1 0.0107729
0.0140383 1 0.0107729
0.0140383 1 0.0107729
0.0140383 1 0.0107729
0.0143587 1 0.0106355
0.0397345 1 0.00140383
0.1122 1 0
0.204532 1 0
0.349783 1 0
0.524254 1 0
0.671382 1 0
0.776364 1 0.0187533
0.858579 0.997772 0.0687877
0.924025 0.992844 0.127428
0.978821 0.989899 0.186069
0.998764 0.988632 0.231189
1 0.988449 0.247974
1 0.988449 0.249836
1 0.988449 0.249836
1 0.988449 0.249836
1 0.988449 0.249836
1 0.988449 0.249836
1 0.988449 0.249836
1 0.988449 0.249836
1 0.988449 0.249836
1 0.988449 0.249836
1 0.988449 0.249836
0.0140383 1 0.0107729
0.0140383 1 0.0107729
0.0140383 1 0.0107729
0.0140383 1 0.0107729
0.0140383 1 0.0107729
0.0140383 1 0.0107729
0.0140383 1 0.0107729
0.0140383 1 0.0107729
0.0140383 1 0.0107729
