LUTs/70.cube
TITLE "Generate by Resolve"
LUT_3D_SIZE 5
0 0.00859083 0.0486
0.0471962 0.00138857 0.0347448
0.789837 0 0
1 0 0
1 0 0
0 0.107897 0.00318914
0.0123445 0.112398 0
0.852247 0 0
1 0 0
1 0 0
0 0.572229 0
0 0.666102 0
0.668803 0.57145 0.0326696
1 0.577264 0.0259861
1 0.622705 0.037995
0.0140383 1 0.0107729
0.0140383 1 0.0107729
0.66183 1 0
1 0.988449 0.249836
1 0.988449 0.249836
0.0140383 1 0.0107729
0.0140383 1 0.0107729
0.703075 1 0.00140383
1 0.988449 0.249836
1 0.988449 0.249836
0 4.57771e-05 0.23183
0.0356603 0 0.20351
0.787915 0 0
1 0 0
1 0 0
0.00189212 0.0948959 0.184527
0.0214389 0.104555 0.185077
0.881254 0.000137331 0.00848402
1 0 0
1 0 0
0 0.602045 0
0 0.699123 0
0.709621 0.602716 0.0522621
1 0.601907 0.032517
1 0.646296 0.0448463
0.0140383 1 0.0107729
0.0140383 1 0.0107729
0.692683 1 0
1 0.988449 0.249836
1 0.988449 0.249836
0.0140383 1 0.0107729
0.0138705 1 0.0110933
0.707835 1 0.00163272
1 0.988449 0.249836
1 0.988449 0.249836
0 0 0.992325
0 0 0.979812
0.714305 0 0.685924
1 0 0.439048
1 0 0.393683
0 0.046952 0.96054
0 0.0596475 0.988128
0.847425 0 0.801831
1 0 0.68072
1 0 0.740963
0 0.545907 0.798596
0 0.633906 0.887251
0.70956 0.616648 0.631632
1 0.583535 0.575647
1 0.622232 0.613748
0 1 0.696132
0 1 0.798932
0.564157 1 0.434791
1 0.993637 0.52842
1 0.993347 0.50341
0 1 0.843214
0 1 0.857694
0.559411 1 0.411475
1 0.9935 0.551034
1 0.994949 0.419913
0 0 1
0 0 1
0.637797 0 1
1 0 1
1 0 1
0 0.0212711 1
0 0.0378119 1
0.811353 0 1
1 0 1
1 0 1
0 0.531807 1
0.00015259 0.613336 1
0.712764 0.601755 1
1 0.563394 1
1 0.599893 1
0.0974441 1 1
0.0974441 1 1
0.592294 1 1
1 0.999451 0.994171
1 0.989273 0.983932
0.0974441 1 1
0.0974441 1 1
0.568063 1 1
1 0.99913 0.96585
1 0.998108 0.933791
0 0 1
0 0 1
0.625025 0 1
1 0 1
1 0 1
0 0.0133822 1
0 0.0329747 1
0.831403 0 1
1 0 1
1 0 1
0 0.541466 1
0 0.626673 1
0.738781 0.611612 1
1 0.57377 1
1 0.610636 1
0.0974441 1 1
0.0974441 1 1
0.59826 1 1
1 0.999741 1
1 0.982437 1
0.0974441 1 1
0.0974441 1 1
0.561837 1 1
1 1 1
1 1 1
