LUTs/70.cube
TITLE "Generate by Resolve"
LUT_3D_SIZE 9
0 0.00859083 0.0486
0 0.00856031 0.0474708
0.0471962 0.00138857 0.0347448
0.346654 0 0
0.789837 0 0
1 0 0
1 0 0
1 0 0
1 0 0
0 0.0433661 0.038941
0 0.0434577 0.0374151
0.0350347 0.0350652 0.0241245
0.358083 0 0
0.816266 0 0
1 0 0
1 0 0
1 0 0
1 0 0
0 0.107897 0.00318914
0 0.112688 0.00175479
0.0123445 0.112398 0
0.34052 0.0581216 0
0.852247 0 0
1 0 0
1 0 0
1 0 0
1 0 0
0 0.246357 0
0 0.271061 0
0 0.299992 0
0.25684 0.260502 0.0177005
0.788632 0.20267 0
1 0.176959 0
1 0.159991 0
1 0.168231 0
1 0.200473 0
0 0.572229 0
0 0.61883 0
0 0.666102 0
0.111315 0.651591 0
0.668803 0.57145 0.0326696
1 0.582879 0.0260929
1 0.577264 0.0259861
1 0.591653 0.0298009
1 0.622705 0.037995
0 0.933806 0
0 0.969787 0
0 0.991089 0
0.0406348 0.989746 0
0.659129 0.901991 0.00140383
0.980529 0.869017 0.107622
1 0.862196 0.142565
1 0.866987 0.146395
1 0.878477 0.154894
0.0140383 1 0.0107729
0.0140383 1 0.0107729
0.0140383 1 0.0107729
0.101518 1 0
0.66183 1 0
0.977279 0.989822 0.187213
1 0.988449 0.249836
1 0.988449 0.249836
1 0.988449 0.249836
0.0140383 1 0.0107729
0.0140383 1 0.0107729
0.0140383 1 0.0107729
0.120577 1 0
0.67657 1 0
0.977905 0.989837 0.185122
1 0.988449 0.249836
1 0.988449 0.249836
1 0.988449 0.249836
0.0140383 1 0.0107729
0.0140383 1 0.0107729
0.0140383 1 0.0107729
0.159274 1 0
0.703075 1 0.00140383
0.976837 0.989853 0.186725
1 0.988449 0.249836
1 0.988449 0.249836
1 0.988449 0.249836
0 0.00509651 0.110491
0 0.00509651 0.109071
0.0447852 0.000442512 0.0899214
0.346471 0 0.0126955
0.790997 0 0
1 0 0
1 0 0
1 0 0
1 0 0
0.000396735 0.0396582 0.0979171
0.000396735 0.0397345 0.0969558
0.0359503 0.0330205 0.0797742
0.362875 0 0.0132296
0.823072 0 0
1 0 0
1 0 0
1 0 0
1 0 0
0 0.106157 0.0634623
0 0.111574 0.0659342
0.012726 0.113512 0.0567788
0.359991 0.0592508 0.00378424
0.86833 7.62951e-05 0
1 0 0
1 0 0
1 0 0
1 0 0
0 0.254582 0
0 0.282032 0
0 0.313634 0
0.277913 0.272938 0.0206302
0.811505 0.217121 0
1 0.190051 0
1 0.173037 0
1 0.181109 0
1 0.217945 0
0 0.588373 0
0 0.635996 0
0 0.684428 0
0.134081 0.665003 0
0.690639 0.587411 0.0344091
1 0.598535 0.030457
1 0.591623 0.0297704
1 0.606088 0.033463
1 0.636774 0.0417792
0 0.946151 0
0 0.98085 0
0 0.995285 0
0.0589914 0.99585 0
0.682826 0.908629 0.00138857
0.990692 0.877958 0.119966
1 0.870176 0.148379
1 0.873716 0.151537
1 0.884642 0.15967
0.0140383 1 0.0107729
0.0140383 1 0.0107729
0.0140383 1 0.0107729
0.113252 1 0
0.680171 1 0
0.982025 0.989593 0.19443
1 0.988449 0.249836
1 0.988449 0.249836
1 0.988449 0.249836
0.0140383 1 0.0107729
0.0140383 1 0.0107729
0.0140383 1 0.0107729
0.128466 1 0
0.685557 1 0
0.980987 0.9897 0.189212
1 0.988449 0.249836
1 0.988449 0.249836
1 0.988449 0.249836
0.0140383 1 0.0107729
0.0140383 1 0.0107729
0.0140383 1 0.0107729
0.164675 1 0
0.707286 1 0.00181582
0.978531 0.989761 0.189273
1 0.988449 0.249836
1 0.988449 0.249836
1 0.988449 0.249836
0 4.57771e-05 0.23183
0 0 0.229328
0.0356603 0 0.20351
0.33611 0 0.109209
0.787915 0 0
1 0 0
1 0 0
1 0 0
1 0 0
0 0.0339971 0.2112
0 0.0343328 0.209949
0.0297093 0.0271611 0.194003
0.358801 0 0.111955
0.826108 0 0.00614939
1 0 0
1 0 0
1 0 0
1 0 0
0.00189212 0.0948959 0.184527
0.00131228 0.100755 0.191791
0.0214389 0.104555 0.185077
0.374166 0.0564431 0.0990768
0.881254 0.000137331 0.00848402
1 0 0.000701915
1 0 0
1 0 0
1 0 0
0 0.258167 0.0564279
0 0.288243 0.0642557
0 0.320714 0.0731365
0.291539 0.286442 0.0927291
0.842268 0.228397 0.010544
1 0.197253 0.000198367
1 0.181613 0
1 0.190723 0
1 0.229267 0
0 0.602045 0
0 0.650843 0
0 0.699123 0
0.148684 0.677531 0
0.709621 0.602716 0.0522621
1 0.610468 0.0346075
1 0.601907 0.032517
1 0.615381 0.0360266
1 0.646296 0.0448463
0 0.955352 0
0 0.984955 0
0 0.998474 0
0.0783856 1 0
0.686351 0.862745 0.0416419
0.998749 0.883848 0.130083
1 0.874556 0.151949
1 0.877073 0.154086
1 0.88719 0.161807
0.0140383 1 0.0107729
0.0140383 1 0.0107729
0.0140383 1 0.0107729
0.122896 1 0
0.692683 1 0
0.984741 0.989456 0.199008
1 0.988449 0.249836
1 0.988449 0.249836
1 0.988449 0.249836
0.0140383 1 0.0107729
0.0140383 1 0.0107729
0.0139773 1 0.0108949
0.133898 1 0
0.690852 1 0
0.982956 0.989624 0.191012
1 0.988449 0.249836
1 0.988449 0.249836
1 0.988449 0.249836
0.0140383 1 0.0107729
0.0137331 1 0.0113985
0.0138705 1 0.0110933
0.166735 1 0
0.707835 1 0.00163272
0.978317 0.989761 0.18883
1 0.988449 0.249836
1 0.988449 0.249836
1 0.988449 0.249836
0 0 0.590372
0 0 0.586419
0.00537118 0 0.553948
0.298375 0 0.408576
0.762768 0 0.21416
1 0 0.102358
1 0 0.058381
1 0 0.0390631
1 0 0.0277104
0 0.00814832 0.569924
0 0.00881971 0.569146
0.00856031 0.00384527 0.55053
0.325414 0 0.424582
0.806729 0 0.244083
1 0 0.134005
1 0 0.09514
1 0 0.0871595
1 0 0.089189
0 0.0777905 0.507042
0 0.0839094 0.521508
0.00546273 0.0879988 0.524346
0.356451 0.0403906 0.426398
0.874067 0 0.287221
1 0 0.197177
1 0 0.160693
1 0 0.16141
1 0 0.191684
0 0.224094 0.415122
0 0.252613 0.454353
0 0.284077 0.491844
0.282063 0.291447 0.334249
0.869429 0.223224 0.251469
1 0.190951 0.205585
1 0.173449 0.177325
1 0.184222 0.177218
1 0.223819 0.210086
0 0.599771 0.179049
0 0.645777 0.217533
0 0.690913 0.261906
0.119249 0.695994 0.156374
0.707515 0.613703 0.242176
1 0.61471 0.154162
1 0.605356 0.138674
1 0.618357 0.142443
1 0.64828 0.167636
0 0.962203 0.0500343
0 0.990616 0.0846113
0 0.999557 0.125719
0.061677 1 0.0809644
0.673609 0.865904 0.19794
0.998444 0.884276 0.201755
1 0.875303 0.185824
1 0.876829 0.182589
1 0.885756 0.188769
0 1 0.0978256
0 1 0.115755
0 1 0.140398
0.0600595 1 0.0534066
0.671397 1 0.0884871
0.977676 0.993729 0.220432
1 0.991714 0.251514
1 0.991089 0.252003
1 0.990784 0.252399
0 1 0.110719
0 1 0.135286
0 1 0.146075
0.0690166 1 0.0437171
0.665141 1 0.0298619
0.981521 0.995239 0.182773
1 0.990219 0.252247
1 0.989578 0.251911
1 0.989334 0.251835
0 1 0.16611
0 1 0.193759
0 1 0.185626
0.0936446 1 0.0585031
0.677195 1 0.0336004
0.975891 0.994842 0.177371
1 0.989532 0.252216
1 0.988998 0.251362
1 0.988769 0.250843
0 0 0.992325
0 0 0.99089
0 0 0.979812
0.243763 0 0.874693
0.714305 0 0.685924
1 0 0.527321
1 0 0.439048
1 0 0.408286
1 0 0.393683
0 0 0.987869
0 0 0.987961
4.57771e-05 0 0.982284
0.274418 0 0.898375
0.765225 0 0.7308
1 0 0.587335
1 0 0.532998
1 0 0.540307
1 0 0.562066
0 0.046952 0.96054
0 0.0542458 0.976272
0 0.0596475 0.988128
0.322148 0.0135958 0.919738
0.847425 0 0.801831
1 0 0.711055
1 0 0.68072
1 0 0.694499
1 0 0.740963
0 0.203845 0.851453
0 0.233921 0.892592
0 0.267353 0.928496
0.266712 0.267842 0.86804
0.856001 0.200565 0.797604
1 0.170184 0.750408
1 0.154101 0.722301
1 0.164813 0.737148
1 0.202441 0.788174
0 0.545907 0.798596
0 0.590143 0.844343
0 0.633906 0.887251
0.17319 0.64448 0.814725
0.70956 0.616648 0.631632
1 0.592508 0.591943
1 0.583535 0.575647
1 0.595224 0.583886
1 0.622232 0.613748
0 0.921767 0.703532
0 0.957336 0.765545
0 0.989837 0.826291
0.0461128 0.989899 0.742504
0.606561 0.929824 0.50132
0.97377 0.871412 0.581643
1 0.864118 0.549859
1 0.864546 0.54699
1 0.871397 0.55964
0 1 0.696132
0 1 0.749844
0 1 0.798932
0.020676 1 0.685786
0.564157 1 0.434791
0.931685 0.985031 0.596231
1 0.993637 0.52842
1 0.99382 0.511528
1 0.993347 0.50341
0 1 0.755062
0 1 0.796445
0 1 0.806653
0.024506 1 0.671199
0.556405 1 0.412161
0.931945 0.994797 0.596445
1 0.993362 0.557733
1 0.994339 0.468421
1 0.994537 0.453071
0 1 0.843214
0 1 0.87042
0 1 0.857694
0.0448005 1 0.690303
0.559411 1 0.411475
0.930053 0.994858 0.590585
1 0.9935 0.551034
1 0.994705 0.439612
1 0.994949 0.419913
0 0 1
0 0 1
0 0 1
0.193027 0 1
0.664164 0 1
0.996368 0 0.952041
1 0 0.885298
1 0 0.872999
1 0 0.871534
0 0 1
0 0 1
0 0 1
0.229175 0 1
0.717525 0 1
0.998611 0 0.971008
1 0 0.940246
1 0 0.94786
1 0 0.959213
0 0.0322271 1
0 0.0400854 1
0 0.0469062 1
0.29807 0.00573739 1
0.813504 0 1
1 0 0.997803
1 0 0.993561
1 0 0.994659
1 0 0.999069
0 0.191211 1
0 0.222507 1
0 0.257649 1
0.261494 0.253162 1
0.853452 0.18735 1
1 0.15874 1
1 0.143648 1
1 0.154879 1
1 0.193805 1
0 0.535088 1
0 0.577249 1
0 0.618509 1
0.178714 0.638437 1
0.707866 0.605875 0.99939
1 0.57731 0.998672
1 0.567605 0.991394
1 0.578866 0.997589
1 0.60528 0.994492
0 0.876875 1
0.0113985 0.909331 1
0.0388037 0.937377 1
0.133715 0.944045 1
0.63064 0.892897 0.991913
0.974044 0.859205 0.873457
1 0.846296 0.852628
1 0.845991 0.847684
1 0.852018 0.849638
0.0295415 1 1
0.0435798 1 1
0.0561379 1 1
0.0921492 1 1
0.546944 1 0.954086
0.931991 0.998795 0.826093
1 0.995071 0.83151
1 0.994781 0.820264
1 0.989837 0.812329
0.0405585 1 1
0.0528267 1 1
0.0544442 1 1
0.0893263 1 1
0.526345 1 0.933135
0.906798 0.999069 0.798642
1 0.994873 0.823377
1 0.994095 0.78851
1 0.993866 0.776684
0.0668956 1 1
0.0760815 1 1
0.0704967 1 1
0.104082 1 1
0.519753 1 0.92401
0.895598 0.998703 0.772442
1 0.994904 0.824628
1 0.99379 0.771618
1 0.993439 0.749477
0 0 1
0 0 1
0 0 1
0.172076 0 1
0.637797 0 1
0.960525 0 1
1 0 1
1 0 0.999893
1 0 1
0 0 1
0 0 1
0 0 1
0.213489 0 1
0.703578 0 1
0.996887 0 1
1 0 1
1 0 1
1 0 1
0 0.0212711 1
0 0.0299382 1
0 0.0378119 1
0.292546 0.00358587 1
0.811353 0 1
1 0 1
1 0 1
1 0 1
1 0 1
0 0.182666 1
0 0.214771 1
0 0.249638 1
0.264851 0.245029 1
0.854307 0.180117 1
1 0.152575 1
1 0.138659 1
1 0.150225 1
1 0.190982 1
0 0.531807 1
0 0.572106 1
0.00015259 0.613336 1
0.180514 0.634668 1
0.712764 0.601755 1
1 0.573281 1
1 0.563394 1
1 0.573709 1
1 0.599893 1
0.0458991 0.861891 1
0.0572671 0.895888 1
0.0684062 0.927413 1
0.151736 0.93521 1
0.642786 0.884672 1
0.975128 0.853956 1
1 0.837446 1
1 0.836042 1
1 0.841062 1
0.0974441 1 1
0.0974441 1 1
0.0974441 1 1
0.126452 1 1
0.592294 1 1
0.919844 0.997787 1
1 0.999451 0.994171
1 0.997696 0.989807
1 0.989273 0.983932
0.0974441 1 1
0.0974441 1 1
0.0974441 1 1
0.12842 1 1
0.577096 0.999954 1
0.897673 0.997803 0.999939
1 0.999664 0.983154
1 0.999283 0.970642
1 0.998901 0.958907
0.0974441 1 1
0.0974441 1 1
0.0974441 1 1
0.129992 1 1
0.568063 1 1
0.876066 0.998352 0.996277
1 0.99913 0.96585
1 0.99855 0.947814
1 0.998108 0.933791
0 0 1
0 0 1
0 0 1
0.163302 0 1
0.629801 0 1
0.958236 0 1
1 0 1
1 0 1
1 0 1
0 0 1
0 0 1
0 0 1
0.209918 0 1
0.705379 0 1
0.996002 0 1
1 0 1
1 0 1
1 0 1
0 0.0166476 1
0 0.0256809 1
0 0.034287 1
0.299763 0.000411994 1
0.822431 0 1
1 0 1
1 0 1
1 0 1
1 0 1
0 0.181903 1
0 0.216083 1
0 0.252491 1
0.278431 0.246372 1
0.863523 0.182147 1
1 0.154498 1
1 0.140887 1
1 0.15349 1
1 0.197726 1
0 0.535653 1
0 0.57528 1
0.00015259 0.618021 1
0.191989 0.638788 1
0.724239 0.6047 1
1 0.576074 1
1 0.566278 1
1 0.574731 1
1 0.601175 1
0.0471046 0.866239 1
0.0586252 0.899855 1
0.0695354 0.930358 1
0.160525 0.936904 1
0.648814 0.88571 1
0.976257 0.854002 1
1 0.836469 1
1 0.834134 1
1 0.838666 1
0.0974441 1 1
0.0974441 1 1
0.0974441 1 1
0.129641 1 1
0.594156 1 1
0.92018 0.997711 1
1 1 1
1 0.993652 1
1 0.98529 1
0.0974441 1 1
0.0974441 1 1
0.0974441 1 1
0.127459 1 1
0.574426 0.999969 1
0.897276 0.997055 1
1 1 1
1 1 1
1 1 1
0.0974441 1 1
0.0974441 1 1
0.0974441 1 1
0.12755 1 1
0.563195 1 1
0.87715 0.996536 1
1 1 1
1 1 1
1 1 0.999542
0 0 1
0 0 1
0 0 1
0.157275 0 1
0.625025 0 1
0.957534 0 1
1 0 1
1 0 1
1 0 1
0 0 1
0 0 1
0 0 1
0.209812 0 1
0.711742 0 1
0.994629 0 1
1 0 1
1 0 1
1 0 1
0 0.0133822 1
0 0.0232242 1
0 0.0329747 1
0.314824 0 1
0.831403 0 1
1 0 1
1 0 1
1 0 1
1 0 1
0 0.184558 1
0 0.219684 1
0 0.259663 1
0.296132 0.253239 1
0.877791 0.189136 1
1 0.161273 1
1 0.150118 1
1 0.165698 1
1 0.21593 1
0 0.541466 1
0 0.581018 1
0 0.626673 1
0.206653 0.647807 1
0.738781 0.611612 1
1 0.582803 1
1 0.57377 1
1 0.582956 1
1 0.610636 1
0.0490272 0.871809 1
0.0606241 0.905821 1
0.0717479 0.936355 1
0.17113 0.942199 1
0.657252 0.888838 1
0.977264 0.855924 1
1 0.837644 1
1 0.834897 1
1 0.839872 1
0.0974441 1 1
0.0974441 1 1
0.0974441 1 1
0.134829 1 1
0.59826 1 1
0.921584 0.997757 1
1 0.999741 1
1 0.98999 1
1 0.982437 1
0.0974441 1 1
0.0974441 1 1
0.0974441 1 1
0.127825 1 1
0.574548 0.999969 1
0.896132 0.997024 1
1 1 1
1 1 1
1 1 1
0.0974441 1 1
0.0974441 1 1
0.0974441 1 1
0.127443 1 1
0.561837 1 1
0.87538 0.99649 1
1 1 1
1 1 1
1 1 1
