LUTs/73.cube
TITLE "Generate by Resolve"
LUT_3D_SIZE 9
0 0.005066 0.0168307
0.066453 0.00430304 0.0141451
0.161059 0.00210575 0.00276188
0.321233 0.00839246 0
0.75523 0 0
0.850004 0 0
0.899992 0 0
0.949996 0 0
1 0 0
0.00263981 0.0737774 0
0.0626078 0.0702831 0.0047303
0.148348 0.0653544 0.0015259
0.307317 0.0583505 0
0.741939 0.0499886 0
0.850004 0.0499886 0
0.899992 0.0499886 0
0.949996 0.0499886 0
1 0.0499886 0
0.0267033 0.142641 0
0.0767376 0.14258 0
0.142397 0.142428 0.00250248
0.297215 0.125765 0.000289921
0.740978 0.0999924 0
0.850004 0.0999924 0
0.899992 0.0999924 0
0.949996 0.0999924 0
1 0.0999924 0
0.0724956 0.248127 0
0.127199 0.253925 0
0.18526 0.263859 0
0.301274 0.274952 0.0247501
0.641794 0.251148 0.0019379
0.850004 0.206729 0
0.899992 0.210544 0
0.949996 0.24242 0
1 0.26717 0
0.207736 0.464347 0
0.274281 0.484886 0
0.337728 0.50367 0
0.439155 0.51046 0.0039826
0.624811 0.535943 0.0818341
0.850004 0.530617 0
0.899992 0.530999 0
0.949996 0.564797 0
1 0.595071 0
0.421592 0.754543 0
0.491966 0.771405 0
0.549905 0.777996 0
0.607187 0.784054 0
0.799908 0.769497 0
0.850004 0.787533 0
0.899992 0.783581 0
0.949996 0.793545 0
1 0.806745 0
0.461082 0.837263 0
0.511086 0.837263 0
0.561074 0.837263 0
0.611078 0.837263 0
0.8 0.830533 0
0.850004 0.869261 0
0.899992 0.873213 0
0.949996 0.873213 0
1 0.873213 0
0.461082 0.887266 0
0.511086 0.887266 0
0.561074 0.887266 0
0.621103 0.886046 0
0.8 0.88455 0
0.850004 0.91989 0
0.899992 0.923217 0
0.949996 0.923217 0
1 0.923217 0
0.461082 0.93727 0
0.511086 0.93727 0
0.561074 0.93727 0
0.634333 0.934508 0
0.8 0.938048 0
0.850004 0.970626 0
0.899992 0.97322 0
0.949996 0.97322 0
1 0.97322 0
0.000289921 0.00344854 0.0970016
0.0655222 0.00291447 0.09337
0.161303 0.000427253 0.0793164
0.318898 0.00839246 0.0499886
0.752529 0 0.0499886
0.850004 0 0.0499886
0.899992 0 0.0499886
0.949996 0 0.0499886
1 0 0.0499886
0.000518807 0.0723125 0.0816205
0.0560769 0.0699168 0.082887
0.148714 0.0638132 0.0714733
0.30631 0.0583352 0.0499886
0.741222 0.0499886 0.0499886
0.850004 0.0499886 0.0499886
0.899992 0.0499886 0.0499886
0.949996 0.0499886 0.0499886
1 0.0499886 0.0499886
0.0173648 0.145464 0.0499886
0.0673381 0.145769 0.0499886
0.141085 0.143252 0.060502
0.299199 0.126406 0.0504463
0.747906 0.0999924 0.0499886
0.850004 0.0999924 0.0499886
0.899992 0.0999924 0.0499886
0.949996 0.0999924 0.0499886
1 0.0999924 0.0499886
0.0736248 0.249531 0.0499886
0.128939 0.256046 0.0499886
0.188266 0.267582 0.0499886
0.306661 0.279088 0.0763104
0.654612 0.25568 0.0516213
0.850004 0.212833 0.0499886
0.899992 0.216968 0.0499886
0.949996 0.248798 0.0499886
1 0.274327 0.0499886
0.212573 0.470359 0.0499886
0.279103 0.491417 0.0499886
0.34284 0.511223 0.0499886
0.448386 0.516411 0.0532692
0.633463 0.542565 0.131029
0.850004 0.537133 0.0499886
0.899992 0.538247 0.0499886
0.949996 0.571771 0.0499886
1 0.600229 0.0499886
0.427482 0.759411 0.0499886
0.497429 0.775937 0.0499886
0.552514 0.780148 0.0499886
0.609674 0.786114 0.0499886
0.799954 0.772793 0.0499886
0.850004 0.790555 0.0499886
0.899992 0.786068 0.0499886
0.949996 0.795254 0.0499886
1 0.80763 0.0499886
0.461082 0.837263 0.0499886
0.511086 0.837263 0.0499886
0.561074 0.837263 0.0499886
0.611078 0.837263 0.0499886
0.8 0.830686 0.0499886
0.850004 0.869307 0.0499886
0.899992 0.873213 0.0499886
0.949996 0.873213 0.0499886
1 0.873213 0.0499886
0.461082 0.887266 0.0499886
0.511086 0.887266 0.0499886
0.561074 0.887266 0.0499886
0.620691 0.886091 0.0499886
0.8 0.884321 0.0499886
0.850004 0.919738 0.0499886
0.899992 0.923217 0.0499886
0.949996 0.923217 0.0499886
1 0.923217 0.0499886
0.461082 0.93727 0.0499886
0.511086 0.93727 0.0499886
0.561074 0.93727 0.0499886
0.631601 0.934783 0.0499886
0.8 0.937407 0.0499886
0.850004 0.970321 0.0499886
0.899992 0.97322 0.0499886
0.949996 0.97322 0.0499886
1 0.97322 0.0499886
0.0040589 0.000381476 0.198077
0.0645609 0.00015259 0.195956
0.152239 0.000427253 0.185946
0.31989 0.00663767 0.123079
0.746624 0 0.0999924
0.850004 0 0.0999924
0.899992 0 0.0999924
0.949996 0 0.0999924
1 0 0.0999924
0.00231937 0.066743 0.188998
0.0565957 0.0653849 0.186526
0.143847 0.0608377 0.1776
0.309651 0.0563973 0.121645
0.73846 0.0499886 0.0999924
0.850004 0.0499886 0.0999924
0.899992 0.0499886 0.0999924
0.949996 0.0499886 0.0999924
1 0.0499886 0.0999924
0.000366217 0.146807 0.154437
0.0504005 0.147417 0.154818
0.128069 0.144732 0.162448
0.307774 0.124865 0.122576
0.752377 0.0999924 0.0999924
0.850004 0.0999924 0.0999924
0.899992 0.0999924 0.0999924
0.949996 0.0999924 0.0999924
1 0.0999924 0.0999924
0.0738689 0.251591 0.0999924
0.128786 0.260258 0.0999924
0.185489 0.274372 0.0999924
0.313024 0.285237 0.131167
0.667933 0.261097 0.101259
0.850004 0.218997 0.0999924
0.899992 0.223117 0.0999924
0.949996 0.256992 0.0999924
1 0.284016 0.0999924
0.215976 0.474601 0.0999924
0.283131 0.497063 0.0999924
0.347189 0.517555 0.0999924
0.457527 0.52192 0.104021
0.64033 0.547738 0.180285
0.850004 0.541314 0.0999924
0.899992 0.542733 0.0999924
0.949996 0.576288 0.0999924
1 0.604593 0.0999924
0.429648 0.761212 0.0999924
0.499245 0.777432 0.0999924
0.554253 0.781598 0.0999924
0.610025 0.786389 0.0999924
0.799969 0.773693 0.0999924
0.850004 0.791043 0.0999924
0.899992 0.785794 0.0999924
0.949996 0.794141 0.0999924
1 0.805753 0.0999924
0.461082 0.837263 0.0999924
0.511086 0.837263 0.0999924
0.561074 0.837263 0.0999924
0.611078 0.837263 0.0999924
0.8 0.830488 0.0999924
0.850004 0.869123 0.0999924
0.899992 0.873213 0.0999924
0.949996 0.873213 0.0999924
1 0.873213 0.0999924
0.461082 0.887266 0.0999924
0.511086 0.887266 0.0999924
0.561074 0.887266 0.0999924
0.617029 0.886519 0.0999924
0.8 0.883406 0.0999924
0.850004 0.919051 0.0999924
0.899992 0.923217 0.0999924
0.949996 0.923217 0.0999924
1 0.923217 0.0999924
0.461082 0.93727 0.0999924
0.511086 0.93727 0.0999924
0.561074 0.93727 0.0999924
0.628473 0.935134 0.0999924
0.8 0.935912 0.0999924
0.850004 0.969711 0.0999924
0.899992 0.97322 0.0999924
0.949996 0.97322 0.0999924
1 0.97322 0.0999924
0.00906386 0 0.467506
0.0594186 0 0.453071
0.138048 0 0.407568
0.294804 0.00572213 0.346532
0.667613 0 0.235798
0.850004 0 0.153368
0.899992 0 0.149996
0.949996 0 0.149996
1 0 0.149996
0.0101472 0.0515297 0.421759
0.0601358 0.0513313 0.412543
0.132784 0.0512551 0.388891
0.285512 0.0559396 0.339406
0.656031 0.0499886 0.232517
0.850004 0.0499886 0.156817
0.899992 0.0499886 0.15172
0.949996 0.0499886 0.15935
1 0.0499886 0.171084
0.0132906 0.128222 0.374609
0.0634775 0.128832 0.377859
0.128786 0.1299 0.378225
0.287663 0.117586 0.344488
0.69604 0.0999924 0.257877
0.850004 0.0999924 0.1888
0.899992 0.0999924 0.196201
0.949996 0.0999924 0.237461
1 0.0999924 0.285008
0.00808728 0.265278 0.274861
0.0602274 0.275288 0.284962
0.113191 0.290959 0.298909
0.269917 0.296208 0.342733
0.616892 0.275761 0.272267
0.850004 0.216251 0.195789
0.899992 0.219776 0.199603
0.949996 0.259754 0.242481
1 0.290333 0.276493
0.176532 0.493874 0.157046
0.232029 0.51873 0.156435
0.282414 0.541527 0.156741
0.398093 0.546181 0.190982
0.628397 0.555627 0.285771
0.850004 0.546151 0.150927
0.899992 0.545983 0.151873
0.949996 0.579553 0.163592
1 0.609506 0.180041
0.432959 0.764141 0.149996
0.501579 0.779507 0.149996
0.555673 0.783078 0.149996
0.60209 0.789227 0.149996
0.8 0.774716 0.149996
0.850004 0.791867 0.149996
0.899992 0.784985 0.149996
0.949996 0.791959 0.149996
1 0.802579 0.149996
0.460914 0.837324 0.149996
0.510597 0.837446 0.149996
0.559182 0.837949 0.149996
0.609979 0.837659 0.149996
0.8 0.830014 0.149996
0.850004 0.868574 0.149996
0.899992 0.873213 0.149996
0.949996 0.873213 0.149996
1 0.873213 0.149996
0.410941 0.904692 0.149996
0.451362 0.907942 0.149996
0.506844 0.906081 0.149996
0.588022 0.896208 0.149996
0.8 0.881773 0.149996
0.850004 0.917891 0.149996
0.899992 0.923217 0.149996
0.949996 0.923217 0.149996
1 0.923217 0.149996
0.370398 0.968307 0.149996
0.423178 0.967391 0.149996
0.48539 0.963272 0.149996
0.578546 0.951736 0.149996
0.8 0.933623 0.149996
0.850004 0.968612 0.149996
0.899992 0.97322 0.149996
0.949996 0.97322 0.149996
1 0.97322 0.149996
0.0148165 0 0.8
0.0648051 0 0.8
0.132677 0 0.8
0.349828 0 0.797147
0.664668 0 0.699077
0.850004 0 0.643961
0.899992 0 0.609003
0.949996 0 0.619318
1 0 0.632456
0.014786 0.0499886 0.8
0.0648051 0.0499886 0.8
0.12752 0.0499886 0.8
0.337209 0.0499886 0.796292
0.660349 0.0499886 0.69691
0.850004 0.0499886 0.655848
0.899992 0.0499886 0.64097
0.949996 0.0499886 0.669352
1 0.0499886 0.69218
0.0102998 0.0999924 0.8
0.0601816 0.0999924 0.8
0.115892 0.0999924 0.8
0.341573 0.0999924 0.799985
0.71014 0.0999924 0.744183
0.850004 0.0999924 0.708293
0.899992 0.0999924 0.716976
0.949996 0.0999924 0.751766
1 0.0999924 0.781353
0.00474556 0.234318 0.739361
0.0529946 0.246189 0.762875
0.10222 0.262486 0.780896
0.279576 0.274113 0.703273
0.617258 0.257038 0.650843
0.850004 0.195071 0.704143
0.899992 0.197391 0.709102
0.949996 0.239094 0.738506
1 0.267887 0.757565
0.0340734 0.52311 0.531151
0.0776989 0.549096 0.555291
0.120317 0.570092 0.573938
0.207309 0.584436 0.59295
0.551415 0.565835 0.621546
0.81828 0.559564 0.572335
0.868254 0.558145 0.570336
0.922042 0.586084 0.598352
0.976394 0.612406 0.62504
0.0497444 0.850004 0.205768
0.0918593 0.850004 0.218418
0.136584 0.850004 0.227741
0.179446 0.850004 0.232547
0.688807 0.796857 0.451759
0.84361 0.790417 0.561898
0.899992 0.786938 0.52665
0.949996 0.791562 0.534691
1 0.800504 0.553613
0.0745251 0.899992 0.203174
0.102083 0.899992 0.21561
0.146502 0.899992 0.219089
0.203037 0.899992 0.206531
0.690211 0.862379 0.341115
0.850004 0.868498 0.475593
0.899992 0.881544 0.319768
0.949996 0.88127 0.303517
1 0.8813 0.307668
0 0.949996 0.306798
0.0499886 0.949996 0.321233
0.0999924 0.949996 0.305974
0.168658 0.949996 0.256168
0.69192 0.912245 0.367224
0.850004 0.916762 0.446937
0.899992 0.930175 0.276295
0.949996 0.929259 0.256535
1 0.928908 0.250614
0 1 0.37998
0.0499886 1 0.372747
0.0999924 1 0.341131
0.150622 1 0.290425
0.695491 0.961975 0.401511
0.850004 0.966751 0.451804
0.899992 0.979599 0.262654
0.949996 0.97821 0.238941
1 0.977554 0.229343
0.0148165 0 0.850004
0.0648051 0 0.850004
0.11812 0 0.850004
0.319478 0 0.850004
0.663767 0 0.850004
0.850004 0 0.850004
0.899992 0 0.850004
0.949996 0 0.850004
1 0 0.850004
0.0148165 0.0499886 0.850004
0.0648051 0.0499886 0.850004
0.116518 0.0499886 0.850004
0.310811 0.0499886 0.850004
0.664271 0.0499886 0.850004
0.850004 0.0499886 0.850004
0.899992 0.0499886 0.850004
0.949996 0.0499886 0.850004
1 0.0499886 0.850004
0.0136263 0.0999924 0.850004
0.0632944 0.0999924 0.850004
0.112917 0.0999924 0.850004
0.322835 0.0999924 0.850004
0.700038 0.0999924 0.850004
0.850004 0.0999924 0.850004
0.899992 0.0999924 0.850004
0.949996 0.0999924 0.850004
1 0.0999924 0.850004
0 0.216266 0.850004
0.0499886 0.229938 0.850004
0.0999924 0.247349 0.850004
0.268315 0.251682 0.850004
0.667811 0.220432 0.845319
0.850004 0.176364 0.850004
0.899992 0.178683 0.850004
0.949996 0.213703 0.850004
1 0.24239 0.850004
0.0200198 0.500008 0.850004
0.0649271 0.525826 0.850004
0.110582 0.545312 0.850004
0.178058 0.563592 0.850004
0.565286 0.554543 0.806714
0.827115 0.549401 0.821759
0.878401 0.546929 0.821988
0.929335 0.573861 0.82266
0.981521 0.600061 0.824475
0 0.850004 0.817411
0.0499886 0.850004 0.824277
0.0999924 0.850004 0.825284
0.149996 0.850004 0.827314
0.452674 0.842786 0.827665
0.792691 0.792554 0.809674
0.899992 0.779706 0.792187
0.949996 0.783368 0.79527
1 0.792508 0.803906
0 0.899992 0.785122
0.0499886 0.899992 0.80296
0.0999924 0.899992 0.806958
0.149996 0.899992 0.804837
0.352483 0.899992 0.777035
0.800473 0.886992 0.730632
0.899992 0.89012 0.764538
0.949996 0.889418 0.7608
1 0.889418 0.760876
0 0.949996 0.825299
0.0499886 0.949996 0.825299
0.0999924 0.949996 0.825284
0.149996 0.949996 0.825162
0.347204 0.949996 0.778408
0.795972 0.933547 0.712154
0.899992 0.938064 0.750149
0.949996 0.937652 0.743435
1 0.937316 0.739925
0 1 0.825299
0.0499886 1 0.825299
0.0999924 1 0.825299
0.149996 1 0.825162
0.358709 1 0.795193
0.792508 0.983536 0.710292
0.899992 0.986496 0.741375
0.949996 0.986481 0.730892
1 0.985885 0.724041
0.0148165 0 0.899992
0.0648051 0 0.899992
0.117144 0 0.899992
0.308751 0 0.899992
0.654688 0 0.899992
0.850004 0 0.899992
0.899992 0 0.899992
0.949996 0 0.899992
1 0 0.899992
0.0148165 0.0499886 0.899992
0.0648051 0.0499886 0.899992
0.115831 0.0499886 0.899992
0.302968 0.0499886 0.899992
0.659052 0.0499886 0.899992
0.850004 0.0499886 0.899992
0.899992 0.0499886 0.899992
0.949996 0.0499886 0.899992
1 0.0499886 0.899992
0.0139315 0.0999924 0.899992
0.0636454 0.0999924 0.899992
0.113268 0.0999924 0.899992
0.324269 0.0999924 0.899992
0.703212 0.0999924 0.899992
0.850004 0.0999924 0.899992
0.899992 0.0999924 0.899992
0.949996 0.0999924 0.899992
1 0.0999924 0.899992
0 0.215991 0.899992
0.0499886 0.231464 0.899992
0.0999924 0.250416 0.899992
0.271977 0.255207 0.899992
0.670954 0.223499 0.894713
0.850004 0.17821 0.899992
0.899992 0.181262 0.899992
0.949996 0.22005 0.899992
1 0.25069 0.899992
0.0197452 0.500969 0.899992
0.0645304 0.527718 0.899992
0.109667 0.54873 0.899992
0.178042 0.566781 0.899992
0.566735 0.555825 0.856916
0.826581 0.549554 0.871702
0.878386 0.5467 0.871962
0.92932 0.573602 0.872648
0.98146 0.599374 0.874418
0 0.850004 0.899214
0.0499886 0.850004 0.891035
0.0999924 0.850004 0.886519
0.149996 0.850004 0.882826
0.438911 0.843107 0.897383
0.792599 0.787335 0.899992
0.899992 0.77438 0.896803
0.949996 0.776944 0.897078
1 0.785 0.897917
0 0.899992 0.875303
0.0499886 0.899992 0.875303
0.0999924 0.899992 0.875303
0.149996 0.899992 0.875303
0.295201 0.899992 0.895582
0.73727 0.899901 0.882933
0.899992 0.897581 0.893812
0.949996 0.896223 0.894224
1 0.8963 0.894224
0 0.949996 0.875303
0.0499886 0.949996 0.875303
0.0999924 0.949996 0.875303
0.149996 0.949996 0.875303
0.279347 0.949996 0.895811
0.720562 0.949462 0.880949
0.895552 0.948165 0.887541
0.949996 0.946853 0.883909
1 0.946624 0.880385
0 1 0.875303
0.0499886 1 0.875303
0.0999924 1 0.875303
0.149996 1 0.875303
0.291371 1 0.896117
0.715023 0.999329 0.88014
0.888121 0.998184 0.873991
0.949996 0.99588 0.870314
1 0.995178 0.862623
0.0148165 0 0.949996
0.0648051 0 0.949996
0.116854 0 0.949996
0.305715 0 0.949996
0.652903 0 0.949996
0.850004 0 0.949996
0.899992 0 0.949996
0.949996 0 0.949996
1 0 0.949996
0.0148165 0.0499886 0.949996
0.0648051 0.0499886 0.949996
0.115785 0.0499886 0.949996
0.303044 0.0499886 0.949996
0.661418 0.0499886 0.949996
0.850004 0.0499886 0.949996
0.899992 0.0499886 0.949996
0.949996 0.0499886 0.949996
1 0.0499886 0.949996
0.0139162 0.0999924 0.949996
0.063508 0.0999924 0.949996
0.113512 0.0999924 0.949996
0.331838 0.0999924 0.949996
0.712413 0.0999924 0.949996
0.850004 0.0999924 0.949996
0.899992 0.0999924 0.949996
0.949996 0.0999924 0.949996
1 0.0999924 0.949996
0 0.221881 0.949996
0.0499886 0.237812 0.949996
0.0999924 0.258335 0.949996
0.281621 0.264622 0.949996
0.67921 0.235019 0.941939
0.850004 0.188327 0.949996
0.899992 0.193011 0.949996
0.949996 0.234424 0.949996
1 0.263172 0.949996
0.0174868 0.513664 0.949996
0.0614786 0.540978 0.949996
0.10573 0.565011 0.949996
0.181827 0.582513 0.949996
0.57937 0.567819 0.908949
0.82742 0.56022 0.921843
0.878325 0.557351 0.921843
0.930022 0.582712 0.923232
0.982208 0.607034 0.925048
0 0.850004 0.946288
0.0499886 0.850004 0.936629
0.0999924 0.850004 0.931624
0.149996 0.850004 0.930205
0.448249 0.845563 0.944976
0.795316 0.7906 0.949996
0.899992 0.776242 0.947036
0.949996 0.777859 0.947204
1 0.785367 0.947951
0 0.899992 0.925292
0.0499886 0.899992 0.925292
0.0999924 0.899992 0.925292
0.149996 0.899992 0.925292
0.296727 0.899992 0.945541
0.736538 0.899886 0.932845
0.899992 0.897414 0.943755
0.949996 0.895735 0.944289
1 0.895949 0.944274
0 0.949996 0.925292
0.0499886 0.949996 0.925292
0.0999924 0.949996 0.925292
0.149996 0.949996 0.925292
0.273533 0.949996 0.945891
0.717601 0.949355 0.930632
0.89192 0.94902 0.940826
0.949996 0.947509 0.94403
1 0.947509 0.94403
0 1 0.925292
0.0499886 1 0.925292
0.0999924 1 0.925292
0.149996 1 0.925292
0.280842 1 0.946014
0.709484 0.999176 0.92987
0.874632 0.999756 0.939483
0.949996 0.997513 0.94403
1 0.997513 0.94403
0.0148165 0 1
0.0648051 0 1
0.11664 0 1
0.304143 0 1
0.652079 0 1
0.850004 0 1
0.899992 0 1
0.949996 0 1
1 0 1
0.0148165 0.0499886 1
0.0648051 0.0499886 1
0.115846 0.0499886 1
0.305089 0.0499886 1
0.664759 0.0499886 1
0.850004 0.0499886 1
0.899992 0.0499886 1
0.949996 0.0499886 1
1 0.0499886 1
0.0138552 0.0999924 1
0.0632944 0.0999924 1
0.114199 0.0999924 1
0.340948 0.0999924 1
0.721996 0.0999924 1
0.850004 0.0999924 1
0.899992 0.0999924 1
0.949996 0.0999924 1
1 0.0999924 1
0 0.227268 1
0.0499886 0.243549 1
0.0999924 0.266026 1
0.289174 0.272099 1
0.684855 0.243244 0.990082
0.850004 0.195239 1
0.899992 0.201663 1
0.949996 0.243671 1
1 0.273381 1
0.0151064 0.524712 1
0.0590829 0.551247 1
0.104067 0.577707 1
0.184298 0.59469 1
0.589593 0.577798 0.960647
0.828534 0.569558 0.97232
0.878767 0.565805 0.972183
0.930632 0.590005 0.973739
0.982681 0.611841 0.975448
0 0.850004 0.992187
0.0499886 0.850004 0.981765
0.0999924 0.850004 0.979034
0.149996 0.850004 0.97789
0.4598 0.845457 0.991958
0.799451 0.795132 1
0.899992 0.779644 0.997421
0.949996 0.780529 0.997513
1 0.787625 0.998154
0 0.899992 0.975296
0.0499886 0.899992 0.975296
0.0999924 0.899992 0.975296
0.149996 0.899992 0.975296
0.303212 0.899992 0.995392
0.737469 0.899886 0.982986
0.899992 0.897307 0.993759
0.949996 0.895781 0.994293
1 0.89633 0.994247
0 0.949996 0.975296
0.0499886 0.949996 0.975296
0.0999924 0.949996 0.975296
0.149996 0.949996 0.975296
0.273884 0.949996 0.996017
0.716762 0.94931 0.980529
0.89012 0.949081 0.990784
0.949996 0.947509 0.994034
1 0.947509 0.994034
0 1 0.975296
0.0499886 1 0.975296
0.0999924 1 0.975296
0.149996 1 0.975296
0.278264 1 0.995987
0.707118 0.999146 0.97969
0.871687 0.999863 0.989258
0.949996 0.997513 0.994034
1 0.997513 0.994034
