LUTs/73.cube
TITLE "Generate by Resolve"
LUT_3D_SIZE 5
0 0.005066 0.0168307
0.161059 0.00210575 0.00276188
0.75523 0 0
0.899992 0 0
1 0 0
0.0267033 0.142641 0
0.142397 0.142428 0.00250248
0.740978 0.0999924 0
0.899992 0.0999924 0
1 0.0999924 0
0.207736 0.464347 0
0.337728 0.50367 0
0.624811 0.535943 0.0818341
0.899992 0.530999 0
1 0.595071 0
0.461082 0.837263 0
0.561074 0.837263 0
0.8 0.830533 0
0.899992 0.873213 0
1 0.873213 0
0.461082 0.93727 0
0.561074 0.93727 0
0.8 0.938048 0
0.899992 0.97322 0
1 0.97322 0
0.0040589 0.000381476 0.198077
0.152239 0.000427253 0.185946
0.746624 0 0.0999924
0.899992 0 0.0999924
1 0 0.0999924
0.000366217 0.146807 0.154437
0.128069 0.144732 0.162448
0.752377 0.0999924 0.0999924
0.899992 0.0999924 0.0999924
1 0.0999924 0.0999924
0.215976 0.474601 0.0999924
0.347189 0.517555 0.0999924
0.64033 0.547738 0.180285
0.899992 0.542733 0.0999924
1 0.604593 0.0999924
0.461082 0.837263 0.0999924
0.561074 0.837263 0.0999924
0.8 0.830488 0.0999924
0.899992 0.873213 0.0999924
1 0.873213 0.0999924
0.461082 0.93727 0.0999924
0.561074 0.93727 0.0999924
0.8 0.935912 0.0999924
0.899992 0.97322 0.0999924
1 0.97322 0.0999924
0.0148165 0 0.8
0.132677 0 0.8
0.664668 0 0.699077
0.899992 0 0.609003
1 0 0.632456
0.0102998 0.0999924 0.8
0.115892 0.0999924 0.8
0.71014 0.0999924 0.744183
0.899992 0.0999924 0.716976
1 0.0999924 0.781353
0.0340734 0.52311 0.531151
0.120317 0.570092 0.573938
0.551415 0.565835 0.621546
0.868254 0.558145 0.570336
0.976394 0.612406 0.62504
0.0745251 0.899992 0.203174
0.146502 0.899992 0.219089
0.690211 0.862379 0.341115
0.899992 0.881544 0.319768
1 0.8813 0.307668
0 1 0.37998
0.0999924 1 0.341131
0.695491 0.961975 0.401511
0.899992 0.979599 0.262654
1 0.977554 0.229343
0.0148165 0 0.899992
0.117144 0 0.899992
0.654688 0 0.899992
0.899992 0 0.899992
1 0 0.899992
0.0139315 0.0999924 0.899992
0.113268 0.0999924 0.899992
0.703212 0.0999924 0.899992
0.899992 0.0999924 0.899992
1 0.0999924 0.899992
0.0197452 0.500969 0.899992
0.109667 0.54873 0.899992
0.566735 0.555825 0.856916
0.878386 0.5467 0.871962
0.98146 0.599374 0.874418
0 0.899992 0.875303
0.0999924 0.899992 0.875303
0.295201 0.899992 0.895582
0.899992 0.897581 0.893812
1 0.8963 0.894224
0 1 0.875303
0.0999924 1 0.875303
0.291371 1 0.896117
0.888121 0.998184 0.873991
1 0.995178 0.862623
0.0148165 0 1
0.11664 0 1
0.652079 0 1
0.899992 0 1
1 0 1
0.0138552 0.0999924 1
0.114199 0.0999924 1
0.721996 0.0999924 1
0.899992 0.0999924 1
1 0.0999924 1
0.0151064 0.524712 1
0.104067 0.577707 1
0.589593 0.577798 0.960647
0.878767 0.565805 0.972183
0.982681 0.611841 0.975448
0 0.899992 0.975296
0.0999924 0.899992 0.975296
0.303212 0.899992 0.995392
0.899992 0.897307 0.993759
1 0.89633 0.994247
0 1 0.975296
0.0999924 1 0.975296
0.278264 1 0.995987
0.871687 0.999863 0.989258
1 0.997513 0.994034
