LUTs/73.cube
TITLE "Generate by Resolve"
LUT_3D_SIZE 33
0 0.005066 0.0168307
0.0144503 0.00514229 0.0159915
0.0300755 0.00508125 0.0153201
0.0468757 0.00486763 0.0148318
0.066453 0.00430304 0.0141451
0.0869917 0.00373846 0.0125734
0.108766 0.00314336 0.0102235
0.132937 0.00247196 0.00700389
0.161059 0.00210575 0.00276188
0.193423 0.00314336 0.00015259
0.229068 0.00535592 0
0.270054 0.00758373 0
0.321233 0.00839246 0
0.391257 0.00616464 0
0.500725 0 0
0.651835 0 0
0.75523 0 0
0.812497 0 0
0.824994 0 0
0.837491 0 0
0.850004 0 0
0.862501 0 0
0.874998 0 0
0.887495 0 0
0.899992 0 0
0.912505 0 0
0.925002 0 0
0.937499 0 0
0.949996 0 0
0.962493 0 0
0.975006 0 0
0.987503 0 0
1 0 0
0 0.0225986 0.0117037
0.0133974 0.0221103 0.0121614
0.0282139 0.0214694 0.0127871
0.0454719 0.0206455 0.0136721
0.0641794 0.0198978 0.0131228
0.0843824 0.0189212 0.0119326
0.10631 0.0176394 0.0100099
0.130449 0.0159457 0.00735485
0.158602 0.0145418 0.00335698
0.190784 0.0154269 0.000213626
0.226551 0.0175937 0
0.266835 0.0198825 0
0.316609 0.0209812 0
0.38526 0.0189822 0
0.488869 0.0124971 0
0.639429 0.0124971 0
0.750469 0.0124971 0
0.812497 0.0124971 0
0.824994 0.0124971 0
0.837491 0.0124971 0
0.850004 0.0124971 0
0.862501 0.0124971 0
0.874998 0.0124971 0
0.887495 0.0124971 0
0.899992 0.0124971 0
0.912505 0.0124971 0
0.925002 0.0124971 0
0.937499 0.0124971 0
0.949996 0.0124971 0
0.962493 0.0124971 0
0.975006 0.0124971 0
0.987503 0.0124971 0
1 0.0124971 0
1.5259e-05 0.040116 0.00660716
0.0128634 0.0395209 0.00746166
0.0261997 0.0387579 0.00886549
0.0438239 0.0375219 0.0114137
0.0618448 0.0367895 0.0117189
0.0810407 0.0361486 0.0104067
0.10277 0.0348211 0.00881971
0.12694 0.0329442 0.00648508
0.155016 0.030518 0.00283818
0.187915 0.0291752 0.000167849
0.223987 0.0299992 0
0.264012 0.0322118 0
0.313115 0.0334325 0
0.380316 0.0317388 0
0.47834 0.0249943 0
0.629084 0.0249943 0
0.746563 0.0249943 0
0.812253 0.0249943 0
0.824994 0.0249943 0
0.837491 0.0249943 0
0.850004 0.0249943 0
0.862501 0.0249943 0
0.874998 0.0249943 0
0.887495 0.0249943 0
0.899992 0.0249943 0
0.912505 0.0249943 0
0.925002 0.0249943 0
0.937499 0.0249943 0
0.949996 0.0249943 0
0.962493 0.0249943 0
0.975006 0.0249943 0
0.987503 0.0249943 0
1 0.0249943 0
3.0518e-05 0.0571145 0.00213626
0.0130922 0.0566262 0.00254826
0.0272526 0.0556802 0.00332647
0.0442817 0.0544594 0.0061799
0.0617838 0.0534829 0.00877394
0.0793164 0.0531014 0.00968948
0.10013 0.0520027 0.0081178
0.123903 0.0502327 0.00563058
0.15172 0.0473335 0.00209049
0.185016 0.0441901 1.5259e-05
0.221683 0.0432898 0
0.261463 0.0445563 0
0.310307 0.0458839 0
0.376318 0.0444648 0
0.470756 0.0374914 0
0.622522 0.0374914 0
0.743969 0.0374914 0
0.810513 0.0374914 0
0.824994 0.0374914 0
0.837491 0.0374914 0
0.850004 0.0374914 0
0.862501 0.0374914 0
0.874998 0.0374914 0
0.887495 0.0374914 0
0.899992 0.0374914 0
0.912505 0.0374914 0
0.925002 0.0374914 0
0.937499 0.0374914 0
0.949996 0.0374914 0
0.962493 0.0374914 0
0.975006 0.0374914 0
0.987503 0.0374914 0
1 0.0374914 0
0.00263981 0.0737774 0
0.0148928 0.0734874 0
0.0291905 0.0726329 0
0.045182 0.0715038 0.00158694
0.0626078 0.0702831 0.0047303
0.0789502 0.0699626 0.00819409
0.0979934 0.0693828 0.00766003
0.120775 0.0679637 0.00511177
0.148348 0.0653544 0.0015259
0.181659 0.0614481 0
0.219211 0.0582895 0
0.258854 0.0573129 0
0.307317 0.0583505 0
0.372335 0.0571756 0
0.465278 0.0502937 0
0.615671 0.0499886 0
0.741939 0.0499886 0
0.809461 0.0499886 0
0.824994 0.0499886 0
0.837491 0.0499886 0
0.850004 0.0499886 0
0.862501 0.0499886 0
0.874998 0.0499886 0
0.887495 0.0499886 0
0.899992 0.0499886 0
0.912505 0.0499886 0
0.925002 0.0499886 0
0.937499 0.0499886 0
0.949996 0.0499886 0
0.962493 0.0499886 0
0.975006 0.0499886 0
0.987503 0.0499886 0
1 0.0499886 0
0.00764477 0.0901503 0
0.0198825 0.0899672 0
0.0330663 0.0893873 0
0.0475319 0.0885786 0.00015259
0.0645151 0.0872663 0.000946059
0.0816205 0.0865187 0.00511177
0.0988937 0.0863661 0.00675975
0.119188 0.0856794 0.00523384
0.145296 0.0836805 0.0016022
0.178088 0.0797742 3.0518e-05
0.216617 0.0750591 0
0.256931 0.0721294 0
0.30457 0.0712444 0
0.36846 0.0698863 0
0.46128 0.0632029 0
0.611276 0.062501 0
0.740993 0.062501 0
0.808911 0.062501 0
0.824994 0.062501 0
0.837491 0.062501 0
0.850004 0.062501 0
0.862501 0.062501 0
0.874998 0.062501 0
0.887495 0.062501 0
0.899992 0.062501 0
0.912505 0.062501 0
0.925002 0.062501 0
0.937499 0.062501 0
0.949996 0.062501 0
0.962493 0.062501 0
0.975006 0.062501 0
0.987503 0.062501 0
1 0.062501 0
0.0132143 0.106889 0
0.0255131 0.106752 0
0.0380102 0.106432 0
0.051133 0.105974 0
0.0670787 0.104967 0
0.0844129 0.10399 0.00172427
0.101503 0.103578 0.00447089
0.1187 0.103792 0.00502022
0.142657 0.10251 0.00238041
0.174105 0.0992752 3.0518e-05
0.213367 0.0940566 0
0.254932 0.0888991 0
0.301595 0.0848859 0
0.364233 0.0826123 0
0.457206 0.0762798 0
0.60705 0.0749981 0
0.741573 0.0749981 0
0.807889 0.0749981 0
0.824994 0.0749981 0
0.837491 0.0749981 0
0.850004 0.0749981 0
0.862501 0.0749981 0
0.874998 0.0749981 0
0.887495 0.0749981 0
0.899992 0.0749981 0
0.912505 0.0749981 0
0.925002 0.0749981 0
0.937499 0.0749981 0
0.949996 0.0749981 0
0.962493 0.0749981 0
0.975006 0.0749981 0
0.987503 0.0749981 0
1 0.0749981 0
0.0195468 0.124224 0
0.0319066 0.124132 0
0.0442359 0.123995 0
0.0569467 0.123781 0
0.0709392 0.123262 0
0.087129 0.122408 0.000137331
0.105852 0.121401 0.0010071
0.120577 0.12221 0.00360113
0.141161 0.12192 0.0034638
0.170703 0.119707 0.000610361
0.2094 0.115023 0
0.252903 0.108934 0
0.298848 0.102159 0
0.359533 0.0962081 0
0.453117 0.0894331 0
0.604273 0.0874952 0
0.742901 0.0874952 0
0.806851 0.0874952 0
0.824994 0.0874952 0
0.837491 0.0874952 0
0.850004 0.0874952 0
0.862501 0.0874952 0
0.874998 0.0874952 0
0.887495 0.0874952 0
0.899992 0.0874952 0
0.912505 0.0874952 0
0.925002 0.0874952 0
0.937499 0.0874952 0
0.949996 0.0874952 0
0.962493 0.0874952 0
0.975006 0.0874952 0
0.987503 0.0874952 0
1 0.0874952 0
0.0267033 0.142641 0
0.0391852 0.142641 0
0.051667 0.142611 0
0.0641642 0.14258 0
0.0767376 0.14258 0
0.0912947 0.142184 0
0.109178 0.141329 0
0.126894 0.141146 0.000885023
0.142397 0.142428 0.00250248
0.167971 0.141436 0.00262455
0.204791 0.138079 0.00030518
0.249866 0.132311 1.5259e-05
0.297215 0.125765 0.000289921
0.357137 0.11725 0
0.44715 0.105257 0
0.60058 0.0999924 0
0.740978 0.0999924 0
0.806485 0.0999924 0
0.824994 0.0999924 0
0.837491 0.0999924 0
0.850004 0.0999924 0
0.862501 0.0999924 0
0.874998 0.0999924 0
0.887495 0.0999924 0
0.899992 0.0999924 0
0.912505 0.0999924 0
0.925002 0.0999924 0
0.937499 0.0999924 0
0.949996 0.0999924 0
0.962493 0.0999924 0
0.975006 0.0999924 0
0.987503 0.0999924 0
1 0.0999924 0
0.034226 0.163287 0
0.0468452 0.163439 0
0.0594797 0.163607 0
0.0721599 0.163851 0
0.0848096 0.164034 0
0.0978561 0.164248 0
0.112902 0.164294 0
0.13196 0.163638 0
0.150683 0.163745 0.000946059
0.168124 0.165316 0.00331121
0.200946 0.163729 0.00381476
0.245609 0.159594 0.00175479
0.295964 0.153445 0.00233463
0.355901 0.145708 0.00102235
0.438712 0.133654 0
0.58851 0.113954 0
0.737819 0.11249 0
0.80853 0.11249 0
0.824994 0.11249 0
0.837491 0.11249 0
0.850004 0.11249 0
0.862501 0.11249 0
0.874998 0.11249 0
0.887495 0.11249 0
0.899992 0.11249 0
0.912505 0.11249 0
0.925002 0.11249 0
0.937499 0.11249 0
0.949996 0.11249 0
0.962493 0.11249 0
0.975006 0.11249 0
0.987503 0.11249 0
1 0.11249 0
0.0433356 0.187137 0
0.0561074 0.187488 0
0.0689555 0.1879 0
0.0818189 0.188373 0
0.0947127 0.188861 0
0.107836 0.189639 0
0.12105 0.190524 0
0.136965 0.190829 0
0.156771 0.19057 0
0.180056 0.191287 0.00196841
0.201007 0.19379 0.00674449
0.242329 0.191424 0.00787366
0.293797 0.187182 0.0075227
0.353246 0.181109 0.00729381
0.430426 0.172503 0.00239567
0.558358 0.151156 0
0.721935 0.129412 0
0.812131 0.125689 0
0.824994 0.125002 0
0.837491 0.125002 0
0.850004 0.125002 0
0.862501 0.125002 0
0.874998 0.125002 0
0.887495 0.125002 0
0.899992 0.125002 0
0.912505 0.125002 0
0.925002 0.125002 0
0.937499 0.125002 0
0.949996 0.125002 0
0.962493 0.125002 0
0.975006 0.125002 0
0.987503 0.125002 0
1 0.128801 0
0.0556039 0.214832 0
0.0687114 0.215595 0
0.0818647 0.216403 0
0.0951247 0.217334 0
0.108385 0.218265 0
0.121736 0.219303 0
0.1355 0.220874 0
0.149737 0.222721 0
0.165133 0.224018 0
0.190707 0.224231 0
0.218677 0.225834 0.00724804
0.244984 0.229801 0.0134432
0.294469 0.227863 0.0165866
0.352163 0.223926 0.0169833
0.42446 0.218204 0.0138247
0.524102 0.206851 0.00289921
0.688762 0.17966 0
0.80528 0.163363 0
0.824994 0.155673 0
0.837491 0.150027 0
0.850004 0.146715 0
0.862501 0.145144 0
0.874998 0.145037 0
0.887495 0.146517 0
0.899992 0.14934 0
0.912505 0.153185 0
0.925002 0.158114 0
0.937499 0.164416 0
0.949996 0.169726 0
0.962493 0.175158 0
0.975006 0.180438 0
0.987503 0.186023 0
1 0.191608 0
0.0724956 0.248127 0
0.0860151 0.249393 0
0.0997024 0.250858 0
0.113451 0.252384 0
0.127199 0.253925 0
0.140871 0.25536 0
0.155566 0.258076 0
0.170474 0.261051 0
0.18526 0.263859 0
0.203204 0.265476 0
0.237232 0.26566 0.00355535
0.268772 0.269398 0.0184939
0.301274 0.274952 0.0247501
0.357458 0.273762 0.0294041
0.422995 0.272358 0.0291295
0.506813 0.268208 0.022034
0.641794 0.251148 0.0019379
0.785473 0.2309 0
0.824994 0.222416 0
0.837491 0.213611 0
0.850004 0.206729 0
0.862501 0.20293 0
0.874998 0.202457 0
0.887495 0.205386 0
0.899992 0.210544 0
0.912505 0.21709 0
0.925002 0.224628 0
0.937499 0.233326 0
0.949996 0.24242 0
0.962493 0.24831 0
0.975006 0.25452 0
0.987503 0.260716 0
1 0.26717 0
0.0952163 0.288655 0
0.109636 0.291066 0
0.124147 0.293553 0
0.138888 0.296345 0
0.153552 0.299046 0
0.168048 0.301534 0
0.182589 0.304082 0
0.198322 0.30811 0
0.214252 0.312398 0
0.229526 0.315892 0
0.254627 0.317342 0.00195315
0.298955 0.317998 0.0193179
0.330419 0.324819 0.0337682
0.369818 0.331487 0.0404059
0.432624 0.332647 0.045182
0.506264 0.333349 0.0419165
0.60618 0.326986 0.0219272
0.754788 0.30927 1.5259e-05
0.824994 0.298512 0
0.837491 0.290135 0
0.850004 0.28275 0
0.862501 0.278431 0
0.874998 0.276951 0
0.887495 0.279362 0
0.899992 0.284459 0
0.912505 0.291798 0
0.925002 0.30042 0
0.937499 0.309895 0
0.949996 0.320516 0
0.962493 0.329046 0
0.975006 0.336187 0
0.987503 0.343313 0
1 0.349706 0
0.125353 0.338766 0
0.140612 0.342229 0
0.155871 0.345708 0
0.171221 0.349294 0
0.186587 0.35288 0
0.201678 0.356115 0
0.216617 0.359136 0
0.232959 0.363867 0
0.250004 0.369451 0
0.266789 0.374716 0
0.283085 0.377462 0.000259403
0.323751 0.377005 0.0135653
0.373907 0.37937 0.03888
0.403403 0.390417 0.0513008
0.450187 0.397848 0.0581064
0.518898 0.399893 0.0606394
0.598627 0.399359 0.0480049
0.716976 0.390127 0.00868238
0.824063 0.378286 0
0.837491 0.370245 0
0.850004 0.362661 0
0.862501 0.358236 0
0.874998 0.356756 0
0.887495 0.358495 0
0.899992 0.364385 0
0.912505 0.372274 0
0.925002 0.381674 0
0.937499 0.391531 0
0.949996 0.402869 0
0.962493 0.41413 0
0.975006 0.421485 0
0.987503 0.428229 0
1 0.43508 0
0.16289 0.397726 0
0.178851 0.401968 0
0.195026 0.406348 0
0.211566 0.41117 0
0.228 0.415839 0
0.243961 0.419974 0
0.259236 0.42327 0
0.275319 0.427558 0
0.292958 0.433661 0
0.31078 0.440055 0
0.326329 0.443809 0
0.352743 0.4439 0.00328069
0.410025 0.442451 0.0314641
0.456321 0.447288 0.0588388
0.48336 0.459831 0.0686046
0.53724 0.465614 0.0737316
0.607889 0.467277 0.0690929
0.697719 0.465599 0.0350958
0.812955 0.458762 0.000457771
0.837491 0.453285 0
0.850004 0.446921 0
0.862501 0.442756 0
0.874998 0.44097 0
0.887495 0.442954 0
0.899992 0.44831 0
0.912505 0.456123 0
0.925002 0.465141 0
0.937499 0.475257 0
0.949996 0.485557 0
0.962493 0.4972 0
0.975006 0.50515 0
0.987503 0.511635 0
1 0.51812 0
0.207736 0.464347 0
0.224247 0.469337 0
0.240894 0.474464 0
0.257649 0.479744 0
0.274281 0.484886 0
0.29015 0.489311 0
0.305562 0.493538 0
0.320378 0.496864 0
0.337728 0.50367 0
0.355016 0.510475 0
0.371099 0.515572 0
0.385351 0.516625 0
0.439155 0.51046 0.0039826
0.502998 0.508721 0.0465858
0.54049 0.517113 0.0734264
0.569375 0.5299 0.0816663
0.624811 0.535943 0.0818341
0.701228 0.537682 0.057435
0.795895 0.536294 0.0102388
0.837491 0.533898 0
0.850004 0.530617 0
0.862501 0.526574 0
0.874998 0.525231 0
0.887495 0.526711 0
0.899992 0.530999 0
0.912505 0.537682 0
0.925002 0.546075 0
0.937499 0.555306 0
0.949996 0.564797 0
0.962493 0.574609 0
0.975006 0.584207 0
0.987503 0.589929 0
1 0.595071 0
0.252674 0.538048 0
0.269306 0.544106 0
0.286091 0.5505 0
0.302876 0.556893 0
0.319295 0.562753 0
0.335363 0.568078 0
0.350713 0.572335 0
0.365118 0.575174 0
0.381704 0.580926 0
0.399191 0.58761 0
0.416632 0.594003 0
0.431296 0.596643 0
0.46566 0.590906 0
0.545464 0.580118 0.00424201
0.599374 0.579614 0.047303
0.625559 0.591104 0.0758679
0.656428 0.603449 0.0791791
0.71667 0.608972 0.0607309
0.795071 0.610285 0.0198367
0.837491 0.609537 0
0.850004 0.609003 0
0.862501 0.605737 0
0.874998 0.604501 0
0.887495 0.605554 0
0.899992 0.608515 0
0.912505 0.61416 0
0.925002 0.621256 0
0.937499 0.628992 0
0.949996 0.636744 0
0.962493 0.644327 0
0.975006 0.652476 0
0.987503 0.658488 0
1 0.662547 0
0.302007 0.619501 0
0.31957 0.625681 0
0.337163 0.631846 0
0.354452 0.637675 0
0.37174 0.643488 0
0.388678 0.647761 0
0.405112 0.651255 0
0.420172 0.653529 0
0.436316 0.657099 0
0.454856 0.663188 0
0.47454 0.669535 0
0.491081 0.672938 0
0.504326 0.671641 0
0.581643 0.659297 0
0.652216 0.651011 0.00257877
0.690593 0.653681 0.0235294
0.711437 0.665461 0.044892
0.745769 0.675822 0.0377966
0.807507 0.678889 0.0120089
0.837491 0.67808 0
0.850004 0.67837 0
0.862501 0.676631 0
0.874998 0.675212 0
0.887495 0.675456 0
0.899992 0.67718 0
0.912505 0.681025 0
0.925002 0.686168 0
0.937499 0.692119 0
0.949996 0.698268 0
0.962493 0.704234 0
0.975006 0.710338 0
0.987503 0.716457 0
1 0.719585 0
0.363088 0.693065 0
0.381308 0.698024 0
0.399039 0.702403 0
0.416785 0.706798 0
0.434516 0.711177 0
0.451774 0.71516 0
0.468208 0.718441 0
0.483162 0.720485 0
0.498405 0.722774 0
0.517464 0.728176 0
0.536858 0.733852 0
0.553338 0.737148 0
0.565667 0.737026 0
0.612299 0.729488 0
0.68957 0.720104 0
0.745098 0.716503 0
0.773205 0.72195 0.000320439
0.79234 0.732692 0.00311284
0.821546 0.738369 0.00122072
0.837491 0.73814 0
0.850004 0.736797 0
0.862501 0.735821 0
0.874998 0.734264 0
0.887495 0.733944 0
0.899992 0.734829 0
0.912505 0.737423 0
0.925002 0.741115 0
0.937499 0.745373 0
0.949996 0.749996 0
0.962493 0.754559 0
0.975006 0.758968 0
0.987503 0.763272 0
1 0.766491 0
0.421592 0.754543 0
0.439216 0.758785 0
0.45655 0.762798 0
0.474342 0.767163 0
0.491966 0.771405 0
0.508843 0.775036 0
0.52314 0.776516 0
0.536568 0.777279 0
0.549905 0.777996 0
0.566537 0.781415 0
0.581765 0.783673 0
0.59585 0.785 0
0.607187 0.784054 0
0.634394 0.780331 0
0.710811 0.771893 0
0.773938 0.767758 0
0.799908 0.769497 0
0.812497 0.778286 0
0.824994 0.786465 0
0.837491 0.789044 0
0.850004 0.787533 0
0.862501 0.78587 0
0.874998 0.784207 0
0.887495 0.783444 0
0.899992 0.783581 0
0.912505 0.784955 0
0.925002 0.787243 0
0.937499 0.790249 0
0.949996 0.793545 0
0.962493 0.796979 0
0.975006 0.800381 0
0.987503 0.803586 0
1 0.806745 0
0.457206 0.796536 0
0.471504 0.798047 0
0.485908 0.799634 0
0.498573 0.799771 0
0.511086 0.799771 0
0.523583 0.799771 0
0.53608 0.799771 0
0.548577 0.799771 0
0.561074 0.799771 0
0.573587 0.799771 0
0.586084 0.799771 0
0.598581 0.799771 0
0.611078 0.799771 0
0.634882 0.798413 0
0.708904 0.792386 0
0.776379 0.790265 0
0.8 0.793637 0
0.812497 0.804395 0
0.824994 0.817395 0
0.837491 0.824811 0
0.850004 0.827314 0
0.862501 0.82707 0
0.874998 0.825833 0
0.887495 0.82475 0
0.899992 0.824125 0
0.912505 0.824262 0
0.925002 0.825147 0
0.937499 0.826642 0
0.949996 0.82826 0
0.962493 0.829755 0
0.975006 0.831098 0
0.987503 0.832303 0
1 0.833341 0
0.461082 0.812268 0
0.473579 0.812268 0
0.486076 0.812268 0
0.498573 0.812268 0
0.511086 0.812268 0
0.523583 0.812268 0
0.53608 0.812268 0
0.548577 0.812268 0
0.561074 0.812268 0
0.573587 0.812268 0
0.586084 0.812268 0
0.598581 0.812268 0
0.611078 0.812268 0
0.632868 0.811139 0
0.704524 0.805203 0
0.772625 0.802838 0
0.8 0.805753 0
0.812497 0.815961 0
0.824994 0.829557 0
0.837491 0.839445 0
0.850004 0.845029 0
0.862501 0.847425 0
0.874998 0.848173 0
0.887495 0.848219 0
0.899992 0.848219 0
0.912505 0.848219 0
0.925002 0.848203 0
0.937499 0.848203 0
0.949996 0.848157 0
0.962493 0.848066 0
0.975006 0.848096 0
0.987503 0.848142 0
1 0.848219 0
0.461082 0.824765 0
0.473579 0.824765 0
0.486076 0.824765 0
0.498573 0.824765 0
0.511086 0.824765 0
0.523583 0.824765 0
0.53608 0.824765 0
0.548577 0.824765 0
0.561074 0.824765 0
0.573587 0.824765 0
0.586084 0.824765 0
0.598581 0.824765 0
0.611078 0.824765 0
0.632181 0.823728 0
0.703212 0.817823 0
0.771298 0.815351 0
0.8 0.817975 0
0.812497 0.827634 0
0.824994 0.841047 0
0.837491 0.851133 0
0.850004 0.857069 0
0.862501 0.859693 0
0.874998 0.860609 0
0.887495 0.860716 0
0.899992 0.860716 0
0.912505 0.860716 0
0.925002 0.860716 0
0.937499 0.860716 0
0.949996 0.860716 0
0.962493 0.860716 0
0.975006 0.860716 0
0.987503 0.860716 0
1 0.860716 0
0.461082 0.837263 0
0.473579 0.837263 0
0.486076 0.837263 0
0.498573 0.837263 0
0.511086 0.837263 0
0.523583 0.837263 0
0.53608 0.837263 0
0.548577 0.837263 0
0.561074 0.837263 0
0.573587 0.837263 0
0.586084 0.837263 0
0.598581 0.837263 0
0.611078 0.837263 0
0.635431 0.835828 0
0.706569 0.830106 0
0.773205 0.827802 0
0.8 0.830533 0
0.812497 0.839979 0
0.824994 0.853101 0
0.837491 0.863203 0
0.850004 0.869261 0
0.862501 0.872023 0
0.874998 0.873045 0
0.887495 0.873213 0
0.899992 0.873213 0
0.912505 0.873213 0
0.925002 0.873213 0
0.937499 0.873213 0
0.949996 0.873213 0
0.962493 0.873213 0
0.975006 0.873213 0
0.987503 0.873213 0
1 0.873213 0
0.461082 0.84976 0
0.473579 0.84976 0
0.486076 0.84976 0
0.498573 0.84976 0
0.511086 0.84976 0
0.523583 0.84976 0
0.53608 0.84976 0
0.548577 0.84976 0
0.561074 0.84976 0
0.573587 0.84976 0
0.586084 0.84976 0
0.598581 0.84976 0
0.611078 0.84976 0
0.643885 0.847349 0
0.714473 0.8421 0
0.77792 0.840269 0
0.8 0.843442 0
0.812497 0.85304 0
0.824994 0.865873 0
0.837491 0.8757 0
0.850004 0.881651 0
0.862501 0.884413 0
0.874998 0.885496 0
0.887495 0.885695 0
0.899992 0.885725 0
0.912505 0.885725 0
0.925002 0.885725 0
0.937499 0.885725 0
0.949996 0.885725 0
0.962493 0.885725 0
0.975006 0.885725 0
0.987503 0.885725 0
1 0.885725 0
0.461082 0.862272 0
0.473579 0.862272 0
0.486076 0.862272 0
0.498573 0.862272 0
0.511086 0.862272 0
0.523583 0.862272 0
0.53608 0.862272 0
0.548577 0.862272 0
0.561074 0.862272 0
0.573587 0.862272 0
0.586084 0.862272 0
0.598581 0.862272 0
0.611078 0.862272 0
0.656565 0.858503 0
0.725902 0.853956 0
0.784024 0.852842 0
0.8 0.856748 0
0.812497 0.866743 0
0.824994 0.879133 0
0.837491 0.888502 0
0.850004 0.894224 0
0.862501 0.896925 0
0.874998 0.897978 0
0.887495 0.898207 0
0.899992 0.898222 0
0.912505 0.898222 0
0.925002 0.898222 0
0.937499 0.898222 0
0.949996 0.898222 0
0.962493 0.898222 0
0.975006 0.898222 0
0.987503 0.898222 0
1 0.898222 0
0.461082 0.874769 0
0.473579 0.874769 0
0.486076 0.874769 0
0.498573 0.874769 0
0.511086 0.874769 0
0.523583 0.874769 0
0.53608 0.874769 0
0.548577 0.874769 0
0.561074 0.874769 0
