LUTs/74.cube
TITLE "Generate by Resolve"
LUT_3D_SIZE 5
0 0.00674449 0.022446
0.131411 0.00280766 0.00369268
0.840299 0 0
0.949996 0 0
1 0 0
0.0355993 0.106859 0
0.106538 0.106569 0.00332647
0.821302 0.0500038 0
0.949996 0.0500038 0
1 0.0500038 0
0.276982 0.452461 0
0.366964 0.504906 0
0.666423 0.547936 0.109102
0.949996 0.541344 0
1 0.626764 0
0.614786 0.866361 0
0.664775 0.866361 0
0.899992 0.857374 0
0.949996 0.91429 0
1 0.91429 0
0.614786 0.91635 0
0.664775 0.91635 0
0.899992 0.917388 0
0.949996 0.964294 0
1 0.964294 0
0.00541695 0.000518807 0.180774
0.119646 0.000579843 0.164599
0.82884 0 0.0500038
0.949996 0 0.0500038
1 0 0.0500038
0.000488289 0.112413 0.122576
0.0874342 0.109636 0.133257
0.836515 0.0500038 0.0500038
0.949996 0.0500038 0.0500038
1 0.0500038 0.0500038
0.287968 0.466148 0.0500038
0.379583 0.523415 0.0500038
0.687114 0.563653 0.157046
0.949996 0.556985 0.0500038
1 0.63946 0.0500038
0.614786 0.866361 0.0500038
0.664775 0.866361 0.0500038
0.899992 0.857328 0.0500038
0.949996 0.91429 0.0500038
1 0.91429 0.0500038
0.614786 0.91635 0.0500038
0.664775 0.91635 0.0500038
0.899992 0.914549 0.0500038
0.949996 0.964294 0.0500038
1 0.964294 0.0500038
0.0197452 0 0.899992
0.0935683 0 0.899992
0.719554 0 0.765438
0.949996 0 0.64535
1 0 0.6766
0.0137331 0.0500038 0.899992
0.0711833 0.0500038 0.899992
0.780179 0.0500038 0.825589
0.949996 0.0500038 0.789303
1 0.0500038 0.875151
0.0454414 0.530816 0.541543
0.0771038 0.593454 0.598581
0.568566 0.587793 0.662058
0.907683 0.577539 0.593774
0.968536 0.649882 0.666728
0.0993668 0.949996 0.104234
0.112016 0.949996 0.125444
0.753613 0.89984 0.288167
0.949996 0.925399 0.259693
1 0.925078 0.243565
0 1 0.339971
0.0500038 1 0.288182
0.760662 0.949294 0.368688
0.949996 0.972793 0.183536
1 0.970062 0.139132
0.0197452 0 0.949996
0.0728618 0 0.949996
0.706249 0 0.949996
0.949996 0 0.949996
1 0 0.949996
0.0185702 0.0500038 0.949996
0.0677043 0.0500038 0.949996
0.770947 0.0500038 0.949996
0.949996 0.0500038 0.949996
1 0.0500038 0.949996
0.0263371 0.501305 0.949996
0.0628824 0.564965 0.949996
0.588983 0.574426 0.892561
0.921187 0.56228 0.912627
0.97528 0.632502 0.915892
0 0.949996 0.917067
0.0500038 0.949996 0.917067
0.226947 0.949996 0.944106
0.949996 0.946777 0.941756
1 0.945068 0.942306
0 1 0.917067
0.0500038 1 0.917067
0.221836 1 0.944823
0.934157 0.997589 0.915312
1 0.993561 0.90016
0.0197452 0 1
0.0721904 0 1
0.70277 0 1
0.949996 0 1
1 0 1
0.0184787 0.0500038 1
0.0689403 0.0500038 1
0.795987 0.0500038 1
0.949996 0.0500038 1
1 0.0500038 1
0.0201419 0.532952 1
0.055436 0.603616 1
0.619471 0.603738 0.947524
0.921691 0.587747 0.962921
0.976913 0.649134 0.967269
0 0.949996 0.967071
0.0500038 0.949996 0.967071
0.237613 0.949996 0.993851
0.949996 0.94641 0.991684
1 0.945113 0.99234
0 1 0.967071
0.0500038 1 0.967071
0.204349 1 0.994659
0.912261 0.999817 0.985672
1 0.996674 0.992035
