LUTs/74.cube
TITLE "Generate by Resolve"
LUT_3D_SIZE 9
0 0.00674449 0.022446
0.0469368 0.00573739 0.0188602
0.131411 0.00280766 0.00369268
0.303319 0.0111849 0
0.840299 0 0
0.925002 0 0
0.949996 0 0
0.975006 0 0
1 0 0
0.00352483 0.0567178 0
0.041825 0.0520485 0.00631724
0.114458 0.0454719 0.00204471
0.284764 0.0361334 0
0.822599 0.0249943 0
0.925002 0.0249943 0
0.949996 0.0249943 0
0.975006 0.0249943 0
1 0.0249943 0
0.0355993 0.106859 0
0.0606546 0.106767 0
0.106538 0.106569 0.00332647
0.27129 0.0843519 0.000381476
0.821302 0.0500038 0
0.925002 0.0500038 0
0.949996 0.0500038 0
0.975006 0.0500038 0
1 0.0500038 0
0.0966506 0.205829 0
0.127947 0.213581 0
0.163684 0.226825 0
0.276692 0.241596 0.0330053
0.689067 0.209857 0.00259403
0.925002 0.150637 0
0.949996 0.155718 0
0.975006 0.19823 0
1 0.231235 0
0.276982 0.452461 0
0.324056 0.47985 0
0.366964 0.504906 0
0.460548 0.513939 0.00531014
0.666423 0.547936 0.109102
0.925002 0.540825 0
0.949996 0.541344 0
0.975006 0.586389 0
1 0.626764 0
0.562112 0.797726 0
0.614282 0.820218 0
0.649882 0.828992 0
0.684596 0.837064 0
0.89987 0.81767 0
0.925002 0.841703 0
0.949996 0.836454 0
0.975006 0.849729 0
1 0.867323 0
0.614786 0.866361 0
0.63978 0.866361 0
0.664775 0.866361 0
0.689784 0.866361 0
0.899992 0.857374 0
0.925002 0.90901 0
0.949996 0.91429 0
0.975006 0.91429 0
1 0.91429 0
0.614786 0.891356 0
0.63978 0.891356 0
0.664775 0.891356 0
0.703151 0.889738 0
0.899992 0.887739 0
0.925002 0.934859 0
0.949996 0.9393 0
0.975006 0.9393 0
1 0.9393 0
0.614786 0.91635 0
0.63978 0.91635 0
0.664775 0.91635 0
0.72079 0.912673 0
0.899992 0.917388 0
0.925002 0.96083 0
0.949996 0.964294 0
0.975006 0.964294 0
1 0.964294 0
0.000396735 0.00460822 0.0876631
0.0457008 0.00387579 0.082826
0.131746 0.000579843 0.0641031
0.300206 0.0111849 0.0249943
0.836698 0 0.0249943
0.925002 0 0.0249943
0.949996 0 0.0249943
0.975006 0 0.0249943
1 0 0.0249943
0.000686656 0.0547646 0.0671702
0.0331121 0.0515602 0.068864
0.114961 0.0434119 0.0536355
0.283421 0.0361181 0.0249943
0.821622 0.0249943 0.0249943
0.925002 0.0249943 0.0249943
0.949996 0.0249943 0.0249943
0.975006 0.0249943 0.0249943
1 0.0249943 0.0249943
0.0231632 0.110628 0.0249943
0.048127 0.111025 0.0249943
0.104784 0.107683 0.0390021
0.27393 0.0852064 0.0255894
0.830533 0.0500038 0.0249943
0.925002 0.0500038 0.0249943
0.949996 0.0500038 0.0249943
0.975006 0.0500038 0.0249943
1 0.0500038 0.0249943
0.0981765 0.207706 0.0249943
0.130251 0.216403 0.0249943
0.167681 0.231769 0.0249943
0.283879 0.24712 0.0600748
0.706142 0.215915 0.0271611
0.925002 0.158785 0.0249943
0.949996 0.164294 0.0249943
0.975006 0.206729 0.0249943
1 0.240772 0.0249943
0.283436 0.460472 0.0249943
0.330465 0.488563 0.0249943
0.3738 0.514961 0.0249943
0.472862 0.521889 0.0293736
0.677943 0.556756 0.133043
0.925002 0.549523 0.0249943
0.949996 0.550988 0.0249943
0.975006 0.595697 0.0249943
1 0.633631 0.0249943
0.56997 0.804227 0.0249943
0.621576 0.826246 0.0249943
0.653346 0.831876 0.0249943
0.687892 0.839811 0.0249943
0.899947 0.822065 0.0249943
0.925002 0.845747 0.0249943
0.949996 0.839765 0.0249943
0.975006 0.852003 0.0249943
1 0.868513 0.0249943
0.614786 0.866361 0.0249943
0.63978 0.866361 0.0249943
0.664775 0.866361 0.0249943
0.689784 0.866361 0.0249943
0.899992 0.857588 0.0249943
0.925002 0.909072 0.0249943
0.949996 0.91429 0.0249943
0.975006 0.91429 0.0249943
1 0.91429 0.0249943
0.614786 0.891356 0.0249943
0.63978 0.891356 0.0249943
0.664775 0.891356 0.0249943
0.702602 0.889799 0.0249943
0.899992 0.887434 0.0249943
0.925002 0.934646 0.0249943
0.949996 0.9393 0.0249943
0.975006 0.9393 0.0249943
1 0.9393 0.0249943
0.614786 0.91635 0.0249943
0.63978 0.91635 0.0249943
0.664775 0.91635 0.0249943
0.717144 0.913054 0.0249943
0.899992 0.916533 0.0249943
0.925002 0.960433 0.0249943
0.949996 0.964294 0.0249943
0.975006 0.964294 0.0249943
1 0.964294 0.0249943
0.00541695 0.000518807 0.180774
0.044419 0.000198367 0.177951
0.119646 0.000579843 0.164599
0.301534 0.00885023 0.080766
0.82884 0 0.0500038
0.925002 0 0.0500038
0.949996 0 0.0500038
0.975006 0 0.0500038
1 0 0.0500038
0.00309758 0.0473335 0.168673
0.0337987 0.0455177 0.165377
0.108461 0.0394446 0.15346
0.287877 0.0335241 0.0788586
0.81796 0.0249943 0.0500038
0.925002 0.0249943 0.0500038
0.949996 0.0249943 0.0500038
0.975006 0.0249943 0.0500038
1 0.0249943 0.0500038
0.000488289 0.112413 0.122576
0.0255436 0.113237 0.123095
0.0874342 0.109636 0.133257
0.285359 0.0831464 0.0801099
0.836515 0.0500038 0.0500038
0.925002 0.0500038 0.0500038
0.949996 0.0500038 0.0500038
0.975006 0.0500038 0.0500038
1 0.0500038 0.0500038
0.098497 0.210468 0.0500038
0.130053 0.222019 0.0500038
0.163989 0.240833 0.0500038
0.292363 0.255329 0.0915541
0.723903 0.223133 0.0516823
0.925002 0.16701 0.0500038
0.949996 0.172488 0.0500038
0.975006 0.217655 0.0500038
1 0.253681 0.0500038
0.287968 0.466148 0.0500038
0.335836 0.496086 0.0500038
0.379583 0.523415 0.0500038
0.485039 0.529229 0.0553597
0.687114 0.563653 0.157046
0.925002 0.555077 0.0500038
0.949996 0.556985 0.0500038
0.975006 0.601709 0.0500038
1 0.63946 0.0500038
0.572854 0.806607 0.0500038
0.623987 0.828244 0.0500038
0.65568 0.833799 0.0500038
0.68838 0.840192 0.0500038
0.899962 0.82327 0.0500038
0.925002 0.846387 0.0500038
0.949996 0.839399 0.0500038
0.975006 0.850523 0.0500038
1 0.865995 0.0500038
0.614786 0.866361 0.0500038
0.63978 0.866361 0.0500038
0.664775 0.866361 0.0500038
0.689784 0.866361 0.0500038
0.899992 0.857328 0.0500038
0.925002 0.908827 0.0500038
0.949996 0.91429 0.0500038
0.975006 0.91429 0.0500038
1 0.91429 0.0500038
0.614786 0.891356 0.0500038
0.63978 0.891356 0.0500038
0.664775 0.891356 0.0500038
0.697704 0.890349 0.0500038
0.899992 0.886198 0.0500038
0.925002 0.933745 0.0500038
0.949996 0.9393 0.0500038
0.975006 0.9393 0.0500038
1 0.9393 0.0500038
0.614786 0.91635 0.0500038
0.63978 0.91635 0.0500038
0.664775 0.91635 0.0500038
0.712963 0.913512 0.0500038
0.899992 0.914549 0.0500038
0.925002 0.959625 0.0500038
0.949996 0.964294 0.0500038
0.975006 0.964294 0.0500038
1 0.964294 0.0500038
0.0120851 0 0.498344
0.0375525 0 0.479103
0.100725 0 0.418433
0.26807 0.00762951 0.337041
0.723476 0 0.18941
0.925002 0 0.0794842
0.949996 0 0.0749981
0.975006 0 0.0749981
1 0 0.0749981
0.0135195 0.027039 0.437339
0.0385138 0.0267796 0.425071
0.0937057 0.0266728 0.393515
0.255695 0.032929 0.32755
0.708034 0.0249943 0.185016
0.925002 0.0249943 0.0840925
0.949996 0.0249943 0.0772869
0.975006 0.0249943 0.08748
1 0.0249943 0.10312
0.017731 0.0876326 0.374487
0.0429694 0.0884413 0.37882
0.0883955 0.0898604 0.379309
0.258564 0.0734417 0.33431
0.761395 0.0500038 0.218845
0.925002 0.0500038 0.126741
0.949996 0.0500038 0.136614
0.975006 0.0500038 0.191623
1 0.0500038 0.255024
0.0107881 0.228702 0.241489
0.0386358 0.242054 0.254963
0.0675822 0.262943 0.273548
0.234897 0.269947 0.331991
0.655848 0.242695 0.238025
0.925002 0.163333 0.136065
0.949996 0.168048 0.141146
0.975006 0.221332 0.198322
1 0.262104 0.243671
0.23537 0.491844 0.0843977
0.267704 0.524971 0.0835889
0.293217 0.555383 0.0839857
0.405783 0.561578 0.129656
0.671199 0.574166 0.256031
0.925002 0.561532 0.0762341
0.949996 0.561303 0.0775006
0.975006 0.606073 0.0931258
1 0.646021 0.115068
0.577279 0.810529 0.0749981
0.6271 0.831022 0.0749981
0.657572 0.835782 0.0749981
0.677791 0.843976 0.0749981
0.899992 0.824613 0.0749981
0.925002 0.847486 0.0749981
0.949996 0.838315 0.0749981
0.975006 0.847608 0.0749981
1 0.861784 0.0749981
0.614557 0.866438 0.0749981
0.639139 0.86659 0.0749981
0.662257 0.867262 0.0749981
0.688304 0.86688 0.0749981
0.899992 0.856687 0.0749981
0.925002 0.908095 0.0749981
0.949996 0.91429 0.0749981
0.975006 0.91429 0.0749981
1 0.91429 0.0749981
0.547921 0.91458 0.0749981
0.560159 0.918914 0.0749981
0.592462 0.916442 0.0749981
0.659037 0.903273 0.0749981
0.899992 0.884031 0.0749981
0.925002 0.932189 0.0749981
0.949996 0.9393 0.0749981
0.975006 0.9393 0.0749981
1 0.9393 0.0749981
0.493874 0.957748 0.0749981
0.522576 0.956512 0.0749981
0.563867 0.951034 0.0749981
0.646387 0.935653 0.0749981
0.899992 0.911498 0.0749981
0.925002 0.95816 0.0749981
0.949996 0.964294 0.0749981
0.975006 0.964294 0.0749981
1 0.964294 0.0749981
0.0197452 0 0.899992
0.0447547 0 0.899992
0.0935683 0 0.899992
0.341451 0 0.896208
0.719554 0 0.765438
0.925002 0 0.691951
0.949996 0 0.64535
0.975006 0 0.659083
1 0 0.6766
0.0197147 0.0249943 0.899992
0.0447395 0.0249943 0.899992
0.0867018 0.0249943 0.899992
0.32462 0.0249943 0.895048
0.713802 0.0249943 0.762539
0.925002 0.0249943 0.70779
0.949996 0.0249943 0.687953
0.975006 0.0249943 0.725795
1 0.0249943 0.756237
0.0137331 0.0500038 0.899992
0.0385748 0.0500038 0.899992
0.0711833 0.0500038 0.899992
0.330434 0.0500038 0.899992
0.780179 0.0500038 0.825589
0.925002 0.0500038 0.777722
0.949996 0.0500038 0.789303
0.975006 0.0500038 0.835691
1 0.0500038 0.875151
0.00631724 0.187427 0.81915
0.0289921 0.20325 0.850492
0.0529641 0.224979 0.87454
0.247776 0.240497 0.771023
0.656336 0.217716 0.701137
0.925002 0.135103 0.772183
0.949996 0.138186 0.778805
0.975006 0.193805 0.818021
1 0.232197 0.843427
0.0454414 0.530816 0.541543
0.0619364 0.565469 0.573724
0.0771038 0.593454 0.598581
0.151415 0.612573 0.623941
0.568566 0.587793 0.662058
0.882719 0.579416 0.59646
0.907683 0.577539 0.593774
0.937713 0.614771 0.631144
0.968536 0.649882 0.666728
0.0663157 0.925002 0.107698
0.080827 0.925002 0.124559
0.0987716 0.925002 0.13698
0.11426 0.925002 0.143389
0.751736 0.854139 0.435691
0.916472 0.845548 0.582528
0.949996 0.840925 0.535546
0.975006 0.847089 0.546258
1 0.859007 0.571481
0.0993668 0.949996 0.104234
0.0944533 0.949996 0.120806
0.112016 0.949996 0.125444
0.145724 0.949996 0.108705
0.753613 0.89984 0.288167
0.925002 0.908003 0.46746
0.949996 0.925399 0.259693
0.975006 0.925032 0.238025
1 0.925078 0.243565
0 0.975006 0.242405
0.0249943 0.975006 0.261646
0.0500038 0.975006 0.241291
0.0998703 0.975006 0.174884
0.755901 0.924666 0.322972
0.925002 0.930694 0.429252
0.949996 0.948562 0.201724
0.975006 0.947356 0.175372
1 0.946883 0.167483
0 1 0.339971
0.0249943 1 0.330327
0.0500038 1 0.288182
0.0758221 1 0.220569
0.760662 0.949294 0.368688
0.925002 0.955673 0.435737
0.949996 0.972793 0.183536
0.975006 0.970947 0.151934
1 0.970062 0.139132
0.0197452 0 0.925002
0.0447547 0 0.925002
0.0741588 0 0.925002
0.300984 0 0.925002
0.718349 0 0.925002
0.925002 0 0.925002
0.949996 0 0.925002
0.975006 0 0.925002
1 0 0.925002
0.0197452 0.0249943 0.925002
0.0447547 0.0249943 0.925002
0.0720226 0.0249943 0.925002
0.289418 0.0249943 0.925002
0.719036 0.0249943 0.925002
0.925002 0.0249943 0.925002
0.949996 0.0249943 0.925002
0.975006 0.0249943 0.925002
1 0.0249943 0.925002
0.0181582 0.0500038 0.925002
0.0427253 0.0500038 0.925002
0.0672313 0.0500038 0.925002
0.30544 0.0500038 0.925002
0.76672 0.0500038 0.925002
0.925002 0.0500038 0.925002
0.949996 0.0500038 0.925002
0.975006 0.0500038 0.925002
1 0.0500038 0.925002
0 0.163348 0.925002
0.0249943 0.181582 0.925002
0.0500038 0.204791 0.925002
0.232746 0.21059 0.925002
0.723751 0.168902 0.918761
0.925002 0.110155 0.925002
0.949996 0.113252 0.925002
0.975006 0.15993 0.925002
1 0.198184 0.925002
0.0267033 0.500008 0.925002
0.0449073 0.534447 0.925002
0.0641031 0.560418 0.925002
0.112413 0.584802 0.925002
0.58706 0.572732 0.867277
0.894484 0.565866 0.887358
0.921202 0.56257 0.887648
0.947448 0.598489 0.888548
0.975357 0.633417 0.890959
0 0.925002 0.881544
0.0249943 0.925002 0.890715
0.0500038 0.925002 0.892042
0.0749981 0.925002 0.894759
0.436912 0.915389 0.895216
0.848585 0.848402 0.871229
0.949996 0.831281 0.847913
0.975006 0.836164 0.852018
1 0.848356 0.863554
0 0.949996 0.838499
0.0249943 0.949996 0.862272
0.0500038 0.949996 0.867613
0.0749981 0.949996 0.864775
0.303304 0.949996 0.827726
0.858961 0.932647 0.76585
0.949996 0.936828 0.811063
0.975006 0.935897 0.806073
1 0.935897 0.806165
0 0.975006 0.892058
0.0249943 0.975006 0.892058
0.0500038 0.975006 0.892058
0.0749981 0.975006 0.891875
0.296269 0.975006 0.829557
0.852964 0.953063 0.741207
0.949996 0.959091 0.791867
0.975006 0.958541 0.78291
1 0.958083 0.778225
0 1 0.892058
0.0249943 1 0.892058
0.0500038 1 0.892058
0.0749981 1 0.891875
0.311604 1 0.851926
0.848356 0.978042 0.73872
0.949996 0.981994 0.780179
0.975006 0.981979 0.766186
1 0.98117 0.757061
0.0197452 0 0.949996
0.0447547 0 0.949996
0.0728618 0 0.949996
0.286671 0 0.949996
0.706249 0 0.949996
0.925002 0 0.949996
0.949996 0 0.949996
0.975006 0 0.949996
1 0 0.949996
0.0197452 0.0249943 0.949996
0.0447547 0.0249943 0.949996
0.0711223 0.0249943 0.949996
0.27895 0.0249943 0.949996
0.712077 0.0249943 0.949996
0.925002 0.0249943 0.949996
0.949996 0.0249943 0.949996
0.975006 0.0249943 0.949996
1 0.0249943 0.949996
0.0185702 0.0500038 0.949996
0.0431983 0.0500038 0.949996
0.0677043 0.0500038 0.949996
0.307362 0.0500038 0.949996
0.770947 0.0500038 0.949996
0.925002 0.0500038 0.949996
0.949996 0.0500038 0.949996
0.975006 0.0500038 0.949996
1 0.0500038 0.949996
0 0.162982 0.949996
0.0249943 0.183612 0.949996
0.0500038 0.208881 0.949996
0.237629 0.21529 0.949996
0.727947 0.172992 0.942946
0.925002 0.112612 0.949996
0.949996 0.116686 0.949996
0.975006 0.168399 0.949996
1 0.209262 0.949996
0.0263371 0.501305 0.949996
0.0443732 0.53695 0.949996
0.0628824 0.564965 0.949996
0.112398 0.589044 0.949996
0.588983 0.574426 0.892561
0.893767 0.566064 0.912276
0.921187 0.56228 0.912627
0.947417 0.598138 0.913527
0.97528 0.632502 0.915892
0 0.925002 0.948959
0.0249943 0.925002 0.938048
0.0500038 0.925002 0.932021
0.0749981 0.925002 0.927092
0.41854 0.915816 0.946517
0.848478 0.841443 0.949996
0.949996 0.82417 0.945739
0.975006 0.827604 0.946105
1 0.838346 0.947219
0 0.949996 0.917067
0.0249943 0.949996 0.917067
0.0500038 0.949996 0.917067
0.0749981 0.949996 0.917067
0.226947 0.949996 0.944106
0.774701 0.949859 0.927245
0.949996 0.946777 0.941756
0.975006 0.944976 0.94229
1 0.945068 0.942306
0 0.975006 0.917067
0.0249943 0.975006 0.917067
0.0500038 0.975006 0.917067
0.0749981 0.975006 0.917067
0.205798 0.975006 0.944411
0.752422 0.974273 0.92459
0.944076 0.972549 0.933379
0.975006 0.97081 0.928542
1 0.970489 0.923842
0 1 0.917067
0.0249943 1 0.917067
0.0500038 1 0.917067
0.0749981 1 0.917067
0.221836 1 0.944823
0.745022 0.9991 0.923522
0.934157 0.997589 0.915312
0.975006 0.994507 0.91043
1 0.993561 0.90016
0.0197452 0 0.975006
0.0447547 0 0.975006
0.0724804 0 0.975006
0.282628 0 0.975006
0.703883 0 0.975006
0.925002 0 0.975006
0.949996 0 0.975006
0.975006 0 0.975006
1 0 0.975006
0.0197452 0.0249943 0.975006
0.0447547 0.0249943 0.975006
0.071046 0.0249943 0.975006
0.279057 0.0249943 0.975006
0.715221 0.0249943 0.975006
0.925002 0.0249943 0.975006
0.949996 0.0249943 0.975006
0.975006 0.0249943 0.975006
1 0.0249943 0.975006
0.018555 0.0500038 0.975006
0.0430152 0.0500038 0.975006
0.0680095 0.0500038 0.975006
0.317464 0.0500038 0.975006
0.783215 0.0500038 0.975006
0.925002 0.0500038 0.975006
0.949996 0.0500038 0.975006
0.975006 0.0500038 0.975006
1 0.0500038 0.975006
0 0.170855 0.975006
0.0249943 0.192081 0.975006
0.0500038 0.219455 0.975006
0.250507 0.227832 0.975006
0.738949 0.188357 0.964263
0.925002 0.126116 0.975006
0.949996 0.132357 0.975006
0.975006 0.187564 0.975006
1 0.22591 0.975006
0.0233158 0.518212 0.975006
0.0403143 0.554635 0.975006
0.0576486 0.586694 0.975006
0.117449 0.610025 0.975006
0.605829 0.590417 0.920256
0.894896 0.580285 0.937453
0.921111 0.576471 0.937453
0.948363 0.610285 0.9393
0.976287 0.64271 0.941741
0 0.925002 0.970062
0.0249943 0.925002 0.957183
0.0500038 0.925002 0.9505
0.0749981 0.925002 0.948608
0.431006 0.919097 0.968292
0.852094 0.845808 0.975006
0.949996 0.826658 0.971038
0.975006 0.828824 0.971267
1 0.838819 0.972274
0 0.949996 0.942061
0.0249943 0.949996 0.942061
0.0500038 0.949996 0.942061
0.0749981 0.949996 0.942061
0.228962 0.949996 0.969055
0.773709 0.949844 0.952117
0.949996 0.946548 0.966674
0.975006 0.94432 0.967376
1 0.944595 0.967376
0 0.975006 0.942061
0.0249943 0.975006 0.942061
0.0500038 0.975006 0.942061
0.0749981 0.975006 0.942061
0.198047 0.975006 0.969528
0.74847 0.974151 0.949172
0.939223 0.973693 0.962768
0.975006 0.971679 0.967041
1 0.971679 0.967041
0 1 0.942061
0.0249943 1 0.942061
0.0500038 1 0.942061
0.0749981 1 0.942061
0.207782 1 0.969696
0.737636 0.998901 0.94815
0.916182 0.999664 0.960983
0.975006 0.996674 0.967041
1 0.996674 0.967041
0.0197452 0 1
0.0447547 0 1
0.0721904 0 1
0.280537 0 1
0.70277 0 1
0.925002 0 1
0.949996 0 1
0.975006 0 1
1 0 1
0.0197452 0.0249943 1
0.0447547 0.0249943 1
0.0711376 0.0249943 1
0.281788 0.0249943 1
0.719692 0.0249943 1
0.925002 0.0249943 1
0.949996 0.0249943 1
0.975006 0.0249943 1
1 0.0249943 1
0.0184787 0.0500038 1
0.0427253 0.0500038 1
0.0689403 0.0500038 1
0.32961 0.0500038 1
0.795987 0.0500038 1
0.925002 0.0500038 1
0.949996 0.0500038 1
0.975006 0.0500038 1
1 0.0500038 1
0 0.178027 1
0.0249943 0.199725 1
0.0500038 0.229694 1
0.260578 0.237797 1
0.746471 0.199329 0.98677
0.925002 0.135317 1
0.949996 0.143893 1
0.975006 0.199908 1
1 0.239506 1
0.0201419 0.532952 1
0.0371252 0.568338 1
0.055436 0.603616 1
0.120745 0.626245 1
0.619471 0.603738 0.947524
0.896391 0.592752 0.963104
0.921691 0.587747 0.962921
0.949187 0.620005 0.964981
0.976913 0.649134 0.967269
0 0.925002 0.989578
0.0249943 0.925002 0.975692
0.0500038 0.925002 0.972045
0.0749981 0.925002 0.97052
0.446403 0.918944 0.989273
0.857603 0.851835 1
0.949996 0.831189 0.996567
0.975006 0.832364 0.996689
1 0.841825 0.997528
0 0.949996 0.967071
0.0249943 0.949996 0.967071
0.0500038 0.949996 0.967071
0.0749981 0.949996 0.967071
0.237613 0.949996 0.993851
0.77496 0.949844 0.97731
0.949996 0.94641 0.991684
0.975006 0.944366 0.992386
1 0.945113 0.99234
0 0.975006 0.967071
0.0249943 0.975006 0.967071
0.0500038 0.975006 0.967071
0.0749981 0.975006 0.967071
0.19852 0.975006 0.99469
0.747341 0.97409 0.974029
0.936828 0.97377 0.987716
0.975006 0.971679 0.992035
1 0.971679 0.992035
0 1 0.967071
0.0249943 1 0.967071
0.0500038 1 0.967071
0.0749981 1 0.967071
0.204349 1 0.994659
0.734493 0.998871 0.97293
0.912261 0.999817 0.985672
0.975006 0.996674 0.992035
1 0.996674 0.992035
