LUTs/74.cube
TITLE "Generate by Resolve"
LUT_3D_SIZE 33
0 0.00674449 0.022446
0.00886549 0.00686656 0.0213321
0.0192721 0.00677501 0.0204318
0.0312657 0.00650034 0.0197757
0.0469368 0.00573739 0.0188602
0.0639048 0.00497444 0.0167697
0.0825208 0.00418097 0.0136263
0.104326 0.00329595 0.00933852
0.131411 0.00280766 0.00369268
0.164157 0.00418097 0.000213626
0.201251 0.00714122 0
0.245487 0.0101015 0
0.303319 0.0111849 0
0.386267 0.00820935 0
0.521813 0 0
0.712871 0 0
0.840299 0 0
0.906249 0 0
0.912505 0 0
0.918746 0 0
0.925002 0 0
0.931243 0 0
0.937499 0 0
0.943755 0 0
0.949996 0 0
0.956252 0 0
0.962493 0 0
0.96875 0 0
0.975006 0 0
0.981247 0 0
0.987503 0 0
0.993744 0 0
1 0 0
0 0.0197147 0.0155947
0.00746166 0.0190738 0.0162051
0.0167849 0.018204 0.0170443
0.0293889 0.0171206 0.0182193
0.0439002 0.0161135 0.0175021
0.0604257 0.0148165 0.0159152
0.0792401 0.0131075 0.0133364
0.10103 0.0108492 0.00979629
0.12813 0.00898756 0.00448615
0.160632 0.0101472 0.000289921
0.197894 0.0130465 0
0.241199 0.0160983 0
0.297139 0.0175631 0
0.378256 0.0148928 0
0.506004 0.00624094 0
0.696315 0.00624094 0
0.833951 0.00624094 0
0.906249 0.00624094 0
0.912505 0.00624094 0
0.918746 0.00624094 0
0.925002 0.00624094 0
0.931243 0.00624094 0
0.937499 0.00624094 0
0.943755 0.00624094 0
0.949996 0.00624094 0
0.956252 0.00624094 0
0.962493 0.00624094 0
0.96875 0.00624094 0
0.975006 0.00624094 0
0.981247 0.00624094 0
0.987503 0.00624094 0
0.993744 0.00624094 0
1 0.00624094 0
1.5259e-05 0.0326696 0.00880446
0.00672923 0.0318761 0.00994888
0.0141146 0.0308537 0.0118105
0.0271763 0.0292058 0.0152285
0.0407874 0.0282292 0.0156252
0.0559854 0.0273594 0.0138705
0.0745251 0.0255894 0.0117494
0.0963302 0.0231022 0.00863661
0.123369 0.0198672 0.00378424
0.156817 0.0180819 0.000228885
0.194476 0.0191806 0
0.237446 0.0221256 0
0.292485 0.023743 0
0.371679 0.0215 0
0.491951 0.0124971 0
0.682521 0.0124971 0
0.828763 0.0124971 0
0.905928 0.0124971 0
0.912505 0.0124971 0
0.918746 0.0124971 0
0.925002 0.0124971 0
0.931243 0.0124971 0
0.937499 0.0124971 0
0.943755 0.0124971 0
0.949996 0.0124971 0
0.956252 0.0124971 0
0.962493 0.0124971 0
0.96875 0.0124971 0
0.975006 0.0124971 0
0.981247 0.0124971 0
0.987503 0.0124971 0
0.993744 0.0124971 0
1 0.0124971 0
4.57771e-05 0.0449073 0.00285344
0.00704967 0.0442664 0.0033875
0.0155032 0.0429847 0.00444038
0.0278019 0.0413672 0.00823987
0.0407263 0.0400549 0.0116884
0.053666 0.0395666 0.0129091
0.0710155 0.0381018 0.0108339
0.0923018 0.0357366 0.00750744
0.118975 0.0318761 0.0027924
0.152941 0.0276799 1.5259e-05
0.191409 0.0264744 0
0.234028 0.0281682 0
0.288746 0.0299382 0
0.366354 0.0280308 0
0.481849 0.0187533 0
0.673793 0.0187533 0
0.825284 0.0187533 0
0.903593 0.0187533 0
0.912505 0.0187533 0
0.918746 0.0187533 0
0.925002 0.0187533 0
0.931243 0.0187533 0
0.937499 0.0187533 0
0.943755 0.0187533 0
0.949996 0.0187533 0
0.956252 0.0187533 0
0.962493 0.0187533 0
0.96875 0.0187533 0
0.975006 0.0187533 0
0.981247 0.0187533 0
0.987503 0.0187533 0
0.993744 0.0187533 0
1 0.0187533 0
0.00352483 0.0567178 0
0.00944533 0.0563211 0
0.0180972 0.0551919 0
0.0290074 0.053666 0.00210575
0.041825 0.0520485 0.00631724
0.053193 0.0516213 0.0109255
0.0681621 0.0508431 0.0102235
0.0881208 0.0489662 0.00682078
0.114458 0.0454719 0.00204471
0.14847 0.0402686 0
0.188113 0.0360571 0
0.230549 0.0347601 0
0.284764 0.0361334 0
0.361028 0.0345617 0
0.47454 0.025391 0
0.664652 0.0249943 0
0.822599 0.0249943 0
0.90219 0.0249943 0
0.912505 0.0249943 0
0.918746 0.0249943 0
0.925002 0.0249943 0
0.931243 0.0249943 0
0.937499 0.0249943 0
0.943755 0.0249943 0
0.949996 0.0249943 0
0.956252 0.0249943 0
0.962493 0.0249943 0
0.96875 0.0249943 0
0.975006 0.0249943 0
0.981247 0.0249943 0
0.987503 0.0249943 0
0.993744 0.0249943 0
1 0.0249943 0
0.010193 0.0681315 0
0.0160983 0.0678721 0
0.0232547 0.0670939 0
0.0321355 0.0660258 0.000213626
0.044358 0.064271 0.00125124
0.0567483 0.0632792 0.00680552
0.0693523 0.0630808 0.00900282
0.0859998 0.0621653 0.00698863
0.110399 0.0594949 0.00213626
0.143709 0.0542763 3.0518e-05
0.184649 0.0480049 0
0.228 0.0440833 0
0.281102 0.0429236 0
0.355856 0.0410925 0
0.469215 0.0321965 0
0.658793 0.0312505 0
0.821317 0.0312505 0
0.901473 0.0312505 0
0.912505 0.0312505 0
0.918746 0.0312505 0
0.925002 0.0312505 0
0.931243 0.0312505 0
0.937499 0.0312505 0
0.943755 0.0312505 0
0.949996 0.0312505 0
0.956252 0.0312505 0
0.962493 0.0312505 0
0.96875 0.0312505 0
0.975006 0.0312505 0
0.981247 0.0312505 0
0.987503 0.0312505 0
0.993744 0.0312505 0
1 0.0312505 0
0.0176089 0.0800336 0
0.0236057 0.0798352 0
0.0298619 0.0794232 0
0.0369268 0.0788128 0
0.047776 0.0774701 0
0.0604715 0.0761578 0.00228885
0.0728313 0.0756085 0.00596628
0.085359 0.0758984 0.00669871
0.106874 0.0741894 0.00317388
0.138399 0.0698711 3.0518e-05
0.180316 0.0629129 0
0.22533 0.0560464 0
0.277119 0.0506905 0
0.350225 0.0476539 0
0.463783 0.0392004 0
0.653147 0.0374914 0
0.822095 0.0374914 0
0.900099 0.0374914 0
0.912505 0.0374914 0
0.918746 0.0374914 0
0.925002 0.0374914 0
0.931243 0.0374914 0
0.937499 0.0374914 0
0.943755 0.0374914 0
0.949996 0.0374914 0
0.956252 0.0374914 0
0.962493 0.0374914 0
0.96875 0.0374914 0
0.975006 0.0374914 0
0.981247 0.0374914 0
0.987503 0.0374914 0
0.993744 0.0374914 0
1 0.0374914 0
0.0260624 0.0927291 0
0.0321202 0.0925917 0
0.0381476 0.0924239 0
0.0446937 0.092134 0
0.0529335 0.0914473 0
0.0641031 0.0902876 0.000183108
0.0786297 0.0889448 0.00134279
0.0878614 0.0900282 0.00480659
0.104875 0.0896468 0.00460822
0.133867 0.0867018 0.000823987
0.175036 0.0804608 0
0.222629 0.0723278 0
0.273472 0.0632944 0
0.343969 0.0553597 0
0.45832 0.0463417 0
0.649439 0.0437476 0
0.82388 0.0437476 0
0.898726 0.0437476 0
0.912505 0.0437476 0
0.918746 0.0437476 0
0.925002 0.0437476 0
0.931243 0.0437476 0
0.937499 0.0437476 0
0.943755 0.0437476 0
0.949996 0.0437476 0
0.956252 0.0437476 0
0.962493 0.0437476 0
0.96875 0.0437476 0
0.975006 0.0437476 0
0.981247 0.0437476 0
0.987503 0.0437476 0
0.993744 0.0437476 0
1 0.0437476 0
0.0355993 0.106859 0
0.0418402 0.106859 0
0.0480507 0.106813 0
0.0543069 0.106783 0
0.0606546 0.106767 0
0.0696422 0.106249 0
0.0830701 0.105119 0
0.0962844 0.10486 0.00117494
0.106538 0.106569 0.00332647
0.130205 0.105257 0.00350958
0.168887 0.100786 0.000396735
0.218585 0.0930953 1.5259e-05
0.27129 0.0843519 0.000381476
0.340764 0.0730144 0
0.45037 0.0570077 0
0.644526 0.0500038 0
0.821302 0.0500038 0
0.898238 0.0500038 0
0.912505 0.0500038 0
0.918746 0.0500038 0
0.925002 0.0500038 0
0.931243 0.0500038 0
0.937499 0.0500038 0
0.943755 0.0500038 0
0.949996 0.0500038 0
0.956252 0.0500038 0
0.962493 0.0500038 0
0.96875 0.0500038 0
0.975006 0.0500038 0
0.981247 0.0500038 0
0.987503 0.0500038 0
0.993744 0.0500038 0
1 0.0500038 0
0.0456245 0.12398 0
0.0520485 0.124178 0
0.0584726 0.124407 0
0.0649729 0.124727 0
0.0714275 0.124971 0
0.0784009 0.125261 0
0.0880293 0.125322 0
0.103044 0.124437 0
0.117586 0.124575 0.0012665
0.130419 0.126665 0.00440986
0.16376 0.124559 0.00509651
0.212909 0.119051 0.00234989
0.269612 0.110857 0.00311284
0.339132 0.100526 0.00135805
0.439124 0.0844587 0
0.628443 0.0581826 0
0.817105 0.0562448 0
0.900954 0.0562448 0
0.912505 0.0562448 0
0.918746 0.0562448 0
0.925002 0.0562448 0
0.931243 0.0562448 0
0.937499 0.0562448 0
0.943755 0.0562448 0
0.949996 0.0562448 0
0.956252 0.0562448 0
0.962493 0.0562448 0
0.96875 0.0562448 0
0.975006 0.0562448 0
0.981247 0.0562448 0
0.987503 0.0562448 0
0.993744 0.0562448 0
1 0.0562448 0
0.0577859 0.145357 0
0.0643931 0.145815 0
0.071107 0.14638 0
0.0778515 0.147005 0
0.0846113 0.147646 0
0.0917067 0.148699 0
0.098909 0.149859 0
0.109697 0.150286 0
0.125689 0.14992 0
0.146334 0.150881 0.00262455
0.163851 0.154223 0.00898756
0.208515 0.151064 0.0104982
0.266743 0.145403 0.0100252
0.335592 0.137316 0.00973526
0.428061 0.125841 0.00318914
0.58822 0.0973678 0
0.795926 0.0683757 0
0.90576 0.0634318 0
0.912505 0.0625162 0
0.918746 0.062501 0
0.925002 0.062501 0
0.931243 0.062501 0
0.937499 0.062501 0
0.943755 0.062501 0
0.949996 0.062501 0
0.956252 0.062501 0
0.962493 0.062501 0
0.96875 0.062501 0
0.975006 0.062501 0
0.981247 0.062501 0
0.987503 0.062501 0
0.993744 0.062501 0
1 0.0675669 0
0.0741283 0.171862 0
0.0811933 0.172869 0
0.0883345 0.173953 0
0.0955978 0.175189 0
0.102846 0.17644 0
0.110231 0.177829 0
0.118181 0.179919 0
0.126741 0.182391 0
0.136843 0.1841 0
0.16054 0.184405 0
0.187411 0.186542 0.00967422
0.21207 0.191821 0.0179294
0.267628 0.189242 0.0221103
0.334127 0.183993 0.0226444
0.420111 0.176349 0.0184329
0.542565 0.161227 0.00387579
0.751675 0.124956 0
0.896635 0.103243 0
0.912505 0.0929885 0
0.918746 0.0854505 0
0.925002 0.0810407 0
0.931243 0.0789502 0
0.937499 0.0788128 0
0.943755 0.080766 0
0.949996 0.084535 0
0.956252 0.0896773 0
0.962493 0.0962387 0
0.96875 0.104631 0
0.975006 0.111711 0
0.981247 0.118959 0
0.987503 0.126009 0
0.993744 0.133455 0
1 0.140902 0
0.0966506 0.205829 0
0.104265 0.207523 0
0.112108 0.209476 0
0.120027 0.211521 0
0.127947 0.213581 0
0.13576 0.215488 0
0.144915 0.219104 0
0.154391 0.223072 0
0.163684 0.226825 0
0.177203 0.228977 0
0.212146 0.229221 0.0047303
0.243793 0.234211 0.0246586
0.276692 0.241596 0.0330053
0.341192 0.240024 0.0392004
0.418173 0.238148 0.0388342
0.519493 0.232624 0.0293736
0.689067 0.209857 0.00259403
0.870222 0.182879 0
0.912505 0.171557 0
0.918746 0.159823 0
0.925002 0.150637 0
0.931243 0.145571 0
0.937499 0.144945 0
0.943755 0.148852 0
0.949996 0.155718 0
0.956252 0.164446 0
0.962493 0.174517 0
0.96875 0.186114 0
0.975006 0.19823 0
0.981247 0.206073 0
0.987503 0.214359 0
0.993744 0.222629 0
1 0.231235 0
0.126955 0.24947 0
0.135775 0.252674 0
0.144701 0.256001 0
0.153948 0.259724 0
0.163073 0.26331 0
0.171984 0.266621 0
0.180957 0.270024 0
0.191516 0.275395 0
0.20235 0.281117 0
0.212299 0.285771 0
0.23534 0.287709 0.00259403
0.284016 0.288594 0.0257572
0.315557 0.297673 0.0450141
0.357671 0.306569 0.0538643
0.431006 0.30811 0.0602426
0.518776 0.309041 0.0558938
0.641581 0.300557 0.0292363
0.829313 0.276951 1.5259e-05
0.912505 0.262608 0
0.918746 0.251423 0
0.925002 0.241581 0
0.931243 0.235828 0
0.937499 0.23386 0
0.943755 0.237079 0
0.949996 0.24387 0
0.956252 0.253651 0
0.962493 0.265141 0
0.96875 0.277775 0
0.975006 0.291936 0
0.981247 0.303319 0
0.987503 0.312825 0
0.993744 0.322332 0
1 0.330861 0
0.167132 0.305852 0
0.177066 0.310475 0
0.186999 0.315114 0
0.197055 0.31989 0
0.207126 0.324666 0
0.216815 0.329 0
0.226322 0.333013 0
0.237705 0.33933 0
0.250019 0.346777 0
0.261967 0.35378 0
0.273289 0.357443 0.000335698
0.317098 0.356847 0.0180819
0.373556 0.359991 0.0518502
0.402457 0.374731 0.0683909
0.454429 0.384634 0.0774853
0.535607 0.387366 0.0808423
0.631495 0.386648 0.0640116
0.778897 0.37435 0.0115663
0.911254 0.358541 0
0.918746 0.347829 0
0.925002 0.337713 0
0.931243 0.331807 0
0.937499 0.329839 0
0.943755 0.332174 0
0.949996 0.340017 0
0.956252 0.350545 0
0.962493 0.363073 0
0.96875 0.376211 0
0.975006 0.391333 0
0.981247 0.406348 0
0.987503 0.416159 0
0.993744 0.425132 0
1 0.434272 0
0.217197 0.374044 0
0.228046 0.379705 0
0.239216 0.38555 0
0.250843 0.391974 0
0.262333 0.398215 0
0.273213 0.403723 0
0.283162 0.408118 0
0.294179 0.413825 0
0.307286 0.421973 0
0.320623 0.430488 0
0.330953 0.435492 0
0.355749 0.435615 0.00437934
0.421698 0.433692 0.0419623
0.473014 0.440131 0.0784619
0.49865 0.45687 0.0914778
0.560082 0.464561 0.0983139
0.643854 0.466789 0.092134
0.753216 0.464546 0.0467842
0.896437 0.455436 0.000610361
0.918746 0.448127 0
0.925002 0.439658 0
0.931243 0.434104 0
0.937499 0.431708 0
0.943755 0.434363 0
0.949996 0.441489 0
0.956252 0.451911 0
0.962493 0.463951 0
0.96875 0.47744 0
0.975006 0.491157 0
0.981247 0.506691 0
0.987503 0.517281 0
0.993744 0.525933 0
1 0.534585 0
0.276982 0.452461 0
0.288594 0.459113 0
0.300359 0.465965 0
0.312276 0.472999 0
0.324056 0.47985 0
0.334783 0.48574 0
0.34493 0.491386 0
0.354269 0.495811 0
0.366964 0.504906 0
0.379614 0.51397 0
0.390631 0.520775 0
0.399222 0.522179 0
0.460548 0.513939 0.00531014
0.535241 0.511635 0.0621195
0.574823 0.52282 0.0979019
0.60293 0.539864 0.108888
0.666423 0.547936 0.109102
0.757885 0.55024 0.0765698
0.873701 0.548394 0.0136568
0.918746 0.54519 0
0.925002 0.540825 0
0.931243 0.535424 0
0.937499 0.533639 0
0.943755 0.535622 0
0.949996 0.541344 0
0.956252 0.55024 0
0.962493 0.561425 0
0.96875 0.573754 0
0.975006 0.586389 0
0.981247 0.599481 0
0.987503 0.612284 0
0.993744 0.619898 0
1 0.626764 0
0.336904 0.540322 0
0.348669 0.548394 0
0.360616 0.556909 0
0.37258 0.565438 0
0.384054 0.573251 0
0.395071 0.580346 0
0.405112 0.586023 0
0.413901 0.589807 0
0.42562 0.597482 0
0.438514 0.606394 0
0.451347 0.614923 0
0.460487 0.618433 0
0.495888 0.610803 0
0.591867 0.596399 0.00564584
0.653346 0.595728 0.0630808
0.677821 0.611063 0.101167
0.708583 0.627512 0.105562
0.778485 0.634882 0.0809644
0.872602 0.636622 0.0264591
0.918746 0.635645 0
0.925002 0.634913 0
0.931243 0.630579 0
0.937499 0.628916 0
0.943755 0.630335 0
0.949996 0.634272 0
0.956252 0.641794 0
0.962493 0.65127 0
0.96875 0.66157 0
0.975006 0.671901 0
0.981247 0.682017 0
0.987503 0.692897 0
0.993744 0.700908 0
1 0.706325 0
0.40267 0.638498 0
0.415686 0.646738 0
0.428717 0.654963 0
0.441352 0.66273 0
0.454002 0.670497 0
0.466148 0.676188 0
0.477653 0.680842 0
0.487327 0.683879 0
0.498436 0.688624 0
0.512734 0.696742 0
0.528557 0.705211 0
0.540185 0.709758 0
0.547433 0.708019 0
0.640116 0.691554 0
0.723796 0.680522 0.00344854
0.764538 0.684077 0.0313725
0.781918 0.699794 0.0598459
0.817288 0.713603 0.0503853
0.889189 0.717693 0.0160067
0.918746 0.716609 0
0.925002 0.717006 0
0.931243 0.714687 0
0.937499 0.712795 0
0.943755 0.713115 0
0.949996 0.715419 0
0.956252 0.720531 0
0.962493 0.727382 0
0.96875 0.735317 0
0.975006 0.743526 0
0.981247 0.751492 0
0.987503 0.759625 0
0.993744 0.767773 0
1 0.771939 0
0.484123 0.726177 0
0.497993 0.732784 0
0.511223 0.738628 0
0.524468 0.744472 0
0.537697 0.750332 0
0.550286 0.755627 0
0.561791 0.760006 0
0.571313 0.762737 0
0.581216 0.765789 0
0.596216 0.772992 0
0.611658 0.78056 0
0.623194 0.784939 0
0.629236 0.784787 0
0.680995 0.774731 0
0.773587 0.762234 0
0.837217 0.757412 0
0.864286 0.764691 0.000427253
0.879377 0.779004 0.00415045
0.907897 0.786587 0.00163272
0.918746 0.786267 0
0.925002 0.784482 0
0.931243 0.783185 0
0.937499 0.781109 0
0.943755 0.780667 0
0.949996 0.781857 0
0.956252 0.785306 0
0.962493 0.790234 0
0.96875 0.795926 0
0.975006 0.80209 0
0.981247 0.808164 0
0.987503 0.814054 0
0.993744 0.819776 0
1 0.824063 0
0.562112 0.797726 0
0.575219 0.803388 0
0.5879 0.808728 0
0.601205 0.814542 0
0.614282 0.820218 0
0.626383 0.82504 0
0.635019 0.827024 0
0.642512 0.828046 0
0.649882 0.828992 0
0.661646 0.833555 0
0.671534 0.836576 0
0.679896 0.838331 0
0.684596 0.837064 0
0.710445 0.83212 0
0.801923 0.820859 0
0.875669 0.815335 0
0.89987 0.81767 0
0.906249 0.829389 0
0.912505 0.840299 0
0.918746 0.843732 0
0.925002 0.841703 0
0.931243 0.839506 0
0.937499 0.837278 0
0.943755 0.836271 0
0.949996 0.836454 0
0.956252 0.83827 0
0.962493 0.841321 0
0.96875 0.845335 0
0.975006 0.849729 0
0.981247 0.854307 0
0.987503 0.858839 0
0.993744 0.863127 0
1 0.867323 0
0.609598 0.843305 0
0.61825 0.845304 0
0.627054 0.847425 0
0.633524 0.847608 0
0.63978 0.847608 0
0.646021 0.847608 0
0.652277 0.847608 0
0.658534 0.847608 0
0.664775 0.847608 0
0.671031 0.847608 0
0.677272 0.847608 0
0.683528 0.847608 0
0.689784 0.847608 0
0.711101 0.845792 0
0.799374 0.837766 0
0.87892 0.834928 0
0.899992 0.839429 0
0.906249 0.853773 0
0.912505 0.871107 0
0.918746 0.88101 0
0.925002 0.884337 0
0.931243 0.884001 0
0.937499 0.882368 0
0.943755 0.880919 0
0.949996 0.880079 0
0.956252 0.880262 0
0.962493 0.881453 0
0.96875 0.883452 0
0.975006 0.885588 0
0.981247 0.887587 0
0.987503 0.889372 0
0.993744 0.89099 0
1 0.892363 0
0.614786 0.853849 0
0.621027 0.853849 0
0.627283 0.853849 0
0.633524 0.853849 0
0.63978 0.853849 0
0.646021 0.853849 0
0.652277 0.853849 0
0.658534 0.853849 0
0.664775 0.853849 0
0.671031 0.853849 0
0.677272 0.853849 0
0.683528 0.853849 0
0.689784 0.853849 0
0.708415 0.852354 0
0.793545 0.844434 0
0.87393 0.841291 0
0.899992 0.845182 0
0.906249 0.858793 0
0.912505 0.876921 0
0.918746 0.890089 0
0.925002 0.897536 0
0.931243 0.90074 0
0.937499 0.901732 0
0.943755 0.901793 0
0.949996 0.901793 0
0.956252 0.901793 0
0.962493 0.901778 0
0.96875 0.901778 0
0.975006 0.901701 0
0.981247 0.901595 0
0.987503 0.901625 0
0.993744 0.901701 0
1 0.901793 0
0.614786 0.860105 0
0.621027 0.860105 0
0.627283 0.860105 0
0.633524 0.860105 0
0.63978 0.860105 0
0.646021 0.860105 0
0.652277 0.860105 0
0.658534 0.860105 0
0.664775 0.860105 0
0.671031 0.860105 0
0.677272 0.860105 0
0.683528 0.860105 0
0.689784 0.860105 0
0.7075 0.858717 0
0.791775 0.850843 0
0.87216 0.847547 0
0.899992 0.851057 0
0.906249 0.86392 0
0.912505 0.881819 0
0.918746 0.895262 0
0.925002 0.903166 0
0.931243 0.906676 0
0.937499 0.907897 0
0.943755 0.908049 0
0.949996 0.908049 0
0.956252 0.908049 0
0.962493 0.908049 0
0.96875 0.908049 0
0.975006 0.908049 0
0.981247 0.908049 0
0.987503 0.908049 0
0.993744 0.908049 0
1 0.908049 0
0.614786 0.866361 0
0.621027 0.866361 0
0.627283 0.866361 0
0.633524 0.866361 0
0.63978 0.866361 0
0.646021 0.866361 0
0.652277 0.866361 0
0.658534 0.866361 0
0.664775 0.866361 0
0.671031 0.866361 0
0.677272 0.866361 0
0.683528 0.866361 0
0.689784 0.866361 0
0.711818 0.864439 0
0.796262 0.856809 0
0.874693 0.853727 0
0.899992 0.857374 0
0.906249 0.869963 0
0.912505 0.887465 0
0.918746 0.900938 0
0.925002 0.90901 0
0.931243 0.912688 0
0.937499 0.914061 0
0.943755 0.914275 0
0.949996 0.91429 0
0.956252 0.91429 0
0.962493 0.91429 0
0.96875 0.91429 0
0.975006 0.91429 0
0.981247 0.91429 0
0.987503 0.91429 0
0.993744 0.91429 0
1 0.91429 0
0.614786 0.872602 0
0.621027 0.872602 0
0.627283 0.872602 0
0.633524 0.872602 0
0.63978 0.872602 0
0.646021 0.872602 0
0.652277 0.872602 0
0.658534 0.872602 0
0.664775 0.872602 0
0.671031 0.872602 0
0.677272 0.872602 0
0.683528 0.872602 0
0.689784 0.872602 0
0.72311 0.869383 0
0.80679 0.862394 0
0.88098 0.859953 0
0.899992 0.864164 0
0.906249 0.876982 0
0.912505 0.894087 0
0.918746 0.907195 0
0.925002 0.915114 0
0.931243 0.918807 0
0.937499 0.920241 0
0.943755 0.920516 0
0.949996 0.920546 0
0.956252 0.920546 0
0.962493 0.920546 0
0.96875 0.920546 0
0.975006 0.920546 0
0.981247 0.920546 0
0.987503 0.920546 0
0.993744 0.920546 0
1 0.920546 0
0.614786 0.878859 0
0.621027 0.878859 0
0.627283 0.878859 0
0.633524 0.878859 0
0.63978 0.878859 0
0.646021 0.878859 0
0.652277 0.878859 0
0.658534 0.878859 0
0.664775 0.878859 0
0.671031 0.878859 0
0.677272 0.878859 0
0.683528 0.878859 0
0.689784 0.878859 0
0.740017 0.873838 0
0.822034 0.867781 0
0.889128 0.866285 0
0.899992 0.871489 0
0.906249 0.884825 0
0.912505 0.901335 0
0.918746 0.913848 0
0.925002 0.921462 0
0.931243 0.925078 0
0.937499 0.926482 0
0.943755 0.926772 0
0.949996 0.926787 0
0.956252 0.926787 0
0.962493 0.926787 0
0.96875 0.926787 0
0.975006 0.926787 0
0.981247 0.926787 0
0.987503 0.926787 0
0.993744 0.926787 0
1 0.926787 0
0.614786 0.8851 0
0.621027 0.8851 0
0.627283 0.8851 0
0.633524 0.8851 0
0.63978 0.8851 0
0.646021 0.8851 0
0.652277 0.8851 0
0.658534 0.8851 0
0.664775 0.8851 0
