LUTs/77.cube
TITLE "Generate by Resolve"
LUT_3D_SIZE 5
0 0.000122072 0.000350958
0.183719 0 1.5259e-05
0.612497 0 0
0.8374 0 0
0.965042 0 0
0 0.249668 0
0.186267 0.214435 0
0.734478 0.179706 0.0016022
0.899794 0.204013 0.0175326
1 0.260655 0.0280919
0.0117952 0.742092 0.0137026
0.117617 0.707271 0.00740063
0.64213 0.652781 0.000885023
0.899992 0.668513 0.00216678
1 0.698283 0.000366217
0.062974 0.899992 0.0653391
0.171054 0.899992 0.0661631
0.658778 0.899733 0.0291752
0.899001 0.896483 0.00695811
1 0.898802 0.00213626
0.062974 1 0.0653391
0.226215 1 0.0701915
0.703029 1 0.0247349
0.899962 1 0.0116274
1 1 0.00766003
0 0 0.369665
0.288151 0 0.320607
0.664408 0 0.193637
0.851286 0 0.217304
0.95404 0 0.286168
0 0.250507 0.205447
0.180499 0.216083 0.209583
0.643748 0.202899 0.207553
0.896345 0.260319 0.269795
1 0.318151 0.325429
0.0125429 0.735912 0.150317
0.111086 0.700816 0.133547
0.647517 0.65272 0.157824
0.899992 0.662135 0.153307
1 0.688594 0.169741
0.0650339 0.899992 0.210178
0.16643 0.899992 0.186191
0.638331 0.899626 0.165805
0.897154 0.8907 0.15259
1 0.892439 0.151339
0.0652018 1 0.30103
0.202487 1 0.231983
0.674754 1 0.183703
0.897704 1 0.1673
1 1 0.155306
0 0 0.776211
0.262333 0 0.759808
0.743664 0 0.740429
0.849424 0 0.735424
0.950622 0 0.752926
0 0.224491 0.746731
0.1664 0.199756 0.743847
0.738323 0.163546 0.727306
0.899992 0.209247 0.729839
1 0.262959 0.764981
1.5259e-05 0.745907 0.639124
0.100526 0.711177 0.598474
0.634073 0.640635 0.629953
0.888212 0.654582 0.645914
0.999786 0.680064 0.670268
0.0358892 0.899992 0.70164
0.151492 0.899992 0.668391
0.576623 0.898451 0.58291
0.879225 0.866789 0.578027
1 0.86714 0.567163
0.00564584 1 0.737667
0.157824 1 0.704738
0.601938 1 0.604822
0.87454 0.994217 0.600809
1 0.993591 0.571679
0 0 0.8766
0.257389 0 0.865263
0.74406 0 0.854582
0.850828 0 0.856001
0.950835 0 0.856001
0 0.226688 0.879683
0.16997 0.20528 0.89514
0.747738 0.172885 0.89688
0.899992 0.186877 0.899992
1 0.242313 0.899992
0 0.741588 0.89749
0.104219 0.700816 0.893416
0.637324 0.643305 0.896025
0.899992 0.635325 0.895705
1 0.661204 0.894575
0 0.899992 0.89865
0.0999924 0.899992 0.891417
0.502693 0.89958 0.869062
0.869932 0.856214 0.841611
0.999313 0.856336 0.842634
0 1 0.898665
0.101045 1 0.897429
0.547127 1 0.868788
0.863096 0.98645 0.836484
0.998871 0.98146 0.831403
0 0 0.976593
0.272541 0 0.963333
0.747555 0 0.955322
0.850828 0 0.956008
0.950835 0 0.956008
0 0.244724 0.978897
0.186542 0.223224 0.997711
0.763378 0.194049 0.99968
0.899992 0.205966 1
1 0.26186 1
0 0.756893 0.998413
0.107301 0.71458 0.996765
0.649332 0.654002 1
0.899992 0.643076 1
1 0.667414 0.997345
0 0.899992 0.998657
0.0999924 0.899992 0.998688
0.487907 0.899779 0.994263
0.87155 0.855833 0.975036
0.997589 0.857893 0.970382
0 1 0.998657
0.101167 1 0.997909
0.509285 1 0.983352
0.860014 0.98587 0.966094
0.99855 0.979721 0.96347
