LUTs/77.cube
TITLE "Generate by Resolve"
LUT_3D_SIZE 33
0 0.000122072 0.000350958
0.0125582 7.62951e-05 0.000198367
0.0259251 4.57771e-05 0.000137331
0.0433356 3.0518e-05 7.62951e-05
0.0664378 1.5259e-05 7.62951e-05
0.0919509 4.57771e-05 0.000244144
0.11899 3.0518e-05 0.000289921
0.148836 0 0.000122072
0.183719 0 1.5259e-05
0.229679 0 0
0.286717 0 0
0.346746 0 0
0.404944 0 0
0.461326 0 0
0.515801 0 0
0.567697 0 0
0.612497 0 0
0.65211 0 0
0.687037 0 0
0.717861 0 0
0.745876 0 0
0.771405 0 0
0.79501 0 0
0.816922 0 0
0.8374 0 0
0.856916 0 0
0.875746 0 0
0.894041 0 0
0.911498 0 0
0.926955 0 0
0.940032 0 0
0.952529 0 0
0.965042 0 0
0 0.0162509 0.000213626
0.0125429 0.0161593 0.000228885
0.0256504 0.0161135 0.000228885
0.0438087 0.0156558 0.000167849
0.0690013 0.0149538 0.000244144
0.0968643 0.0144045 0.000381476
0.126848 0.01355 0.000289921
0.160204 0.0127413 0.000106813
0.196368 0.0124971 1.5259e-05
0.239506 0.0124971 0
0.293263 0.0124971 0
0.352056 0.0124971 0
0.409171 0.0124971 0
0.465873 0.0124971 0
0.519951 0.0124971 0
0.571511 0.0124971 0
0.616693 0.0124971 0
0.655329 0.0124971 0
0.689586 0.0124971 0
0.720378 0.0124971 0
0.74815 0.0124971 0
0.77351 0.0124971 0
0.796887 0.0124971 0
0.818647 0.0124971 0
0.839139 0.0124971 0
0.858763 0.0124971 0
0.877699 0.0124971 0
0.896147 0.0124971 0
0.912779 0.0124971 0
0.927153 0.0124971 0
0.940063 0.0124971 0
0.952621 0.0124971 0
0.965255 0.0124971 0
6.10361e-05 0.0365911 0.000183108
0.0125734 0.0363775 0.000213626
0.0253147 0.0363317 0.000213626
0.0431525 0.0353399 0.000167849
0.0692607 0.0335393 0.000183108
0.0996872 0.0323339 0.000274662
0.134432 0.030457 0.000183108
0.174578 0.0276646 4.57771e-05
0.218418 0.0254368 0
0.265415 0.0249943 0
0.315404 0.0249943 0
0.365591 0.0249943 0
0.418204 0.0249943 0
0.471656 0.0249943 0
0.524483 0.0249943 0
0.575006 0.0249943 0
0.619715 0.0249943 0
0.657862 0.0249943 0
0.691981 0.0249943 0
0.722499 0.0249943 0
0.749981 0.0249943 0
0.775372 0.0249943 0
0.798795 0.0249943 0
0.820706 0.0249943 0
0.841215 0.0249943 0
0.860914 0.0249943 0
0.880034 0.0249943 0
0.898726 0.0249943 0
0.914153 0.0250401 0
0.92784 0.0251621 0
0.941024 0.0253758 0
0.954376 0.0256962 0
0.968017 0.0261997 0
6.10361e-05 0.06421 0.000167849
0.0125582 0.0638437 0.000213626
0.0250706 0.0633097 0.000244144
0.0420081 0.0612497 0.000198367
0.0672465 0.0579538 9.15541e-05
0.0987411 0.0560311 6.10361e-05
0.135393 0.0537423 3.0518e-05
0.180667 0.0490883 1.5259e-05
0.236149 0.0425879 0
0.297063 0.0377813 0
0.354284 0.0374914 0
0.399054 0.0374914 0
0.443503 0.0374914 0
0.48986 0.0374914 0
0.536507 0.0374914 0
0.582544 0.0374914 0
0.624933 0.0374914 0
0.661524 0.0374914 0
0.694575 0.0374914 0
0.724834 0.0374914 0
0.752087 0.0374914 0
0.777386 0.0374914 0
0.801129 0.0374914 0
0.823194 0.0374914 0
0.84416 0.0374914 0
0.8645 0.0374914 0
0.88455 0.037644 0
0.90367 0.0380713 0
0.919585 0.039353 0
0.933837 0.0410315 0
0.948211 0.0430457 0
0.962768 0.0454108 0
0.977432 0.0482795 0
0 0.0969406 9.15541e-05
0.0124971 0.0963607 0.000122072
0.0249943 0.0948501 0.000137331
0.041001 0.0914626 0.000122072
0.0645609 0.0867323 6.10361e-05
0.0948043 0.0834669 1.5259e-05
0.130694 0.0810101 0
0.174899 0.0764782 0
0.233066 0.068452 0
0.306798 0.0578164 0
0.384192 0.0518349 0
0.44271 0.0504158 0
0.488884 0.0500954 0
0.529732 0.0499886 0
0.567773 0.0499886 0
0.606363 0.0499886 0
0.641215 0.0499886 0
0.67332 0.0499886 0
0.703624 0.0499886 0
0.732662 0.0499886 0
0.759609 0.0499886 0
0.785382 0.0500496 0
0.809705 0.0503853 0
0.832975 0.0512551 0
0.855711 0.0527199 0
0.877409 0.055024 0
0.897505 0.0580301 0
0.915099 0.0612192 0
0.930724 0.0648966 0
0.945205 0.0690318 0
0.959609 0.0730449 0
0.974075 0.0772259 1.5259e-05
0.988617 0.0816968 9.15541e-05
0 0.129427 1.5259e-05
0.0124971 0.128847 1.5259e-05
0.0249943 0.127092 1.5259e-05
0.0393225 0.122957 1.5259e-05
0.0603037 0.11693 0
0.0898756 0.112398 0
0.124865 0.109987 0
0.166201 0.1066 0
0.219181 0.100328 0
0.287922 0.090135 0
0.371374 0.076936 0
0.451179 0.0691539 0
0.518013 0.0654917 0
0.571649 0.0637827 0
0.613123 0.0630655 0
0.645609 0.0628672 0
0.675334 0.0630503 0
0.703822 0.0635233 0
0.731151 0.0642863 0
0.75816 0.0654002 0
0.784283 0.0668193 0
0.8094 0.0686809 0
0.833188 0.0713359 0
0.855863 0.0758221 0
0.876677 0.0810407 0
0.895491 0.0865797 0
0.911879 0.0914473 0
0.926848 0.0956741 0
0.941115 0.0992142 0
0.955261 0.102663 0
0.969497 0.106355 1.5259e-05
0.98381 0.110307 7.62951e-05
0.99765 0.114595 0.000671397
0 0.164218 0
0.0124971 0.164218 0
0.0249943 0.162264 0
0.0378729 0.1579 0
0.0546273 0.150729 0
0.0825971 0.144183 0
0.118532 0.141299 0
0.158755 0.138811 0
0.209567 0.133761 0
0.273152 0.125551 0
0.35169 0.113985 0
0.436133 0.101823 0
0.515816 0.0931716 0
0.583658 0.0875715 0
0.637995 0.0844282 0
0.677073 0.0841993 0
0.711406 0.0853285 0
0.743206 0.0874952 0
0.773175 0.0907912 0
0.797787 0.0943923 0
0.820005 0.0981155 0
0.840391 0.102129 0
0.85861 0.106233 0
0.875731 0.110826 0
0.892088 0.115862 0
0.90724 0.120577 0.000259403
0.921538 0.1252 0.0009308
0.935103 0.129396 0.00189212
0.948257 0.133303 0.00299077
0.961349 0.137636 0.00430304
0.97409 0.142702 0.00605783
0.986801 0.148745 0.0081178
0.999542 0.155413 0.0102998
0 0.203784 0
0.0124971 0.204532 0
0.0249943 0.203021 0
0.0374914 0.199023 0
0.0507973 0.190982 0
0.072755 0.182055 0
0.108827 0.177646 0
0.149813 0.174945 0
0.198367 0.171252 0
0.260395 0.164904 0
0.335592 0.155413 0
0.416556 0.145647 0
0.497047 0.136233 0
0.571954 0.128771 0
0.638941 0.123888 0
0.688121 0.124056 0
0.731868 0.126146 1.5259e-05
0.770901 0.129549 0.000381476
0.803616 0.133837 0.00215152
0.825177 0.136522 0.00271611
0.842069 0.138842 0.00292973
0.856992 0.141588 0.00325017
0.871 0.145296 0.00402838
0.884703 0.14966 0.00512703
0.898177 0.154559 0.00643931
0.911406 0.159701 0.00793469
0.924361 0.164843 0.00958267
0.937072 0.170306 0.011368
0.949737 0.176623 0.0132448
0.962386 0.183246 0.0150912
0.97499 0.18999 0.0168917
0.987503 0.197116 0.0187533
1 0.204395 0.0205539
0 0.249668 0
0.0124971 0.25153 0
0.0249943 0.251408 0
0.0374914 0.248173 0
0.0499886 0.240223 0
0.0649119 0.228656 0
0.0947127 0.22121 0
0.13814 0.217533 0
0.186267 0.214435 0
0.244816 0.210163 0
0.320562 0.202533 0
0.400046 0.194385 0
0.479042 0.186954 0
0.554711 0.181094 0
0.625895 0.176974 0
0.682948 0.177493 0.000183108
0.734478 0.179706 0.0016022
0.779889 0.183291 0.00456245
0.81326 0.187915 0.0102998
0.83473 0.190066 0.0131685
0.848981 0.19086 0.0141299
0.861784 0.192554 0.0145876
0.874479 0.195468 0.0153658
0.887144 0.199191 0.0163119
0.899794 0.204013 0.0175326
0.912428 0.209628 0.0189059
0.924987 0.215778 0.0203555
0.937499 0.222782 0.0218509
0.949996 0.229938 0.0232242
0.962493 0.237125 0.024506
0.975006 0.244831 0.0257877
0.987503 0.252583 0.0269932
1 0.260655 0.0280919
0 0.302663 0
0.0124971 0.305989 0
0.0249943 0.307607 0
0.0374914 0.306188 0
0.0499886 0.299184 0
0.063035 0.28542 0
0.0837568 0.273594 0
0.122301 0.268467 0
0.172808 0.26508 0
0.23006 0.261997 0
0.302113 0.256687 0
0.38381 0.249271 0
0.463264 0.24332 0
0.538872 0.238926 0
0.61059 0.236393 0
0.671016 0.237079 0.000488289
0.725628 0.239155 0.0031281
0.775051 0.242756 0.00825513
0.81062 0.247776 0.0163882
0.835294 0.251164 0.0219272
0.850004 0.252842 0.0249027
0.862501 0.253391 0.0252384
0.874998 0.255207 0.0256046
0.887495 0.258228 0.0260929
0.899992 0.262638 0.0267796
0.912505 0.267994 0.0275578
0.925002 0.274632 0.0283818
0.937499 0.281987 0.0291905
0.949996 0.289479 0.0299229
0.962493 0.297246 0.0305791
0.975006 0.304952 0.0311437
0.987503 0.313405 0.0315709
1 0.321233 0.0318914
0 0.363012 0
0.0124971 0.367651 0
0.0249943 0.371084 0
0.0374914 0.371633 0
0.0499886 0.366629 0
0.062501 0.352728 0
0.0774853 0.337209 0
0.106996 0.329534 0
0.15671 0.324987 0
0.215976 0.321553 0
0.284077 0.31754 0
0.363882 0.31194 0
0.444602 0.306279 0
0.523201 0.30222 0
0.596231 0.29929 0
0.657191 0.299763 0.000579843
0.712139 0.302022 0.0031281
0.761578 0.305257 0.00808728
0.802075 0.310155 0.0162966
0.831998 0.314992 0.0236973
0.850004 0.318624 0.0297398
0.862501 0.319341 0.0310216
0.874998 0.320745 0.0315404
0.887495 0.322698 0.0316777
0.899992 0.326558 0.0318456
0.912505 0.331777 0.0319982
0.925002 0.337835 0.032105
0.937499 0.344808 0.0321813
0.949996 0.352361 0.0322271
0.962493 0.360372 0.0321508
0.975006 0.369223 0.0320134
0.987503 0.377752 0.0318761
1 0.385824 0.0317693
0 0.428763 0
0.0124971 0.434256 0
0.0249943 0.439109 0
0.0374914 0.441733 0
0.0499886 0.43859 0
0.062501 0.426581 0
0.075349 0.409842 0
0.0977188 0.397635 0
0.141573 0.391897 0
0.202396 0.38735 0
0.270832 0.382742 0
0.347723 0.377569 0
0.426184 0.373007 0
0.503243 0.368322 0
0.578622 0.36437 0
0.641794 0.363439 9.15541e-05
0.698405 0.364569 0.00102235
0.747845 0.368063 0.00309758
0.789746 0.372671 0.0102083
0.82446 0.377661 0.0180972
0.849775 0.383001 0.0263981
0.862501 0.38584 0.0301366
0.874998 0.387594 0.0317388
0.887495 0.389807 0.0319066
0.899992 0.392844 0.0318914
0.912505 0.39736 0.0318456
0.925002 0.402899 0.031754
0.937499 0.409445 0.0316014
0.949996 0.416938 0.0313878
0.962493 0.424949 0.0310826
0.975006 0.432898 0.0307012
0.987503 0.440665 0.0300145
1 0.448386 0.0292668
0 0.496773 0
0.0124971 0.502068 0
0.0249943 0.507103 0
0.0374914 0.511223 0
0.0499886 0.510948 0
0.062501 0.500954 0
0.0749981 0.483192 0
0.0919661 0.468009 0
0.128771 0.459998 0
0.1888 0.454246 0
0.258793 0.448417 0
0.334661 0.442176 0
0.410864 0.437095 0
0.485985 0.432609 0
0.560479 0.428275 0
0.625803 0.426413 0
0.685161 0.42681 0.000274662
0.73611 0.428824 0.0009308
0.779095 0.432807 0.00427253
0.816831 0.437446 0.0099031
0.847761 0.442557 0.0187381
0.862119 0.446921 0.024979
0.874998 0.450706 0.0286107
0.887495 0.453346 0.0298161
0.899992 0.45623 0.0296788
0.912505 0.460395 0.0293736
0.925002 0.465461 0.0289921
0.937499 0.471641 0.0284733
0.949996 0.478798 0.0278019
0.962493 0.486091 0.0271305
0.975006 0.49369 0.0264439
0.987503 0.500816 0.0255589
1 0.508141 0.024445
0 0.562936 0
0.0124971 0.568185 0
0.0249943 0.573098 0
0.0374914 0.577661 0
0.0499886 0.578836 0
0.062501 0.571359 0
0.0749981 0.554131 0
0.0886397 0.536522 0
0.1196 0.52668 0
0.176287 0.520333 0
0.246967 0.512993 0
0.323308 0.505409 0
0.398276 0.499168 0
0.471336 0.494499 0
0.543664 0.490532 0
0.61091 0.488258 0
0.67158 0.487282 0
0.724544 0.488273 0
0.768475 0.491447 0.000823987
0.808255 0.495415 0.00376898
0.843091 0.500648 0.0101472
0.860731 0.505577 0.0171664
0.874983 0.509697 0.0223087
0.887495 0.513191 0.0249485
0.899992 0.516487 0.0250706
0.912505 0.520699 0.0246738
0.925002 0.525979 0.024033
0.937499 0.53164 0.0232242
0.949996 0.538048 0.022034
0.962493 0.544686 0.020676
0.975006 0.551247 0.0190585
0.987503 0.557595 0.0174563
1 0.564019 0.0158541
0 0.626398 0
0.0124971 0.631571 0
0.0251469 0.636896 0.000183108
0.0382086 0.640681 0.000823987
0.0510872 0.642664 0.00122072
0.0635386 0.637339 0.0011902
0.0756085 0.621286 0.000717174
0.0876631 0.602502 0.000228885
0.114031 0.591134 6.10361e-05
0.164843 0.584497 3.0518e-05
0.235172 0.576593 0
0.312947 0.567651 0
0.388006 0.560525 0
0.46038 0.555077 0
0.530251 0.550912 0
0.59649 0.548074 0
0.657649 0.546517 0
0.71252 0.546578 0
0.757641 0.548882 3.0518e-05
0.798856 0.552529 0.000289921
0.83537 0.556329 0.00111391
0.858152 0.561044 0.00689708
0.874922 0.565484 0.0122683
0.887495 0.56965 0.0159609
0.899992 0.572869 0.0166018
0.912505 0.576837 0.0158083
0.925002 0.580697 0.0149081
0.937499 0.585489 0.0138094
0.949996 0.590478 0.0126497
0.962493 0.595926 0.0113832
0.975006 0.601648 0.0101472
0.987503 0.607553 0.0089723
1 0.613214 0.00790417
0.00331121 0.686442 0.00411994
0.0167849 0.691707 0.00497444
0.029572 0.696162 0.00514229
0.0422675 0.700008 0.00529488
0.0544747 0.702464 0.0049897
0.0665293 0.698863 0.00454719
0.0780652 0.684062 0.00360113
0.088716 0.664256 0.00164797
0.113375 0.651423 0.000976577
0.161593 0.644236 0.00167849
0.228443 0.636835 0.00254826
0.30518 0.627008 0.00241093
0.381521 0.618784 0.00178531
0.454383 0.612085 0.00112917
0.523629 0.606653 0.000534066
0.58819 0.603265 0.000183108
0.648341 0.601343 0
0.702754 0.600656 0
0.748012 0.602731 0
0.789242 0.604776 7.62951e-05
0.826001 0.60798 0.000274662
0.853193 0.611566 0.00248722
0.873381 0.615381 0.00509651
0.887495 0.619303 0.00750744
0.899992 0.622675 0.00849927
0.912505 0.626169 0.00810254
0.925002 0.629648 0.00746166
0.937499 0.633677 0.00663767
0.949996 0.6383 0.0056611
0.962493 0.643565 0.00454719
0.975006 0.648447 0.00357061
0.987503 0.653422 0.00270085
1 0.658412 0.0019379
0.0117952 0.742092 0.0137026
0.0263828 0.746792 0.0158236
0.0410468 0.750851 0.0179141
0.0556344 0.753658 0.0198672
0.069276 0.755428 0.0208896
0.081117 0.752804 0.0201114
0.0896925 0.740078 0.0160678
0.0966201 0.721172 0.0102846
0.117617 0.707271 0.00740063
0.162295 0.699733 0.0081178
0.226062 0.693202 0.00970474
0.300343 0.683589 0.00907912
0.377371 0.673838 0.00694286
0.450278 0.665888 0.00492866
0.519722 0.659449 0.00306706
0.583078 0.655406 0.00181582
0.64213 0.652781 0.000885023
0.695796 0.651438 0.00030518
0.740276 0.652247 0.000106813
0.781186 0.653529 0
0.817777 0.655741 0
0.847807 0.658534 7.62951e-05
0.871 0.66186 0.000564584
0.887327 0.66508 0.00144961
0.899992 0.668513 0.00216678
0.912505 0.671672 0.00195315
0.925002 0.674983 0.00154116
0.937499 0.678477 0.00106813
0.949996 0.682643 0.00062562
0.962493 0.686625 0.000442512
0.975006 0.690471 0.000427253
0.987503 0.694484 0.000411994
1 0.698283 0.000366217
0.0293126 0.788724 0.031342
0.0433204 0.790219 0.0328679
0.0571145 0.791394 0.034165
0.0707103 0.792737 0.0352789
0.0842298 0.794568 0.0363012
0.0959793 0.794125 0.0355383
0.1037 0.786847 0.0307317
0.108324 0.772671 0.0227054
0.125261 0.759808 0.0178073
0.166018 0.752087 0.0184939
0.226596 0.746532 0.0212558
0.297856 0.737072 0.0201724
0.375265 0.726024 0.0159762
0.44889 0.716854 0.0119173
0.518456 0.708949 0.00810254
0.581338 0.703716 0.00520333
0.639078 0.700099 0.00282292
0.691463 0.697841 0.000961318
0.735042 0.697643 0.000320439
0.775113 0.698085 0
0.810803 0.699535 0
0.841856 0.701564 1.5259e-05
0.867399 0.703655 9.15541e-05
0.886809 0.705852 0.000274662
0.899931 0.708461 0.00047303
0.912505 0.710842 0.000488289
0.925002 0.713573 0.000427253
0.937499 0.716548 0.000320439
0.949996 0.719478 0.000198367
0.962493 0.722683 9.15541e-05
0.975006 0.725948 3.0518e-05
0.987503 0.729183 0
1 0.732586 0
0.0432288 0.817334 0.0453651
0.0570535 0.818509 0.0467231
0.0708934 0.82002 0.0480659
0.0846876 0.821653 0.0493782
0.0982528 0.823041 0.0504463
0.110674 0.823346 0.05037
0.118914 0.819455 0.046067
0.1243 0.813031 0.0388647
0.137728 0.80499 0.033341
0.174212 0.798474 0.0327764
0.23154 0.792554 0.0343786
0.299535 0.783246 0.0324254
0.376532 0.771679 0.0269017
0.450309 0.761181 0.0213169
0.520562 0.752346 0.0161135
0.582773 0.745708 0.011902
0.639673 0.740703 0.00831617
0.690974 0.737392 0.00535592
0.733364 0.736339 0.00291447
0.772396 0.736202 0.00105287
0.807157 0.736996 7.62951e-05
0.837644 0.738354 0
0.864073 0.739834 0
0.885435 0.74165 0
0.899809 0.743694 0
0.912505 0.745846 0
0.925002 0.748241 0
0.937499 0.750546 0
0.949996 0.753063 0
0.962493 0.75581 0
0.975006 0.758495 0
0.987503 0.761151 0
1 0.763836 0
0.0542153 0.837491 0.0564584
0.0682231 0.837491 0.0579995
0.0823529 0.837446 0.0596323
0.0951705 0.836957 0.059968
0.107622 0.836973 0.0599222
0.119432 0.837018 0.0592203
0.129107 0.836545 0.0563668
0.136416 0.835508 0.0511025
0.148943 0.833265 0.0463722
0.182116 0.830579 0.045243
0.236728 0.827512 0.0462043
0.301717 0.821424 0.0436866
0.377737 0.81181 0.0372168
0.451957 0.801907 0.030457
0.522103 0.792294 0.0239719
0.584237 0.784497 0.0186618
0.641093 0.778286 0.0140841
0.691402 0.773953 0.0103761
0.732815 0.772152 0.00682078
0.770916 0.771328 0.00370794
0.804501 0.771466 0.00144961
0.834318 0.772198 0.000534066
0.861189 0.773159 0.000122072
0.883909 0.774517 3.0518e-05
0.899687 0.776211 0
0.912505 0.777966 0
0.925002 0.779721 0
0.937499 0.781537 0
0.949996 0.783505 0
0.962493 0.785565 0
0.975006 0.787717 0
0.987503 0.789715 0
1 0.791775 0
0.060853 0.850004 0.0631876
0.0734264 0.850004 0.0632639
0.0860761 0.850004 0.0634165
0.098909 0.850004 0.0637522
0.111849 0.850004 0.0641947
0.124483 0.850004 0.064332
0.135943 0.850004 0.0632792
0.145632 0.850004 0.0604257
0.159152 0.850004 0.0573739
0.189776 0.850004 0.0563973
0.241611 0.849454 0.0567483
0.305287 0.848722 0.053666
0.379644 0.844144 0.0464637
0.453315 0.837339 0.0387732
0.52398 0.827924 0.0311589
0.586252 0.819318 0.024979
0.643168 0.812009 0.0197452
0.693095 0.806943 0.0158694
0.733761 0.804181 0.0124971
0.770825 0.802487 0.00906386
0.803281 0.801938 0.00526436
0.832395 0.802106 0.00228885
0.859251 0.802518 0.000579843
0.882811 0.803433 0.00015259
0.899519 0.804349 1.5259e-05
0.91249 0.805524 0
0.925002 0.806882 0
0.937499 0.80827 0
0.949996 0.809873 0
0.962493 0.811597 0
0.975006 0.813382 0
0.987503 0.815152 0
1 0.817044 0
0.0625772 0.862501 0.0649271
0.0753338 0.862501 0.0652018
0.0879683 0.862501 0.0653391
0.100481 0.862501 0.0653391
0.112978 0.862501 0.0653391
0.12546 0.862501 0.0653239
0.137621 0.862501 0.0649882
0.149157 0.862501 0.0639963
0.165347 0.862501 0.0628672
0.196033 0.862501 0.0626993
0.246342 0.862501 0.0634318
0.309163 0.862501 0.060029
0.381918 0.861189 0.0528267
0.455421 0.858625 0.0445716
0.52578 0.854459 0.0364385
0.588495 0.847669 0.029572
0.646159 0.841031 0.0237125
0.694881 0.835584 0.0196078
0.735409 0.832181 0.0164034
0.771954 0.829862 0.0133516
0.803342 0.828901 0.00985733
0.831708 0.828626 0.00634775
0.858366 0.828885 0.00344854
0.882109 0.829313 0.0015259
0.89926 0.830076 0.000549325
0.912459 0.830991 0.000167849
0.925002 0.831998 3.0518e-05
0.937499 0.833356 0
0.949996 0.834669 0
0.962493 0.836027 0
0.975006 0.837552 0
0.987503 0.839048 0
1 0.840589 0
0.062974 0.874998 0.0653391
0.0754711 0.874998 0.0653391
0.0879683 0.874998 0.0653391
0.100481 0.874998 0.0653391
0.112978 0.874998 0.0653391
0.125475 0.874998 0.0653391
0.137942 0.874998 0.0653086
0.150347 0.874998 0.0652018
0.168582 0.874998 0.0654917
0.200595 0.874998 0.0665599
0.249256 0.874998 0.0680858
0.312856 0.874998 0.0644846
0.383993 0.874998 0.0576181
0.457923 0.874891 0.0490578
0.528389 0.874403 0.0404669
0.591501 0.870802 0.0331273
0.649134 0.866148 0.0267796
0.696971 0.861646 0.0225071
0.737499 0.858198 0.019379
0.773617 0.855451 0.0166934
0.80412 0.854261 0.0137636
0.831968 0.853666 0.0103761
0.857984 0.853437 0.00695811
0.881773 0.85362 0.00389105
0.89897 0.854124 0.0019379
0.912413 0.854856 0.000854505
0.925002 0.855726 0.000289921
0.937499 0.856657 6.10361e-05
0.949996 0.857664 0
0.962493 0.858778 1.5259e-05
0.975006 0.859983 3.0518e-05
0.987503 0.861189 4.57771e-05
1 0.862409 7.62951e-05
0.062974 0.887495 0.0653391
0.0754711 0.887495 0.0653391
0.0879683 0.887495 0.0653391
0.100481 0.887495 0.0653391
0.112978 0.887495 0.0653391
0.125475 0.887495 0.0653391
0.137972 0.887495 0.0653391
0.150713 0.887495 0.0653697
0.169574 0.887495 0.0660258
0.203235 0.887495 0.0679179
0.253407 0.887495 0.0698253
0.31664 0.887495 0.0667582
0.387152 0.887495 0.0603952
0.462348 0.887495 0.0517128
0.531868 0.887495 0.0430457
0.594842 0.887068 0.0354772
0.653239 0.886229 0.028748
0.699992 0.884215 0.0244755
0.740551 0.881773 0.0213169
0.776333 0.879225 0.0188907
0.805676 0.877745 0.0164492
0.832959 0.876829 0.01355
0.858488 0.876371 0.0103914
0.881926 0.87628 0.00720226
0.898787 0.87657 0.00447089
0.912383 0.877043 0.0024567
0.925002 0.877607 0.00106813
0.937499 0.878309 0.000274662
0.949996 0.879011 3.0518e-05
0.962493 0.879728 6.10361e-05
0.975006 0.880598 0.000167849
0.987503 0.881453 0.000289921
1 0.882277 0.000442512
0.062974 0.899992 0.0653391
0.0754711 0.899992 0.0653391
0.0879683 0.899992 0.0653391
0.100481 0.899992 0.0653391
0.112978 0.899992 0.0653391
0.125475 0.899992 0.0653391
0.137972 0.899992 0.0653391
0.151324 0.899992 0.0654307
0.171054 0.899992 0.0661631
0.208057 0.899992 0.068513
0.259312 0.899992 0.0697642
0.322621 0.899992 0.0666209
0.393362 0.899992 0.0604105
0.4692 0.899992 0.0517586
0.537636 0.899992 0.0433509
0.600748 0.899901 0.0358282
0.658778 0.899733 0.0291752
0.704295 0.899275 0.0251469
0.744656 0.898558 0.0220645
0.779339 0.897612 0.0199435
0.80798 0.897002 0.0178683
0.834745 0.89662 0.0153811
0.85977 0.896376 0.0125734
0.882887 0.896345 0.00962844
0.899001 0.896483 0.00695811
0.912428 0.896651 0.00471504
0.925002 0.89688 0.00296025
0.937499 0.897169 0.00187686
0.949996 0.897505 0.00158694
0.962493 0.897902 0.00167849
0.975006 0.898268 0.00181582
0.987503 0.898573 0.00196841
1 0.898802 0.00213626
0.062974 0.912505 0.0653391
0.0754711 0.912505 0.0653391
0.0879683 0.912505 0.0653391
0.100481 0.912505 0.0653391
0.112978 0.912505 0.0653391
0.125475 0.912505 0.0653391
0.137987 0.912505 0.0653391
0.151904 0.912505 0.0654917
0.173571 0.912505 0.0664225
0.21529 0.912505 0.0691081
0.267506 0.912505 0.0695659
0.331395 0.912505 0.0660563
0.401877 0.912505 0.0596933
0.476936 0.912505 0.0510109
0.545235 0.912505 0.0427863
0.607919 0.912505 0.0354009
0.664698 0.912505 0.0290227
0.709514 0.912505 0.0251164
0.74876 0.912367 0.0222477
0.782193 0.912108 0.0204166
0.810239 0.91194 0.0186465
0.836515 0.911818 0.016495
0.861097 0.911757 0.0140078
0.883879 0.911757 0.0113375
0.899184 0.911788 0.00883497
0.912459 0.911849 0.00660716
0.925002 0.91194 0.00474556
0.937499 0.912032 0.00352483
0.949996 0.912154 0.00326543
0.962493 0.912276 0.00334173
0.975006 0.912398 0.0034638
0.987503 0.912474 0.00360113
1 0.912505 0.00373846
0.062974 0.925002 0.0653391
0.0754711 0.925002 0.0653391
0.0879683 0.925002 0.0653391
0.100481 0.925002 0.0653391
0.112978 0.925002 0.0653391
0.125475 0.925002 0.0653391
0.138201 0.925002 0.0653697
0.153231 0.925002 0.0656443
0.179034 0.925002 0.0670329
0.224353 0.925002 0.0695659
0.278218 0.925002 0.0692302
0.342657 0.925002 0.0651102
0.414481 0.925002 0.0581064
0.487892 0.925002 0.049485
0.555077 0.925002 0.0414893
0.617197 0.925002 0.0342565
0.671366 0.925002 0.028397
0.714839 0.925002 0.0247349
0.752682 0.925002 0.0221103
0.784756 0.925002 0.0205081
0.812406 0.925002 0.0189517
0.838285 0.925002 0.0170901
0.862348 0.925002 0.0149081
0.884535 0.925002 0.0125277
0.899367 0.925002 0.0102083
0.912474 0.925002 0.00808728
0.925002 0.925002 0.00624094
0.937499 0.925002 0.00502022
0.949996 0.925002 0.00479133
0.962493 0.925002 0.00485237
0.975006 0.925002 0.00492866
0.987503 0.925002 0.00502022
1 0.925002 0.00512703
0.062974 0.937499 0.0653391
0.0754711 0.937499 0.0653391
0.0879683 0.937499 0.0653391
0.100481 0.937499 0.0653391
0.112978 0.937499 0.0653391
0.125475 0.937499 0.0653391
0.138216 0.937499 0.0653697
0.155932 0.937499 0.0659342
0.190539 0.937499 0.0681926
