LUTs/77.cube
TITLE "Generate by Resolve"
LUT_3D_SIZE 9
0 0.000122072 0.000350958
0.0664378 1.5259e-05 7.62951e-05
0.183719 0 1.5259e-05
0.404944 0 0
0.612497 0 0
0.745876 0 0
0.8374 0 0
0.911498 0 0
0.965042 0 0
0 0.0969406 9.15541e-05
0.0645609 0.0867323 6.10361e-05
0.233066 0.068452 0
0.488884 0.0500954 0
0.641215 0.0499886 0
0.759609 0.0499886 0
0.855711 0.0527199 0
0.930724 0.0648966 0
0.988617 0.0816968 9.15541e-05
0 0.249668 0
0.0499886 0.240223 0
0.186267 0.214435 0
0.479042 0.186954 0
0.734478 0.179706 0.0016022
0.848981 0.19086 0.0141299
0.899794 0.204013 0.0175326
0.949996 0.229938 0.0232242
1 0.260655 0.0280919
0 0.496773 0
0.0499886 0.510948 0
0.128771 0.459998 0
0.410864 0.437095 0
0.685161 0.42681 0.000274662
0.847761 0.442557 0.0187381
0.899992 0.45623 0.0296788
0.949996 0.478798 0.0278019
1 0.508141 0.024445
0.0117952 0.742092 0.0137026
0.069276 0.755428 0.0208896
0.117617 0.707271 0.00740063
0.377371 0.673838 0.00694286
0.64213 0.652781 0.000885023
0.817777 0.655741 0
0.899992 0.668513 0.00216678
0.949996 0.682643 0.00062562
1 0.698283 0.000366217
0.060853 0.850004 0.0631876
0.111849 0.850004 0.0641947
0.159152 0.850004 0.0573739
0.379644 0.844144 0.0464637
0.643168 0.812009 0.0197452
0.803281 0.801938 0.00526436
0.899519 0.804349 1.5259e-05
0.949996 0.809873 0
1 0.817044 0
0.062974 0.899992 0.0653391
0.112978 0.899992 0.0653391
0.171054 0.899992 0.0661631
0.393362 0.899992 0.0604105
0.658778 0.899733 0.0291752
0.80798 0.897002 0.0178683
0.899001 0.896483 0.00695811
0.949996 0.897505 0.00158694
1 0.898802 0.00213626
0.062974 0.949996 0.0653391
0.112978 0.949996 0.0653391
0.199619 0.949996 0.0689555
0.445548 0.949996 0.0537728
0.68484 0.949996 0.0267491
0.816312 0.949996 0.0189975
0.899763 0.949996 0.011841
0.949996 0.949996 0.00709544
1 0.949996 0.00720226
0.062974 1 0.0653391
0.112978 1 0.0653391
0.226215 1 0.0701915
0.489677 1 0.0474556
0.703029 1 0.0247349
0.822904 1 0.0183413
0.899962 1 0.0116274
0.949996 1 0.00769055
1 1 0.00766003
0 6.10361e-05 0.125795
0.0808728 9.15541e-05 0.11104
0.239734 0 0.083711
0.424002 0 0.0552987
0.614176 0 0.0500038
0.74583 0 0.0499886
0.837629 0 0.050309
0.911818 0 0.0554971
0.964981 0 0.0680705
0 0.0958114 0.091249
0.0598764 0.0859541 0.0852064
0.200992 0.0743725 0.076112
0.419318 0.0528878 0.0564431
0.629206 0.0500343 0.0507973
0.759289 0.0501259 0.0513771
0.854459 0.0565805 0.0601053
0.926604 0.0766613 0.0868086
0.981582 0.103883 0.112718
0 0.245823 0.0530404
0.0499886 0.235676 0.0524147
0.187152 0.213718 0.0627146
0.491371 0.184024 0.0499886
0.732845 0.181399 0.0520027
0.847501 0.199893 0.0689403
0.899992 0.221164 0.0806134
0.949996 0.251667 0.0965591
1 0.282353 0.114611
0 0.50132 0.0499886
0.0499886 0.51191 0.0499886
0.125353 0.46421 0.0499886
0.415839 0.439704 0.0499886
0.689738 0.429908 0.0501717
0.846677 0.446281 0.0695811
0.899992 0.454414 0.0797589
0.949996 0.471443 0.0788128
1 0.497322 0.0781109
0.0141604 0.747692 0.0660868
0.0705577 0.758465 0.0720684
0.11989 0.710353 0.0578927
0.383612 0.678096 0.0572061
0.647028 0.656809 0.0505837
0.819776 0.660304 0.0499886
0.899992 0.671366 0.0514992
0.949996 0.681071 0.0512856
1 0.694392 0.0521553
0.060853 0.850004 0.113176
0.112306 0.850004 0.114656
0.161669 0.849989 0.107942
0.383673 0.843122 0.0967575
0.647791 0.813092 0.0696269
0.805051 0.803494 0.0555581
0.899321 0.805341 0.0500343
0.949996 0.810086 0.0499886
1 0.816129 0.0500038
0.062974 0.899992 0.115343
0.112978 0.899992 0.115343
0.167529 0.899992 0.115816
0.383352 0.899992 0.112001
0.657084 0.899748 0.0795453
0.80795 0.897276 0.0678721
0.899046 0.896559 0.0569314
0.949996 0.897353 0.0514076
1 0.898253 0.0517891
0.063035 0.949996 0.116289
0.112978 0.949996 0.115541
0.188983 0.949996 0.118059
0.417578 0.949996 0.107622
0.676829 0.949996 0.0780957
0.814298 0.949996 0.0692149
0.899535 0.949996 0.0620584
0.949996 0.949996 0.0568856
1 0.949996 0.0568856
0.0637827 1 0.130663
0.113176 1 0.119219
0.211978 1 0.11989
0.457328 1 0.102083
0.693355 1 0.0774395
0.819776 1 0.0686961
0.89958 1 0.062089
0.949996 1 0.0575418
1 1 0.0574502
0 0 0.369665
0.0695811 0 0.346258
0.288151 0 0.320607
0.538872 0 0.246433
0.664408 0 0.193637
0.76643 0 0.19411
0.851286 0 0.217304
0.906538 0 0.250019
0.95404 0 0.286168
0 0.0854658 0.317311
0.0544137 0.0768444 0.297429
0.233249 0.0585794 0.267124
0.486061 0.0506294 0.213352
0.659556 0.0500038 0.200427
0.776059 0.0500649 0.217517
0.862364 0.0560159 0.249058
0.92903 0.0733959 0.280919
0.991165 0.0996872 0.311025
0 0.250507 0.205447
0.0499886 0.242496 0.194339
0.180499 0.216083 0.209583
0.427558 0.201572 0.202411
0.643748 0.202899 0.207553
0.795346 0.225437 0.233265
0.896345 0.260319 0.269795
0.949996 0.289616 0.298528
1 0.318151 0.325429
0 0.491676 0.148882
0.0499886 0.504265 0.158679
0.119783 0.463188 0.146395
0.420172 0.439765 0.174578
0.700023 0.425345 0.159869
0.848051 0.437736 0.1785
0.899992 0.449577 0.190051
0.949996 0.471229 0.203815
1 0.499779 0.221408
0.0125429 0.735912 0.150317
0.0686503 0.747921 0.170077
0.111086 0.700816 0.133547
0.363729 0.679911 0.149416
0.647517 0.65272 0.157824
0.822599 0.654154 0.14789
0.899992 0.662135 0.153307
0.949996 0.672938 0.158068
1 0.688594 0.169741
0.0604105 0.850004 0.189014
0.113237 0.850004 0.201358
0.155184 0.849653 0.171954
0.347036 0.843824 0.162249
0.639048 0.809583 0.163912
0.801938 0.797742 0.153796
0.899046 0.798932 0.143038
0.949996 0.803372 0.146242
1 0.809857 0.155673
0.0650339 0.899992 0.210178
0.115038 0.899992 0.210941
0.16643 0.899992 0.186191
0.344564 0.899992 0.176944
0.638331 0.899626 0.165805
0.802472 0.89398 0.166049
0.897154 0.8907 0.15259
0.949996 0.89099 0.147326
1 0.892439 0.151339
0.0656291 0.949996 0.255528
0.115648 0.949996 0.232654
0.183963 0.949996 0.210193
0.381964 0.949996 0.188098
0.656748 0.949996 0.174044
0.80737 0.949996 0.174441
0.897398 0.949996 0.162173
0.949996 0.949996 0.153643
1 0.949996 0.153811
0.0652018 1 0.30103
0.115679 1 0.263828
0.202487 1 0.231983
0.417182 1 0.196612
0.674754 1 0.183703
0.812375 1 0.181857
0.897704 1 0.1673
0.949996 1 0.157107
1 1 0.155306
0 0 0.641047
0.0563973 0 0.630518
0.272282 0 0.609018
0.567926 0 0.569696
0.731365 0 0.547387
0.79559 0 0.519509
0.845335 0 0.526741
0.895247 0 0.554208
0.945388 0 0.589532
0 0.0704356 0.614557
0.0500954 0.0623484 0.604105
0.216617 0.0512398 0.579812
0.546151 0.0499886 0.550851
0.729488 0.0499886 0.552834
0.796536 0.0499886 0.54168
0.849683 0.0499886 0.544808
0.908782 0.0510262 0.555352
0.97174 0.0610056 0.577783
0 0.227588 0.551431
0.0499886 0.221973 0.54905
0.171283 0.202472 0.532219
0.488029 0.172457 0.499382
0.696452 0.181186 0.467613
0.819272 0.214603 0.474037
0.899901 0.251102 0.503899
0.949996 0.27985 0.530373
1 0.307362 0.556451
0 0.505043 0.392416
0.0499886 0.517235 0.411444
0.107286 0.468391 0.396155
0.408255 0.437339 0.430762
0.658152 0.430289 0.424399
0.804013 0.449439 0.448737
0.897993 0.478035 0.480354
0.949996 0.504479 0.507485
1 0.526833 0.526879
0.0106661 0.730999 0.426993
0.0656443 0.742596 0.44828
0.109468 0.696132 0.384634
0.34284 0.680446 0.37406
0.644785 0.646494 0.385412
0.824048 0.645945 0.361486
0.899977 0.652354 0.364416
0.949996 0.66276 0.374395
1 0.676799 0.39498
0.0569924 0.849989 0.45687
0.109041 0.850004 0.471855
0.152758 0.848447 0.405783
0.325841 0.843473 0.36408
0.619532 0.806867 0.352926
0.795148 0.788663 0.358526
0.897856 0.789792 0.331212
0.949996 0.79379 0.331426
1 0.799023 0.349447
0.0612192 0.899992 0.479942
0.11133 0.899992 0.475593
0.164935 0.899992 0.41001
0.324422 0.899992 0.365057
0.607706 0.899458 0.331975
0.792111 0.884138 0.367773
0.891218 0.880461 0.343053
0.949996 0.880919 0.328191
1 0.881773 0.334112
0.0585031 0.949996 0.540795
0.110246 0.949996 0.505699
0.174914 0.949996 0.449744
0.352804 0.949996 0.392004
0.620279 0.949996 0.342443
0.794705 0.949813 0.372961
0.888548 0.948333 0.361501
0.949996 0.948104 0.339132
1 0.94789 0.336278
0.054612 1 0.594491
0.10869 1 0.548119
0.186328 1 0.490272
0.380041 1 0.418082
0.637369 1 0.365377
0.798306 1 0.388159
0.88777 0.999985 0.374166
0.949966 0.999985 0.351354
1 0.999969 0.343023
0 0 0.776211
0.0537728 0 0.776104
0.262333 0 0.759808
0.565393 0 0.727947
0.743664 0 0.740429
0.799176 0 0.732067
0.849424 0 0.735424
0.900145 0 0.746014
0.950622 0 0.752926
0 0.0639811 0.770047
0.0500649 0.0584268 0.766888
0.216281 0.0505684 0.753552
0.552605 0.0499886 0.724025
0.743191 0.0499886 0.741329
0.799893 0.0499886 0.74226
0.850034 0.0499886 0.739681
0.901045 0.0499886 0.737652
0.959442 0.0512093 0.747677
0 0.224491 0.746731
0.0499886 0.223224 0.746365
0.1664 0.199756 0.743847
0.485985 0.16965 0.726848
0.738323 0.163546 0.727306
0.849363 0.183612 0.729976
0.899992 0.209247 0.729839
0.949996 0.236545 0.745632
1 0.262959 0.764981
0 0.483894 0.702037
0.0499886 0.501778 0.705257
0.114534 0.452613 0.693523
0.404608 0.4309 0.699336
0.702007 0.409659 0.690745
0.832486 0.435431 0.681392
0.899702 0.468162 0.689052
0.949996 0.494148 0.702296
1 0.516289 0.714366
1.5259e-05 0.745907 0.639124
0.0502937 0.756619 0.655818
0.100526 0.711177 0.598474
0.293523 0.686381 0.631357
0.634073 0.640635 0.629953
0.793545 0.642115 0.631067
0.888212 0.654582 0.645914
0.949935 0.668193 0.659144
0.999786 0.680064 0.670268
0.0286564 0.850004 0.684367
0.0792554 0.850004 0.692271
0.129854 0.849058 0.647074
0.307973 0.839124 0.640925
0.593225 0.801068 0.594369
0.78584 0.777035 0.596429
0.893858 0.776226 0.577493
0.949996 0.779324 0.578241
1 0.784253 0.590082
0.0358892 0.899992 0.70164
0.0877852 0.899992 0.701869
0.151492 0.899992 0.668391
0.308385 0.899992 0.644236
0.576623 0.898451 0.58291
0.778225 0.872862 0.588998
0.879225 0.866789 0.578027
0.949798 0.866545 0.565423
1 0.86714 0.567163
0.0214237 0.949996 0.720027
0.081529 0.949996 0.709194
0.15436 0.949996 0.687343
0.330648 0.949996 0.661128
0.585321 0.949996 0.590417
0.777737 0.944427 0.584222
0.875578 0.934768 0.592538
0.947997 0.933883 0.571267
1 0.93341 0.565133
0.00564584 1 0.737667
0.0715801 1 0.718532
0.157824 1 0.704738
0.354513 1 0.677791
0.601938 1 0.604822
0.780453 0.998932 0.592004
0.87454 0.994217 0.600809
0.945159 0.993744 0.583917
1 0.993591 0.571679
0 0 0.826596
0.0514534 0 0.826734
0.256703 0 0.815351
0.562936 0 0.789349
0.743557 0 0.804471
0.800839 0 0.806012
0.850828 0 0.806012
0.900832 0 0.806012
0.950835 0 0.806012
0 0.0597391 0.827146
0.0502937 0.0579232 0.827024
0.220645 0.0507668 0.820569
0.558587 0.0499886 0.790616
0.745953 0.0499886 0.80499
0.800839 0.0499886 0.806012
0.850858 0.0499886 0.806027
0.900999 0.0499886 0.806165
0.957732 0.0508278 0.812787
0 0.223743 0.829801
0.0499886 0.225238 0.829755
0.167056 0.201801 0.844572
0.487449 0.17377 0.839567
0.744366 0.168292 0.845029
0.8495 0.175738 0.849561
0.899992 0.188739 0.849577
0.949996 0.214343 0.849821
1 0.242405 0.850004
0 0.486488 0.825162
0.0499886 0.502937 0.827619
0.117815 0.455985 0.829267
0.405631 0.43621 0.839902
0.708553 0.412406 0.83859
0.849836 0.420508 0.846708
0.899992 0.436042 0.843885
0.949996 0.461051 0.845106
1 0.484764 0.847868
0 0.741253 0.824811
0.0499886 0.752148 0.833921
0.102052 0.703731 0.805035
0.320455 0.676921 0.81828
0.634714 0.638773 0.799344
0.817395 0.631907 0.797726
0.895537 0.646632 0.793256
0.949981 0.661479 0.795636
0.999924 0.67335 0.800198
0.000137331 0.850004 0.812161
0.0499886 0.850004 0.819562
0.100496 0.849989 0.787411
0.24712 0.84622 0.790341
0.556573 0.804349 0.773861
0.778897 0.772061 0.760052
0.876905 0.772457 0.759411
0.945373 0.777539 0.765209
0.998703 0.782498 0.770367
3.0518e-05 0.899992 0.817792
0.0500038 0.899992 0.817899
0.106096 0.899992 0.789654
0.271351 0.899992 0.80264
0.559731 0.895994 0.775418
0.766308 0.867491 0.747189
0.872618 0.858488 0.744701
0.947738 0.857206 0.738766
1 0.857343 0.736645
0 0.949996 0.838041
0.0500038 0.949996 0.825513
0.105501 0.949996 0.799435
0.288258 0.949996 0.810162
0.567941 0.949996 0.776516
0.762737 0.93959 0.742489
0.868162 0.926726 0.749203
0.941238 0.924773 0.738247
1 0.923812 0.733593
0 1 0.846815
0.0499886 1 0.833005
0.108827 1 0.810315
0.305089 1 0.815946
0.58323 1 0.779797
0.763699 0.997711 0.742367
0.867063 0.988357 0.748974
0.937301 0.985977 0.74374
0.999725 0.985 0.735622
0 0 0.8766
0.0507362 0 0.876738
0.257389 0 0.865263
0.564569 0 0.839612
0.74406 0 0.854582
0.800839 0 0.856001
0.850828 0 0.856001
0.900832 0 0.856001
0.950835 0 0.856001
0 0.0602426 0.87718
0.0504158 0.058793 0.877089
0.225238 0.0509804 0.870176
0.563317 0.0499886 0.840589
0.747143 0.0499886 0.855238
0.800839 0.0499886 0.856001
0.850904 0.0499886 0.856077
0.901625 0.0499886 0.856794
0.959579 0.0516213 0.864607
0 0.226688 0.879683
0.0499886 0.228748 0.879637
0.16997 0.20528 0.89514
0.492149 0.177401 0.891157
0.747738 0.172885 0.89688
0.849943 0.179446 0.899962
0.899992 0.186877 0.899992
0.949996 0.21181 0.899992
1 0.242313 0.899992
0 0.492164 0.877317
0.0499886 0.506584 0.877775
0.119493 0.459937 0.887633
0.409689 0.440894 0.899992
0.711894 0.418097 0.899992
0.849943 0.424842 0.899992
0.899992 0.429236 0.899992
0.949996 0.451881 0.899992
1 0.478416 0.899992
0 0.741588 0.89749
0.0499886 0.752758 0.897704
0.104219 0.700816 0.893416
0.332311 0.679805 0.899962
0.637324 0.643305 0.896025
0.824979 0.63212 0.89575
0.899992 0.635325 0.895705
0.949996 0.647776 0.893416
1 0.661204 0.894575
0 0.850004 0.899458
0.0499886 0.850004 0.899672
0.100084 0.849989 0.897154
0.246723 0.84387 0.898131
0.558968 0.803204 0.881621
0.780392 0.771038 0.861173
0.881483 0.770321 0.855726
0.9449 0.776913 0.855497
0.999207 0.781994 0.857588
0 0.899992 0.89865
0.0499886 0.899992 0.898589
0.0999924 0.899992 0.891417
0.232517 0.899992 0.889525
0.502693 0.89958 0.869062
0.75877 0.867002 0.846143
0.869932 0.856214 0.841611
0.941421 0.855528 0.841169
0.999313 0.856336 0.842634
0 0.949996 0.898665
0.0499886 0.949996 0.89865
0.0999924 0.949996 0.895338
0.243915 0.949996 0.892042
0.530312 0.949996 0.869413
0.757382 0.936996 0.844266
0.86537 0.924269 0.839994
0.939116 0.921386 0.834821
1 0.920043 0.831983
0 1 0.898665
0.0499886 1 0.898665
0.101045 1 0.897429
0.257115 1 0.895293
0.547127 1 0.868788
0.757321 0.996506 0.841978
0.863096 0.98645 0.836484
0.934722 0.982849 0.836515
0.998871 0.98146 0.831403
0 0 0.926604
0.0506447 0 0.926757
0.263752 0 0.914458
0.571023 0 0.889738
0.745724 0 0.904921
0.800839 0 0.906004
0.850828 0 0.906004
0.900832 0 0.906004
0.950835 0 0.906004
0 0.062562 0.927352
0.0505074 0.060502 0.92726
0.229297 0.0514839 0.92015
0.567788 0.0499886 0.89102
0.747662 0.0499886 0.905333
0.800839 0.0499886 0.906004
0.850828 0.0499886 0.906004
0.903258 0.0499886 0.908385
0.964034 0.054139 0.91899
0 0.234546 0.929351
0.0499886 0.234958 0.929427
0.177432 0.213352 0.946441
0.503853 0.186007 0.94313
0.75523 0.18262 0.948867
0.850004 0.188052 0.949996
0.899992 0.195438 0.949996
0.949996 0.220874 0.949996
1 0.251499 0.949996
0 0.502525 0.927413
0.0499886 0.51458 0.9281
0.12575 0.469169 0.939376
0.418997 0.448936 0.949996
0.716243 0.427054 0.949996
0.849882 0.432456 0.949996
0.899992 0.436591 0.949996
0.949996 0.459327 0.949996
1 0.484977 0.949996
0 0.748623 0.947982
0.0499886 0.757076 0.948074
0.105272 0.706676 0.944656
0.340764 0.68481 0.949996
0.642649 0.648249 0.949996
0.826627 0.636973 0.949996
0.899992 0.637644 0.949996
0.949996 0.649287 0.949996
1 0.663325 0.948241
0 0.850004 0.949508
0.0499886 0.850004 0.949538
0.100206 0.850004 0.949996
0.259617 0.843336 0.949996
0.577646 0.800748 0.949187
0.782269 0.772808 0.934951
0.890806 0.768338 0.931395
0.94934 0.773617 0.926131
1 0.779156 0.924376
0 0.899992 0.948669
0.0499886 0.899992 0.948669
0.0999924 0.899992 0.948714
0.228428 0.899992 0.949996
0.482368 0.899657 0.943313
0.748699 0.870115 0.917144
0.868711 0.856352 0.912245
0.935683 0.85684 0.911238
0.996216 0.858183 0.912261
0 0.949996 0.948669
0.0499886 0.949996 0.948669
0.0999924 0.949996 0.948074
0.238834 0.949996 0.949996
0.491936 0.949996 0.93521
0.748486 0.93901 0.912337
0.864347 0.923842 0.907652
0.938125 0.920562 0.904799
0.999634 0.919493 0.903593
0 1 0.948669
0.0499886 1 0.948669
0.100862 1 0.94789
0.251606 1 0.949996
0.510475 1 0.93283
0.752895 0.996231 0.911986
0.860868 0.98613 0.903365
0.934157 0.981933 0.904234
0.998764 0.98027 0.900404
0 0 0.976593
0.0511482 0 0.976776
0.272541 0 0.963333
0.580011 0 0.939895
0.747555 0 0.955322
0.800839 0 0.956008
0.850828 0 0.956008
0.900832 0 0.956008
0.950835 0 0.956008
0 0.0661784 0.9776
0.0505684 0.0628672 0.977508
0.234668 0.0521706 0.970199
0.573312 0.0499886 0.941527
0.748165 0.0499886 0.955444
0.800839 0.0499886 0.956008
0.850828 0.0499886 0.956008
0.905577 0.0501106 0.960678
0.96936 0.0582589 0.974227
0 0.244724 0.978897
0.0499886 0.242374 0.979202
0.186542 0.223224 0.997711
0.517189 0.196017 0.995041
0.763378 0.194049 0.99968
0.850004 0.198077 1
0.899992 0.205966 1
0.949996 0.231083 1
1 0.26186 1
0 0.514931 0.977646
0.0499886 0.522789 0.978592
0.132784 0.48014 0.991363
0.43003 0.458381 1
0.722271 0.437797 1
0.849867 0.442634 1
0.899992 0.446754 1
0.949996 0.468376 1
1 0.493339 1
0 0.756893 0.998413
0.0499886 0.763287 0.998611
0.107301 0.71458 0.996765
0.351095 0.691142 1
0.649332 0.654002 1
0.828183 0.643061 1
0.899992 0.643076 1
0.949996 0.654444 0.999863
1 0.667414 0.997345
0 0.850004 0.999527
0.0499886 0.850004 0.999313
0.10016 0.850004 0.999985
0.263508 0.844709 1
0.584283 0.802426 0.999832
0.784665 0.775143 0.9888
0.892485 0.770031 0.986114
0.949981 0.774777 0.978454
1 0.780148 0.975402
0 0.899992 0.998657
0.0499886 0.899992 0.998657
0.0999924 0.899992 0.998688
0.232547 0.899992 1
0.487907 0.899779 0.994263
0.75285 0.86952 0.977798
0.87155 0.855833 0.975036
0.939406 0.856031 0.971252
0.997589 0.857893 0.970382
0 0.949996 0.998657
0.0499886 0.949996 0.998657
0.0999924 0.949996 0.998032
0.240986 0.949996 1
0.494041 0.949996 0.985412
0.739651 0.941314 0.967407
0.863478 0.923919 0.969146
0.934554 0.921157 0.968414
0.995697 0.920851 0.968444
0 1 0.998657
0.0499886 1 0.998657
0.101167 1 0.997909
0.251667 1 1
0.509285 1 0.983352
0.747707 0.997162 0.968292
0.860014 0.98587 0.966094
0.934127 0.981537 0.965667
0.99855 0.979721 0.96347
