LUTs/79.cube
TITLE "Generate by Resolve"
LUT_3D_SIZE 9
0.0182956 0.0436255 0.0702525
0.0716869 0.0367742 0.0624552
0.158114 0.0247807 0.0436866
0.342992 0 0.00576791
0.876738 0 0
1 0 0
1 0 0
1 0 0
1 0 0
0.00077821 0.0789044 0.052079
0.0465858 0.0742809 0.0455024
0.13959 0.0580453 0.035111
0.342458 0.0137026 0.00640879
0.881361 0 0
1 0 0
1 0 0
1 0 0
1 0 0
0 0.127581 0.0306859
0.0113069 0.130663 0.0245365
0.0939803 0.12604 0.0175784
0.346181 0.0791485 0.00756847
0.8486 0.00178531 0
1 0 0
1 0 0
1 0 0
1 0 0
0 0.247013 0
0 0.267918 0
0.0131991 0.29984 0
0.265644 0.303838 0.00294499
0.756176 0.259556 0
1 0.220981 0
1 0.198779 0
1 0.209369 0
1 0.258579 0
0 0.569055 0
0 0.628977 0
0 0.672129 0
0.170718 0.683909 0.00924697
0.636912 0.657298 0
1 0.646326 0
1 0.638529 0
1 0.653376 0
1 0.699458 0
0 0.996796 0
0 1 0
0 1 0
0.0179446 1 0
0.475471 0.995285 0
0.939681 0.947051 0
1 0.936309 0
1 0.938628 0
1 0.949737 0
0 1 0
0 1 0
0 1 0
0.0148318 1 0
0.349859 1 0
0.881987 1 0
1 1 0
1 1 0
1 1 0
0 1 0
0 1 0
0 1 0
0.0220951 1 0
0.341131 1 0
0.865141 1 0
1 1 0
1 1 0
1 1 0
0 1 0
0 1 0
0 1 0
0.0385748 1 0
0.367636 1 0
0.863035 1 0
1 1 0
1 1 0
1 1 0
0.0179294 0.039353 0.130922
0.0667582 0.0337987 0.126528
0.156268 0.0221408 0.0937667
0.343954 0 0.0228275
0.875593 0 0
1 0 0
1 0 0
1 0 0
1 0 0
0.00015259 0.0802319 0.0835737
0.0449531 0.0710002 0.102739
0.140932 0.0551003 0.0818647
0.346761 0.0123903 0.0226596
0.883635 0 0
1 0 0
1 0 0
1 0 0
1 0 0
0 0.126802 0.0629129
0.0110018 0.130922 0.0603799
0.0948653 0.127855 0.0517281
0.361791 0.0801709 0.0243381
0.85214 0.00173953 0
1 0 0
1 0 0
1 0 0
1 0 0
0 0.253407 0
0 0.277668 0.00105287
0.0159609 0.314168 0.00265507
0.280842 0.318975 0.0103914
0.775082 0.275624 0
1 0.236469 0
1 0.213184 0
1 0.226581 0
1 0.276997 0
0 0.588891 0
0 0.650111 0
0 0.692912 0
0.183108 0.701854 0.00947585
0.655177 0.674632 0
1 0.665278 0
1 0.6551 0
1 0.669734 0
1 0.716442 0
0 1 0
0 1 0
0 1 0
0.0257572 1 0
0.488548 0.998444 0
0.947326 0.954269 0
1 0.942916 0
1 0.94374 0
1 0.954849 0
0 1 0
0 1 0
0 1 0
0.0191348 1 0
0.363058 1 0
0.887724 1 0
1 1 0
1 1 0
1 1 0
0 1 0
0 1 0
0 1 0
0.0246738 1 0
0.347967 1 0
0.867567 1 0
1 1 0
1 1 0
1 1 0
0 1 0
0 1 0
0 1 0
0.0384985 1 0
0.368612 1 0
0.864027 1 0
1 1 0
1 1 0
1 1 0
0.0178225 0.0332036 0.22002
0.0561685 0.0290379 0.229816
0.135714 0.0197757 0.204746
0.343343 0 0.0901503
0.82031 0 0
1 0 0
1 0 0
1 0 0
1 0 0
0.00791943 0.0652628 0.205402
0.0426642 0.0617227 0.219364
0.127825 0.0489357 0.205722
0.35227 0.00738537 0.0909743
0.8336 0 6.10361e-05
1 0 0
1 0 0
1 0 0
1 0 0
0 0.12668 0.117784
0.00820935 0.129503 0.135958
0.0922408 0.123705 0.166995
0.393545 0.0737163 0.0950179
0.797635 0.0130922 0.016434
1 0 0
1 0 0
1 0 0
1 0 0
0 0.260914 0.0469825
0 0.288716 0.057084
0.0124666 0.331899 0.0645609
0.296742 0.337789 0.0577707
0.758862 0.300603 0.0628519
1 0.248722 0.012192
1 0.224781 0.00117494
1 0.241108 0.00810254
1 0.29337 0.0257572
0 0.602136 0
0 0.660792 0.00122072
0 0.700877 0.00492866
0.204211 0.713558 0.0491188
0.667018 0.687251 0.0101778
1 0.678111 0
1 0.667765 0
1 0.682673 0
1 0.726284 0
0 1 0
0 1 0
0 1 0
0.0305943 1 0
0.493553 1 0
0.950927 0.959274 0
1 0.946883 0
1 0.946899 0
1 0.957244 0
0 1 0
0 1 0
0 1 0
0.019501 1 0
0.366217 1 0
0.88809 1 0
1 1 0
1 1 0
1 1 0
0 1 0
0 1 0
0 1 0
0.0239872 1 0
0.344259 1 0
0.864591 1 0
1 1 0
1 1 0
1 1 0
0 1 0
0 1 0
0 1 0
0.0352483 1 0
0.359548 1 0
0.858701 1 0
1 1 0
1 1 0
1 1 0
0.00657664 0.014725 0.487785
0.0359655 0.0145571 0.474586
0.0944076 0.0115358 0.452384
0.300755 0 0.353414
0.730037 0 0.230091
1 0 0.165621
1 0 0.0832837
1 0 0.0551003
1 0 0.0418708
0.0053254 0.0412604 0.466041
0.0317082 0.0407874 0.463172
0.0920424 0.0351873 0.454887
0.30695 0.00117494 0.360739
0.755428 0 0.249577
1 0 0.204242
1 0 0.140459
1 0 0.13576
1 0 0.169482
0.00373846 0.0931716 0.426169
0.0203403 0.0976272 0.43949
0.0856184 0.100328 0.46833
0.355978 0.0604105 0.418112
0.742031 0.015198 0.286595
1 0 0.281407
1 0 0.244053
1 0 0.263203
1 0 0.335821
0 0.261952 0.208667
0 0.293416 0.231434
0.00698863 0.334417 0.274037
0.289555 0.330266 0.399069
0.777737 0.294835 0.3243
1 0.270756 0.29012
1 0.244205 0.263981
1 0.264103 0.287587
1 0.323323 0.348577
0 0.598032 0.198291
0 0.651759 0.240085
0 0.689158 0.274067
0.199939 0.718822 0.290166
0.676173 0.689281 0.230884
0.989532 0.691936 0.198962
1 0.681956 0.144366
1 0.695476 0.155978
1 0.735363 0.202823
0 0.996796 0.0514382
0 1 0.0824445
0 1 0.105989
0.090837 1 0.165072
0.623667 0.973465 0.209476
0.940185 0.946456 0.0360113
1 0.940154 0
1 0.939467 0
1 0.947784 0
0 1 0.0695659
0 1 0.0889296
0 1 0.102129
0.0170138 1 0.0896925
0.386404 1 0.0420844
0.877577 1 0
1 1 0
1 1 0
1 1 0
0 1 0.0863508
0 1 0.104845
0 1 0.111894
0.0178073 1 0.0871443
0.335073 1 0.0252384
0.848951 1 0
1 1 0
1 1 0
1 1 0
0 1 0.121492
0 1 0.130785
0 1 0.128618
0.0248569 1 0.0956588
0.346517 1 0.0259861
0.837125 1 0
0.998001 1 0
1 1 0
1 1 0
0 0 1
0.00508125 0 1
0.080827 0 1
0.339879 0 0.881224
0.780972 0 0.777661
1 0 0.767758
1 0 0.705898
1 0 0.676249
1 0 0.662654
0 0.00215152 1
0.00131228 0.00164797 1
0.0688182 0.000350958 0.998062
0.340368 0 0.876646
0.81088 0 0.803922
1 0 0.799298
1 0 0.764263
1 0 0.764248
1 0 0.790356
0 0.0542306 1
0 0.0587015 0.998215
0.0568246 0.0643168 0.948302
0.308904 0.0424964 0.811948
0.782345 1.5259e-05 0.776303
1 0 0.865034
1 0 0.844282
1 0 0.856153
1 0 0.899596
0 0.223102 0.773175
0 0.259266 0.817212
0.0191806 0.295964 0.814328
0.294347 0.311574 0.805829
0.766537 0.27689 0.772503
1 0.268528 0.809583
1 0.241718 0.805798
1 0.26244 0.819272
1 0.321355 0.845808
0 0.609384 0.506508
0 0.667384 0.561532
0 0.707225 0.601877
0.174929 0.71487 0.663981
0.665156 0.668452 0.708751
0.977707 0.671504 0.688731
1 0.672068 0.688365
1 0.682582 0.700008
1 0.715099 0.730983
0 0.979385 0.566827
0 1 0.628199
0 1 0.679698
0.131975 0.999847 0.728588
0.609079 0.945205 0.662882
0.91014 0.906874 0.589364
0.988922 0.902617 0.594507
0.989044 0.90161 0.59202
0.988998 0.906676 0.60589
0 1 0.504417
0 1 0.563607
0 1 0.60473
0.01561 1 0.572549
0.594751 1 0.65597
0.893614 0.999207 0.58677
0.996979 0.997848 0.493645
1 0.995422 0.461067
1 0.994049 0.452827
0 1 0.551263
0 1 0.604913
0 1 0.624323
0.0126802 1 0.551873
0.555642 1 0.617792
0.878645 1 0.540566
0.992676 1 0.365652
1 1 0.276677
1 1 0.243275
0 1 0.646555
0 1 0.673014
0 1 0.666743
0.0191958 1 0.578256
0.555138 1 0.616876
0.868559 1 0.510399
0.98616 1 0.294835
1 1 0.169986
1 1 0.134264
0 0 1
0 0 1
0.0590677 0 1
0.384558 0 1
0.830213 0 1
1 0 1
1 0 0.990753
1 0 0.985016
1 0 0.982574
0 0 1
0 0 1
0.0522011 0 1
0.398199 0 1
0.847135 0 1
1 0 1
1 0 1
1 0 1
1 0 1
0 0.0351415 1
0 0.0406348 1
0.0339055 0.0407111 1
0.383429 0.000534066 1
0.893584 0 1
1 0 1
1 0 1
1 0 1
1 0 1
0 0.216632 1
0 0.257389 1
0 0.292576 1
0.281865 0.300313 1
0.791821 0.26334 0.99939
1 0.226825 1
1 0.202411 1
1 0.221271 1
1 0.281331 1
0 0.627558 0.988846
0 0.686717 0.991562
0 0.726207 0.996933
0.135088 0.714412 0.998505
0.670161 0.665324 0.963561
0.981399 0.662318 0.968856
1 0.664576 0.970703
1 0.67364 0.974182
1 0.706004 0.98204
0 0.992126 0.929183
0 1 0.968734
0 1 0.995331
0.0123751 1 0.991012
0.576654 0.940032 0.918837
0.901488 0.886732 0.896391
1 0.878187 0.883955
1 0.876432 0.88307
1 0.880827 0.887495
0 1 0.999893
0 1 1
0 1 1
0 1 1
0.591134 1 0.94345
0.858885 0.993454 0.862562
0.987076 0.979171 0.839841
0.996078 0.972656 0.835355
0.995926 0.969802 0.832044
0 1 1
0 1 1
0 1 1
0 1 1
0.553368 1 0.93576
0.846983 1 0.851469
0.972335 1 0.826993
0.994873 1 0.824109
0.994751 1 0.81854
0 1 1
0 1 1
0 1 1
0 1 1
0.543465 1 0.933623
0.835935 1 0.84123
0.958297 1 0.809003
0.994461 1 0.805081
0.994537 1 0.797604
0 0 1
0 0 1
0.0445563 0 1
0.347982 0 1
0.810132 0 1
1 0 1
1 0 1
1 0 1
1 0 1
0 0 1
0 0 1
0.0410468 0 1
0.368994 0 1
0.832746 0 1
1 0 1
1 0 1
1 0 1
1 0 1
0 0.0260166 1
0 0.0324865 1
0.0247501 0.0333867 1
0.365866 0 1
0.884382 0 1
1 0 1
1 0 1
1 0 1
1 0 1
0 0.208087 1
0 0.249348 1
0 0.283879 1
0.269368 0.293156 1
0.78587 0.255497 1
1 0.218128 1
1 0.194949 1
1 0.216663 1
1 0.277363 1
0 0.619577 1
0 0.676478 1
0 0.71841 1
0.101915 0.718807 1
0.668589 0.666239 0.990738
0.979278 0.664073 1
1 0.665614 1
1 0.673548 1
1 0.703593 1
0 0.999939 0.994507
0 1 0.997681
0 1 1
0 1 1
0.570321 0.940368 0.998566
0.897932 0.882994 1
1 0.873365 0.999985
1 0.871092 0.998947
1 0.874495 1
0 1 1
0 1 1
0 1 1
0 1 1
0.508278 1 1
0.846006 0.991592 0.977356
0.988861 0.969924 0.974166
1 0.961593 0.966079
1 0.957748 0.962707
0 1 1
0 1 1
0 1 1
0 1 1
0.449424 1 1
0.837278 1 0.977035
0.959319 1 0.944457
0.999191 1 0.932418
0.9991 0.999527 0.926207
0 1 1
0 1 1
0 1 1
0 1 1
0.427008 1 1
0.823148 1 0.967758
0.939696 1 0.926345
0.997803 1 0.912917
0.998352 1 0.906554
0 0 1
0 0 1
0.0370947 0 1
0.328038 0 1
0.799268 0 1
1 0 1
1 0 1
1 0 1
1 0 1
0 0 1
0 0 1
0.0354772 0 1
0.355215 0 1
0.827268 0 1
1 0 1
1 0 1
1 0 1
1 0 1
0 0.0224613 1
0 0.0296483 1
0.0224155 0.0321965 1
0.364599 0.000823987 1
0.885512 0 1
1 0 1
1 0 1
1 0 1
1 0 1
0 0.209705 1
0 0.25275 1
0 0.288258 1
0.271748 0.298558 1
0.786191 0.260838 1
1 0.223438 1
1 0.202792 1
1 0.22829 1
1 0.291478 1
0 0.626368 1
0 0.682811 1
0 0.725414 1
0.103807 0.725521 1
0.671916 0.671931 0.990524
0.980529 0.669062 1
1 0.669917 1
1 0.678492 1
1 0.707118 1
0 0.998962 0.994751
0 1 0.998627
0 1 1
0 1 1
0.569467 0.942016 0.997879
0.897063 0.883589 1
1 0.87332 0.999985
1 0.870405 1
1 0.873396 1
0 1 1
0 1 1
0 1 1
0 1 1
0.491981 1 1
0.839002 0.992584 0.978149
0.986542 0.96701 1
1 0.957992 1
1 0.953567 1
0 1 1
0 1 1
0 1 1
0 1 1
0.405341 1 1
0.831113 1 0.98822
0.952819 1 0.99826
0.999985 0.999542 0.998993
1 0.998169 0.997513
0 1 1
0 1 1
0 1 1
0 1 1
0.366567 1 1
0.816602 1 0.987839
0.932906 1 0.996475
0.998627 1 0.992615
1 1 0.988907
0 0 1
0 0 1
0.0349737 0 1
0.31841 0 1
0.791699 0 1
1 0 1
1 0 1
1 0 1
1 0 1
0 0 1
0 0 1
0.0352331 0 1
0.355077 0 1
0.827329 0 1
1 0 1
1 0 1
1 0 1
1 0 1
0 0.0235142 1
0 0.0322271 1
0.0271153 0.0371862 1
0.378119 0.00437934 1
0.896147 0 1
1 0 1
1 0 1
1 0 1
1 0 1
0 0.218769 1
0 0.266514 1
0 0.306096 1
0.288594 0.314656 1
0.796017 0.276997 1
1 0.241001 1
1 0.219806 1
1 0.249546 1
1 0.312474 1
0 0.638148 1
0 0.698161 1
0 0.742626 1
0.119387 0.740795 1
0.68571 0.685145 0.990066
0.984588 0.681956 1
1 0.679438 1
1 0.688685 1
1 0.714626 1
0 1 0.995178
0 1 1
0 1 0.999985
0 1 1
0.576074 0.945922 0.995453
0.899413 0.886366 1
1 0.874968 0.999985
1 0.871656 1
1 0.874311 1
0 1 1
0 1 1
0 1 1
0 1 1
0.494514 1 1
0.838315 0.992386 0.978439
0.985412 0.966278 1
1 0.957 1
1 0.952209 1
0 1 1
0 1 1
0 1 1
0 1 1
0.40061 1 1
0.829206 1 0.988159
0.949599 1 0.997955
0.999908 0.999207 1
1 0.997635 1
0 1 1
0 1 1
0 1 1
0 1 1
0.357717 1 1
0.813565 1 0.987808
0.92845 1 0.996399
0.99794 1 1
1 1 1
