LUTs/79.cube
TITLE "Generate by Resolve"
LUT_3D_SIZE 5
0.0182956 0.0436255 0.0702525
0.158114 0.0247807 0.0436866
0.876738 0 0
1 0 0
1 0 0
0 0.127581 0.0306859
0.0939803 0.12604 0.0175784
0.8486 0.00178531 0
1 0 0
1 0 0
0 0.569055 0
0 0.672129 0
0.636912 0.657298 0
1 0.638529 0
1 0.699458 0
0 1 0
0 1 0
0.349859 1 0
1 1 0
1 1 0
0 1 0
0 1 0
0.367636 1 0
1 1 0
1 1 0
0.0178225 0.0332036 0.22002
0.135714 0.0197757 0.204746
0.82031 0 0
1 0 0
1 0 0
0 0.12668 0.117784
0.0922408 0.123705 0.166995
0.797635 0.0130922 0.016434
1 0 0
1 0 0
0 0.602136 0
0 0.700877 0.00492866
0.667018 0.687251 0.0101778
1 0.667765 0
1 0.726284 0
0 1 0
0 1 0
0.366217 1 0
1 1 0
1 1 0
0 1 0
0 1 0
0.359548 1 0
1 1 0
1 1 0
0 0 1
0.080827 0 1
0.780972 0 0.777661
1 0 0.705898
1 0 0.662654
0 0.0542306 1
0.0568246 0.0643168 0.948302
0.782345 1.5259e-05 0.776303
1 0 0.844282
1 0 0.899596
0 0.609384 0.506508
0 0.707225 0.601877
0.665156 0.668452 0.708751
1 0.672068 0.688365
1 0.715099 0.730983
0 1 0.504417
0 1 0.60473
0.594751 1 0.65597
0.996979 0.997848 0.493645
1 0.994049 0.452827
0 1 0.646555
0 1 0.666743
0.555138 1 0.616876
0.98616 1 0.294835
1 1 0.134264
0 0 1
0.0445563 0 1
0.810132 0 1
1 0 1
1 0 1
0 0.0260166 1
0.0247501 0.0333867 1
0.884382 0 1
1 0 1
1 0 1
0 0.619577 1
0 0.71841 1
0.668589 0.666239 0.990738
1 0.665614 1
1 0.703593 1
0 1 1
0 1 1
0.508278 1 1
0.988861 0.969924 0.974166
1 0.957748 0.962707
0 1 1
0 1 1
0.427008 1 1
0.939696 1 0.926345
0.998352 1 0.906554
0 0 1
0.0349737 0 1
0.791699 0 1
1 0 1
1 0 1
0 0.0235142 1
0.0271153 0.0371862 1
0.896147 0 1
1 0 1
1 0 1
0 0.638148 1
0 0.742626 1
0.68571 0.685145 0.990066
1 0.679438 1
1 0.714626 1
0 1 1
0 1 1
0.494514 1 1
0.985412 0.966278 1
1 0.952209 1
0 1 1
0 1 1
0.357717 1 1
0.92845 1 0.996399
1 1 1
