LUTs/79.cube
TITLE "Generate by Resolve"
LUT_3D_SIZE 33
0.0182956 0.0436255 0.0702525
0.0305028 0.0420386 0.0688945
0.043061 0.0404212 0.0674144
0.0570687 0.0386511 0.0650645
0.0716869 0.0367742 0.0624552
0.0883497 0.0345769 0.0589609
0.107378 0.0319982 0.0548867
0.130251 0.0287938 0.0499123
0.158114 0.0247807 0.0436866
0.191333 0.0200351 0.0364385
0.230411 0.0147402 0.0282139
0.279835 0.00749218 0.0182956
0.342992 0 0.00576791
0.422461 0 0
0.529992 0 0
0.709453 0 0
0.876738 0 0
0.975052 0 0
1 0 0
1 0 0
1 0 0
1 0 0
1 0 0
1 0 0
1 0 0
1 0 0
1 0 0
1 0 0
1 0 0
1 0 0
1 0 0
1 0 0
1 0 0
0.013138 0.0525673 0.0635691
0.0247349 0.0510109 0.0629587
0.0372473 0.0492714 0.0622873
0.0513466 0.0473487 0.0606241
0.0661631 0.0451057 0.0588083
0.0829328 0.0425879 0.0558633
0.10248 0.0392157 0.052491
0.126055 0.0347295 0.0483864
0.155276 0.0287938 0.0429389
0.189502 0.0215152 0.0364843
0.228702 0.0149691 0.0285496
0.277882 0.00779736 0.0186923
0.340505 6.10361e-05 0.00610361
0.420066 0 0
0.525734 0 0
0.704341 0 0
0.874434 0 0
0.973693 0 0
1 0 0
1 0 0
1 0 0
1 0 0
1 0 0
1 0 0
1 0 0
1 0 0
1 0 0
1 0 0
1 0 0
1 0 0
1 0 0
1 0 0
1 0 0
0.00788891 0.0617227 0.0568399
0.0187839 0.0601358 0.0568704
0.0312352 0.0585489 0.0567941
0.0452583 0.0564736 0.0558785
0.0601816 0.0542916 0.0547189
0.0770428 0.0516365 0.0522316
0.0967117 0.0483406 0.0492866
0.120699 0.0437934 0.0457008
0.150958 0.0376745 0.0406958
0.186801 0.0300603 0.034699
0.228305 0.0211032 0.0276036
0.277134 0.010071 0.0187228
0.339635 0.00015259 0.00627146
0.418769 0 0
0.524468 0 0
0.703319 0 0
0.874434 0 0
0.97409 0 0
1 0 0
1 0 0
1 0 0
1 0 0
1 0 0
1 0 0
1 0 0
1 0 0
1 0 0
1 0 0
1 0 0
1 0 0
1 0 0
1 0 0
1 0 0
0.00434882 0.0702373 0.05449
0.0138247 0.0691539 0.0538033
0.025742 0.0677501 0.0530098
0.0392767 0.0660868 0.051606
0.0534676 0.0641184 0.0502174
0.0705119 0.0615549 0.0479591
0.0902113 0.0581979 0.0454871
0.114733 0.0536965 0.0423743
0.145892 0.0472725 0.0381323
0.184497 0.0389868 0.0325933
0.228519 0.0293278 0.0261387
0.278508 0.0183413 0.0180056
0.340383 0.00584421 0.00640879
0.418799 0.000396735 0
0.525734 0 0
0.705882 0 0
0.877317 0 0
0.976226 0 0
1 0 0
1 0 0
1 0 0
1 0 0
1 0 0
1 0 0
1 0 0
1 0 0
1 0 0
1 0 0
1 0 0
1 0 0
1 0 0
1 0 0
1 0 0
0.00077821 0.0789044 0.052079
0.00854505 0.0781415 0.0509804
0.0198978 0.0771344 0.0493629
0.0328069 0.0758221 0.0474708
0.0465858 0.0742809 0.0455024
0.063447 0.0719463 0.043473
0.0829175 0.0687877 0.0413214
0.107759 0.0643626 0.0386816
0.13959 0.0580453 0.035111
0.179843 0.0496986 0.0302129
0.227237 0.0393225 0.0243992
0.28011 0.0277409 0.0170748
0.342458 0.0137026 0.00640879
0.420203 0.00196841 0
0.523964 0 0
0.705425 0 0
0.881361 0 0
0.980117 0 0
1 0 0
1 0 0
1 0 0
1 0 0
1 0 0
1 0 0
1 0 0
1 0 0
1 0 0
1 0 0
1 0 0
1 0 0
1 0 0
1 0 0
1 0 0
0.000366217 0.0890516 0.0471962
0.0052491 0.0884413 0.0463722
0.014374 0.0878462 0.0445563
0.0259251 0.0868086 0.0427253
0.0394751 0.0856489 0.0406958
0.0556344 0.0836805 0.0387884
0.0748302 0.0809033 0.0368048
0.0996872 0.0767834 0.0345006
0.132113 0.0705119 0.0316472
0.174182 0.061799 0.0275731
0.225513 0.0504921 0.022446
0.28098 0.0386053 0.0160678
0.344808 0.0249332 0.00640879
0.422583 0.00889601 0
0.522271 0.000686656 0
0.695476 0 0
0.873808 0 0
0.98323 0 0
1 0 0
1 0 0
1 0 0
1 0 0
1 0 0
1 0 0
1 0 0
1 0 0
1 0 0
1 0 0
1 0 0
1 0 0
1 0 0
1 0 0
1 0 0
0 0.0998245 0.0420996
0.00210575 0.0996414 0.0415351
0.0087129 0.099382 0.0395819
0.0180362 0.0988327 0.037705
0.0311894 0.0981918 0.0356298
0.0466926 0.0968185 0.0337072
0.0652171 0.0946365 0.0317998
0.0901045 0.0908827 0.0298772
0.122515 0.0850843 0.0276799
0.165591 0.0765393 0.0246128
0.220569 0.0651713 0.0202792
0.280507 0.0524758 0.0149233
0.346899 0.0385595 0.00654612
0.425361 0.0217288 1.5259e-05
0.523049 0.00442512 0
0.685008 0 0
0.865354 0 0
0.983459 0 0
1 0 0
1 0 0
1 0 0
1 0 0
1 0 0
1 0 0
1 0 0
1 0 0
1 0 0
1 0 0
1 0 0
1 0 0
1 0 0
1 0 0
1 0 0
0 0.112535 0.0366827
3.0518e-05 0.112703 0.0366064
0.00364691 0.112947 0.0344854
0.00875868 0.11313 0.0323949
0.0215457 0.1131 0.0302434
0.0360876 0.11249 0.0282597
0.0537728 0.111147 0.0263371
0.0779431 0.108324 0.0246891
0.109834 0.103502 0.0230411
0.153628 0.0954604 0.0209964
0.211536 0.083711 0.0179599
0.277378 0.0701915 0.0137942
0.347936 0.0559396 0.00689708
0.427726 0.0399481 9.15541e-05
0.523705 0.0211337 0
0.674357 0.00140383 0
0.85655 0 0
0.978576 0 0
1 0 0
1 0 0
1 0 0
1 0 0
1 0 0
1 0 0
1 0 0
1 0 0
1 0 0
1 0 0
1 0 0
1 0 0
1 0 0
1 0 0
1 0 0
0 0.127581 0.0306859
0 0.127932 0.0305486
0.000747692 0.128771 0.0291295
0.00195315 0.129809 0.0268254
0.0113069 0.130663 0.0245365
0.0237583 0.131456 0.0221714
0.0407416 0.131182 0.0201877
0.063386 0.129625 0.0186618
0.0939803 0.12604 0.0175784
0.137224 0.119219 0.0166934
0.197696 0.108064 0.0152438
0.270115 0.0939651 0.0126345
0.346181 0.0791485 0.00756847
0.428992 0.0641947 0.000732433
0.524804 0.0467994 0
0.665049 0.019028 0
0.8486 0.00178531 0
0.974456 0 0
1 0 0
1 0 0
1 0 0
1 0 0
1 0 0
1 0 0
1 0 0
1 0 0
1 0 0
1 0 0
1 0 0
1 0 0
1 0 0
1 0 0
1 0 0
0 0.146136 0.0238956
0 0.147021 0.0236057
0 0.148013 0.02327
0 0.150072 0.0209201
0.00267033 0.152255 0.0184787
0.0108644 0.154223 0.0159915
0.0255283 0.155642 0.0137789
0.0461891 0.156161 0.0120089
0.0744945 0.154788 0.0111696
0.115862 0.150134 0.0112917
0.176654 0.140642 0.01178
0.254505 0.126909 0.0112001
0.339406 0.112078 0.00810254
0.427482 0.0974746 0.00157168
0.52517 0.0823529 0
0.656046 0.0596323 0
0.838636 0.0266423 0
0.973114 0.0112917 0
1 0.00747692 0
1 0.00662242 0
1 0.00318914 0
1 0.000259403 0
1 0 0
1 0 0
1 0 0
1 0 0
1 0 0
1 0 0
1 0 0
1 0 0
1 0 0
1 0 0
1 0.00704967 0
0 0.17055 0.0160983
0 0.172168 0.0156405
0 0.174228 0.0150607
0 0.176654 0.0140383
0 0.179675 0.0120394
0.00199893 0.183139 0.00975052
0.00843824 0.186725 0.00737011
0.0263828 0.190127 0.00520333
0.0518044 0.19205 0.00416571
0.0897993 0.190967 0.00477607
0.148165 0.184802 0.00688182
0.22829 0.17351 0.00862135
0.322377 0.159518 0.00759899
0.419318 0.146319 0.00325017
0.52047 0.13341 0
0.644953 0.115877 0
0.818158 0.0869306 0
0.968078 0.0648966 0
1 0.0566567 0
1 0.0564126 0
1 0.0483711 0
1 0.0392615 0
1 0.0327001 0
1 0.0286564 0
1 0.0269017 0
1 0.0265354 0
1 0.0278782 0
1 0.0306249 0
1 0.0353704 0
1 0.0444038 0
1 0.0545815 0
1 0.0645457 0
1 0.0745251 0
0 0.203464 0.00695811
0 0.206424 0.0061799
0 0.209522 0.00535592
0 0.213031 0.00444038
0 0.216876 0.00328069
1.5259e-05 0.221271 0.00201419
6.10361e-05 0.226841 0.000946059
0.00975052 0.233005 0.00030518
0.030869 0.238987 3.0518e-05
0.0642863 0.242939 0
0.117876 0.241688 0.000762951
0.195697 0.234852 0.00407416
0.295949 0.223163 0.00518807
0.40238 0.211444 0.00433356
0.508934 0.201083 0.0015259
0.63003 0.188525 0
0.7897 0.166613 0
0.953841 0.145586 0
1 0.134417 0
1 0.13518 0
1 0.129137 0
1 0.119844 0
1 0.113451 0
1 0.109545 0
1 0.107347 0
1 0.106844 0
1 0.108629 0
1 0.11107 0
1 0.117174 0
1 0.127245 0
1 0.13814 0
1 0.149493 0
1 0.161242 0
0 0.247013 0
0 0.251682 0
0 0.256687 0
0 0.26215 0
0 0.267918 0
0 0.273686 0
0 0.281056 0
0.00114443 0.289876 0
0.0131991 0.29984 0
0.044358 0.308263 0
0.0930953 0.312718 0
0.166384 0.311269 0.000701915
0.265644 0.303838 0.00294499
0.378225 0.294041 0.00358587
0.489845 0.285359 0.00306706
0.609796 0.27538 0.000274662
0.756176 0.259556 0
0.920745 0.240574 0
1 0.227665 0
1 0.224704 0
1 0.220981 0
1 0.211795 0
1 0.20528 0
1 0.201221 0
1 0.198779 0
1 0.198734 0
1 0.200397 0
1 0.20296 0
1 0.209369 0
1 0.220905 0
1 0.233356 0
1 0.245808 0
1 0.258579 0
0 0.304601 0
0 0.311528 0
0 0.319615 0
0 0.328374 0
0 0.33753 0
0 0.345434 0
0 0.35259 0
0 0.361822 0
0.00378424 0.373968 0
0.0286259 0.386053 0
0.0750591 0.394385 0
0.144244 0.397681 0.00143435
0.23917 0.394797 0.00369268
0.35259 0.387045 0.00366217
0.466819 0.379583 0.0031281
0.585992 0.37052 0.000579843
0.721218 0.35877 0
0.872694 0.343389 0
0.99559 0.330907 0
1 0.323323 0
1 0.321324 0
1 0.312505 0
1 0.305104 0
1 0.300511 0
1 0.298436 0
1 0.299428 0
1 0.302174 0
1 0.306081 0
1 0.311498 0
1 0.325048 0
1 0.339406 0
1 0.353765 0
1 0.367864 0
0 0.378195 0
0 0.388281 0
0 0.398795 0
0 0.409735 0
0 0.420676 0
0 0.43151 0
0 0.440452 0
0 0.449027 0
0.00062562 0.460502 0
0.0166934 0.474144 0
0.0635996 0.484047 0.000534066
0.130114 0.489708 0.00590524
0.219928 0.48925 0.00854505
0.331334 0.482551 0.007187
0.445197 0.474495 0.00517281
0.563424 0.466133 0.00135805
0.692256 0.456001 0
0.830228 0.445029 0
0.963958 0.435996 0
1 0.42945 0
1 0.428748 0
1 0.422324 0
1 0.415534 0
1 0.411276 0
1 0.409918 0
1 0.411475 0
1 0.415 0
1 0.41973 0
1 0.425101 0
1 0.43978 0
1 0.454459 0
1 0.468971 0
1 0.482963 0
0 0.466011 0
0 0.477989 0
0 0.491188 0
0 0.504829 0
0 0.518456 0
0 0.531319 0
0 0.542199 0
0 0.551369 0
0 0.55938 0
0.00434882 0.570443 0
0.0453803 0.57937 0.000366217
0.111192 0.584863 0.00602731
0.197726 0.584756 0.0099031
0.30663 0.578485 0.00848402
0.421103 0.571237 0.00581369
0.538735 0.563806 0.00129702
0.66453 0.555093 0
0.794949 0.547066 0
0.920455 0.540978 0
0.999283 0.537728 0
1 0.537682 0
1 0.534981 0
1 0.529503 0
1 0.525612 0
1 0.525414 0
1 0.527245 0
1 0.530938 0
1 0.535088 0
1 0.541024 0
1 0.55436 0
1 0.568444 0
1 0.58201 0
1 0.595346 0
0 0.569055 0
0 0.583413 0
0 0.59855 0
0 0.613809 0
0 0.628977 0
0 0.64361 0
0 0.656352 0
0 0.666148 0
0 0.672129 0
0 0.677195 0
0.0152438 0.681895 0
0.0813916 0.684718 0.000732433
0.170718 0.683909 0.00924697
0.279545 0.677729 0.0103304
0.394827 0.671214 0.00695811
0.512062 0.664775 0.000411994
0.636912 0.657298 0
0.762066 0.65095 0
0.879301 0.646799 0
0.977066 0.646403 0
1 0.646326 0
1 0.646326 0
1 0.641642 0
1 0.638865 0
1 0.638529 0
1 0.640406 0
1 0.643259 0
1 0.647959 0
1 0.653376 0
1 0.663798 0
1 0.676081 0
1 0.687648 0
1 0.699458 0
0 0.682719 0
0 0.699016 0
0 0.715602 0
0 0.731609 0
0 0.747631 0
0 0.763149 0
0 0.776562 0
0 0.786587 0
0 0.792447 0
0 0.794751 0
0.000610361 0.794903 0
0.0343023 0.794095 0
0.128893 0.790677 0.00254826
0.243244 0.782361 0.00881971
0.366049 0.773251 0.00653086
0.48539 0.76585 0.00015259
0.610925 0.757305 0
0.733944 0.749447 0
0.846052 0.745586 0
0.941421 0.745403 0
0.996628 0.745418 0
1 0.745312 0
1 0.742428 0
1 0.74052 0
1 0.740734 0
1 0.742184 0
1 0.74432 0
1 0.747555 0
1 0.751659 0
1 0.759441 0
1 0.769619 0
1 0.778317 0
1 0.786816 0
0 0.801785 0
0 0.818067 0
0 0.833417 0
0 0.848264 0
0 0.862867 0
0 0.876936 0
0 0.889586 0
0 0.899092 0
0 0.904738 0
0 0.907347 0
0 0.907134 0
0.00117494 0.905882 0
0.0725872 0.901732 0
0.184222 0.892271 0.000961318
0.317403 0.877791 0.00149538
0.448875 0.864363 0
0.579446 0.851072 0
0.707362 0.839323 0
0.819989 0.831815 0
0.910933 0.829267 0
0.981323 0.828595 0
0.999985 0.82707 0
1 0.825055 0
1 0.823407 0
1 0.823041 0
1 0.824125 0
1 0.826078 0
1 0.82858 0
1 0.831235 0
1 0.835325 0
1 0.842618 0
1 0.849744 0
1 0.856535 0
0 0.910933 0
0 0.92488 0
0 0.938582 0
0 0.952163 0
0 0.963088 0
0 0.973449 0
0 0.983352 0
0 0.991699 0
0 0.998642 0
0 0.998184 0
0 0.998474 0
0 0.99881 0
0.0323186 0.996765 0
0.122164 0.991974 0
0.243687 0.978882 0
0.391669 0.958618 0
0.53521 0.938125 0
0.675105 0.918883 0
0.796353 0.904982 0
0.88893 0.8981 0
0.958831 0.894713 0
0.998337 0.891814 0
1 0.889754 0
1 0.888136 0
1 0.887373 0
1 0.887572 0
1 0.888365 0
1 0.88983 0
1 0.891951 0
1 0.89427 0
1 0.899519 0
1 0.904204 0
1 0.908629 0
0 0.996796 0
0 1 0
0 1 0
0 1 0
0 1 0
0 1 0
0 1 0
0 1 0
0 1 0
0 1 0
0 1 0
0 1 0
0.0179446 1 0
0.0853742 1 0
0.178851 1 0
0.316045 1 0
0.475471 0.995285 0
0.629816 0.984649 0
0.767575 0.967742 0
0.868711 0.954589 0
0.939681 0.947051 0
0.992538 0.942458 0
1 0.939147 0
1 0.937163 0
1 0.936309 0
1 0.936263 0
1 0.936919 0
1 0.937652 0
1 0.938628 0
1 0.939574 0
1 0.942916 0
1 0.946441 0
1 0.949737 0
0 1 0
0 1 0
0 1 0
0 1 0
0 1 0
0 1 0
0 1 0
0 1 0
0 1 0
0 1 0
0 1 0
0 1 0
0.0184176 1 0
0.0780957 1 0
0.147448 1 0
0.252201 1 0
0.414038 1 0
0.579187 1 0
0.733989 0.999939 0
0.849302 0.998566 0
0.923568 0.98996 0
0.978897 0.983856 0
1 0.979568 0
1 0.976562 0
1 0.975311 0
1 0.974609 0
1 0.974487 0
1 0.974701 0
1 0.975341 0
1 0.97586 0
1 0.977783 0
1 0.980392 0
1 0.982895 0
0 1 0
0 1 0
0 1 0
0 1 0
0 1 0
0 1 0
0 1 0
0 1 0
0 1 0
0 1 0
0 1 0
0 1 0
0.0158236 1 0
0.0749523 1 0
0.139727 1 0
0.231571 1 0
0.378027 1 0
0.544472 1 0
0.704906 1 0
0.828382 1 0
0.907912 1 0
0.964385 1 0
0.998093 1 0
1 1 0
1 0.999161 0
1 0.997665 0
1 0.996704 0
1 0.996323 0
1 0.996414 0
1 0.997024 0
1 0.998062 0
1 0.999237 0
1 1 0
0 1 0
0 1 0
0 1 0
0 1 0
0 1 0
0 1 0
0 1 0
0 1 0
0 1 0
0 1 0
0 1 0
0 1 0
0.013077 1 0
0.0721294 1 0
0.133852 1 0
0.220264 1 0
0.356786 1 0
0.519341 1 0
0.679576 1 0
0.807355 1 0
0.892195 1 0
0.950576 1 0
0.989319 1 0
1 1 0
1 1 0
1 1 0
1 1 0
1 1 0
1 1 0
1 1 0
1 1 0
1 1 0
1 1 0
0 1 0
0 1 0
0 1 0
0 1 0
0 1 0
0 1 0
0 1 0
0 1 0
0 1 0
0 1 0
0 1 0
0 1 0
0.0148318 1 0
0.0708476 1 0
0.131518 1 0
0.216419 1 0
0.349859 1 0
0.509636 1 0
0.667567 1 0
0.794995 1 0
0.881987 1 0
0.940276 1 0
0.983276 1 0
0.999954 1 0
1 1 0
1 1 0
1 1 0
1 1 0
1 1 0
1 1 0
1 1 0
1 1 0
1 1 0
0 1 0
0 1 0
0 1 0
0 1 0
0 1 0
0 1 0
0 1 0
0 1 0
0 1 0
0 1 0
0 1 0
0 1 0
0.0141299 1 0
0.0708019 1 0
0.131899 1 0
0.213855 1 0
0.347311 1 0
0.505592 1 0
0.662715 1 0
0.789624 1 0
0.877455 1 0
0.934768 1 0
0.979629 1 0
0.998306 1 0
1 1 0
1 1 0
1 1 0
1 1 0
1 1 0
1 1 0
1 1 0
1 1 0
1 1 0
0 1 0
0 1 0
0 1 0
0 1 0
0 1 0
0 1 0
0 1 0
0 1 0
0 1 0
0 1 0
0 1 0
0 1 0
0.0128481 1 0
0.0711376 1 0
0.13193 1 0
0.21384 1 0
0.345022 1 0
0.502266 1 0
0.658061 1 0
0.785824 1 0
0.873243 1 0
0.931197 1 0
0.975708 1 0
0.996933 1 0
1 1 0
1 1 0
1 1 0
1 1 0
1 1 0
1 1 0
1 1 0
1 1 0
1 1 0
0 1 0
0 1 0
0 1 0
0 1 0
0 1 0
0 1 0
0 1 0
0 1 0
0 1 0
