LUTs/80.cube
TITLE "Generate by Resolve"
LUT_3D_SIZE 9
0.0109712 0.0261692 0.0421454
0.0930037 0.0220645 0.0374762
0.194858 0.0148623 0.026215
0.355795 0 0.0034638
0.72604 0 0
0.850004 0 0
0.899992 0 0
0.949996 0 0
1 0 0
0.00047303 0.0973373 0.0312505
0.0779431 0.0945602 0.0272984
0.183749 0.0848249 0.0210727
0.355474 0.0582132 0.00384527
0.728817 0.0499886 0
0.850004 0.0499886 0
0.899992 0.0499886 0
0.949996 0.0499886 0
1 0.0499886 0
0 0.176547 0.0184176
0.0567788 0.178393 0.014725
0.15639 0.175616 0.010544
0.357702 0.147478 0.00454719
0.709163 0.101061 0
0.850004 0.0999924 0
0.899992 0.0999924 0
0.949996 0.0999924 0
1 0.0999924 0
0 0.298207 0
0.0499886 0.31075 0
0.107912 0.3299 0
0.309377 0.332296 0.00177005
0.653696 0.30573 0
0.850004 0.282582 0
0.899992 0.269261 0
0.949996 0.275624 0
1 0.30515 0
0 0.541436 0
0.0499886 0.577386 0
0.0999924 0.603281 0
0.25243 0.610346 0.00555428
0.582147 0.594369 0
0.850004 0.587793 0
0.899992 0.583108 0
0.949996 0.59202 0
1 0.619669 0
0 0.848081 0
0.0499886 0.850004 0
0.0999924 0.850004 0
0.160769 0.850004 0
0.485283 0.847166 0
0.813809 0.818235 0
0.899992 0.81178 0
0.949996 0.813169 0
1 0.819837 0
0 0.899992 0
0.0499886 0.899992 0
0.0999924 0.899992 0
0.158892 0.899992 0
0.409918 0.899992 0
0.779187 0.899992 0
0.899992 0.899992 0
0.949996 0.899992 0
1 0.899992 0
0 0.949996 0
0.0499886 0.949996 0
0.0999924 0.949996 0
0.163256 0.949996 0
0.404669 0.949996 0
0.769085 0.949996 0
0.899992 0.949996 0
0.949996 0.949996 0
1 0.949996 0
0 1 0
0.0499886 1 0
0.0999924 1 0
0.173144 1 0
0.420584 1 0
0.767819 1 0
0.899992 1 0
0.949996 1 0
1 1 0
0.0107576 0.0236057 0.128542
0.0900435 0.0202792 0.125917
0.193759 0.0132906 0.106249
0.356374 0 0.0636912
0.725353 0 0.0499886
0.850004 0 0.0499886
0.899992 0 0.0499886
0.949996 0 0.0499886
1 0 0.0499886
9.15541e-05 0.0981308 0.100145
0.0769665 0.0925917 0.111635
0.184558 0.0830549 0.0991073
0.358053 0.057435 0.0635843
0.730175 0.0499886 0.0499886
0.850004 0.0499886 0.0499886
0.899992 0.0499886 0.0499886
0.949996 0.0499886 0.0499886
1 0.0499886 0.0499886
0 0.176074 0.0877394
0.0565957 0.178546 0.0862287
0.156909 0.176715 0.0810254
0.367071 0.148104 0.0645914
0.711284 0.101045 0.0499886
0.850004 0.0999924 0.0499886
0.899992 0.0999924 0.0499886
0.949996 0.0999924 0.0499886
1 0.0999924 0.0499886
0 0.302037 0.0499886
0.0499886 0.316594 0.0506294
0.109575 0.338491 0.0515908
0.318502 0.341375 0.0562295
0.665049 0.315373 0.0499886
0.850004 0.291875 0.0499886
0.899992 0.277913 0.0499886
0.949996 0.285939 0.0499886
1 0.316197 0.0499886
0 0.553338 0.0499886
0.0499886 0.590066 0.0499886
0.0999924 0.615747 0.0499886
0.259861 0.621103 0.0556802
0.593103 0.604776 0.0499886
0.850004 0.599161 0.0499886
0.899992 0.593057 0.0499886
0.949996 0.601831 0.0499886
1 0.629862 0.0499886
0 0.850004 0.0499886
0.0499886 0.850004 0.0499886
0.0999924 0.850004 0.0499886
0.165454 0.850004 0.0499886
0.493126 0.849058 0.0499886
0.818387 0.822553 0.0499886
0.899992 0.815747 0.0499886
0.949996 0.816236 0.0499886
1 0.822904 0.0499886
0 0.899992 0.0499886
0.0499886 0.899992 0.0499886
0.0999924 0.899992 0.0499886
0.161471 0.899992 0.0499886
0.417838 0.899992 0.0499886
0.782635 0.899992 0.0499886
0.899992 0.899992 0.0499886
0.949996 0.899992 0.0499886
1 0.899992 0.0499886
0 0.949996 0.0499886
0.0499886 0.949996 0.0499886
0.0999924 0.949996 0.0499886
0.164797 0.949996 0.0499886
0.408774 0.949996 0.0499886
0.770535 0.949996 0.0499886
0.899992 0.949996 0.0499886
0.949996 0.949996 0.0499886
1 0.949996 0.0499886
0 1 0.0499886
0.0499886 1 0.0499886
0.0999924 1 0.0499886
0.173098 1 0.0499886
0.421164 1 0.0499886
0.768414 1 0.0499886
0.899992 1 0.0499886
0.949996 1 0.0499886
1 1 0.0499886
0.0106966 0.0199283 0.232013
0.0836957 0.0174258 0.237888
0.18143 0.0118715 0.222843
0.356008 0 0.154086
0.69218 0 0.0999924
0.850004 0 0.0999924
0.899992 0 0.0999924
0.949996 0 0.0999924
1 0 0.0999924
0.00474556 0.0891585 0.223239
0.0755932 0.0870222 0.231617
0.176684 0.0793622 0.223423
0.361364 0.0544289 0.154574
0.70016 0.0499886 0.100038
0.850004 0.0499886 0.0999924
0.899992 0.0499886 0.0999924
0.949996 0.0499886 0.0999924
1 0.0499886 0.0999924
0 0.175998 0.170672
0.0549172 0.177691 0.181567
0.155337 0.174212 0.200198
0.38613 0.144228 0.157
0.678584 0.107851 0.10985
0.850004 0.0999924 0.0999924
0.899992 0.0999924 0.0999924
0.949996 0.0999924 0.0999924
1 0.0999924 0.0999924
0 0.306538 0.128191
0.0499886 0.323232 0.134249
0.107469 0.349142 0.138735
0.328038 0.352667 0.134661
0.655314 0.330358 0.137713
0.850004 0.299229 0.107317
0.899992 0.284871 0.100694
0.949996 0.294667 0.10486
1 0.326024 0.11545
0 0.561273 0.0999924
0.0499886 0.596475 0.100725
0.0999924 0.620523 0.102953
0.272526 0.628138 0.129473
0.600214 0.612345 0.106096
0.850004 0.606867 0.0999924
0.899992 0.600656 0.0999924
0.949996 0.609598 0.0999924
1 0.635767 0.0999924
0 0.850004 0.0999924
0.0499886 0.850004 0.0999924
0.0999924 0.850004 0.0999924
0.168353 0.850004 0.0999924
0.496132 0.850004 0.0999924
0.820554 0.825559 0.0999924
0.899992 0.818128 0.0999924
0.949996 0.818143 0.0999924
1 0.824338 0.0999924
0 0.899992 0.0999924
0.0499886 0.899992 0.0999924
0.0999924 0.899992 0.0999924
0.1617 0.899992 0.0999924
0.41973 0.899992 0.0999924
0.782849 0.899992 0.0999924
0.899992 0.899992 0.0999924
0.949996 0.899992 0.0999924
1 0.899992 0.0999924
0 0.949996 0.0999924
0.0499886 0.949996 0.0999924
0.0999924 0.949996 0.0999924
0.164385 0.949996 0.0999924
0.406546 0.949996 0.0999924
0.76875 0.949996 0.0999924
0.899992 0.949996 0.0999924
0.949996 0.949996 0.0999924
1 0.949996 0.0999924
0 1 0.0999924
0.0499886 1 0.0999924
0.0999924 1 0.0999924
0.171145 1 0.0999924
0.415732 1 0.0999924
0.765225 1 0.0999924
0.899992 1 0.0999924
0.949996 1 0.0999924
1 1 0.0999924
0.00395209 0.00883497 0.442664
0.0715801 0.00872816 0.434745
0.156634 0.0069276 0.421424
0.330449 0 0.362051
0.638025 0 0.288045
0.850004 0 0.249363
0.899992 0 0.199969
0.949996 0 0.183062
1 0 0.175113
0.00318914 0.0747539 0.429618
0.0690166 0.074464 0.427893
0.155215 0.071107 0.422934
0.334173 0.0507057 0.366445
0.653254 0.0499886 0.299748
0.850004 0.0499886 0.272541
0.899992 0.0499886 0.234272
0.949996 0.0499886 0.231449
1 0.0499886 0.251682
0.00224308 0.155901 0.405692
0.0621958 0.158572 0.413687
0.151369 0.160189 0.430991
0.363577 0.136248 0.40087
0.645212 0.109117 0.32195
0.850004 0.0999924 0.318837
0.899992 0.0999924 0.296422
0.949996 0.0999924 0.307912
1 0.0999924 0.351492
0 0.307164 0.275196
0.0499886 0.32604 0.288853
0.104189 0.350652 0.314412
0.323735 0.34815 0.389441
0.666636 0.326894 0.344579
0.850004 0.312444 0.324071
0.899992 0.296513 0.308385
0.949996 0.308461 0.322545
1 0.343984 0.359136
0 0.558816 0.268971
0.0499886 0.591058 0.294041
0.0999924 0.613489 0.314443
0.269963 0.631296 0.324102
0.605707 0.613565 0.288533
0.843717 0.615152 0.269368
0.899992 0.609171 0.236622
0.949996 0.617288 0.24358
1 0.641215 0.271687
0 0.848081 0.180865
0.0499886 0.850004 0.199466
0.0999924 0.850004 0.213596
0.204501 0.850004 0.249042
0.574197 0.834073 0.275685
0.814115 0.817868 0.171603
0.899992 0.814084 0.149996
0.949996 0.813672 0.149996
1 0.818662 0.149996
0 0.899992 0.19173
0.0499886 0.899992 0.203357
0.0999924 0.899992 0.211276
0.160204 0.899992 0.203815
0.431846 0.899992 0.17525
0.776547 0.899992 0.149996
0.899992 0.899992 0.149996
0.949996 0.899992 0.149996
1 0.899992 0.149996
0 0.949996 0.201801
0.0499886 0.949996 0.212909
0.0999924 0.949996 0.217136
0.160678 0.949996 0.202289
0.401038 0.949996 0.165133
0.759365 0.949996 0.149996
0.899992 0.949996 0.149996
0.949996 0.949996 0.149996
1 0.949996 0.149996
0 1 0.222889
0.0499886 1 0.228473
0.0999924 1 0.227161
0.164904 1 0.207385
0.407904 1 0.165591
0.75227 1 0.149996
0.898802 1 0.149996
0.949996 1 0.149996
1 1 0.149996
0 0 0.8
0.0530404 0 0.8
0.148486 0 0.8
0.353918 0 0.728725
0.668574 0 0.66659
0.850004 0 0.660655
0.899992 0 0.623529
0.949996 0 0.605753
1 0 0.597589
0 0.0512856 0.8
0.050782 0.0509804 0.8
0.141283 0.0502022 0.79884
0.354223 0.0499886 0.725978
0.686519 0.0499886 0.682353
0.850004 0.0499886 0.679576
0.899992 0.0499886 0.658549
0.949996 0.0499886 0.658549
1 0.0499886 0.674205
0 0.13254 0.8
0.0499886 0.13521 0.798932
0.134096 0.138582 0.768978
0.335332 0.12549 0.68716
0.669398 0.100008 0.665782
0.850004 0.0999924 0.71902
0.899992 0.0999924 0.706569
0.949996 0.0999924 0.713695
1 0.0999924 0.739757
0 0.283864 0.663905
0.0499886 0.305562 0.690318
0.111498 0.327581 0.688594
0.326604 0.336934 0.683497
0.659922 0.316136 0.663493
0.850004 0.311116 0.68574
0.899992 0.295033 0.683482
0.949996 0.307454 0.691554
1 0.342809 0.707485
0 0.565621 0.503899
0.0499886 0.600427 0.536919
0.0999924 0.624338 0.56112
0.254948 0.628916 0.598383
0.599084 0.601068 0.625254
0.836622 0.602899 0.61323
0.899992 0.603235 0.613016
0.949996 0.609552 0.620005
1 0.629053 0.63859
0 0.837629 0.540093
0.0499886 0.850004 0.576913
0.0999924 0.850004 0.607813
0.229175 0.849912 0.637156
0.565438 0.817121 0.597726
0.796078 0.794125 0.553613
0.893355 0.791562 0.556695
0.94342 0.790967 0.555215
0.993393 0.794003 0.563531
0 0.899992 0.502647
0.0499886 0.899992 0.538155
0.0999924 0.899992 0.562829
0.159365 0.899992 0.543526
0.556848 0.899992 0.593576
0.78616 0.899519 0.552056
0.898192 0.898711 0.496178
0.949996 0.897246 0.476631
1 0.896422 0.471687
0 0.949996 0.530755
0.0499886 0.949996 0.562951
0.0999924 0.949996 0.574594
0.15761 0.949996 0.531121
0.533379 0.949996 0.570672
0.777188 0.949996 0.52433
0.895598 0.949996 0.419394
0.949996 0.949996 0.366003
1 0.949996 0.345968
0 1 0.58793
0.0499886 1 0.6038
0.0999924 1 0.600046
0.161517 1 0.546944
0.533074 1 0.570123
0.77113 1 0.506233
0.891691 1 0.376898
0.949996 1 0.301991
1 1 0.280552
0 0 0.850004
0.0499886 0 0.850004
0.135439 0 0.850004
0.380728 0 0.850004
0.698131 0 0.850004
0.850004 0 0.850004
0.899992 0 0.84445
0.949996 0 0.841001
1 0 0.839536
0 0.0499886 0.850004
0.0499886 0.0499886 0.850004
0.131319 0.0499886 0.850004
0.388922 0.0499886 0.850004
0.708278 0.0499886 0.850004
0.850004 0.0499886 0.850004
0.899992 0.0499886 0.850004
0.949996 0.0499886 0.850004
1 0.0499886 0.850004
0 0.12108 0.850004
0.0499886 0.124376 0.850004
0.120333 0.124422 0.850004
0.380056 0.100313 0.850004
0.736141 0.0999924 0.850004
0.850004 0.0999924 0.850004
0.899992 0.0999924 0.850004
0.949996 0.0999924 0.850004
1 0.0999924 0.850004
0 0.279973 0.850004
0.0499886 0.304433 0.850004
0.0999924 0.325536 0.850004
0.319112 0.33019 0.850004
0.67509 0.308003 0.849638
0.850004 0.286091 0.850004
0.899992 0.271443 0.850004
0.949996 0.282765 0.850004
1 0.318791 0.850004
0 0.576532 0.843305
0.0499886 0.612024 0.844938
0.0999924 0.635721 0.848157
0.231052 0.628641 0.849104
0.60209 0.599191 0.828138
0.838834 0.597391 0.831312
0.899992 0.598749 0.832425
0.949996 0.604181 0.834501
1 0.623606 0.839216
0 0.845273 0.807507
0.0499886 0.850004 0.831235
0.0999924 0.850004 0.847196
0.157427 0.850004 0.844602
0.545983 0.814023 0.801297
0.79089 0.78204 0.787839
0.899992 0.776913 0.780377
0.949996 0.77586 0.779843
1 0.7785 0.782498
0 0.899992 0.849928
0.0499886 0.899992 0.850004
0.0999924 0.899992 0.850004
0.149996 0.899992 0.850004
0.554681 0.899992 0.816068
0.765332 0.896071 0.767529
0.892241 0.887495 0.753902
0.947646 0.883589 0.751217
0.997559 0.88188 0.749218
0 0.949996 0.850004
0.0499886 0.949996 0.850004
0.0999924 0.949996 0.850004
0.149996 0.949996 0.850004
0.532021 0.949996 0.81146
0.75819 0.949996 0.760876
0.883406 0.949996 0.746197
0.946929 0.949996 0.744457
0.996857 0.949996 0.741115
0 1 0.850004
0.0499886 1 0.850004
0.0999924 1 0.850004
0.149996 1 0.850004
0.52607 1 0.810178
0.751553 1 0.754742
0.874983 1 0.735393
0.94667 1 0.733043
0.996719 1 0.728557
0 0 0.899992
0.0499886 0 0.899992
0.126726 0 0.899992
0.358785 0 0.899992
0.686076 0 0.899992
0.850004 0 0.899992
0.899992 0 0.899992
0.949996 0 0.899992
1 0 0.899992
0 0.0499886 0.899992
0.0499886 0.0499886 0.899992
0.12462 0.0499886 0.899992
0.371389 0.0499886 0.899992
0.699641 0.0499886 0.899992
0.850004 0.0499886 0.899992
0.899992 0.0499886 0.899992
0.949996 0.0499886 0.899992
1 0.0499886 0.899992
0 0.115602 0.899992
0.0499886 0.119493 0.899992
0.114839 0.120027 0.899992
0.369512 0.0999924 0.899992
0.730632 0.0999924 0.899992
0.850004 0.0999924 0.899992
0.899992 0.0999924 0.899992
0.949996 0.0999924 0.899992
1 0.0999924 0.899992
0 0.274846 0.899992
0.0499886 0.299611 0.899992
0.0999924 0.320317 0.899992
0.31162 0.325887 0.899992
0.671519 0.303288 0.899992
0.850004 0.280873 0.899992
0.899992 0.266972 0.899992
0.949996 0.279988 0.899992
1 0.316411 0.899992
0 0.57174 0.899992
0.0499886 0.60589 0.899992
0.0999924 0.631037 0.899992
0.211139 0.631281 0.899992
0.601144 0.599741 0.894438
0.837568 0.598444 0.899992
0.899992 0.599359 0.899992
0.949996 0.60412 0.899992
1 0.622156 0.899992
0 0.849958 0.896696
0.0499886 0.850004 0.898604
0.0999924 0.850004 0.899992
0.149996 0.850004 0.899992
0.542184 0.814221 0.899138
0.788754 0.779797 0.899992
0.899992 0.774014 0.899992
0.949996 0.772656 0.899367
1 0.774701 0.899992
0 0.899992 0.899992
0.0499886 0.899992 0.899992
0.0999924 0.899992 0.899992
0.149996 0.899992 0.899992
0.504967 0.899992 0.899992
0.757595 0.894957 0.886412
0.893309 0.881956 0.884504
0.949996 0.876951 0.879652
1 0.874647 0.877623
0 0.949996 0.899992
0.0499886 0.949996 0.899992
0.0999924 0.949996 0.899992
0.149996 0.949996 0.899992
0.469657 0.949996 0.899992
0.752361 0.949996 0.886213
0.875593 0.949996 0.866667
0.949508 0.949996 0.859449
0.999466 0.949722 0.855726
0 1 0.899992
0.0499886 1 0.899992
0.0999924 1 0.899992
0.149996 1 0.899992
0.456199 1 0.899992
0.743893 1 0.880659
0.863813 1 0.855802
0.948684 1 0.847745
0.999008 1 0.843931
0 0 0.949996
0.0499886 0 0.949996
0.122255 0 0.949996
0.346822 0 0.949996
0.679561 0 0.949996
0.850004 0 0.949996
0.899992 0 0.949996
0.949996 0 0.949996
1 0 0.949996
0 0.0499886 0.949996
0.0499886 0.0499886 0.949996
0.121279 0.0499886 0.949996
0.363119 0.0499886 0.949996
0.696361 0.0499886 0.949996
0.850004 0.0499886 0.949996
0.899992 0.0499886 0.949996
0.949996 0.0499886 0.949996
1 0.0499886 0.949996
0 0.113466 0.949996
0.0499886 0.117784 0.949996
0.113451 0.11931 0.949996
0.36875 0.100496 0.949996
0.731304 0.0999924 0.949996
0.850004 0.0999924 0.949996
0.899992 0.0999924 0.949996
0.949996 0.0999924 0.949996
1 0.0999924 0.949996
0 0.275822 0.949996
0.0499886 0.30164 0.949996
0.0999924 0.322957 0.949996
0.313039 0.329137 0.949996
0.671717 0.306493 0.949996
0.850004 0.284062 0.949996
0.899992 0.271672 0.949996
0.949996 0.286976 0.949996
1 0.32488 0.949996
0 0.575814 0.949996
0.0499886 0.609689 0.949996
0.0999924 0.635248 0.949996
0.212284 0.635309 0.949996
0.603143 0.603159 0.94432
0.838315 0.601434 0.949996
0.899992 0.601953 0.949996
0.949996 0.607095 0.949996
1 0.624262 0.949996
0 0.849378 0.946853
0.0499886 0.850004 0.949172
0.0999924 0.850004 0.949996
0.149996 0.850004 0.949996
0.54168 0.815213 0.94873
0.788235 0.780148 0.949996
0.899992 0.773983 0.949996
0.949996 0.772244 0.949996
1 0.774029 0.949996
0 0.899992 0.949996
0.0499886 0.899992 0.949996
0.0999924 0.899992 0.949996
0.149996 0.899992 0.949996
0.495186 0.899992 0.949996
0.753399 0.895552 0.936889
0.89192 0.880201 0.949996
0.949996 0.8748 0.949996
1 0.872145 0.949996
0 0.949996 0.949996
0.0499886 0.949996 0.949996
0.0999924 0.949996 0.949996
0.149996 0.949996 0.949996
0.443198 0.949996 0.949996
0.748669 0.949996 0.942931
0.871687 0.949996 0.948959
0.949996 0.949722 0.949401
1 0.948898 0.948501
0 1 0.949996
0.0499886 1 0.949996
0.0999924 1 0.949996
0.149996 1 0.949996
0.419944 1 0.949996
0.739956 1 0.942702
0.859739 1 0.94789
0.949172 1 0.945571
1 1 0.943343
0 0 1
0.0499886 0 1
0.120974 0 1
0.341039 0 1
0.675013 0 1
0.850004 0 1
0.899992 0 1
0.949996 0 1
1 0 1
0 0.0499886 1
0.0499886 0.0499886 1
0.121141 0.0499886 1
0.363043 0.0499886 1
0.696391 0.0499886 1
0.850004 0.0499886 1
0.899992 0.0499886 1
0.949996 0.0499886 1
1 0.0499886 1
0 0.114107 1
0.0499886 0.119326 1
0.116258 0.122301 1
0.376867 0.102617 1
0.737682 0.0999924 1
0.850004 0.0999924 1
0.899992 0.0999924 1
0.949996 0.0999924 1
1 0.0999924 1
0 0.281254 1
0.0499886 0.309911 1
0.0999924 0.333654 1
0.323156 0.338796 1
0.677607 0.316197 1
0.850004 0.294591 1
0.899992 0.28188 1
0.949996 0.299718 1
1 0.337484 1
0 0.582879 1
0.0499886 0.618891 1
0.0999924 0.645579 1
0.221622 0.64448 1
0.611429 0.611078 0.994034
0.840757 0.609171 1
0.899992 0.60766 1
0.949996 0.613214 1
1 0.628779 1
0 0.850004 0.997101
0.0499886 0.850004 1
0.0999924 0.850004 0.999985
0.149996 0.850004 1
0.545647 0.817548 0.997269
0.789639 0.781811 1
0.899992 0.774975 0.999985
0.949996 0.772992 1
1 0.774578 1
0 0.899992 1
0.0499886 0.899992 1
0.0999924 0.899992 1
0.149996 0.899992 1
0.496712 0.899992 1
0.752987 0.89543 0.98706
0.891249 0.879759 1
0.949996 0.874205 1
1 0.871321 1
0 0.949996 1
0.0499886 0.949996 1
0.0999924 0.949996 1
0.149996 0.949996 1
0.44036 0.949996 1
0.747524 0.949996 0.992889
0.869764 0.949996 0.998779
0.94995 0.949523 1
1 0.948577 1
0 1 1
0.0499886 1 1
0.0999924 1 1
0.149996 1 1
0.414633 1 1
0.73814 1 0.992691
0.857069 1 0.997833
0.94876 1 1
1 1 1
