LUTs/80.cube
TITLE "Generate by Resolve"
LUT_3D_SIZE 5
0.0109712 0.0261692 0.0421454
0.194858 0.0148623 0.026215
0.72604 0 0
0.899992 0 0
1 0 0
0 0.176547 0.0184176
0.15639 0.175616 0.010544
0.709163 0.101061 0
0.899992 0.0999924 0
1 0.0999924 0
0 0.541436 0
0.0999924 0.603281 0
0.582147 0.594369 0
0.899992 0.583108 0
1 0.619669 0
0 0.899992 0
0.0999924 0.899992 0
0.409918 0.899992 0
0.899992 0.899992 0
1 0.899992 0
0 1 0
0.0999924 1 0
0.420584 1 0
0.899992 1 0
1 1 0
0.0106966 0.0199283 0.232013
0.18143 0.0118715 0.222843
0.69218 0 0.0999924
0.899992 0 0.0999924
1 0 0.0999924
0 0.175998 0.170672
0.155337 0.174212 0.200198
0.678584 0.107851 0.10985
0.899992 0.0999924 0.0999924
1 0.0999924 0.0999924
0 0.561273 0.0999924
0.0999924 0.620523 0.102953
0.600214 0.612345 0.106096
0.899992 0.600656 0.0999924
1 0.635767 0.0999924
0 0.899992 0.0999924
0.0999924 0.899992 0.0999924
0.41973 0.899992 0.0999924
0.899992 0.899992 0.0999924
1 0.899992 0.0999924
0 1 0.0999924
0.0999924 1 0.0999924
0.415732 1 0.0999924
0.899992 1 0.0999924
1 1 0.0999924
0 0 0.8
0.148486 0 0.8
0.668574 0 0.66659
0.899992 0 0.623529
1 0 0.597589
0 0.13254 0.8
0.134096 0.138582 0.768978
0.669398 0.100008 0.665782
0.899992 0.0999924 0.706569
1 0.0999924 0.739757
0 0.565621 0.503899
0.0999924 0.624338 0.56112
0.599084 0.601068 0.625254
0.899992 0.603235 0.613016
1 0.629053 0.63859
0 0.899992 0.502647
0.0999924 0.899992 0.562829
0.556848 0.899992 0.593576
0.898192 0.898711 0.496178
1 0.896422 0.471687
0 1 0.58793
0.0999924 1 0.600046
0.533074 1 0.570123
0.891691 1 0.376898
1 1 0.280552
0 0 0.899992
0.126726 0 0.899992
0.686076 0 0.899992
0.899992 0 0.899992
1 0 0.899992
0 0.115602 0.899992
0.114839 0.120027 0.899992
0.730632 0.0999924 0.899992
0.899992 0.0999924 0.899992
1 0.0999924 0.899992
0 0.57174 0.899992
0.0999924 0.631037 0.899992
0.601144 0.599741 0.894438
0.899992 0.599359 0.899992
1 0.622156 0.899992
0 0.899992 0.899992
0.0999924 0.899992 0.899992
0.504967 0.899992 0.899992
0.893309 0.881956 0.884504
1 0.874647 0.877623
0 1 0.899992
0.0999924 1 0.899992
0.456199 1 0.899992
0.863813 1 0.855802
0.999008 1 0.843931
0 0 1
0.120974 0 1
0.675013 0 1
0.899992 0 1
1 0 1
0 0.114107 1
0.116258 0.122301 1
0.737682 0.0999924 1
0.899992 0.0999924 1
1 0.0999924 1
0 0.582879 1
0.0999924 0.645579 1
0.611429 0.611078 0.994034
0.899992 0.60766 1
1 0.628779 1
0 0.899992 1
0.0999924 0.899992 1
0.496712 0.899992 1
0.891249 0.879759 1
1 0.871321 1
0 1 1
0.0999924 1 1
0.414633 1 1
0.857069 1 0.997833
1 1 1
