LUTs/80.cube
TITLE "Generate by Resolve"
LUT_3D_SIZE 33
0.0109712 0.0261692 0.0421454
0.0307927 0.0252232 0.0413367
0.0508278 0.0242466 0.0404517
0.0717327 0.0231937 0.0390326
0.0930037 0.0220645 0.0374762
0.115511 0.0207523 0.0353704
0.139422 0.0191958 0.032929
0.165652 0.0172732 0.0299535
0.194858 0.0148623 0.026215
0.227298 0.0120241 0.0218662
0.263249 0.00885023 0.0169223
0.305394 0.00450141 0.0109712
0.355795 0 0.0034638
0.415976 0 0
0.492988 0 0
0.613169 0 0
0.72604 0 0
0.797528 0 0
0.824994 0 0
0.837491 0 0
0.850004 0 0
0.862501 0 0
0.874998 0 0
0.887495 0 0
0.899992 0 0
0.912505 0 0
0.925002 0 0
0.937499 0 0
0.949996 0 0
0.962493 0 0
0.975006 0 0
0.987503 0 0
1 0 0
0.00788891 0.0440375 0.0381476
0.0273289 0.0431067 0.0377813
0.0473487 0.0420539 0.0373693
0.0682994 0.0409094 0.0363775
0.0896925 0.0395514 0.0352789
0.112261 0.0380407 0.0335241
0.136477 0.0360266 0.0314946
0.163134 0.0333257 0.0290379
0.193164 0.0297704 0.0257572
0.2262 0.0254063 0.0218967
0.262211 0.0214694 0.0171359
0.304219 0.0171664 0.0112154
0.354299 0.0125277 0.00366217
0.414542 0.0124971 0
0.49044 0.0124971 0
0.610101 0.0124971 0
0.724651 0.0124971 0
0.796719 0.0124971 0
0.824994 0.0124971 0
0.837491 0.0124971 0
0.850004 0.0124971 0
0.862501 0.0124971 0
0.874998 0.0124971 0
0.887495 0.0124971 0
0.899992 0.0124971 0
0.912505 0.0124971 0
0.925002 0.0124971 0
0.937499 0.0124971 0
0.949996 0.0124971 0
0.962493 0.0124971 0
0.975006 0.0124971 0
0.987503 0.0124971 0
1 0.0124971 0
0.0047303 0.0620279 0.0341039
0.0237583 0.0610819 0.0341192
0.0437324 0.0601205 0.0340734
0.0646525 0.0588846 0.0335241
0.0861067 0.0575723 0.0328374
0.108721 0.0559701 0.031342
0.133028 0.0540017 0.029572
0.159915 0.0512703 0.0274205
0.19057 0.0475929 0.0244144
0.224582 0.0430304 0.0208133
0.261982 0.0376593 0.016556
0.303777 0.0310369 0.0112306
0.35378 0.0250858 0.00376898
0.413764 0.0249943 0
0.489677 0.0249943 0
0.609491 0.0249943 0
0.724651 0.0249943 0
0.796948 0.0249943 0
0.824994 0.0249943 0
0.837491 0.0249943 0
0.850004 0.0249943 0
0.862501 0.0249943 0
0.874998 0.0249943 0
0.887495 0.0249943 0
0.899992 0.0249943 0
0.912505 0.0249943 0
0.925002 0.0249943 0
0.937499 0.0249943 0
0.949996 0.0249943 0
0.962493 0.0249943 0
0.975006 0.0249943 0
0.987503 0.0249943 0
1 0.0249943 0
0.00260929 0.0796368 0.0327001
0.0207828 0.0789807 0.0322881
0.0404364 0.0781415 0.0317998
0.0610666 0.0771496 0.0309606
0.0820783 0.0759594 0.0301366
0.104799 0.0744335 0.0287785
0.129122 0.0724193 0.0272984
0.156329 0.0697185 0.0254215
0.187533 0.0658579 0.0228733
0.223194 0.0608835 0.0195621
0.262104 0.0550851 0.0156863
0.304601 0.0484932 0.0108034
0.354223 0.041001 0.00384527
0.413779 0.0377356 0
0.49044 0.0374914 0
0.611032 0.0374914 0
0.72639 0.0374914 0
0.79823 0.0374914 0
0.824994 0.0374914 0
0.837491 0.0374914 0
0.850004 0.0374914 0
0.862501 0.0374914 0
0.874998 0.0374914 0
0.887495 0.0374914 0
0.899992 0.0374914 0
0.912505 0.0374914 0
0.925002 0.0374914 0
0.937499 0.0374914 0
0.949996 0.0374914 0
0.962493 0.0374914 0
0.975006 0.0374914 0
0.987503 0.0374914 0
1 0.0374914 0
0.00047303 0.0973373 0.0312505
0.0176242 0.0968795 0.0305943
0.0369268 0.0962692 0.0296178
0.0571756 0.095491 0.0284886
0.0779431 0.0945602 0.0272984
0.100557 0.0931563 0.0260777
0.124743 0.0912642 0.0247959
0.152148 0.0886091 0.023209
0.183749 0.0848249 0.0210727
0.220401 0.0798199 0.0181277
0.261341 0.0735943 0.0146334
0.305562 0.0666361 0.0102388
0.355474 0.0582132 0.00384527
0.414618 0.0511788 0
0.489372 0.0499886 0
0.610758 0.0499886 0
0.728817 0.0499886 0
0.800565 0.0499886 0
0.824994 0.0499886 0
0.837491 0.0499886 0
0.850004 0.0499886 0
0.862501 0.0499886 0
0.874998 0.0499886 0
0.887495 0.0499886 0
0.899992 0.0499886 0
0.912505 0.0499886 0
0.925002 0.0499886 0
0.937499 0.0499886 0
0.949996 0.0499886 0
0.962493 0.0499886 0
0.975006 0.0499886 0
0.987503 0.0499886 0
1 0.0499886 0
0.000213626 0.115923 0.0283207
0.0156405 0.115557 0.0278172
0.0336156 0.115206 0.0267338
0.0530556 0.11458 0.0256352
0.0736858 0.113878 0.0244144
0.0958724 0.112703 0.02327
0.11989 0.11104 0.0220798
0.147311 0.108568 0.0207065
0.179263 0.104799 0.0189822
0.216999 0.0995804 0.0165408
0.260304 0.0927901 0.0134737
0.306081 0.0856641 0.0096437
0.356878 0.0774548 0.00384527
0.416052 0.0678264 0
0.488365 0.0629129 0
0.604776 0.062501 0
0.724285 0.062501 0
0.802441 0.062501 0
0.824994 0.062501 0
0.837491 0.062501 0
0.850004 0.062501 0
0.862501 0.062501 0
0.874998 0.062501 0
0.887495 0.062501 0
0.899992 0.062501 0
0.912505 0.062501 0
0.925002 0.062501 0
0.937499 0.062501 0
0.949996 0.062501 0
0.962493 0.062501 0
0.975006 0.062501 0
0.987503 0.062501 0
1 0.062501 0
0 0.13489 0.0252537
0.0137636 0.134783 0.024918
0.0302281 0.13463 0.023743
0.0483101 0.134295 0.0226291
0.0687114 0.133913 0.0213779
0.0905165 0.133089 0.0202182
0.114122 0.131777 0.0190738
0.141558 0.129519 0.0179294
0.17351 0.12604 0.0166018
0.211856 0.120912 0.0147707
0.257343 0.114092 0.0121614
0.305806 0.106477 0.00895705
0.358129 0.0981308 0.00392157
0.417716 0.0880293 1.5259e-05
0.488823 0.0776532 0
0.598505 0.0749981 0
0.719203 0.0749981 0
0.802579 0.0749981 0
0.824994 0.0749981 0
0.837491 0.0749981 0
0.850004 0.0749981 0
0.862501 0.0749981 0
0.874998 0.0749981 0
0.887495 0.0749981 0
0.899992 0.0749981 0
0.912505 0.0749981 0
0.925002 0.0749981 0
0.937499 0.0749981 0
0.949996 0.0749981 0
0.962493 0.0749981 0
0.975006 0.0749981 0
0.987503 0.0749981 0
1 0.0749981 0
0 0.155016 0.0220035
0.0125124 0.155123 0.0219577
0.0271763 0.155261 0.0206912
0.0427558 0.155367 0.01944
0.0629282 0.155352 0.018143
0.0841535 0.154986 0.0169528
0.107256 0.154177 0.0158083
0.134264 0.152483 0.0148165
0.165896 0.149599 0.0138247
0.204669 0.144778 0.012604
0.251911 0.137728 0.0107729
0.303929 0.12961 0.00827039
0.358755 0.121065 0.0041352
0.419135 0.111467 6.10361e-05
0.489219 0.100175 0
0.592111 0.0883345 0
0.713924 0.0874952 0
0.799649 0.0874952 0
0.824994 0.0874952 0
0.837491 0.0874952 0
0.850004 0.0874952 0
0.862501 0.0874952 0
0.874998 0.0874952 0
0.887495 0.0874952 0
0.899992 0.0874952 0
0.912505 0.0874952 0
0.925002 0.0874952 0
0.937499 0.0874952 0
0.949996 0.0874952 0
0.962493 0.0874952 0
0.975006 0.0874952 0
0.987503 0.0874952 0
1 0.0874952 0
0 0.176547 0.0184176
0.0124971 0.176761 0.0183261
0.0254368 0.177264 0.0174716
0.0386664 0.177874 0.0160983
0.0567788 0.178393 0.014725
0.0767529 0.178866 0.0133059
0.099443 0.178698 0.0121157
0.125521 0.177768 0.0112001
0.15639 0.175616 0.010544
0.194827 0.171527 0.0100099
0.24361 0.164828 0.00914015
0.299565 0.156374 0.00758373
0.357702 0.147478 0.00454719
0.419898 0.138506 0.000442512
0.489876 0.128069 0
0.586526 0.111406 0
0.709163 0.101061 0
0.797177 0.0999924 0
0.824994 0.0999924 0
0.837491 0.0999924 0
0.850004 0.0999924 0
0.862501 0.0999924 0
0.874998 0.0999924 0
0.887495 0.0999924 0
0.899992 0.0999924 0
0.912505 0.0999924 0
0.925002 0.0999924 0
0.937499 0.0999924 0
0.949996 0.0999924 0
0.962493 0.0999924 0
0.975006 0.0999924 0
0.987503 0.0999924 0
1 0.0999924 0
0 0.200183 0.0143435
0.0124971 0.200702 0.0141604
0.0249943 0.201297 0.013962
0.0374914 0.202533 0.0125582
0.0515908 0.203845 0.0110933
0.0690166 0.205035 0.00959792
0.0903182 0.205875 0.00827039
0.115206 0.206195 0.00720226
0.144686 0.205371 0.00669871
0.18201 0.202579 0.00677501
0.230991 0.196887 0.00706493
0.290196 0.188647 0.00671397
0.353643 0.179736 0.00486763
0.418982 0.170977 0.000946059
0.490105 0.161913 0
0.581125 0.148272 0
0.703182 0.128481 0
0.796368 0.119265 0
0.824994 0.116976 0
0.837491 0.116472 0
0.850004 0.114412 0
0.862501 0.112657 0
0.874998 0.11249 0
0.887495 0.11249 0
0.899992 0.11249 0
0.912505 0.11249 0
0.925002 0.11249 0
0.937499 0.11249 0
0.949996 0.11249 0
0.962493 0.11249 0
0.975006 0.11249 0
0.987503 0.11249 0
1 0.116732 0
0 0.227329 0.00965896
0.0124971 0.22829 0.0093843
0.0249943 0.229526 0.00903334
0.0374914 0.230991 0.00842298
0.0499886 0.232807 0.00721752
0.0636912 0.234882 0.00584421
0.0800641 0.237034 0.00442512
0.103319 0.239078 0.0031281
0.131075 0.240223 0.00250248
0.166369 0.239582 0.0028687
0.213901 0.235874 0.0041352
0.274464 0.229099 0.00517281
0.34342 0.220706 0.00456245
0.414084 0.212787 0.00195315
0.487282 0.205035 0
0.574472 0.194522 0
0.690898 0.177157 0
0.793347 0.163928 0
0.824994 0.158984 0
0.837491 0.158846 0
0.850004 0.154025 0
0.862501 0.148547 0
0.874998 0.14461 0
0.887495 0.142184 0
0.899992 0.141131 0
0.912505 0.140917 0
0.925002 0.141726 0
0.937499 0.143374 0
0.949996 0.146212 0
0.962493 0.151644 0
0.975006 0.157748 0
0.987503 0.163729 0
1 0.169711 0
0 0.259571 0.00418097
0.0124971 0.261357 0.00370794
0.0249943 0.263203 0.00321965
0.0374914 0.265309 0.00267033
0.0499886 0.267628 0.00196841
0.062501 0.270253 0.00120546
0.0750286 0.273594 0.000564584
0.0933394 0.277302 0.000183108
0.118517 0.280888 1.5259e-05
0.151064 0.283253 0
0.195727 0.282506 0.000457771
0.254917 0.278401 0.00244144
0.327565 0.271397 0.00311284
0.403922 0.264363 0.00259403
0.480354 0.258152 0.000915541
0.565515 0.250614 0
0.673823 0.237461 0
0.784802 0.224842 0
0.824994 0.218143 0
0.837491 0.218601 0
0.850004 0.214984 0
0.862501 0.2094 0
0.874998 0.20557 0
0.887495 0.20322 0
0.899992 0.201907 0
0.912505 0.201602 0
0.925002 0.20267 0
0.937499 0.204135 0
0.949996 0.207797 0
0.962493 0.21384 0
0.975006 0.220386 0
0.987503 0.227192 0
1 0.234241 0
0 0.298207 0
0.0124971 0.300999 0
0.0249943 0.304006 0
0.0374914 0.307286 0
0.0499886 0.31075 0
0.062501 0.314214 0
0.0749981 0.318624 0
0.0881819 0.323919 0
0.107912 0.3299 0
0.139116 0.334951 0
0.18085 0.337621 0
0.237324 0.336751 0.000427253
0.309377 0.332296 0.00177005
0.389425 0.326421 0.00215152
0.46891 0.321218 0.00184634
0.553368 0.315221 0.000167849
0.653696 0.30573 0
0.76495 0.294347 0
0.824994 0.286595 0
0.837491 0.284825 0
0.850004 0.282582 0
0.862501 0.277073 0
0.874998 0.273167 0
0.887495 0.270726 0
0.899992 0.269261 0
0.912505 0.26923 0
0.925002 0.270237 0
0.937499 0.271778 0
0.949996 0.275624 0
0.962493 0.282536 0
0.975006 0.290013 0
0.987503 0.297475 0
1 0.30515 0
0 0.345251 0
0.0124971 0.349416 0
0.0249943 0.354269 0
0.0374914 0.359518 0
0.0499886 0.365011 0
0.062501 0.369757 0
0.0749981 0.374044 0
0.0874952 0.379583 0
0.102266 0.386877 0
0.129671 0.394125 0
0.170031 0.39913 0
0.224048 0.401099 0.000854505
0.293492 0.399374 0.00221256
0.374044 0.39472 0.0021973
0.455085 0.390249 0.00187686
0.539086 0.384802 0.000350958
0.632731 0.377752 0
0.73611 0.368536 0
0.822354 0.361044 0
0.837491 0.356497 0
0.850004 0.355291 0
0.862501 0.349996 0
0.874998 0.345556 0
0.887495 0.342809 0
0.899992 0.341558 0
0.912505 0.342153 0
0.925002 0.343801 0
0.937499 0.346151 0
0.949996 0.349401 0
0.962493 0.357519 0
0.975006 0.36614 0
0.987503 0.374762 0
1 0.383215 0
0 0.401907 0
0.0124971 0.407965 0
0.0249943 0.414267 0
0.0374914 0.420844 0
0.0499886 0.427405 0
0.062501 0.433906 0
0.0749981 0.439261 0
0.0874952 0.444419 0
0.100374 0.451301 0
0.122515 0.45948 0
0.163149 0.465431 0.000320439
0.215564 0.468818 0.00354009
0.281956 0.468544 0.00512703
0.361303 0.46453 0.0043183
0.442115 0.459693 0.00309758
0.525551 0.454673 0.000808728
0.615351 0.4486 0
0.710628 0.442008 0
0.803372 0.436591 0
0.837491 0.43267 0
0.850004 0.432242 0
0.862501 0.428397 0
0.874998 0.424323 0
0.887495 0.421759 0
0.899992 0.420951 0
0.912505 0.421881 0
0.925002 0.424002 0
0.937499 0.426841 0
0.949996 0.43006 0
0.962493 0.438865 0
0.975006 0.447669 0
0.987503 0.456382 0
1 0.464775 0
0 0.467109 0
0.0124971 0.474296 0
0.0249943 0.482216 0
0.0374914 0.490394 0
0.0499886 0.498573 0
0.062501 0.506294 0
0.0749981 0.51281 0
0.0874952 0.518318 0
0.0999924 0.523125 0
0.115099 0.529763 0
0.152224 0.535119 0.000213626
0.204211 0.538415 0.00361639
0.268635 0.538354 0.00593576
0.346471 0.534585 0.00509651
0.427665 0.530236 0.00349432
0.510735 0.52578 0.00077821
0.598718 0.520546 0
0.689464 0.51574 0
0.777264 0.512078 0
0.837064 0.51014 0
0.850004 0.510109 0
0.862501 0.508492 0
0.874998 0.505196 0
0.887495 0.502861 0
0.899992 0.502739 0
0.912505 0.503838 0
0.925002 0.506065 0
0.937499 0.508553 0
0.949996 0.512108 0
0.962493 0.520119 0
0.975006 0.528557 0
0.987503 0.536706 0
1 0.544701 0
0 0.541436 0
0.0124971 0.550042 0
0.0249943 0.559121 0
0.0374914 0.568276 0
0.0499886 0.577386 0
0.062501 0.58616 0
0.0749981 0.593805 0
0.0874952 0.59968 0
0.0999924 0.603281 0
0.11249 0.606317 0
0.134142 0.60914 0
0.186328 0.610834 0.000442512
0.25243 0.610346 0.00555428
0.33022 0.606638 0.00619516
0.411887 0.602731 0.00418097
0.494728 0.598856 0.000244144
0.582147 0.594369 0
0.669734 0.59057 0
0.752575 0.588083 0
0.823743 0.587839 0
0.850004 0.587793 0
0.862501 0.587793 0
0.874998 0.584985 0
0.887495 0.583322 0
0.899992 0.583108 0
0.912505 0.584237 0
0.925002 0.585946 0
0.937499 0.588769 0
0.949996 0.59202 0
0.962493 0.598276 0
0.975006 0.605646 0
0.987503 0.612589 0
1 0.619669 0
0 0.622126 0
0.0124971 0.631907 0
0.0249943 0.641855 0
0.0374914 0.651469 0
0.0499886 0.661082 0
0.062501 0.67039 0
0.0749981 0.678431 0
0.0874952 0.684443 0
0.0999924 0.687968 0
0.11249 0.689342 0
0.125368 0.689433 0
0.158083 0.68896 0
0.227329 0.6869 0.0015259
0.308446 0.68191 0.00529488
0.394629 0.676448 0.00392157
0.478737 0.672007 9.15541e-05
0.566552 0.66688 0
0.652857 0.662165 0
0.732631 0.659846 0
0.80235 0.659739 0
0.847974 0.659754 0
0.862501 0.659678 0
0.874998 0.657954 0
0.887495 0.656809 0
0.899992 0.656931 0
0.912505 0.657801 0
0.925002 0.659083 0
0.937499 0.661036 0
0.949996 0.663493 0
0.962493 0.668162 0
0.975006 0.674266 0
0.987503 0.679484 0
1 0.684581 0
0 0.706065 0
0.0124971 0.715831 0
0.0249943 0.725048 0
0.0374914 0.733959 0
0.0499886 0.742718 0
0.062501 0.751156 0
0.0749981 0.758755 0
0.0874952 0.764446 0
0.0999924 0.767834 0
0.11249 0.769406 0
0.125002 0.769284 0
0.138201 0.768521 0
0.193545 0.766033 0
0.27303 0.760357 0.000579843
0.365438 0.751675 0.000900282
0.456825 0.743618 0
0.547662 0.735637 0
0.636912 0.728588 0
0.716991 0.724086 0
0.784054 0.72256 0
0.838788 0.722148 0
0.862486 0.721233 0
0.874998 0.720027 0
0.887495 0.719036 0
0.899992 0.718822 0
0.912505 0.719478 0
0.925002 0.720638 0
0.937499 0.722148 0
0.949996 0.723735 0
0.962493 0.726192 0
0.975006 0.730571 0
0.987503 0.734844 0
1 0.738918 0
0 0.784054 0
0.0124971 0.792432 0
0.0249943 0.800641 0
0.0374914 0.808789 0
0.0499886 0.815351 0
0.062501 0.821561 0
0.0749981 0.827512 0
0.0874952 0.832517 0
0.0999924 0.836683 0
0.11249 0.836408 0
0.125002 0.836576 0
0.137499 0.836789 0
0.16939 0.835554 0
0.235798 0.832685 0
0.321202 0.824826 0
0.422492 0.812665 0
0.521126 0.800366 0
0.617563 0.78883 0
0.702815 0.780484 0
0.770855 0.776364 0
0.825299 0.774319 0
0.861494 0.77258 0
0.874998 0.771344 0
0.887495 0.770382 0
0.899992 0.769924 0
0.912505 0.770047 0
0.925002 0.77052 0
0.937499 0.771389 0
0.949996 0.772671 0
0.962493 0.77406 0
0.975006 0.777203 0
0.987503 0.780026 0
1 0.782681 0
0 0.848081 0
0.0124971 0.850004 0
0.0249943 0.850004 0
0.0374914 0.850004 0
0.0499886 0.850004 0
0.062501 0.850004 0
0.0749981 0.850004 0
0.0874952 0.850004 0
0.0999924 0.850004 0
0.11249 0.850004 0
0.125002 0.850004 0
0.137499 0.850004 0
0.160769 0.850004 0
0.213718 0.850004 0
0.282307 0.850004 0
0.377127 0.850004 0
0.485283 0.847166 0
0.590387 0.840787 0
0.685542 0.83064 0
0.758724 0.822751 0
0.813809 0.818235 0
0.858015 0.815473 0
0.874998 0.813489 0
0.887495 0.812299 0
0.899992 0.81178 0
0.912505 0.811749 0
0.925002 0.812146 0
0.937499 0.812589 0
0.949996 0.813169 0
0.962493 0.813748 0
0.975006 0.815747 0
0.987503 0.817868 0
1 0.819837 0
0 0.862501 0
0.0124971 0.862501 0
0.0249943 0.862501 0
0.0374914 0.862501 0
0.0499886 0.862501 0
0.062501 0.862501 0
0.0749981 0.862501 0
0.0874952 0.862501 0
0.0999924 0.862501 0
0.11249 0.862501 0
0.125002 0.862501 0
0.137499 0.862501 0
0.161044 0.862501 0
0.209354 0.862501 0
0.263462 0.862501 0
0.338811 0.862501 0
0.448417 0.862501 0
0.560006 0.862501 0
0.665385 0.862455 0
0.747082 0.861631 0
0.804135 0.856474 0
0.849836 0.852811 0
0.874998 0.850233 0
0.887495 0.848432 0
0.899992 0.847684 0
0.912505 0.847257 0
0.925002 0.847196 0
0.937499 0.847318 0
0.949996 0.8477 0
0.962493 0.84802 0
0.975006 0.849165 0
0.987503 0.850736 0
1 0.852232 0
0 0.874998 0
0.0124971 0.874998 0
0.0249943 0.874998 0
0.0374914 0.874998 0
0.0499886 0.874998 0
0.062501 0.874998 0
0.0749981 0.874998 0
0.0874952 0.874998 0
0.0999924 0.874998 0
0.11249 0.874998 0
0.125002 0.874998 0
0.137499 0.874998 0
0.159487 0.874998 0
0.207462 0.874998 0
0.258839 0.874998 0
0.326436 0.874998 0
0.42681 0.874998 0
0.539178 0.874998 0
0.647944 0.874998 0
0.734524 0.874998 0
0.794751 0.874998 0
0.841123 0.874998 0
0.873854 0.874998 0
0.887495 0.874998 0
0.899992 0.874495 0
0.912505 0.873594 0
0.925002 0.873014 0
0.937499 0.872786 0
0.949996 0.872847 0
0.962493 0.873213 0
0.975006 0.873838 0
0.987503 0.87454 0
1 0.874998 0
0 0.887495 0
0.0124971 0.887495 0
0.0249943 0.887495 0
0.0374914 0.887495 0
0.0499886 0.887495 0
0.062501 0.887495 0
0.0749981 0.887495 0
0.0874952 0.887495 0
0.0999924 0.887495 0
0.11249 0.887495 0
0.125002 0.887495 0
0.137499 0.887495 0
0.157839 0.887495 0
0.205768 0.887495 0
0.255314 0.887495 0
0.319661 0.887495 0
0.414069 0.887495 0
0.524102 0.887495 0
0.632746 0.887495 0
0.721904 0.887495 0
0.785321 0.887495 0
0.832837 0.887495 0
0.868589 0.887495 0
0.887495 0.887495 0
0.899992 0.887495 0
0.912505 0.887495 0
0.925002 0.887495 0
0.937499 0.887495 0
0.949996 0.887495 0
0.962493 0.887495 0
0.975006 0.887495 0
0.987503 0.887495 0
1 0.887495 0
0 0.899992 0
0.0124971 0.899992 0
0.0249943 0.899992 0
0.0374914 0.899992 0
0.0499886 0.899992 0
0.062501 0.899992 0
0.0749981 0.899992 0
0.0874952 0.899992 0
0.0999924 0.899992 0
0.11249 0.899992 0
0.125002 0.899992 0
0.137499 0.899992 0
0.158892 0.899992 0
0.205005 0.899992 0
0.25391 0.899992 0
0.317342 0.899992 0
0.409918 0.899992 0
0.518273 0.899992 0
0.625544 0.899992 0
0.714488 0.899992 0
0.779187 0.899992 0
0.826658 0.899992 0
0.864958 0.899992 0
0.887465 0.899992 0
0.899992 0.899992 0
0.912505 0.899992 0
0.925002 0.899992 0
0.937499 0.899992 0
0.949996 0.899992 0
0.962493 0.899992 0
0.975006 0.899992 0
0.987503 0.899992 0
1 0.899992 0
0 0.912505 0
0.0124971 0.912505 0
0.0249943 0.912505 0
0.0374914 0.912505 0
0.0499886 0.912505 0
0.062501 0.912505 0
0.0749981 0.912505 0
0.0874952 0.912505 0
0.0999924 0.912505 0
0.11249 0.912505 0
0.125002 0.912505 0
0.137499 0.912505 0
0.15848 0.912505 0
0.204974 0.912505 0
0.254139 0.912505 0
0.315816 0.912505 0
0.408377 0.912505 0
0.515846 0.912505 0
0.622629 0.912505 0
0.711269 0.912505 0
0.776471 0.912505 0
0.823362 0.912505 0
0.862776 0.912505 0
0.886488 0.912505 0
0.899992 0.912505 0
0.912505 0.912505 0
0.925002 0.912505 0
0.937499 0.912505 0
0.949996 0.912505 0
0.962493 0.912505 0
0.975006 0.912505 0
0.987503 0.912505 0
1 0.912505 0
0 0.925002 0
0.0124971 0.925002 0
0.0249943 0.925002 0
0.0374914 0.925002 0
0.0499886 0.925002 0
0.062501 0.925002 0
0.0749981 0.925002 0
0.0874952 0.925002 0
0.0999924 0.925002 0
0.11249 0.925002 0
0.125002 0.925002 0
0.137499 0.925002 0
0.157702 0.925002 0
0.205173 0.925002 0
0.254154 0.925002 0
0.315801 0.925002 0
0.407004 0.925002 0
0.513863 0.925002 0
0.619837 0.925002 0
0.708995 0.925002 0
0.773938 0.925002 0
0.82121 0.925002 0
0.860426 0.925002 0
0.885664 0.925002 0
0.899992 0.925002 0
0.912505 0.925002 0
0.925002 0.925002 0
0.937499 0.925002 0
0.949996 0.925002 0
0.962493 0.925002 0
0.975006 0.925002 0
0.987503 0.925002 0
1 0.925002 0
0 0.937499 0
0.0124971 0.937499 0
0.0249943 0.937499 0
0.0374914 0.937499 0
0.0499886 0.937499 0
0.062501 0.937499 0
0.0749981 0.937499 0
0.0874952 0.937499 0
0.0999924 0.937499 0
