LUTs/81.cube
TITLE "Generate by Resolve"
LUT_3D_SIZE 33
0.0146334 0.0348974 0.056199
0.0306554 0.0336309 0.0551156
0.046952 0.0323339 0.0539254
0.0644083 0.0309148 0.0520485
0.0823529 0.0294194 0.049958
0.10193 0.0276646 0.0471656
0.1234 0.0256046 0.0439155
0.147951 0.0230411 0.0399329
0.176486 0.0198215 0.0349432
0.209308 0.016022 0.0291447
0.24683 0.0117952 0.0225681
0.292622 0.0059968 0.0146334
0.349386 0 0.00460822
0.419211 0 0
0.511498 0 0
0.661311 0 0
0.801389 0 0
0.88629 0 0
0.912505 0 0
0.918746 0 0
0.925002 0 0
0.931243 0 0
0.937499 0 0
0.943755 0 0
0.949996 0 0
0.956252 0 0
0.962493 0 0
0.96875 0 0
0.975006 0 0
0.981247 0 0
0.987503 0 0
0.993744 0 0
1 0 0
0.0105135 0.0482948 0.0508583
0.0260319 0.0470588 0.05037
0.042298 0.0456703 0.049836
0.0598306 0.0441291 0.0484932
0.0779278 0.0423285 0.0470436
0.0975967 0.0403143 0.0446937
0.119478 0.0376135 0.0419928
0.144594 0.0340276 0.0387121
0.174212 0.0292821 0.0343481
0.207843 0.0234531 0.0291905
0.245457 0.0182193 0.0228428
0.291051 0.0124819 0.0149538
0.347402 0.00630198 0.00488289
0.417304 0.00624094 0
0.50808 0.00624094 0
0.657221 0.00624094 0
0.799542 0.00624094 0
0.885206 0.00624094 0
0.912505 0.00624094 0
0.918746 0.00624094 0
0.925002 0.00624094 0
0.931243 0.00624094 0
0.937499 0.00624094 0
0.943755 0.00624094 0
0.949996 0.00624094 0
0.956252 0.00624094 0
0.962493 0.00624094 0
0.96875 0.00624094 0
0.975006 0.00624094 0
0.981247 0.00624094 0
0.987503 0.00624094 0
0.993744 0.00624094 0
1 0.00624094 0
0.00631724 0.0618753 0.0454719
0.0212711 0.0606088 0.0455024
0.0374914 0.0593423 0.0454414
0.0549477 0.0576791 0.0447089
0.0731365 0.0559243 0.0437781
0.0928817 0.0538033 0.0417792
0.11487 0.0511635 0.0394293
0.140307 0.0475319 0.0365606
0.170764 0.0426337 0.0325628
0.205692 0.0365454 0.0277562
0.245136 0.0293736 0.0220798
0.290455 0.0205539 0.0149844
0.3467 0.0126192 0.00502022
0.416266 0.0124971 0
0.507073 0.0124971 0
0.656397 0.0124971 0
0.799542 0.0124971 0
0.885527 0.0124971 0
0.912505 0.0124971 0
0.918746 0.0124971 0
0.925002 0.0124971 0
0.931243 0.0124971 0
0.937499 0.0124971 0
0.943755 0.0124971 0
0.949996 0.0124971 0
0.956252 0.0124971 0
0.962493 0.0124971 0
0.96875 0.0124971 0
0.975006 0.0124971 0
0.981247 0.0124971 0
0.987503 0.0124971 0
0.993744 0.0124971 0
1 0.0124971 0
0.00347906 0.0749371 0.043595
0.0173037 0.0740673 0.0430457
0.0330968 0.0729534 0.0424048
0.0501717 0.0716106 0.0412909
0.0677653 0.0700389 0.040177
0.0876631 0.0679942 0.0383612
0.109667 0.0653086 0.0363928
0.135531 0.0617075 0.0339055
0.166705 0.0565652 0.0305028
0.203845 0.0499428 0.0260777
0.245319 0.0422065 0.0209049
0.291554 0.0334173 0.0144045
0.347311 0.0234226 0.00512703
0.416281 0.0190585 0
0.50808 0.0187533 0
0.658457 0.0187533 0
0.801846 0.0187533 0
0.887236 0.0187533 0
0.912505 0.0187533 0
0.918746 0.0187533 0
0.925002 0.0187533 0
0.931243 0.0187533 0
0.937499 0.0187533 0
0.943755 0.0187533 0
0.949996 0.0187533 0
0.956252 0.0187533 0
0.962493 0.0187533 0
0.96875 0.0187533 0
0.975006 0.0187533 0
0.981247 0.0187533 0
0.987503 0.0187533 0
0.993744 0.0187533 0
1 0.0187533 0
0.00062562 0.0881208 0.0416571
0.013077 0.0875105 0.0407874
0.0284123 0.0867018 0.0394903
0.0449989 0.0856489 0.0379797
0.0622721 0.0844282 0.036408
0.082002 0.0825513 0.0347753
0.103838 0.0800336 0.033051
0.129961 0.0764935 0.0309453
0.161669 0.0714275 0.0280919
0.200122 0.0647593 0.0241703
0.244282 0.0564584 0.0195163
0.292836 0.0471962 0.0136568
0.348959 0.0359655 0.00512703
0.417411 0.026566 0
0.506676 0.0249943 0
0.658091 0.0249943 0
0.805081 0.0249943 0
0.890349 0.0249943 0
0.912505 0.0249943 0
0.918746 0.0249943 0
0.925002 0.0249943 0
0.931243 0.0249943 0
0.937499 0.0249943 0
0.943755 0.0249943 0
0.949996 0.0249943 0
0.956252 0.0249943 0
0.962493 0.0249943 0
0.96875 0.0249943 0
0.975006 0.0249943 0
0.981247 0.0249943 0
0.987503 0.0249943 0
0.993744 0.0249943 0
1 0.0249943 0
0.000289921 0.102495 0.0377508
0.0104524 0.102007 0.0370947
0.0240024 0.101518 0.0356451
0.0394903 0.100694 0.0341802
0.0565805 0.0997635 0.0325628
0.075761 0.0981918 0.0310369
0.0973678 0.095964 0.0294499
0.123491 0.092668 0.0276036
0.155688 0.0876631 0.0253147
0.19559 0.0806897 0.0220645
0.242908 0.0716411 0.0179599
0.293538 0.0621347 0.0128481
0.350851 0.051194 0.00512703
0.419318 0.0383612 0
0.505318 0.0317998 0
0.650126 0.0312505 0
0.799039 0.0312505 0
0.892836 0.0312505 0
0.912505 0.0312505 0
0.918746 0.0312505 0
0.925002 0.0312505 0
0.931243 0.0312505 0
0.937499 0.0312505 0
0.943755 0.0312505 0
0.949996 0.0312505 0
0.956252 0.0312505 0
0.962493 0.0312505 0
0.96875 0.0312505 0
0.975006 0.0312505 0
0.981247 0.0312505 0
0.987503 0.0312505 0
0.993744 0.0312505 0
1 0.0312505 0
0 0.117357 0.0336767
0.00793469 0.117205 0.0332341
0.0194705 0.117006 0.0316625
0.0331731 0.116564 0.0301671
0.0499428 0.116045 0.0285039
0.0686046 0.114946 0.0269627
0.0896773 0.113207 0.0254368
0.115831 0.110201 0.0238956
0.148013 0.105562 0.0221408
0.188724 0.0987259 0.0196841
0.238956 0.0896315 0.0162203
0.293156 0.0794842 0.0119326
0.352514 0.0683452 0.00523384
0.42153 0.0548867 1.5259e-05
0.505943 0.0410315 0
0.641749 0.0374914 0
0.792279 0.0374914 0
0.893019 0.0374914 0
0.912505 0.0374914 0
0.918746 0.0374914 0
0.925002 0.0374914 0
0.931243 0.0374914 0
0.937499 0.0374914 0
0.943755 0.0374914 0
0.949996 0.0374914 0
0.956252 0.0374914 0
0.962493 0.0374914 0
0.96875 0.0374914 0
0.975006 0.0374914 0
0.981247 0.0374914 0
0.987503 0.0374914 0
0.993744 0.0374914 0
1 0.0374914 0
0 0.133776 0.0293431
0.00627146 0.133913 0.0292821
0.0154116 0.134112 0.0275883
0.0257572 0.134249 0.0259098
0.042237 0.134234 0.0242008
0.0601205 0.133745 0.0226139
0.0805219 0.132662 0.0210727
0.106096 0.130404 0.0197452
0.137865 0.126543 0.0184329
0.179156 0.120119 0.0168002
0.231724 0.110719 0.014374
0.290654 0.0999008 0.0110323
0.353353 0.0885023 0.00552377
0.423423 0.0757 7.62951e-05
0.506462 0.0606546 0
0.633234 0.0448768 0
0.785245 0.0437476 0
0.889113 0.0437476 0
0.912505 0.0437476 0
0.918746 0.0437476 0
0.925002 0.0437476 0
0.931243 0.0437476 0
0.937499 0.0437476 0
0.943755 0.0437476 0
0.949996 0.0437476 0
0.956252 0.0437476 0
0.962493 0.0437476 0
0.96875 0.0437476 0
0.975006 0.0437476 0
0.981247 0.0437476 0
0.987503 0.0437476 0
0.993744 0.0437476 0
1 0.0437476 0
0 0.152056 0.0245518
0.00624094 0.152346 0.024445
0.0130922 0.153017 0.0233005
0.0203098 0.153841 0.0214542
0.0340429 0.154528 0.0196231
0.050248 0.155169 0.017731
0.0700847 0.15494 0.016144
0.0944533 0.153704 0.0149233
0.125185 0.150835 0.0140688
0.166033 0.145373 0.0133516
0.220661 0.136446 0.012192
0.28484 0.12517 0.0101015
0.351949 0.113313 0.00605783
0.424445 0.10135 0.000579843
0.507347 0.0874342 0
0.625788 0.0652171 0
0.778881 0.0514229 0
0.885817 0.0500038 0
0.912505 0.0500038 0
0.918746 0.0500038 0
0.925002 0.0500038 0
0.931243 0.0500038 0
0.937499 0.0500038 0
0.943755 0.0500038 0
0.949996 0.0500038 0
0.956252 0.0500038 0
0.962493 0.0500038 0
0.96875 0.0500038 0
0.975006 0.0500038 0
0.981247 0.0500038 0
0.987503 0.0500038 0
0.993744 0.0500038 0
1 0.0500038 0
0 0.173159 0.0191196
0.00624094 0.173861 0.0188907
0.0124971 0.174655 0.018616
0.0187533 0.176303 0.0167391
0.0271305 0.178058 0.014786
0.0399329 0.179629 0.0127871
0.0579232 0.180758 0.011017
0.080705 0.18117 0.00961318
0.10959 0.180072 0.00894179
0.148943 0.176349 0.00903334
0.203815 0.168765 0.00943008
0.272358 0.157778 0.00895705
0.346517 0.145907 0.00648508
0.423239 0.134234 0.00125124
0.507637 0.122133 0
0.618585 0.10396 0
0.770901 0.0775616 0
0.884733 0.0652781 0
0.912505 0.0622263 0
0.918746 0.0615396 0
0.925002 0.058793 0
0.931243 0.0564584 0
0.937499 0.0562448 0
0.943755 0.0562448 0
0.949996 0.0562448 0
0.956252 0.0562448 0
0.962493 0.0562448 0
0.96875 0.0562448 0
0.975006 0.0562448 0
0.981247 0.0562448 0
0.987503 0.0562448 0
0.993744 0.0562448 0
1 0.0618906 0
0 0.198932 0.0128786
0.00624094 0.200229 0.0125124
0.0124971 0.201877 0.0120546
0.0187533 0.203815 0.0112306
0.0249943 0.206241 0.00962844
0.0328527 0.209003 0.00779736
0.0442512 0.211872 0.00588998
0.0648508 0.214603 0.00416571
0.0914473 0.216144 0.00332647
0.128084 0.215274 0.00381476
0.181033 0.210346 0.00550851
0.251377 0.201312 0.00689708
0.332906 0.190112 0.00607309
0.416709 0.179553 0.00259403
0.503868 0.169223 0
0.609705 0.1552 0
0.754528 0.132036 0
0.880705 0.114412 0
0.912505 0.10782 0
0.918746 0.107622 0
0.925002 0.101198 0
0.931243 0.093904 0
0.937499 0.0886549 0
0.943755 0.08542 0
0.949996 0.0840162 0
0.956252 0.0837262 0
0.962493 0.0847944 0
0.96875 0.0869917 0
0.975006 0.0907912 0
0.981247 0.098024 0
0.987503 0.106157 0
0.993744 0.114137 0
1 0.122118 0
0 0.231525 0.00556954
0.00624094 0.23389 0.00494392
0.0124971 0.236362 0.00428778
0.0187533 0.23917 0.00355535
0.0249943 0.242252 0.00262455
0.0312657 0.245762 0.00161746
0.0375525 0.250217 0.000762951
0.051545 0.255146 0.000244144
0.0746929 0.259937 3.0518e-05
0.107683 0.263096 0
0.156802 0.262104 0.000610361
0.225299 0.256626 0.00326543
0.311757 0.247272 0.00415045
0.403159 0.237903 0.0034638
0.494652 0.229618 0.00122072
0.597772 0.219562 0
0.731762 0.202045 0
0.869322 0.185214 0
0.912505 0.176287 0
0.918746 0.176898 0
0.925002 0.172061 0
0.931243 0.16463 0
0.937499 0.159503 0
0.943755 0.15639 0
0.949996 0.15462 0
0.956252 0.154223 0
0.962493 0.155657 0
0.96875 0.15761 0
0.975006 0.162493 0
0.981247 0.17055 0
0.987503 0.179263 0
0.993744 0.188342 0
1 0.197742 0
0 0.272602 0
0.00624094 0.276341 0
0.0124971 0.280354 0
0.0187533 0.284718 0
0.0249943 0.289326 0
0.0312505 0.29395 0
0.0374914 0.29984 0
0.0446632 0.306905 0
0.0605631 0.31487 0
0.0917372 0.321614 0
0.13698 0.32517 0
0.201862 0.32401 0.000564584
0.28751 0.318074 0.00234989
0.383825 0.310231 0.0028687
0.479377 0.303288 0.0024567
0.581582 0.295308 0.000213626
0.704936 0.282643 0
0.842847 0.26746 0
0.912505 0.25713 0
0.918746 0.254765 0
0.925002 0.251789 0
0.931243 0.244434 0
0.937499 0.239216 0
0.943755 0.235981 0
0.949996 0.234028 0
0.956252 0.233982 0
0.962493 0.235309 0
0.96875 0.237369 0
0.975006 0.242496 0
0.981247 0.251728 0
0.987503 0.261677 0
0.993744 0.271641 0
1 0.281865 0
0 0.324926 0
0.00624094 0.330465 0
0.0124971 0.336934 0
0.0187533 0.343954 0
0.0249943 0.351278 0
0.0312505 0.357595 0
0.0374914 0.363317 0
0.0437476 0.370703 0
0.0530251 0.380423 0
0.0791485 0.390097 0
0.122545 0.39675 0
0.184146 0.39939 0.00114443
0.266331 0.397086 0.00296025
0.363317 0.39089 0.00292973
0.46096 0.384909 0.00250248
0.562539 0.377661 0.000457771
0.676966 0.368261 0
0.80441 0.355962 0
0.908965 0.345968 0
0.918746 0.33991 0
0.925002 0.338308 0
0.931243 0.331258 0
0.937499 0.325338 0
0.943755 0.32166 0
0.949996 0.319997 0
0.956252 0.32079 0
0.962493 0.322988 0
0.96875 0.326116 0
0.975006 0.330449 0
0.981247 0.341283 0
0.987503 0.352773 0
0.993744 0.364263 0
1 0.37554 0
0 0.390051 0
0.00624094 0.398123 0
0.0124971 0.406531 0
0.0187533 0.41529 0
0.0249943 0.424033 0
0.0312505 0.4327 0
0.0374914 0.439857 0
0.0437476 0.446723 0
0.0504921 0.455894 0
0.0695964 0.466819 0
0.113375 0.474739 0.000427253
0.172839 0.479271 0.0047303
0.250935 0.478904 0.00683604
0.346319 0.473533 0.00575265
0.443656 0.467094 0.0041352
0.544488 0.46041 0.00108339
0.653803 0.452293 0
0.770428 0.443519 0
0.883665 0.436301 0
0.918746 0.431052 0
0.925002 0.430503 0
0.931243 0.425361 0
0.937499 0.419928 0
0.943755 0.416526 0
0.949996 0.415427 0
0.956252 0.416678 0
0.962493 0.419501 0
0.96875 0.423285 0
0.975006 0.427573 0
0.981247 0.439323 0
0.987503 0.451072 0
0.993744 0.462669 0
1 0.473869 0
0 0.46656 0
0.00624094 0.476143 0
0.0124971 0.486702 0
0.0187533 0.497612 0
0.0249943 0.508507 0
0.0312505 0.518807 0
0.0374914 0.527504 0
0.0437476 0.534844 0
0.0500038 0.541253 0
0.0597238 0.550103 0
0.0988022 0.557244 0.000289921
0.157702 0.561639 0.00482185
0.233173 0.561547 0.00791943
0.326558 0.556542 0.00679026
0.424384 0.550744 0.004654
0.524742 0.544793 0.00103761
0.631617 0.53782 0
0.742214 0.531395 0
0.848859 0.526528 0
0.918181 0.523934 0
0.925002 0.523888 0
0.931243 0.521737 0
0.937499 0.517357 0
0.943755 0.514244 0
0.949996 0.514076 0
0.956252 0.515541 0
0.962493 0.518502 0
0.96875 0.521813 0
0.975006 0.526574 0
0.981247 0.53724 0
0.987503 0.548501 0
0.993744 0.55935 0
1 0.570031 0
0 0.555245 0
0.00624094 0.566735 0
0.0124971 0.578836 0
0.0187533 0.591043 0
0.0249943 0.603174 0
0.0312505 0.614893 0
0.0374914 0.625086 0
0.0437476 0.632914 0
0.0500038 0.637705 0
0.0562448 0.641749 0
0.0746929 0.645518 0
0.133867 0.647776 0.000579843
0.211566 0.64712 0.00740063
0.304891 0.642176 0.00827039
0.403357 0.636973 0.00556954
0.503395 0.631815 0.000335698
0.609522 0.625834 0
0.715908 0.620752 0
0.815946 0.617441 0
0.900404 0.617121 0
0.925002 0.61706 0
0.931243 0.61706 0
0.937499 0.613306 0
0.943755 0.611093 0
0.949996 0.610819 0
0.956252 0.612329 0
0.962493 0.614603 0
0.96875 0.618372 0
0.975006 0.622705 0
0.981247 0.631037 0
0.987503 0.640864 0
0.993744 0.650111 0
1 0.659571 0
0 0.65243 0
0.00624094 0.665461 0
0.0124971 0.678737 0
0.0187533 0.691539 0
0.0249943 0.704356 0
0.0312505 0.716762 0
0.0374914 0.727504 0
0.0437476 0.735515 0
0.0500038 0.7402 0
0.0562448 0.742046 0
0.0629892 0.742168 0
0.0961929 0.741527 0
0.178119 0.738796 0.00204471
0.275837 0.732143 0.00704967
0.380331 0.724849 0.00521859
0.482063 0.718929 0.000122072
0.588739 0.712093 0
0.693401 0.705806 0
0.789334 0.702724 0
0.871885 0.702571 0
0.922301 0.702586 0
0.931243 0.702495 0
0.937499 0.700191 0
0.943755 0.698665 0
0.949996 0.698833 0
0.956252 0.699992 0
0.962493 0.701701 0
0.96875 0.704295 0
0.975006 0.707576 0
0.981247 0.713802 0
0.987503 0.72195 0
0.993744 0.728908 0
1 0.735698 0
0 0.753933 0
0.00624094 0.766949 0
0.0124971 0.779232 0
0.0187533 0.791104 0
0.0249943 0.802792 0
0.0312505 0.814054 0
0.0374914 0.82417 0
0.0437476 0.831769 0
0.0500038 0.836286 0
0.0562448 0.838376 0
0.062501 0.838209 0
0.069688 0.837201 0
0.133074 0.83389 0
0.228626 0.826322 0.000762951
0.341421 0.814725 0.0011902
0.452842 0.803983 0
0.563561 0.793362 0
0.672145 0.783963 0
0.76849 0.777951 0
0.847501 0.775906 0
0.910063 0.775372 0
0.931243 0.774151 0
0.937499 0.772549 0
0.943755 0.771221 0
0.949996 0.770932 0
0.956252 0.771801 0
0.962493 0.773358 0
0.96875 0.775357 0
0.975006 0.777493 0
0.981247 0.780758 0
0.987503 0.786587 0
0.993744 0.792294 0
1 0.797726 0
0 0.847501 0
0.00624094 0.858656 0
0.0124971 0.869612 0
0.0187533 0.880476 0
0.0249943 0.88922 0
0.0312505 0.897505 0
0.0374914 0.905425 0
0.0437476 0.912108 0
0.0500038 0.917662 0
0.0562448 0.917296 0
0.062501 0.917525 0
0.0687419 0.9178 0
0.100847 0.916167 0
0.178973 0.912322 0
0.282445 0.901854 0
0.40708 0.885649 0
0.528161 0.869245 0
0.646326 0.853849 0
0.749584 0.842741 0
0.829892 0.837232 0
0.892058 0.834516 0
0.929915 0.832197 0
0.937499 0.830549 0
0.943755 0.829252 0
0.949996 0.828641 0
0.956252 0.828809 0
0.962493 0.829435 0
0.96875 0.83061 0
0.975006 0.832303 0
0.981247 0.834165 0
0.987503 0.838361 0
0.993744 0.842115 0
1 0.845655 0
0 0.922438 0
0.00624094 0.925002 0
0.0124971 0.925002 0
0.0187533 0.925002 0
0.0249943 0.925002 0
0.0312505 0.925002 0
0.0374914 0.925002 0
0.0437476 0.925002 0
0.0500038 0.925002 0
0.0562448 0.925002 0
0.062501 0.925002 0
0.0687419 0.925002 0
0.0893568 0.925002 0
0.149554 0.925002 0
0.230579 0.925002 0
0.346578 0.925002 0
0.480369 0.921233 0
0.610101 0.912718 0
0.726558 0.899199 0
0.813718 0.88867 0
0.876738 0.882643 0
0.925277 0.878965 0
0.937499 0.87631 0
0.943755 0.874723 0
0.949996 0.874052 0
0.956252 0.874006 0
0.962493 0.87454 0
0.96875 0.87512 0
0.975006 0.875898 0
0.981247 0.876661 0
0.987503 0.879332 0
0.993744 0.882155 0
1 0.884794 0
0 0.931243 0
0.00624094 0.931243 0
0.0124971 0.931243 0
0.0187533 0.931243 0
0.0249943 0.931243 0
0.0312505 0.931243 0
0.0374914 0.931243 0
0.0437476 0.931243 0
0.0500038 0.931243 0
0.0562448 0.931243 0
0.062501 0.931243 0
0.0687419 0.931243 0
0.0897383 0.931243 0
0.143725 0.931243 0
0.205463 0.931243 0
0.295506 0.931243 0
0.431235 0.931243 0
0.569604 0.931243 0
0.699687 0.931197 0
0.798184 0.930098 0
0.863859 0.923217 0
0.914366 0.918334 0
0.937499 0.9149 0
0.943755 0.912505 0
0.949996 0.911498 0
0.956252 0.910933 0
0.962493 0.910842 0
0.96875 0.911009 0
0.975006 0.911528 0
0.981247 0.91194 0
0.987503 0.913481 0
0.993744 0.915557 0
1 0.917571 0
0 0.937499 0
0.00624094 0.937499 0
0.0124971 0.937499 0
0.0187533 0.937499 0
0.0249943 0.937499 0
0.0312505 0.937499 0
0.0374914 0.937499 0
0.0437476 0.937499 0
0.0500038 0.937499 0
0.0562448 0.937499 0
0.062501 0.937499 0
0.0687419 0.937499 0
0.0876631 0.937499 0
0.141207 0.937499 0
0.199283 0.937499 0
0.279011 0.937499 0
0.402426 0.937499 0
0.541833 0.937499 0
0.676417 0.937499 0
0.78146 0.937499 0
0.851331 0.937499 0
0.902754 0.937499 0
0.935973 0.937499 0
0.943755 0.937499 0
0.949996 0.936828 0
0.956252 0.935637 0
0.962493 0.934859 0
0.96875 0.934554 0
0.975006 0.93463 0
0.981247 0.935119 0
0.987503 0.935943 0
0.993744 0.936889 0
1 0.937499 0
0 0.943755 0
0.00624094 0.943755 0
0.0124971 0.943755 0
0.0187533 0.943755 0
0.0249943 0.943755 0
0.0312505 0.943755 0
0.0374914 0.943755 0
0.0437476 0.943755 0
0.0500038 0.943755 0
0.0562448 0.943755 0
0.062501 0.943755 0
0.0687419 0.943755 0
0.0854658 0.943755 0
0.138949 0.943755 0
0.194583 0.943755 0
0.269963 0.943755 0
0.385428 0.943755 0
0.521721 0.943755 0
0.656153 0.943755 0
0.76463 0.943755 0
0.838758 0.943755 0
0.891707 0.943755 0
0.928954 0.943755 0
0.943755 0.943755 0
0.949996 0.943755 0
0.956252 0.943755 0
0.962493 0.943755 0
0.96875 0.943755 0
0.975006 0.943755 0
0.981247 0.943755 0
0.987503 0.943755 0
0.993744 0.943755 0
1 0.943755 0
0 0.949996 0
0.00624094 0.949996 0
0.0124971 0.949996 0
0.0187533 0.949996 0
0.0249943 0.949996 0
0.0312505 0.949996 0
0.0374914 0.949996 0
0.0437476 0.949996 0
0.0500038 0.949996 0
0.0562448 0.949996 0
0.062501 0.949996 0
0.0687419 0.949996 0
0.0868696 0.949996 0
0.137926 0.949996 0
0.192706 0.949996 0
0.26688 0.949996 0
0.379889 0.949996 0
0.513954 0.949996 0
0.646555 0.949996 0
0.754742 0.949996 0
0.830594 0.949996 0
0.883467 0.949996 0
0.924117 0.949996 0
0.943709 0.949996 0
0.949996 0.949996 0
0.956252 0.949996 0
0.962493 0.949996 0
0.96875 0.949996 0
0.975006 0.949996 0
0.981247 0.949996 0
0.987503 0.949996 0
0.993744 0.949996 0
1 0.949996 0
0 0.956252 0
0.00624094 0.956252 0
0.0124971 0.956252 0
0.0187533 0.956252 0
0.0249943 0.956252 0
0.0312505 0.956252 0
0.0374914 0.956252 0
0.0437476 0.956252 0
0.0500038 0.956252 0
0.0562448 0.956252 0
0.062501 0.956252 0
0.0687419 0.956252 0
0.086305 0.956252 0
0.137896 0.956252 0
0.193011 0.956252 0
0.264836 0.956252 0
0.377844 0.956252 0
0.510719 0.956252 0
0.642664 0.956252 0
0.750454 0.956252 0
0.826963 0.956252 0
0.879057 0.956252 0
0.921202 0.956252 0
0.942397 0.956252 0
0.949996 0.956252 0
0.956252 0.956252 0
0.962493 0.956252 0
0.96875 0.956252 0
0.975006 0.956252 0
0.981247 0.956252 0
0.987503 0.956252 0
0.993744 0.956252 0
1 0.956252 0
0 0.962493 0
0.00624094 0.962493 0
0.0124971 0.962493 0
0.0187533 0.962493 0
0.0249943 0.962493 0
0.0312505 0.962493 0
0.0374914 0.962493 0
0.0437476 0.962493 0
0.0500038 0.962493 0
0.0562448 0.962493 0
0.062501 0.962493 0
0.0687419 0.962493 0
0.0852827 0.962493 0
0.138155 0.962493 0
0.193042 0.962493 0
0.26482 0.962493 0
0.376013 0.962493 0
0.508064 0.962493 0
0.638941 0.962493 0
0.747402 0.962493 0
0.82359 0.962493 0
0.876204 0.962493 0
0.918059 0.962493 0
0.941299 0.962493 0
0.949996 0.962493 0
0.956252 0.962493 0
0.962493 0.962493 0
0.96875 0.962493 0
0.975006 0.962493 0
0.981247 0.962493 0
0.987503 0.962493 0
0.993744 0.962493 0
1 0.962493 0
0 0.96875 0
0.00624094 0.96875 0
0.0124971 0.96875 0
0.0187533 0.96875 0
0.0249943 0.96875 0
0.0312505 0.96875 0
0.0374914 0.96875 0
0.0437476 0.96875 0
0.0500038 0.96875 0
