LUTs/81.cube
TITLE "Generate by Resolve"
LUT_3D_SIZE 5
0.0146334 0.0348974 0.056199
0.176486 0.0198215 0.0349432
0.801389 0 0
0.949996 0 0
1 0 0
0 0.152056 0.0245518
0.125185 0.150835 0.0140688
0.778881 0.0514229 0
0.949996 0.0500038 0
1 0.0500038 0
0 0.555245 0
0.0500038 0.637705 0
0.609522 0.625834 0
0.949996 0.610819 0
1 0.659571 0
0 0.949996 0
0.0500038 0.949996 0
0.379889 0.949996 0
0.949996 0.949996 0
1 0.949996 0
0 1 0
0.0500038 1 0
0.39411 1 0
0.949996 1 0
1 1 0
0.0142519 0.026566 0.226017
0.158572 0.0158236 0.213794
0.756252 0 0.0500038
0.949996 0 0.0500038
1 0 0.0500038
0 0.151339 0.144228
0.123796 0.148959 0.183597
0.738109 0.0604715 0.0631418
0.949996 0.0500038 0.0500038
1 0.0500038 0.0500038
0 0.581704 0.0500038
0.0500038 0.6607 0.0539406
0.633616 0.649805 0.0581369
0.949996 0.634211 0.0500038
1 0.681025 0.0500038
0 0.949996 0.0500038
0.0500038 0.949996 0.0500038
0.392966 0.949996 0.0500038
0.949996 0.949996 0.0500038
1 0.949996 0.0500038
0 1 0.0500038
0.0500038 1 0.0500038
0.38764 1 0.0500038
0.949996 1 0.0500038
1 1 0.0500038
0 0 0.899992
0.114656 0 0.899992
0.724773 0 0.722133
0.949996 0 0.664714
1 0 0.630121
0 0.0933852 0.899992
0.0954604 0.101457 0.85864
0.725872 0.0500038 0.721035
0.949996 0.0500038 0.775418
1 0.0500038 0.819669
0 0.587503 0.505211
0.0500038 0.665782 0.581506
0.63212 0.63476 0.667002
0.949996 0.637659 0.65069
1 0.672084 0.684779
0 0.949996 0.503532
0.0500038 0.949996 0.58378
0.575799 0.949996 0.624781
0.947585 0.948272 0.494911
1 0.945235 0.462257
0 1 0.617243
0.0500038 1 0.633387
0.544106 1 0.5935
0.938933 1 0.335866
1 1 0.207416
0 0 0.949996
0.0856489 0 0.949996
0.748104 0 0.949996
0.949996 0 0.949996
1 0 0.949996
0 0.0708171 0.949996
0.0697948 0.0767071 0.949996
0.807507 0.0500038 0.949996
0.949996 0.0500038 0.949996
1 0.0500038 0.949996
0 0.595666 0.949996
0.0500038 0.674723 0.949996
0.634867 0.63299 0.942596
0.949996 0.632486 0.949996
1 0.662867 0.949996
0 0.949996 0.949996
0.0500038 0.949996 0.949996
0.506615 0.949996 0.949996
0.941085 0.925933 0.929335
1 0.916197 0.920165
0 1 0.949996
0.0500038 1 0.949996
0.441611 1 0.949996
0.901762 1 0.891081
0.998688 1 0.875242
0 0 1
0.0779736 0 1
0.733364 0 1
0.949996 0 1
1 0 1
0 0.0688029 1
0.0716869 0.0797436 1
0.816922 0.0500038 1
0.949996 0.0500038 1
1 0.0500038 1
0 0.610513 1
0.0500038 0.694102 1
0.648569 0.648112 0.99205
0.949996 0.643549 1
1 0.671702 1
0 0.949996 1
0.0500038 0.949996 1
0.495613 0.949996 1
0.938323 0.923018 1
1 0.911772 1
0 1 1
0.0500038 1 1
0.386175 1 1
0.89276 1 0.997116
1 1 1
