LUTs/81.cube
TITLE "Generate by Resolve"
LUT_3D_SIZE 9
0.0146334 0.0348974 0.056199
0.0823529 0.0294194 0.049958
0.176486 0.0198215 0.0349432
0.349386 0 0.00460822
0.801389 0 0
0.925002 0 0
0.949996 0 0
0.975006 0 0
1 0 0
0.00062562 0.0881208 0.0416571
0.0622721 0.0844282 0.036408
0.161669 0.0714275 0.0280919
0.348959 0.0359655 0.00512703
0.805081 0.0249943 0
0.925002 0.0249943 0
0.949996 0.0249943 0
0.975006 0.0249943 0
1 0.0249943 0
0 0.152056 0.0245518
0.0340429 0.154528 0.0196231
0.125185 0.150835 0.0140688
0.351949 0.113313 0.00605783
0.778881 0.0514229 0
0.925002 0.0500038 0
0.949996 0.0500038 0
0.975006 0.0500038 0
1 0.0500038 0
0 0.272602 0
0.0249943 0.289326 0
0.0605631 0.31487 0
0.28751 0.318074 0.00234989
0.704936 0.282643 0
0.925002 0.251789 0
0.949996 0.234028 0
0.975006 0.242496 0
1 0.281865 0
0 0.555245 0
0.0249943 0.603174 0
0.0500038 0.637705 0
0.211566 0.64712 0.00740063
0.609522 0.625834 0
0.925002 0.61706 0
0.949996 0.610819 0
0.975006 0.622705 0
1 0.659571 0
0 0.922438 0
0.0249943 0.925002 0
0.0500038 0.925002 0
0.0893568 0.925002 0
0.480369 0.921233 0
0.876738 0.882643 0
0.949996 0.874052 0
0.975006 0.875898 0
1 0.884794 0
0 0.949996 0
0.0249943 0.949996 0
0.0500038 0.949996 0
0.0868696 0.949996 0
0.379889 0.949996 0
0.830594 0.949996 0
0.949996 0.949996 0
0.975006 0.949996 0
1 0.949996 0
0 0.975006 0
0.0249943 0.975006 0
0.0500038 0.975006 0
0.092668 0.975006 0
0.3729 0.975006 0
0.817105 0.975006 0
0.949996 0.975006 0
0.975006 0.975006 0
1 0.975006 0
0 1 0
0.0249943 1 0
0.0500038 1 0
0.105852 1 0
0.39411 1 0
0.815427 1 0
0.949996 1 0
0.975006 1 0
1 1 0
0.0143435 0.0314794 0.129732
0.0784009 0.027039 0.126223
0.175006 0.0177157 0.100008
0.350164 0 0.0432593
0.800473 0 0.0249943
0.925002 0 0.0249943
0.949996 0 0.0249943
0.975006 0 0.0249943
1 0 0.0249943
0.000122072 0.089189 0.0918593
0.0609598 0.0818036 0.107195
0.162737 0.0690776 0.090486
0.352407 0.0349126 0.043122
0.806912 0.0249943 0.0249943
0.925002 0.0249943 0.0249943
0.949996 0.0249943 0.0249943
0.975006 0.0249943 0.0249943
1 0.0249943 0.0249943
0 0.151446 0.0753338
0.0337987 0.154742 0.0733043
0.125887 0.152285 0.0663767
0.364431 0.114137 0.0444648
0.781704 0.0513924 0.0249943
0.925002 0.0500038 0.0249943
0.949996 0.0500038 0.0249943
0.975006 0.0500038 0.0249943
1 0.0500038 0.0249943
0 0.277729 0.0249943
0.0249943 0.297139 0.0258335
0.0627604 0.326329 0.0271153
0.299672 0.330175 0.0333104
0.720058 0.295491 0.0249943
0.925002 0.264179 0.0249943
0.949996 0.245548 0.0249943
0.975006 0.25626 0.0249943
1 0.29659 0.0249943
0 0.571115 0.0249943
0.0249943 0.620081 0.0249943
0.0500038 0.654322 0.0249943
0.221485 0.661479 0.032578
0.62414 0.639704 0.0249943
0.925002 0.632227 0.0249943
0.949996 0.624079 0.0249943
0.975006 0.635782 0.0249943
1 0.673152 0.0249943
0 0.925002 0.0249943
0.0249943 0.925002 0.0249943
0.0500038 0.925002 0.0249943
0.0955978 0.925002 0.0249943
0.490837 0.923751 0.0249943
0.882856 0.888411 0.0249943
0.949996 0.879332 0.0249943
0.975006 0.879988 0.0249943
1 0.888884 0.0249943
0 0.949996 0.0249943
0.0249943 0.949996 0.0249943
0.0500038 0.949996 0.0249943
0.0903029 0.949996 0.0249943
0.390448 0.949996 0.0249943
0.835172 0.949996 0.0249943
0.949996 0.949996 0.0249943
0.975006 0.949996 0.0249943
1 0.949996 0.0249943
0 0.975006 0.0249943
0.0249943 0.975006 0.0249943
0.0500038 0.975006 0.0249943
0.0947433 0.975006 0.0249943
0.378378 0.975006 0.0249943
0.819059 0.975006 0.0249943
0.949996 0.975006 0.0249943
0.975006 0.975006 0.0249943
1 0.975006 0.0249943
0 1 0.0249943
0.0249943 1 0.0249943
0.0500038 1 0.0249943
0.105791 1 0.0249943
0.394888 1 0.0249943
0.81622 1 0.0249943
0.949996 1 0.0249943
0.975006 1 0.0249943
1 1 0.0249943
0.0142519 0.026566 0.226017
0.0699321 0.0232242 0.233845
0.158572 0.0158236 0.213794
0.349676 0 0.122118
0.756252 0 0.0500038
0.925002 0 0.0500038
0.949996 0 0.0500038
0.975006 0 0.0500038
1 0 0.0500038
0.00633249 0.0772106 0.214313
0.0591287 0.0743725 0.225483
0.152255 0.0641489 0.214572
0.356817 0.0308995 0.122774
0.766873 0.0249943 0.0500496
0.925002 0.0249943 0.0500038
0.949996 0.0249943 0.0500038
0.975006 0.0249943 0.0500038
1 0.0249943 0.0500038
0 0.151339 0.144228
0.0315709 0.153597 0.15877
0.123796 0.148959 0.183597
0.389838 0.108965 0.126009
0.738109 0.0604715 0.0631418
0.925002 0.0500038 0.0500038
0.949996 0.0500038 0.0500038
0.975006 0.0500038 0.0500038
1 0.0500038 0.0500038
0 0.283726 0.0875868
0.0249943 0.305974 0.0956588
0.059968 0.34052 0.10164
0.312398 0.345235 0.0962081
0.707088 0.31548 0.100282
0.925002 0.273976 0.0597543
0.949996 0.254826 0.0509346
0.975006 0.267887 0.0564736
1 0.309697 0.0706035
0 0.581704 0.0500038
0.0249943 0.628626 0.0509804
0.0500038 0.6607 0.0539406
0.238361 0.670848 0.0892958
0.633616 0.649805 0.0581369
0.925002 0.642481 0.0500038
0.949996 0.634211 0.0500038
0.975006 0.646143 0.0500038
1 0.681025 0.0500038
0 0.925002 0.0500038
0.0249943 0.925002 0.0500038
0.0500038 0.925002 0.0500038
0.0994736 0.925002 0.0500038
0.494835 0.925002 0.0500038
0.88574 0.892424 0.0500038
0.949996 0.882506 0.0500038
0.975006 0.882521 0.0500038
1 0.890791 0.0500038
0 0.949996 0.0500038
0.0249943 0.949996 0.0500038
0.0500038 0.949996 0.0500038
0.0905928 0.949996 0.0500038
0.392966 0.949996 0.0500038
0.835477 0.949996 0.0500038
0.949996 0.949996 0.0500038
0.975006 0.949996 0.0500038
1 0.949996 0.0500038
0 0.975006 0.0500038
0.0249943 0.975006 0.0500038
0.0500038 0.975006 0.0500038
0.0941939 0.975006 0.0500038
0.375402 0.975006 0.0500038
0.816678 0.975006 0.0500038
0.949996 0.975006 0.0500038
0.975006 0.975006 0.0500038
1 0.975006 0.0500038
0 1 0.0500038
0.0249943 1 0.0500038
0.0500038 1 0.0500038
0.103197 1 0.0500038
0.38764 1 0.0500038
0.811963 1 0.0500038
0.949996 1 0.0500038
0.975006 1 0.0500038
1 1 0.0500038
0.00526436 0.01178 0.465232
0.0537728 0.0116426 0.454673
0.125521 0.00923171 0.436912
0.315602 0 0.357733
0.684031 0 0.259068
0.925002 0 0.207492
0.949996 0 0.141619
0.975006 0 0.119081
1 0 0.108492
0.00425727 0.0579995 0.447837
0.05037 0.0576333 0.445533
0.123629 0.0531472 0.438911
0.320562 0.0259403 0.363592
0.704341 0.0249943 0.274662
0.925002 0.0249943 0.238392
0.949996 0.0249943 0.187366
0.975006 0.0249943 0.183612
1 0.0249943 0.21059
0.00299077 0.124529 0.41593
0.0412757 0.128099 0.426596
0.118486 0.130266 0.449668
0.359777 0.0983291 0.409491
0.693629 0.06215 0.30428
0.925002 0.0500038 0.30013
0.949996 0.0500038 0.270237
0.975006 0.0500038 0.285557
1 0.0500038 0.343648
0 0.284566 0.241932
0.0249943 0.309728 0.260151
0.0555886 0.342535 0.294224
0.306645 0.339208 0.394247
0.722194 0.310872 0.334432
0.925002 0.2916 0.307088
0.949996 0.270359 0.286183
0.975006 0.286275 0.305074
1 0.333654 0.353857
0 0.578424 0.233631
0.0249943 0.621408 0.267063
0.0500038 0.651331 0.294255
0.234943 0.675059 0.307134
0.64094 0.651423 0.259709
0.916625 0.653544 0.234165
0.949996 0.645563 0.190494
0.975006 0.656382 0.199786
1 0.688289 0.237263
0 0.922438 0.116152
0.0249943 0.925002 0.140948
0.0500038 0.925002 0.159792
0.147662 0.925002 0.20705
0.598932 0.903777 0.242573
0.87715 0.88217 0.103807
0.949996 0.877119 0.0749981
0.975006 0.87657 0.0749981
1 0.883223 0.0749981
0 0.949996 0.130648
0.0249943 0.949996 0.146136
0.0500038 0.949996 0.156695
0.0886091 0.949996 0.146746
0.409125 0.949996 0.108659
0.827054 0.949996 0.0749981
0.949996 0.949996 0.0749981
0.975006 0.949996 0.0749981
1 0.949996 0.0749981
0 0.975006 0.144076
0.0249943 0.975006 0.158877
0.0500038 0.975006 0.164508
0.08925 0.975006 0.144717
0.368063 0.975006 0.0951858
0.804166 0.975006 0.0749981
0.949996 0.975006 0.0749981
0.975006 0.975006 0.0749981
1 0.975006 0.0749981
0 1 0.172198
0.0249943 1 0.179629
0.0500038 1 0.17789
0.0948806 1 0.151522
0.377218 1 0.0957809
0.794705 1 0.0749981
0.948394 1 0.0749981
0.975006 1 0.0749981
1 1 0.0749981
0 0 0.899992
0.0290684 0 0.899992
0.114656 0 0.899992
0.346899 0 0.804974
0.724773 0 0.722133
0.925002 0 0.714199
0.949996 0 0.664714
0.975006 0 0.641001
1 0 0.630121
0 0.0267185 0.899992
0.0260471 0.0263218 0.899992
0.105058 0.0252842 0.898451
0.347295 0.0249943 0.801312
0.748699 0.0249943 0.74313
0.925002 0.0249943 0.739437
0.949996 0.0249943 0.711406
0.975006 0.0249943 0.711391
1 0.0249943 0.73228
0 0.0933852 0.899992
0.0249943 0.0969558 0.898573
0.0954604 0.101457 0.85864
0.322118 0.0840009 0.749554
0.725872 0.0500038 0.721035
0.925002 0.0500038 0.79202
0.949996 0.0500038 0.775418
0.975006 0.0500038 0.784924
1 0.0500038 0.819669
0 0.253483 0.718532
0.0249943 0.282414 0.753765
0.0653391 0.311772 0.751461
0.310475 0.324254 0.744656
0.713222 0.296513 0.717998
0.925002 0.289815 0.747662
0.949996 0.268376 0.74464
0.975006 0.284947 0.755413
1 0.332082 0.776638
0 0.587503 0.505211
0.0249943 0.633906 0.549218
0.0500038 0.665782 0.581506
0.214939 0.671901 0.631189
0.63212 0.63476 0.667002
0.907164 0.637201 0.65098
0.949996 0.637659 0.65069
0.975006 0.646067 0.659998
1 0.672084 0.684779
0 0.908507 0.55346
0.0249943 0.925002 0.602564
0.0500038 0.925002 0.643763
0.180575 0.92488 0.682872
0.587259 0.881163 0.630304
0.853117 0.850492 0.571496
0.941131 0.847089 0.575601
0.966232 0.846281 0.573617
0.991196 0.85034 0.58471
0 0.949996 0.503532
0.0249943 0.949996 0.550881
0.0500038 0.949996 0.58378
0.08748 0.949996 0.558038
0.575799 0.949996 0.624781
0.839887 0.949371 0.569421
0.947585 0.948272 0.494911
0.975006 0.946334 0.468849
1 0.945235 0.462257
0 0.975006 0.541009
0.0249943 0.975006 0.583932
0.0500038 0.975006 0.599451
0.0851453 0.975006 0.541497
0.544518 0.975006 0.594232
0.827909 0.975006 0.532448
0.944137 0.975006 0.392523
0.975006 0.975006 0.32134
1 0.975006 0.294621
0 1 0.617243
0.0249943 1 0.638407
0.0500038 1 0.633387
0.0903487 1 0.5626
0.544106 1 0.5935
0.819852 1 0.508324
0.938933 1 0.335866
0.975006 1 0.235981
1 1 0.207416
0 0 0.925002
0.0249943 0 0.925002
0.0972457 0 0.925002
0.38265 0 0.925002
0.764172 0 0.925002
0.925002 0 0.925002
0.949996 0 0.917601
0.975006 0 0.913008
1 0 0.911055
0 0.0249943 0.925002
0.0249943 0.0249943 0.925002
0.0917525 0.0249943 0.925002
0.393561 0.0249943 0.925002
0.777707 0.0249943 0.925002
0.925002 0.0249943 0.925002
0.949996 0.0249943 0.925002
0.975006 0.0249943 0.925002
1 0.0249943 0.925002
0 0.0781109 0.925002
0.0249943 0.0825055 0.925002
0.0771191 0.0825666 0.925002
0.381735 0.0504311 0.925002
0.814862 0.0500038 0.925002
0.925002 0.0500038 0.925002
0.949996 0.0500038 0.925002
0.975006 0.0500038 0.925002
1 0.0500038 0.925002
0 0.24831 0.925002
0.0249943 0.280903 0.925002
0.0500038 0.309056 0.925002
0.300496 0.315251 0.925002
0.733455 0.285664 0.924514
0.925002 0.256458 0.925002
0.949996 0.236927 0.925002
0.975006 0.252018 0.925002
1 0.300069 0.925002
0 0.602045 0.916075
0.0249943 0.649378 0.918242
0.0500038 0.680964 0.922545
0.183062 0.671534 0.923796
0.636133 0.632258 0.895842
0.910124 0.629847 0.900084
0.949996 0.631662 0.901564
0.975006 0.638911 0.904341
1 0.664805 0.910628
0 0.9187 0.868345
0.0249943 0.925002 0.899992
0.0500038 0.925002 0.921263
0.0849012 0.925002 0.917815
0.561318 0.877028 0.860075
0.846189 0.834379 0.842115
0.949996 0.827543 0.832166
0.975006 0.826139 0.831449
1 0.829664 0.834989
0 0.949996 0.92491
0.0249943 0.949996 0.925002
0.0500038 0.949996 0.925002
0.0749981 0.949996 0.925002
0.5729 0.949996 0.879759
0.8121 0.944762 0.815045
0.939666 0.933333 0.796872
0.971862 0.92813 0.793286
0.996735 0.925841 0.790631
0 0.975006 0.925002
0.0249943 0.975006 0.925002
0.0500038 0.975006 0.925002
0.0749981 0.975006 0.925002
0.542687 0.975006 0.87361
0.802579 0.975006 0.80618
0.927871 0.975006 0.786587
0.970901 0.975006 0.784283
0.995804 0.975006 0.779828
0 1 0.925002
0.0249943 1 0.925002
0.0500038 1 0.925002
0.0749981 1 0.925002
0.534768 1 0.8719
0.793744 1 0.797986
0.91664 1 0.772198
0.970565 1 0.76907
0.995636 1 0.763088
0 0 0.949996
0.0249943 0 0.949996
0.0856489 0 0.949996
0.353384 0 0.949996
0.748104 0 0.949996
0.925002 0 0.949996
0.949996 0 0.949996
0.975006 0 0.949996
1 0 0.949996
0 0.0249943 0.949996
0.0249943 0.0249943 0.949996
0.0828412 0.0249943 0.949996
0.370199 0.0249943 0.949996
0.766201 0.0249943 0.949996
0.925002 0.0249943 0.949996
0.949996 0.0249943 0.949996
0.975006 0.0249943 0.949996
1 0.0249943 0.949996
0 0.0708171 0.949996
0.0249943 0.0759899 0.949996
0.0697948 0.0767071 0.949996
0.367697 0.0500038 0.949996
0.807507 0.0500038 0.949996
0.925002 0.0500038 0.949996
0.949996 0.0500038 0.949996
0.975006 0.0500038 0.949996
1 0.0500038 0.949996
0 0.241474 0.949996
0.0249943 0.274479 0.949996
0.0500038 0.302098 0.949996
0.290486 0.309529 0.949996
0.728695 0.279393 0.949996
0.925002 0.2495 0.949996
0.949996 0.230961 0.949996
0.975006 0.248325 0.949996
1 0.296895 0.949996
0 0.595666 0.949996
0.0249943 0.641184 0.949996
0.0500038 0.674723 0.949996
0.156527 0.675044 0.949996
0.634867 0.63299 0.942596
0.908415 0.631251 0.949996
0.949996 0.632486 0.949996
0.975006 0.638834 0.949996
1 0.662867 0.949996
0 0.924956 0.945602
0.0249943 0.925002 0.94815
0.0500038 0.925002 0.949996
0.0749981 0.925002 0.949996
0.556252 0.877287 0.948852
0.843351 0.831388 0.949996
0.949996 0.823697 0.949981
0.975006 0.821866 0.949157
1 0.824598 0.949996
0 0.949996 0.949996
0.0249943 0.949996 0.949996
0.0500038 0.949996 0.949996
0.0749981 0.949996 0.949996
0.506615 0.949996 0.949996
0.801801 0.943267 0.931884
0.941085 0.925933 0.929335
0.975006 0.91928 0.922866
1 0.916197 0.920165
0 0.975006 0.949996
0.0249943 0.975006 0.949996
0.0500038 0.975006 0.949996
0.0749981 0.975006 0.949996
0.459541 0.975006 0.949996
0.794827 0.975006 0.931624
0.917449 0.975006 0.905562
0.97435 0.975006 0.895933
0.999283 0.974624 0.890959
0 1 0.949996
0.0249943 1 0.949996
0.0500038 1 0.949996
0.0749981 1 0.949996
0.441611 1 0.949996
0.78352 1 0.924208
0.901762 1 0.891081
0.973236 1 0.880339
0.998688 1 0.875242
0 0 0.975006
0.0249943 0 0.975006
0.0796674 0 0.975006
0.337423 0 0.975006
0.739406 0 0.975006
0.925002 0 0.975006
0.949996 0 0.975006
0.975006 0 0.975006
1 0 0.975006
0 0.0249943 0.975006
0.0249943 0.0249943 0.975006
0.0783856 0.0249943 0.975006
0.359167 0.0249943 0.975006
0.761807 0.0249943 0.975006
0.925002 0.0249943 0.975006
0.949996 0.0249943 0.975006
0.975006 0.0249943 0.975006
1 0.0249943 0.975006
0 0.0679637 0.975006
0.0249943 0.0737163 0.975006
0.0679332 0.075761 0.975006
0.366674 0.05066 0.975006
0.808408 0.0500038 0.975006
0.925002 0.0500038 0.975006
0.949996 0.0500038 0.975006
0.975006 0.0500038 0.975006
1 0.0500038 0.975006
0 0.242756 0.975006
0.0249943 0.277195 0.975006
0.0500038 0.305608 0.975006
0.292393 0.313848 0.975006
0.728954 0.283665 0.975006
0.925002 0.253742 0.975006
0.949996 0.237232 0.975006
0.975006 0.257633 0.975006
1 0.308186 0.975006
0 0.601099 0.975006
0.0249943 0.64625 0.975006
0.0500038 0.680323 0.975006
0.158038 0.680415 0.975006
0.637537 0.637537 0.967422
0.909422 0.635248 0.975006
0.949996 0.635935 0.975006
0.975006 0.642786 0.975006
1 0.66569 0.975006
0 0.924163 0.970794
0.0249943 0.925002 0.973907
0.0500038 0.925002 0.975006
0.0749981 0.925002 0.975006
0.555566 0.878614 0.973297
0.842649 0.831876 0.975006
0.949996 0.823651 0.97499
0.975006 0.821317 0.975006
1 0.823713 0.975006
0 0.949996 0.975006
0.0249943 0.949996 0.975006
0.0500038 0.949996 0.975006
0.0749981 0.949996 0.975006
0.493584 0.949996 0.975006
0.796201 0.94406 0.957519
0.939239 0.923613 0.975006
0.975006 0.916396 0.975006
1 0.912856 0.975006
0 0.975006 0.975006
0.0249943 0.975006 0.975006
0.0500038 0.975006 0.975006
0.0749981 0.975006 0.975006
0.424277 0.975006 0.975006
0.789883 0.975006 0.965576
0.912261 0.975006 0.973602
0.97499 0.97464 0.974197
1 0.973541 0.973007
0 1 0.975006
0.0249943 1 0.975006
0.0500038 1 0.975006
0.0749981 1 0.975006
0.393256 1 0.975006
0.778286 1 0.96527
0.89633 1 0.972183
0.973907 1 0.969085
1 1 0.966125
0 0 1
0.0249943 0 1
0.0779736 0 1
0.329732 0 1
0.733364 0 1
0.925002 0 1
0.949996 0 1
0.975006 0 1
1 0 1
0 0.0249943 1
0.0249943 0.0249943 1
0.0781872 0.0249943 1
0.35906 0.0249943 1
0.761868 0.0249943 1
0.925002 0.0249943 1
0.949996 0.0249943 1
0.975006 0.0249943 1
1 0.0249943 1
0 0.0688029 1
0.0249943 0.0757763 1
0.0716869 0.0797436 1
0.377493 0.0534981 1
0.816922 0.0500038 1
0.925002 0.0500038 1
0.949996 0.0500038 1
0.975006 0.0500038 1
1 0.0500038 1
0 0.250019 1
0.0249943 0.288212 1
0.0500038 0.319875 1
0.305867 0.326726 1
0.736812 0.29659 1
0.925002 0.267796 1
0.949996 0.250843 1
0.975006 0.274632 1
1 0.324971 1
0 0.610513 1
0.0249943 0.658534 1
0.0500038 0.694102 1
0.170504 0.692638 1
0.648569 0.648112 0.99205
0.912673 0.645563 1
0.949996 0.643549 1
0.975006 0.65095 1
1 0.671702 1
0 0.925002 0.996139
0.0249943 0.925002 1
0.0500038 0.925002 0.999985
0.0749981 0.925002 1
0.560861 0.881743 0.996368
0.844526 0.834089 1
0.949996 0.824979 0.999985
0.975006 0.822324 1
1 0.824445 1
0 0.949996 1
0.0249943 0.949996 1
0.0500038 0.949996 1
0.0749981 0.949996 1
0.495613 0.949996 1
0.795651 0.943908 0.982757
0.938323 0.923018 1
0.975006 0.915602 1
1 0.911772 1
0 0.975006 1
0.0249943 0.975006 1
0.0500038 0.975006 1
0.0749981 0.975006 1
0.420493 0.975006 1
0.788357 0.975006 0.990524
0.909682 0.975006 0.998367
0.974929 0.974365 1
1 0.973114 1
0 1 1
0.0249943 1 1
0.0500038 1 1
0.0749981 1 1
0.386175 1 1
0.775845 1 0.99025
0.89276 1 0.997116
0.973358 1 1
1 1 1
