LUTs/85.cube
TITLE "Generate by Resolve"
LUT_3D_SIZE 33
0.00529488 0.00680552 0.0148165
0.0333715 0.00514229 0.0129244
0.0672465 0.00289921 0.0106508
0.101228 0.000762951 0.00851453
0.134508 0 0.00666819
0.16701 0.000106813 0.0053254
0.198306 0.0018616 0.00497444
0.229099 0.0043946 0.00619516
0.261997 0.007187 0.00917067
0.298939 0.00976577 0.0119631
0.341024 0.0116579 0.0141756
0.391318 0.0119631 0.0149081
0.460304 0.00758373 0.0112154
0.561822 0 0.00190738
0.672892 0 0
0.767422 0 0
0.8 0 0
0.812497 0 0
0.824994 0 0
0.837491 0 0
0.850004 0 0
0.862501 0 0
0.874998 0 0
0.887495 0 0
0.899992 0 0
0.912505 0 0
0.925002 0 0
0.937499 0 0
0.949996 0 0
0.962493 0 0
0.975006 0 0
0.987503 0 0
1 0 0
0.00271611 0.0273289 0.0133822
0.0286412 0.0255741 0.0108644
0.0619211 0.0230716 0.00889601
0.0964675 0.0204166 0.007187
0.130556 0.0184024 0.00572213
0.163851 0.0172885 0.00469978
0.195956 0.0174411 0.004654
0.226871 0.0186465 0.00614939
0.259403 0.0204013 0.00907912
0.295857 0.0222934 0.0117952
0.337133 0.0240177 0.0139925
0.386526 0.0245823 0.0149691
0.453529 0.0207218 0.01178
0.55111 0.0124971 0.00234989
0.662806 0.0124971 0
0.763775 0.0124971 0
0.8 0.0124971 0
0.812497 0.0124971 0
0.824994 0.0124971 0
0.837491 0.0124971 0
0.850004 0.0124971 0
0.862501 0.0124971 0
0.874998 0.0124971 0
0.887495 0.0124971 0
0.899992 0.0124971 0
0.912505 0.0124971 0
0.925002 0.0124971 0
0.937499 0.0124971 0
0.949996 0.0124971 0
0.962493 0.0124971 0
0.975006 0.0124971 0
0.987503 0.0124971 0
1 0.0124971 0
0.000579843 0.0547799 0.01178
0.0197147 0.0534371 0.00900282
0.0540322 0.0500038 0.00561532
0.0905318 0.04654 0.00444038
0.125429 0.0436561 0.00373846
0.159915 0.0411383 0.00350958
0.193332 0.0393378 0.00430304
0.22536 0.0381933 0.00656138
0.257511 0.0376287 0.00968948
0.292973 0.0369573 0.012314
0.333349 0.0365759 0.0139467
0.381231 0.0372015 0.0150301
0.446418 0.0339055 0.0123751
0.540291 0.0249943 0.0028687
0.652873 0.0249943 0
0.755825 0.0249943 0
0.8 0.0249943 0
0.812497 0.0249943 0
0.824994 0.0249943 0
0.837491 0.0249943 0
0.850004 0.0249943 0
0.862501 0.0249943 0
0.874998 0.0249943 0
0.887495 0.0249943 0
0.899992 0.0249943 0
0.912505 0.0249943 0
0.925002 0.0249943 0
0.937499 0.0249943 0
0.949996 0.0249943 0
0.962493 0.0249943 0
0.975006 0.0249943 0
0.987503 0.0249943 0
1 0.0249943 0
0 0.0840925 0.0102235
0.0140078 0.0829938 0.00827039
0.0418097 0.0806134 0.00378424
0.0817578 0.0763714 0.00146487
0.119707 0.0725261 0.00170901
0.155352 0.0694591 0.00248722
0.190356 0.0666209 0.00424201
0.224125 0.0641337 0.00721752
0.256916 0.0620432 0.0109102
0.291859 0.0599222 0.0140841
0.331304 0.0578164 0.0161288
0.376883 0.0559243 0.0171054
0.438743 0.0510414 0.0144961
0.528862 0.0398718 0.00482185
0.642603 0.0374914 0
0.74815 0.0374914 0
0.8 0.0374914 0
0.812497 0.0374914 0
0.824994 0.0374914 0
0.837491 0.0374914 0
0.850004 0.0374914 0
0.862501 0.0374914 0
0.874998 0.0374914 0
0.887495 0.0374914 0
0.899992 0.0374914 0
0.912505 0.0374914 0
0.925002 0.0374914 0
0.937499 0.0374914 0
0.949996 0.0374914 0
0.962493 0.0374914 0
0.975006 0.0374914 0
0.987503 0.0374914 0
1 0.0374914 0
0 0.113909 0.0106813
0.0124971 0.112932 0.00955215
0.0313573 0.111711 0.00534066
0.0675364 0.108492 0.000747692
0.111284 0.103319 0.000289921
0.150042 0.099382 0.0018616
0.186694 0.0962081 0.00471504
0.222309 0.09337 0.00813306
0.25687 0.090898 0.0124666
0.292119 0.0887465 0.0168307
0.330785 0.0858625 0.0196689
0.374334 0.0822919 0.0209506
0.4309 0.0760204 0.0188296
0.514397 0.0628519 0.00953689
0.627817 0.0516213 0
0.739132 0.0499886 0
0.8 0.0499886 0
0.812497 0.0499886 0
0.824994 0.0499886 0
0.837491 0.0499886 0
0.850004 0.0499886 0
0.862501 0.0499886 0
0.874998 0.0499886 0
0.887495 0.0499886 0
0.899992 0.0499886 0
0.912505 0.0499886 0
0.925002 0.0499886 0
0.937499 0.0499886 0
0.949996 0.0499886 0
0.962493 0.0499886 0
0.975006 0.0499886 0
0.987503 0.0499886 0
1 0.0499886 0
0 0.144381 0.0139467
0.0124971 0.143389 0.0133516
0.0264134 0.142702 0.0105135
0.0517586 0.141405 0.00453193
0.0960098 0.137026 0.000350958
0.141756 0.131411 0.000747692
0.181704 0.127306 0.00454719
0.219532 0.12398 0.00918593
0.25597 0.121233 0.0140993
0.292302 0.118868 0.0195621
0.330846 0.11632 0.0236515
0.373571 0.112917 0.025742
0.424659 0.107515 0.0248722
0.497841 0.0962692 0.016907
0.604074 0.0764935 0.00140383
0.720333 0.0637369 0
0.799725 0.062501 0
0.812497 0.062501 0
0.824994 0.062501 0
0.837491 0.062501 0
0.850004 0.062501 0
0.862501 0.062501 0
0.874998 0.062501 0
0.887495 0.062501 0
0.899992 0.062501 0
0.912505 0.062501 0
0.925002 0.062501 0
0.937499 0.062501 0
0.949996 0.062501 0
0.962493 0.062501 0
0.975006 0.062501 0
0.987503 0.062501 0
1 0.062501 0
0 0.175525 0.0193942
0.0124971 0.17467 0.0191043
0.0249943 0.17406 0.0176547
0.0415808 0.173724 0.013077
0.0761883 0.172595 0.00392157
0.125978 0.166873 0.000427253
0.173281 0.160937 0.00271611
0.21471 0.156741 0.0090486
0.254017 0.153338 0.0156252
0.292271 0.150698 0.0223392
0.331136 0.148272 0.0278477
0.373251 0.145342 0.0310521
0.421073 0.141268 0.031693
0.484413 0.133165 0.0260471
0.577188 0.117342 0.0102388
0.693339 0.0951705 0.000137331
0.794186 0.0764782 0
0.812497 0.0749981 0
0.824994 0.0749981 0
0.837491 0.0749981 0
0.850004 0.0749981 0
0.862501 0.0749981 0
0.874998 0.0749981 0
0.887495 0.0749981 0
0.899992 0.0749981 0
0.912505 0.0749981 0
0.925002 0.0749981 0
0.937499 0.0749981 0
0.949996 0.0749981 0
0.962493 0.0749981 0
0.975006 0.0749981 0
0.987503 0.0749981 0
1 0.0749981 0
0 0.207553 0.0264744
0.0124971 0.206851 0.0261692
0.0249943 0.206271 0.0255283
0.0389868 0.206134 0.0225834
0.0654459 0.206394 0.0158541
0.10454 0.204639 0.00593576
0.157244 0.198459 0.00173953
0.20618 0.192401 0.00775158
0.249332 0.188052 0.0158236
0.290959 0.184619 0.0245975
0.331426 0.18204 0.0321813
0.373342 0.179492 0.03682
0.419272 0.176333 0.0388495
0.475273 0.170794 0.0358282
0.554314 0.159304 0.0228122
0.663996 0.139895 0.00302129
0.779858 0.118837 0
0.812497 0.107836 0
0.824994 0.100404 0
0.837491 0.094728 0
0.850004 0.0900282 0
0.862501 0.087602 0
0.874998 0.0874952 0
0.887495 0.0874952 0
0.899992 0.0874952 0
0.912505 0.0874952 0
0.925002 0.0874952 0
0.937499 0.0874952 0
0.949996 0.0874952 0
0.962493 0.0874952 0
0.975006 0.0874952 0
0.987503 0.0874952 0
1 0.0874952 0
0.000595102 0.240772 0.0353094
0.0130465 0.240131 0.0350195
0.0255131 0.23975 0.0348058
0.0392767 0.239551 0.0333867
0.060502 0.240314 0.0288243
0.0920424 0.240894 0.0207065
0.134874 0.238697 0.0108186
0.189792 0.232197 0.00817884
0.240818 0.226078 0.0155795
0.286656 0.221637 0.0255894
0.330739 0.218189 0.0358129
0.373785 0.215686 0.0427863
0.419089 0.213199 0.0462959
0.469978 0.209506 0.0458991
0.537453 0.201724 0.0364843
0.634348 0.186648 0.014725
0.750103 0.166705 0.000579843
0.812497 0.151598 0
0.824994 0.143725 0
0.837491 0.136202 0
0.850004 0.129198 0
0.862501 0.122774 0
0.874998 0.117342 0
0.887495 0.112612 0
0.899992 0.108415 0
0.912505 0.105211 0
0.925002 0.104875 0
0.937499 0.105028 0
0.949996 0.10518 0
0.962493 0.105379 0
0.975006 0.105577 0
0.987503 0.106279 0
1 0.107332 0
0.00462348 0.275319 0.0455787
0.0170138 0.274983 0.0454261
0.0294041 0.274662 0.0452735
0.0423896 0.274525 0.0449378
0.0606546 0.275044 0.0424506
0.0872358 0.27657 0.0367285
0.12137 0.277333 0.0280308
0.167697 0.274739 0.0186007
0.22472 0.268147 0.0175937
0.278172 0.262119 0.0266117
0.326955 0.257679 0.0379339
0.373373 0.254475 0.0480201
0.419394 0.25211 0.0538338
0.467948 0.249683 0.0559701
0.526452 0.244907 0.0504158
0.608042 0.234577 0.0321508
0.718746 0.217105 0.00614939
0.809125 0.1991 0
0.824994 0.1906 0
0.837491 0.183352 0
0.850004 0.176333 0
0.862501 0.169741 0
0.874998 0.163699 0
0.887495 0.158099 0
0.899992 0.153079 0
0.912505 0.149218 0
0.925002 0.148775 0
0.937499 0.149523 0
0.949996 0.150393 0
0.962493 0.151385 0
0.975006 0.152361 0
0.987503 0.153353 0
1 0.15433 0
0.0122835 0.31191 0.056733
0.0247044 0.31165 0.056611
0.037171 0.311574 0.0565652
0.0496986 0.311681 0.056611
0.0643626 0.311757 0.0557565
0.086183 0.312978 0.0525673
0.116564 0.315206 0.0464332
0.153628 0.315908 0.0375067
0.203342 0.312963 0.0290837
0.263447 0.306264 0.0299229
0.319341 0.30042 0.0403449
0.370169 0.296437 0.0515602
0.418906 0.293675 0.0602731
0.467887 0.291417 0.0649729
0.520638 0.288609 0.0635538
0.589792 0.282155 0.0500496
0.687846 0.268818 0.02121
0.795743 0.251362 0.00122072
0.824994 0.23978 0
0.837491 0.232578 0
0.850004 0.22565 0
0.862501 0.21912 0
0.874998 0.213153 0
0.887495 0.207538 0
0.899992 0.202579 0
0.912505 0.198505 0
0.925002 0.197513 0
0.937499 0.198291 0
0.949996 0.199084 0
0.962493 0.200076 0
0.975006 0.201083 0
0.987503 0.201984 0
1 0.202869 0
0.0196536 0.350759 0.0681773
0.0321355 0.350759 0.0681773
0.0446937 0.350942 0.0682383
0.0572671 0.351217 0.0683604
0.070222 0.351278 0.0682383
0.0879225 0.351858 0.0669108
0.115511 0.354116 0.0631571
0.148425 0.356466 0.0572518
0.189029 0.356817 0.0484016
0.243183 0.353262 0.0413214
0.306371 0.346548 0.0447089
0.363836 0.341161 0.0551003
0.416175 0.337774 0.0651102
0.467002 0.335241 0.0720073
0.51783 0.333013 0.0745556
0.578958 0.328878 0.0657816
0.660899 0.320195 0.0414588
0.770703 0.305272 0.0084535
0.824811 0.290333 0
0.837491 0.283253 0
0.850004 0.276371 0
0.862501 0.269993 0
0.874998 0.263935 0
0.887495 0.258442 0
0.899992 0.253376 0
0.912505 0.249104 0
0.925002 0.247456 0
0.937499 0.248142 0
0.949996 0.24892 0
0.962493 0.249714 0
0.975006 0.250614 0
0.987503 0.251652 0
1 0.252537 0
0.0264134 0.392355 0.0799115
0.038941 0.392554 0.0799878
0.0515297 0.39292 0.0801404
0.0641337 0.393362 0.0803082
0.0767529 0.393881 0.0805066
0.0914015 0.394003 0.0801099
0.115129 0.395514 0.0781872
0.146868 0.398108 0.0745251
0.182773 0.400168 0.0684672
0.227771 0.400015 0.0598154
0.287877 0.395468 0.0542306
0.353155 0.388602 0.0598917
0.411429 0.38381 0.0695048
0.464469 0.380835 0.0774853
0.516197 0.3785 0.0821546
0.57261 0.375525 0.0782177
0.644129 0.369558 0.058732
0.741054 0.358267 0.0227817
0.819272 0.343755 0.000671397
0.837491 0.334752 0
0.850004 0.327993 0
0.862501 0.321584 0
0.874998 0.315602 0
0.887495 0.310048 0
0.899992 0.305089 0
0.912505 0.300511 0
0.925002 0.298039 0
0.937499 0.298726 0
0.949996 0.299535 0
0.962493 0.300465 0
0.975006 0.301503 0
0.987503 0.302556 0
1 0.303593 0
0.0314488 0.436667 0.0910201
0.0439765 0.437201 0.0911574
0.0565194 0.437827 0.0913405
0.0690471 0.438453 0.0915236
0.0816205 0.439368 0.0917678
0.0945754 0.43949 0.0917372
0.114046 0.439994 0.0909285
0.144167 0.442069 0.088838
0.179477 0.444434 0.0851301
0.219379 0.445899 0.0785992
0.270695 0.444389 0.0701152
0.336431 0.438529 0.0672007
0.402853 0.431662 0.0740063
0.460746 0.427375 0.0823224
0.513695 0.424659 0.0876936
0.568307 0.421973 0.0872358
0.633341 0.417609 0.0719463
0.717464 0.409659 0.039704
0.807919 0.39733 0.00585946
0.837491 0.386572 0
0.850004 0.379767 0
0.862501 0.373449 0
0.874998 0.367453 0
0.887495 0.36199 0
0.899992 0.35697 0
0.912505 0.352544 0
0.925002 0.349462 0
0.937499 0.349996 0
0.949996 0.35082 0
0.962493 0.351873 0
0.975006 0.352926 0
0.987503 0.353979 0
1 0.355032 0
0.0307927 0.484627 0.0987716
0.0431678 0.485451 0.0988632
0.0555428 0.486275 0.0989548
0.0678874 0.487221 0.0990768
0.0802014 0.488289 0.0991836
0.0926223 0.488777 0.0992294
0.108003 0.488426 0.0992294
0.136599 0.488884 0.0990768
0.174334 0.490578 0.0977951
0.213199 0.492103 0.0941329
0.258915 0.492302 0.0867323
0.317235 0.489097 0.0789502
0.387106 0.48191 0.0792096
0.453376 0.475196 0.0859083
0.510246 0.471443 0.0918746
0.565377 0.46865 0.0921798
0.626642 0.465019 0.0807202
0.702785 0.459129 0.0521401
0.794049 0.449348 0.0137026
0.837491 0.438529 0
0.850004 0.431312 0
0.862501 0.425116 0
0.874998 0.419379 0
0.887495 0.414038 0
0.899992 0.409232 0
0.912505 0.404883 0
0.925002 0.401663 0
0.937499 0.401633 0
0.949996 0.402579 0
0.962493 0.403632 0
0.975006 0.404685 0
0.987503 0.405737 0
1 0.406806 0
0.0167849 0.538888 0.0981308
0.0287938 0.539956 0.098024
0.0408026 0.541039 0.0979019
0.0527504 0.542245 0.0977798
0.0646372 0.543526 0.0976272
0.0767224 0.544366 0.0975204
0.0897231 0.543954 0.0976425
0.114427 0.542519 0.0993057
0.158907 0.541375 0.102296
0.202731 0.5411 0.102983
0.247883 0.54107 0.0996262
0.300725 0.539681 0.0924544
0.366232 0.534417 0.0868238
0.438865 0.526314 0.0888533
0.503746 0.520287 0.0939193
0.561532 0.51667 0.0938582
0.621012 0.51339 0.0842451
0.692042 0.508583 0.0582132
0.779141 0.501091 0.0201572
0.837491 0.491249 0
0.850004 0.483543 0
0.862501 0.477455 0
0.874998 0.471794 0
0.887495 0.466682 0
0.899992 0.461997 0
0.912505 0.457862 0
0.925002 0.45452 0
0.937499 0.453895 0
0.949996 0.454841 0
0.962493 0.455802 0
0.975006 0.457008 0
0.987503 0.457984 0
1 0.459068 0
0 0.601923 0.0848859
0.0124971 0.603265 0.0843824
0.0249943 0.604761 0.0838026
0.0374914 0.606271 0.083238
0.0499886 0.607858 0.0826429
0.062501 0.609247 0.0821241
0.0749981 0.609049 0.0822003
0.0874952 0.607004 0.0839704
0.121279 0.602457 0.0903792
0.174472 0.59791 0.0976577
0.227726 0.594766 0.10164
0.281941 0.592248 0.0995804
0.342626 0.588403 0.0936294
0.415915 0.580621 0.090486
0.489601 0.572335 0.0919203
0.554223 0.56672 0.0911727
0.615946 0.562951 0.081117
0.683207 0.558892 0.0572213
0.763836 0.552926 0.0220035
0.837491 0.544656 0
0.850004 0.536721 0
0.862501 0.530724 0
0.874998 0.525322 0
0.887495 0.520348 0
0.899992 0.515801 0
0.912505 0.511818 0
0.925002 0.508354 0
0.937499 0.506996 0
0.949996 0.507973 0
0.962493 0.508949 0
0.975006 0.510048 0
0.987503 0.51104 0
1 0.512016 0
0 0.670604 0.0639353
0.0124971 0.671931 0.0634623
0.0249943 0.673426 0.0629282
0.0374914 0.674922 0.0623941
0.0499886 0.67628 0.0619211
0.062501 0.678035 0.0612955
0.0749981 0.677897 0.061326
0.0874952 0.676143 0.0622721
0.0999924 0.671534 0.0662699
0.128511 0.66424 0.0749981
0.184619 0.657206 0.0839094
0.247791 0.651377 0.0891737
0.312032 0.645975 0.0884718
0.383795 0.638758 0.0852064
0.464561 0.628656 0.0835279
0.539925 0.620111 0.0812695
0.607996 0.61442 0.0702068
0.674998 0.610086 0.0484016
0.750729 0.604913 0.016434
0.834592 0.597818 0.000106813
0.850004 0.589944 0
0.862501 0.584009 0
0.874998 0.57882 0
0.887495 0.574044 0
0.899992 0.56968 0
0.912505 0.565774 0
0.925002 0.56228 0
0.937499 0.560204 0
0.949996 0.561059 0
0.962493 0.56202 0
0.975006 0.562997 0
0.987503 0.563851 0
1 0.564813 0
0 0.737713 0.0457923
0.0124971 0.738994 0.0453956
0.0249943 0.740444 0.0449683
0.0374914 0.741711 0.0445716
0.0499886 0.742824 0.0442359
0.062501 0.744366 0.0437781
0.0749981 0.744564 0.0437171
0.0874952 0.743099 0.0441749
0.0999924 0.73991 0.0455329
0.112551 0.733043 0.049958
0.137026 0.724941 0.0569772
0.196399 0.716762 0.0640269
0.266728 0.709209 0.0668498
0.340398 0.701183 0.0654917
0.424002 0.690333 0.062562
0.510643 0.678477 0.0585031
0.590112 0.669139 0.0482795
0.663752 0.662333 0.0294194
0.738338 0.656565 0.00697337
0.818708 0.649943 0
0.850004 0.642405 0
0.862501 0.636255 0
0.874998 0.631144 0
0.887495 0.626474 0
0.899992 0.622339 0
0.912505 0.618509 0
0.925002 0.615213 0
0.937499 0.61268 0
0.949996 0.613153 0
0.962493 0.613977 0
0.975006 0.614694 0
0.987503 0.615396 0
1 0.616114 0
0 0.795789 0.0423896
0.0124971 0.796689 0.0424201
0.0249943 0.797696 0.0424964
0.0374914 0.798627 0.0426795
0.0499886 0.799451 0.0428321
0.062501 0.800443 0.0430304
0.0749981 0.800961 0.0431373
0.0874952 0.800214 0.0429694
0.0999924 0.798627 0.0419318
0.11249 0.79733 0.0356756
0.125093 0.791806 0.0337072
0.147097 0.783337 0.0372473
0.21236 0.774792 0.0391241
0.287846 0.766201 0.0368963
0.371054 0.755489 0.0322576
0.465339 0.741268 0.0265812
0.558373 0.727596 0.0178531
0.642756 0.716991 0.0074464
0.722545 0.708461 0
0.802609 0.701045 0
0.849409 0.693446 0
0.862501 0.686702 0
0.874998 0.681651 0
0.887495 0.677134 0
0.899992 0.673106 0
0.912505 0.669352 0
0.925002 0.666102 0
0.937499 0.663493 0
0.949996 0.663111 0
0.962493 0.663676 0
0.975006 0.664363 0
0.987503 0.664805 0
1 0.66537 0
0 0.842161 0.0495003
0.0124971 0.842435 0.0496529
0.0249943 0.842786 0.049836
0.0374914 0.843107 0.0500038
0.0499886 0.843427 0.0501717
0.062501 0.84387 0.0503548
0.0749981 0.844205 0.0504616
0.0874952 0.843976 0.05037
0.0999924 0.843229 0.049836
0.11249 0.842496 0.0457618
0.125002 0.84213 0.0352331
0.137499 0.841276 0.0229801
0.160403 0.83682 0.0164034
0.233371 0.830076 0.0104829
0.31426 0.8206 0.00250248
0.408545 0.806561 0.00199893
0.511772 0.789654 0.0011902
0.609293 0.774624 0
0.699504 0.762112 0
0.784466 0.751995 0
0.844678 0.743221 0
0.862501 0.735714 0
0.874998 0.730312 0
0.887495 0.725963 0
0.899992 0.722011 0
0.912505 0.718334 0
0.925002 0.715023 0
0.937499 0.712261 0
0.949996 0.711147 0
0.962493 0.711589 0
0.975006 0.712032 0
0.987503 0.712367 0
1 0.712688 0
0 0.862501 0.0560616
0.0124971 0.862501 0.0562142
0.0249943 0.862501 0.0563821
0.0374914 0.862501 0.0565499
0.0499886 0.862501 0.0566873
0.062501 0.862501 0.0568246
0.0749981 0.862501 0.0569772
0.0874952 0.862501 0.0569162
0.0999924 0.862501 0.0566415
0.11249 0.862501 0.0544442
0.125002 0.862501 0.0451057
0.137499 0.862501 0.0318914
0.149996 0.862501 0.0171511
0.191196 0.862501 0.0021973
0.263676 0.862501 0
0.351064 0.861662 0
0.454902 0.851667 0
0.563806 0.83476 0
0.666606 0.818036 0
0.760983 0.803586 0
0.835416 0.792386 0
0.862501 0.783764 0
0.874998 0.777859 0
0.887495 0.773419 0
0.899992 0.769482 0
0.912505 0.76582 0
0.925002 0.762432 0
0.937499 0.759426 0
0.949996 0.757748 0
0.962493 0.757961 0
0.975006 0.758175 0
0.987503 0.758297 0
1 0.758404 0
0 0.874998 0.0595407
0.0124971 0.874998 0.0595865
0.0249943 0.874998 0.0596323
0.0374914 0.874998 0.059678
0.0499886 0.874998 0.0597238
0.062501 0.874998 0.0597543
0.0749981 0.874998 0.0597696
0.0874952 0.874998 0.0597696
0.0999924 0.874998 0.0597238
0.11249 0.874998 0.0589456
0.125002 0.874998 0.0517586
0.137499 0.874998 0.0390173
0.149996 0.874998 0.0247349
0.172442 0.874998 0.00849927
0.236042 0.874998 1.5259e-05
0.310246 0.874998 0
0.402426 0.874998 0
0.511437 0.874998 0
0.624918 0.869886 0
0.731701 0.854765 0
0.820066 0.841459 0
0.862165 0.831128 0
0.874998 0.824216 0
0.887495 0.819654 0
0.899992 0.815488 0
0.912505 0.811841 0
0.925002 0.808331 0
0.937499 0.805097 0
0.949996 0.802777 0
0.962493 0.802777 0
0.975006 0.802777 0
0.987503 0.802777 0
1 0.802655 0
0 0.887495 0.0598917
0.0124971 0.887495 0.0598917
0.0249943 0.887495 0.0598917
0.0374914 0.887495 0.0598917
0.0499886 0.887495 0.0598917
0.062501 0.887495 0.0598917
0.0749981 0.887495 0.0598917
0.0874952 0.887495 0.0598917
0.0999924 0.887495 0.0598917
0.11249 0.887495 0.059556
0.125002 0.887495 0.0546273
0.137499 0.887495 0.0427253
0.149996 0.887495 0.0288243
0.165194 0.887495 0.0131685
0.221271 0.887495 0.000793469
0.290562 0.887495 0
0.374548 0.887495 0
0.47538 0.887495 0
0.587549 0.887495 0
0.699672 0.887495 0
0.795834 0.885588 0
0.856901 0.876234 0
0.874998 0.868955 0
0.887495 0.864393 0
0.899992 0.860304 0
0.912505 0.856474 0
0.925002 0.852918 0
0.937499 0.849653 0
0.949996 0.846998 0
0.962493 0.846418 0
0.975006 0.846204 0
0.987503 0.845975 0
1 0.845655 0
0 0.899992 0.0598917
0.0124971 0.899992 0.0598917
0.0249943 0.899992 0.0598917
0.0374914 0.899992 0.0598917
0.0499886 0.899992 0.0598917
0.062501 0.899992 0.0598917
0.0749981 0.899992 0.0598917
0.0874952 0.899992 0.0598917
0.0999924 0.899992 0.0598917
0.11249 0.899992 0.0597238
0.125002 0.899992 0.0565957
0.137499 0.899992 0.045594
0.149996 0.899992 0.0317388
0.163256 0.899992 0.0166934
0.210636 0.899992 0.0024567
0.27805 0.899992 0
0.358495 0.899992 0
0.455558 0.899992 0
0.565667 0.899992 0
0.678477 0.899992 0
0.777646 0.899992 0
0.849638 0.899168 0
0.874998 0.896071 0
0.887495 0.894942 0
0.899992 0.894942 0
0.912505 0.894942 0
0.925002 0.894636 0
0.937499 0.892241 0
0.949996 0.889479 0
0.962493 0.88835 0
0.975006 0.887922 0
0.987503 0.887495 0
1 0.886961 0
0 0.912505 0.0598917
0.0124971 0.912505 0.0598917
0.0249943 0.912505 0.0598917
0.0374914 0.912505 0.0598917
0.0499886 0.912505 0.0598917
0.062501 0.912505 0.0598917
0.0749981 0.912505 0.0598917
0.0874952 0.912505 0.0598917
0.0999924 0.912505 0.0598917
0.11249 0.912505 0.0598459
0.125002 0.912505 0.0582132
0.137499 0.912505 0.0481727
0.149996 0.912505 0.0343938
0.162493 0.912505 0.019791
0.201297 0.912505 0.00427253
0.267063 0.912505 0
0.344259 0.912505 0
0.438025 0.912505 0
0.546426 0.912505 0
0.659907 0.912505 0
0.762524 0.912505 0
0.841672 0.912139 0
0.874998 0.909239 0
0.887495 0.907469 0
0.899992 0.907439 0
0.912505 0.907439 0
0.925002 0.907439 0
0.937499 0.907439 0
0.949996 0.907439 0
0.962493 0.907332 0
0.975006 0.90721 0
0.987503 0.907088 0
1 0.90695 0
0 0.925002 0.0598917
0.0124971 0.925002 0.0598917
0.0249943 0.925002 0.0598917
0.0374914 0.925002 0.0598917
0.0499886 0.925002 0.0598917
0.062501 0.925002 0.0598917
0.0749981 0.925002 0.0598917
0.0874952 0.925002 0.0598917
0.0999924 0.925002 0.0598917
0.11249 0.925002 0.0598917
0.125002 0.925002 0.0590829
0.137499 0.925002 0.0505074
0.149996 0.925002 0.0368353
0.162493 0.925002 0.022446
0.192737 0.925002 0.00616464
0.257099 0.925002 0
0.331762 0.925002 0
0.421897 0.925002 0
0.528435 0.925002 0
0.642252 0.925002 0
0.747875 0.925002 0
0.832639 0.924926 0
0.874983 0.922438 0
0.887495 0.920104 0
0.899992 0.919936 0
0.912505 0.919936 0
0.925002 0.919936 0
0.937499 0.919936 0
0.949996 0.919936 0
0.962493 0.919936 0
0.975006 0.919936 0
0.987503 0.919936 0
1 0.919936 0
0 0.937499 0.0598917
0.0124971 0.937499 0.0598917
0.0249943 0.937499 0.0598917
0.0374914 0.937499 0.0598917
0.0499886 0.937499 0.0598917
0.062501 0.937499 0.0598917
0.0749981 0.937499 0.0598917
0.0874952 0.937499 0.0598917
0.0999924 0.937499 0.0598917
