LUTs/85.cube
TITLE "Generate by Resolve"
LUT_3D_SIZE 9
0.00529488 0.00680552 0.0148165
0.134508 0 0.00666819
0.261997 0.007187 0.00917067
0.460304 0.00758373 0.0112154
0.8 0 0
0.850004 0 0
0.899992 0 0
0.949996 0 0
1 0 0
0 0.113909 0.0106813
0.111284 0.103319 0.000289921
0.25687 0.090898 0.0124666
0.4309 0.0760204 0.0188296
0.8 0.0499886 0
0.850004 0.0499886 0
0.899992 0.0499886 0
0.949996 0.0499886 0
1 0.0499886 0
0.000595102 0.240772 0.0353094
0.060502 0.240314 0.0288243
0.240818 0.226078 0.0155795
0.419089 0.213199 0.0462959
0.750103 0.166705 0.000579843
0.850004 0.129198 0
0.899992 0.108415 0
0.949996 0.10518 0
1 0.107332 0
0.0264134 0.392355 0.0799115
0.0767529 0.393881 0.0805066
0.182773 0.400168 0.0684672
0.411429 0.38381 0.0695048
0.644129 0.369558 0.058732
0.850004 0.327993 0
0.899992 0.305089 0
0.949996 0.299535 0
1 0.303593 0
0 0.601923 0.0848859
0.0499886 0.607858 0.0826429
0.121279 0.602457 0.0903792
0.342626 0.588403 0.0936294
0.615946 0.562951 0.081117
0.850004 0.536721 0
0.899992 0.515801 0
0.949996 0.507973 0
1 0.512016 0
0 0.842161 0.0495003
0.0499886 0.843427 0.0501717
0.0999924 0.843229 0.049836
0.160403 0.83682 0.0164034
0.511772 0.789654 0.0011902
0.844678 0.743221 0
0.899992 0.722011 0
0.949996 0.711147 0
1 0.712688 0
0 0.899992 0.0598917
0.0499886 0.899992 0.0598917
0.0999924 0.899992 0.0598917
0.149996 0.899992 0.0317388
0.358495 0.899992 0
0.777646 0.899992 0
0.899992 0.894942 0
0.949996 0.889479 0
1 0.886961 0
0 0.949996 0.0598917
0.0499886 0.949996 0.0598917
0.0999924 0.949996 0.0598917
0.149996 0.949996 0.041413
0.308995 0.949996 0
0.717174 0.949996 0
0.899992 0.944976 0
0.949996 0.94493 0
1 0.94493 0
0 1 0.0598917
0.0499886 1 0.0598917
0.0999924 1 0.0598917
0.149996 1 0.0449836
0.285267 1 0
0.66862 1 0
0.899992 0.9953 0
0.949996 0.994934 0
1 0.994934 0
0.00546273 0.00363165 0.129412
0.130968 0 0.115755
0.264256 0.00630198 0.0928664
0.451957 0.00927749 0.0736858
0.8 0 0.0499886
0.850004 0 0.0499886
0.899992 0 0.0499886
0.949996 0 0.0499886
1 0 0.0499886
0 0.10898 0.104921
0.10518 0.102129 0.0877089
0.257679 0.0889601 0.0792554
0.427939 0.0754559 0.0720073
0.8 0.0499886 0.0499886
0.850004 0.0499886 0.0499886
0.899992 0.0499886 0.0499886
0.949996 0.0499886 0.0499886
1 0.0499886 0.0499886
0.000564584 0.239521 0.0897078
0.0600595 0.239368 0.0827344
0.240238 0.22565 0.0668193
0.418997 0.213001 0.0963912
0.751049 0.166735 0.0505684
0.850004 0.12961 0.0499886
0.899992 0.108583 0.0499886
0.949996 0.105364 0.0499886
1 0.108186 0.0499886
0.0264134 0.392355 0.129915
0.0768139 0.394156 0.130617
0.183307 0.400763 0.118654
0.412375 0.384482 0.119829
0.64564 0.37026 0.1084
0.850004 0.328786 0.0499886
0.899992 0.305669 0.0499886
0.949996 0.300343 0.0499886
1 0.304524 0.0499886
0 0.603265 0.134371
0.0499886 0.609216 0.132128
0.121538 0.60354 0.140078
0.343236 0.589242 0.143633
0.617166 0.563699 0.130602
0.850004 0.537545 0.0499886
0.899992 0.51664 0.0499886
0.949996 0.508843 0.0499886
1 0.512749 0.0499886
0 0.842435 0.0996414
0.0499886 0.843748 0.100328
0.0999924 0.843534 0.0999619
0.160998 0.837171 0.0661479
0.512779 0.790402 0.0509804
0.845212 0.743755 0.0499886
0.899992 0.722408 0.0499886
0.949996 0.71136 0.0499886
1 0.712474 0.0499886
0 0.899992 0.10988
0.0499886 0.899992 0.10988
0.0999924 0.899992 0.10988
0.149996 0.899992 0.0816205
0.358694 0.899992 0.0499886
0.777508 0.899992 0.0499886
0.899992 0.894942 0.0499886
0.949996 0.888579 0.0499886
1 0.885786 0.0499886
0 0.949996 0.10988
0.0499886 0.949996 0.10988
0.0999924 0.949996 0.10988
0.149996 0.949996 0.0915847
0.307759 0.949996 0.0499886
0.714565 0.949996 0.0499886
0.899992 0.944976 0.0499886
0.949996 0.94493 0.0499886
1 0.94493 0.0499886
0 1 0.10988
0.0499886 1 0.10988
0.0999924 1 0.10988
0.149996 1 0.0955367
0.28275 1 0.0499886
0.663691 1 0.0499886
0.899992 0.995346 0.0499886
0.949996 0.994934 0.0499886
1 0.994934 0.0499886
0.00672923 0.000564584 0.267216
0.112245 0.00323491 0.267292
0.255924 0.00732433 0.249729
0.430533 0.0155947 0.217807
0.797467 0 0.189746
0.850004 0 0.144213
0.899992 0 0.109819
0.949996 0 0.102022
1 0 0.100587
0.0113832 0.0995956 0.262577
0.10103 0.0954452 0.262684
0.25388 0.0838636 0.243565
0.41677 0.0765393 0.205615
0.795651 0.0499886 0.175845
0.850004 0.0499886 0.135973
0.899992 0.0499886 0.106371
0.949996 0.0499886 0.102541
1 0.0499886 0.105562
0.0131685 0.23183 0.24062
0.0729686 0.231586 0.237232
0.228519 0.226612 0.208621
0.418891 0.21326 0.203021
0.701366 0.177981 0.166445
0.850004 0.128756 0.115511
0.899992 0.107897 0.0999924
0.949996 0.104616 0.100313
1 0.107195 0.103059
0.0346685 0.38999 0.224521
0.0855726 0.392126 0.2271
0.185229 0.400732 0.210285
0.410727 0.386191 0.192142
0.631952 0.373037 0.185565
0.850004 0.328374 0.0999924
0.899992 0.305058 0.0999924
0.949996 0.29984 0.0999924
1 0.303975 0.0999924
0 0.600732 0.193484
0.0505684 0.606119 0.193973
0.126452 0.600946 0.199832
0.343267 0.588556 0.195941
0.616892 0.5635 0.180758
0.850004 0.537453 0.0999924
0.899992 0.516625 0.0999924
0.949996 0.508705 0.0999924
1 0.512489 0.0999924
0 0.842374 0.149599
0.0499886 0.843656 0.150301
0.0999924 0.843519 0.14995
0.161105 0.837186 0.116106
0.512703 0.790356 0.100999
0.845045 0.743542 0.0999924
0.899992 0.721904 0.0999924
0.949996 0.710597 0.0999924
1 0.711376 0.0999924
0 0.899992 0.159884
0.0499886 0.899992 0.159884
0.0999924 0.899992 0.159884
0.149996 0.899992 0.131731
0.357641 0.899992 0.0999924
0.775509 0.899992 0.0999924
0.899992 0.894316 0.0999924
0.949996 0.886809 0.0999924
1 0.883513 0.0999924
0 0.949996 0.159884
0.0499886 0.949996 0.159884
0.0999924 0.949996 0.159884
0.149996 0.949996 0.141955
0.305364 0.949996 0.0999924
0.710201 0.949996 0.0999924
0.899992 0.945006 0.0999924
0.949996 0.94493 0.0999924
1 0.94493 0.0999924
0 1 0.159884
0.0499886 1 0.159884
0.0999924 1 0.159884
0.149996 1 0.14638
0.278889 1 0.0999924
0.655833 1 0.0999924
0.899992 0.995407 0.0999924
0.949996 0.994934 0.0999924
1 0.994934 0.0999924
0.0061799 0 0.52781
0.106416 0.00202945 0.472938
0.238376 0.0111696 0.437324
0.426963 0.0138857 0.422309
0.756405 0 0.461357
0.850004 0 0.42385
0.899992 0 0.378912
0.949996 0 0.366735
1 0 0.365301
0.0163729 0.0897993 0.458228
0.0976272 0.0882582 0.4392
0.227375 0.0839551 0.422827
0.408927 0.0716411 0.404166
0.733883 0.0499886 0.440803
0.850004 0.0499886 0.414298
0.899992 0.0499886 0.375952
0.949996 0.0499886 0.370382
1 0.0499886 0.37525
0.0371557 0.21944 0.427131
0.0949264 0.218753 0.42501
0.223026 0.21944 0.425269
0.413352 0.208255 0.408515
0.623117 0.193698 0.390799
0.850004 0.12842 0.38558
0.899992 0.104707 0.357488
0.949996 0.100603 0.354971
1 0.100679 0.36051
0.0558938 0.381918 0.411551
0.106783 0.384482 0.41474
0.203693 0.391226 0.412238
0.39379 0.388785 0.383978
0.603449 0.379217 0.376547
0.818936 0.35259 0.349096
0.892973 0.322408 0.31603
0.949752 0.315236 0.308492
0.998093 0.320729 0.315145
0.0618906 0.573846 0.414237
0.110796 0.578241 0.418418
0.187823 0.576211 0.416678
0.348043 0.583444 0.385962
0.598337 0.564935 0.358389
0.829465 0.551003 0.324895
0.899794 0.527459 0.281788
0.949996 0.517998 0.266468
1 0.52195 0.272557
0 0.829374 0.34612
0.0499886 0.832044 0.351476
0.0999924 0.831815 0.351171
0.24802 0.799374 0.345312
0.528069 0.770764 0.306615
0.835737 0.739879 0.201282
0.899992 0.719112 0.155688
0.949996 0.706767 0.149996
1 0.707332 0.149996
0 0.899992 0.29308
0.0499886 0.899992 0.296971
0.0999924 0.899992 0.296422
0.149996 0.899992 0.249271
0.35288 0.899992 0.161898
0.766659 0.899992 0.149996
0.899992 0.891264 0.149996
0.949996 0.882399 0.149996
1 0.878584 0.149996
0 0.949996 0.253376
0.0499886 0.949996 0.253895
0.0999924 0.949996 0.249775
0.149996 0.949996 0.215335
0.299092 0.949996 0.150134
0.700084 0.949996 0.149996
0.899992 0.945022 0.149996
0.949996 0.94493 0.149996
1 0.94493 0.149996
0 1 0.248447
0.0499886 1 0.244129
0.0999924 1 0.235019
0.149996 1 0.206882
0.271412 1 0.149996
0.642329 1 0.149996
0.899992 0.995682 0.149996
0.949996 0.994934 0.149996
1 0.994934 0.149996
0.00271611 0 0.8
0.107134 0 0.8
0.273381 0 0.790005
0.491249 0 0.725353
0.780865 0 0.736767
0.850004 0 0.698192
0.899992 0 0.665187
0.949996 0 0.655695
1 0 0.655207
4.57771e-05 0.0666819 0.8
0.0841382 0.0621958 0.8
0.248081 0.0573587 0.753994
0.464469 0.0499886 0.694591
0.764858 0.0499886 0.722927
0.850004 0.0499886 0.69337
0.899992 0.0499886 0.664576
0.949996 0.0499886 0.659785
1 0.0499886 0.663417
0.00227359 0.210239 0.747112
0.0603647 0.209216 0.737957
0.221073 0.210971 0.632471
0.402243 0.206348 0.588388
0.648142 0.177325 0.618601
0.850004 0.118029 0.668696
0.899992 0.10045 0.650858
0.949996 0.0999924 0.648997
1 0.0999924 0.652903
0.040528 0.38117 0.631251
0.0896162 0.384436 0.635889
0.215961 0.384298 0.597787
0.390158 0.384527 0.593179
0.599939 0.375509 0.581735
0.772839 0.362341 0.574029
0.830625 0.337026 0.558297
0.883162 0.330297 0.554131
0.930495 0.335409 0.556695
0.0447547 0.576425 0.621515
0.0920577 0.580957 0.626459
0.177325 0.575677 0.615228
0.36878 0.572931 0.590692
0.581857 0.56556 0.564965
0.785245 0.558053 0.561425
0.838163 0.541054 0.545144
0.886107 0.533059 0.537163
0.936858 0.536095 0.540002
0 0.804822 0.62388
0.0499886 0.809323 0.627665
0.0999924 0.809262 0.627649
0.33611 0.762112 0.608637
0.528511 0.758923 0.571923
0.783734 0.735958 0.544701
0.878019 0.72282 0.539254
0.925566 0.71165 0.526375
0.975586 0.711742 0.526482
0 0.899992 0.5906
0.0499886 0.899992 0.593225
0.0999924 0.899992 0.59266
0.16791 0.899992 0.571786
0.490715 0.893584 0.570687
0.747753 0.88983 0.512718
0.899992 0.88191 0.475746
0.949996 0.871839 0.444282
1 0.867704 0.435157
0 0.949996 0.55935
0.0499886 0.949996 0.559564
0.0999924 0.949996 0.556466
0.150011 0.949996 0.530053
0.427329 0.949554 0.522164
0.693217 0.947051 0.455802
0.899992 0.942489 0.361044
0.949996 0.943954 0.310353
1 0.944518 0.28864
0 1 0.553002
0.0499886 1 0.549294
0.0999924 1 0.540734
0.149996 1 0.510033
0.372503 1 0.478737
0.638911 0.999985 0.401053
0.899992 0.995865 0.271962
0.949996 0.995743 0.228275
1 0.995956 0.208545
0.00341802 0 0.850004
0.0961776 0 0.850004
0.265675 0 0.850004
0.508034 0 0.850004
0.767956 0 0.850004
0.850004 0 0.850004
0.899992 0 0.850004
0.949996 0 0.850004
1 0 0.850004
0.000701915 0.0572671 0.850004
0.0763561 0.054612 0.850004
0.247227 0.0500954 0.850004
0.492348 0.0499886 0.850004
0.758831 0.0499886 0.850004
0.850004 0.0499886 0.850004
0.899992 0.0499886 0.850004
0.949996 0.0499886 0.850004
1 0.0499886 0.850004
0 0.19704 0.850004
0.0499886 0.196155 0.850004
0.209003 0.187762 0.850004
0.444541 0.170565 0.850004
0.730465 0.133501 0.850004
0.850004 0.108034 0.850004
0.899992 0.0999924 0.850004
0.949996 0.0999924 0.850004
1 0.0999924 0.850004
0 0.381155 0.850004
0.0499886 0.384649 0.850004
0.15494 0.382162 0.850004
0.39086 0.379629 0.770077
0.594064 0.374365 0.743725
0.808576 0.347646 0.77409
0.871 0.320211 0.767758
0.923781 0.312703 0.765393
0.971176 0.317968 0.766018
0 0.588754 0.850004
0.0499886 0.592782 0.850004
0.100679 0.58967 0.849958
0.376974 0.567742 0.752956
0.575082 0.562249 0.752422
0.786221 0.554482 0.733623
0.84184 0.538552 0.716487
0.889311 0.530282 0.708461
0.940169 0.533028 0.710704
0 0.797406 0.841093
0.0499886 0.801022 0.843793
0.0999924 0.801022 0.843656
0.316594 0.76318 0.783047
0.545922 0.748898 0.744549
0.776181 0.734142 0.706035
0.882612 0.719676 0.698131
0.928359 0.708186 0.687648
0.978271 0.707973 0.687495
0 0.899992 0.810864
0.0499886 0.899992 0.813001
0.0999924 0.899992 0.812558
0.169833 0.899992 0.786786
0.526284 0.883146 0.752102
0.711131 0.897124 0.701885
0.899992 0.880476 0.690562
0.949554 0.867445 0.679896
0.999146 0.862638 0.676387
0 0.949996 0.780789
0.0499886 0.949996 0.780697
0.0999924 0.949996 0.778058
0.149996 0.949996 0.758297
0.483894 0.934249 0.729
0.675898 0.946944 0.69041
0.899992 0.940536 0.672007
0.949996 0.939986 0.662516
1 0.939696 0.657099
0 1 0.773114
0.0499886 1 0.769818
0.0999924 1 0.763134
0.149996 1 0.741436
0.447303 0.987167 0.71133
0.647715 0.994446 0.677287
0.88658 0.989136 0.64683
0.949996 0.988876 0.638758
1 0.988571 0.630091
0.00341802 0 0.899992
0.0857404 0 0.899992
0.254047 0 0.899992
0.494591 0 0.899992
0.756191 0 0.899992
0.850004 0 0.899992
0.899992 0 0.899992
0.949996 0 0.899992
1 0 0.899992
0.0015259 0.0526436 0.899992
0.0694896 0.0513466 0.899992
0.238071 0.0499886 0.899992
0.480995 0.0499886 0.899992
0.748913 0.0499886 0.899992
0.850004 0.0499886 0.899992
0.899992 0.0499886 0.899992
0.949996 0.0499886 0.899992
1 0.0499886 0.899992
0 0.188479 0.899992
0.0499886 0.188067 0.899992
0.20209 0.180179 0.899992
0.438727 0.161822 0.899992
0.727932 0.124086 0.899992
0.850004 0.104387 0.899992
0.899992 0.0999924 0.899992
0.949996 0.0999924 0.899992
1 0.0999924 0.899992
0 0.373129 0.899992
0.0499886 0.376852 0.899992
0.143328 0.374685 0.899992
0.38439 0.370336 0.877317
0.59794 0.364706 0.84596
0.84651 0.32491 0.899992
0.899992 0.293553 0.899992
0.949996 0.284886 0.899992
1 0.290501 0.899992
0 0.581781 0.899992
0.0499886 0.585473 0.899992
0.0999924 0.583978 0.899992
0.351843 0.566308 0.893172
0.574304 0.560067 0.855772
0.778805 0.55404 0.864057
0.841382 0.537865 0.860441
0.889937 0.529152 0.857923
0.940154 0.531823 0.858396
0 0.787747 0.899992
0.0499886 0.79144 0.899992
0.0999924 0.791409 0.899992
0.241779 0.774762 0.899992
0.559853 0.741878 0.888045
0.762936 0.730709 0.894347
0.88368 0.714778 0.877043
0.931273 0.702831 0.863005
0.981109 0.702205 0.862272
0 0.899992 0.899992
0.0499886 0.899992 0.899992
0.0999924 0.899992 0.899992
0.161135 0.899992 0.899992
0.530053 0.884077 0.897322
0.716411 0.892454 0.875425
0.897551 0.880949 0.836378
0.948455 0.865858 0.823285
0.998566 0.860044 0.818784
0 0.949996 0.899992
0.0499886 0.949996 0.899992
0.0999924 0.949996 0.899992
0.149996 0.949996 0.899992
0.480247 0.936706 0.882139
0.685603 0.944015 0.85243
0.894911 0.947997 0.802182
0.949996 0.946975 0.792157
1 0.946578 0.786465
0 1 0.899992
0.0499886 1 0.899992
0.0999924 1 0.899992
0.149996 1 0.899992
0.43769 0.990387 0.868452
0.659937 0.990677 0.834058
0.866804 0.998566 0.77467
0.949996 0.99527 0.772122
1 0.994675 0.766278
0.00341802 0 0.949996
0.0813001 0 0.949996
0.248356 0 0.949996
0.487282 0 0.949996
0.749081 0 0.949996
0.850004 0 0.949996
0.899992 0 0.949996
0.949996 0 0.949996
1 0 0.949996
0.00190738 0.0512093 0.949996
0.0665599 0.0504005 0.949996
0.233677 0.0499886 0.949996
0.475059 0.0499886 0.949996
0.743496 0.0499886 0.949996
0.850004 0.0499886 0.949996
0.899992 0.0499886 0.949996
0.949996 0.0499886 0.949996
1 0.0499886 0.949996
0 0.1841 0.949996
0.0499886 0.184115 0.949996
0.198749 0.17644 0.949996
0.435843 0.157443 0.949996
0.724086 0.120653 0.949996
0.850004 0.102159 0.949996
0.899992 0.0999924 0.949996
0.949996 0.0999924 0.949996
1 0.0999924 0.949996
0 0.368521 0.949996
0.0499886 0.372503 0.949996
0.139696 0.370398 0.949996
0.380301 0.365591 0.932265
0.595148 0.359503 0.897902
0.849332 0.318639 0.949996
0.899992 0.287709 0.949996
0.949996 0.278996 0.949996
1 0.284566 0.949996
0 0.577203 0.949996
0.0499886 0.580789 0.949996
0.0999924 0.579522 0.949996
0.346502 0.562387 0.944183
0.570748 0.556237 0.904524
0.775906 0.550332 0.913176
0.840925 0.53431 0.911788
0.889708 0.525322 0.910536
0.939803 0.527794 0.910613
0 0.783993 0.949996
0.0499886 0.787701 0.949996
0.0999924 0.787717 0.949996
0.235843 0.771588 0.949996
0.556848 0.738384 0.943038
0.758679 0.727794 0.949996
0.877928 0.713466 0.949264
0.923995 0.702068 0.947936
0.973617 0.701015 0.947631
0 0.899992 0.949996
0.0499886 0.899992 0.949996
0.0999924 0.899992 0.949996
0.159045 0.899992 0.949996
0.516487 0.887114 0.949996
0.725856 0.887236 0.949996
0.889372 0.878157 0.949996
0.940673 0.862486 0.949996
0.990967 0.856214 0.949996
0 0.949996 0.949996
0.0499886 0.949996 0.949996
0.0999924 0.949996 0.949996
0.149996 0.949996 0.949996
0.443259 0.9458 0.949996
0.699916 0.940505 0.949996
0.877821 0.949996 0.949767
0.939101 0.949996 0.945754
0.98999 0.949996 0.941253
0 1 0.949996
0.0499886 1 0.949996
0.0999924 1 0.949996
0.149996 1 0.949996
0.382116 1 0.949996
0.67335 0.987793 0.949996
0.846281 1 0.941085
0.943191 0.999985 0.91931
0.994614 0.999832 0.907591
0.00341802 0 1
0.0795453 0 1
0.246174 0 1
0.484749 0 1
0.747204 0 1
0.850004 0 1
0.899992 0 1
0.949996 0 1
1 0 1
0.00202945 0.0509957 1
0.0658122 0.0503395 1
0.232822 0.0499886 1
0.474495 0.0499886 1
0.743496 0.0499886 1
0.850004 0.0499886 1
0.899992 0.0499886 1
0.949996 0.0499886 1
1 0.0499886 1
0 0.183719 1
0.0499886 0.184009 1
0.199115 0.176715 1
0.436484 0.157992 1
0.72517 0.121233 1
0.850004 0.102205 1
0.899992 0.0999924 1
0.949996 0.0999924 1
1 0.0999924 1
0 0.369223 1
0.0499886 0.373449 1
0.140291 0.371313 1
0.381216 0.366415 0.981262
0.595743 0.36022 0.947662
0.849454 0.319356 1
0.899992 0.288441 1
0.949996 0.279973 1
1 0.285557 1
0 0.577615 1
0.0499886 0.581308 1
0.0999924 0.579995 1
0.347005 0.5626 0.994125
0.570855 0.556222 0.954528
0.775723 0.549996 0.963073
0.840833 0.533806 0.961685
0.889616 0.524834 0.960464
0.939696 0.527031 0.960525
0 0.78378 1
0.0499886 0.787472 1
0.0999924 0.787381 1
0.234974 0.770977 1
0.555886 0.737392 0.992737
0.757259 0.726345 1
0.877363 0.711803 0.999084
0.923308 0.70013 0.997574
0.972808 0.698741 0.997131
0 0.899992 1
0.0499886 0.899992 1
0.0999924 0.899992 1
0.157488 0.899992 1
0.512642 0.887236 1
0.723629 0.885512 1
0.889677 0.874815 1
0.940841 0.858839 1
0.990967 0.852064 1
0 0.949996 1
0.0499886 0.949996 1
0.0999924 0.949996 1
0.149996 0.949996 1
0.435889 0.946761 1
0.697215 0.940108 1
0.876112 0.949996 1
0.936965 0.949996 1
0.986969 0.949996 1
0 1 1
0.0499886 1 1
0.0999924 1 1
0.149996 1 1
0.370153 1 1
0.671489 0.987243 1
0.84651 1 1
0.936965 1 1
0.986969 1 1
