LUTs/85.cube
TITLE "Generate by Resolve"
LUT_3D_SIZE 5
0.00529488 0.00680552 0.0148165
0.261997 0.007187 0.00917067
0.8 0 0
0.899992 0 0
1 0 0
0.000595102 0.240772 0.0353094
0.240818 0.226078 0.0155795
0.750103 0.166705 0.000579843
0.899992 0.108415 0
1 0.107332 0
0 0.601923 0.0848859
0.121279 0.602457 0.0903792
0.615946 0.562951 0.081117
0.899992 0.515801 0
1 0.512016 0
0 0.899992 0.0598917
0.0999924 0.899992 0.0598917
0.358495 0.899992 0
0.899992 0.894942 0
1 0.886961 0
0 1 0.0598917
0.0999924 1 0.0598917
0.285267 1 0
0.899992 0.9953 0
1 0.994934 0
0.00672923 0.000564584 0.267216
0.255924 0.00732433 0.249729
0.797467 0 0.189746
0.899992 0 0.109819
1 0 0.100587
0.0131685 0.23183 0.24062
0.228519 0.226612 0.208621
0.701366 0.177981 0.166445
0.899992 0.107897 0.0999924
1 0.107195 0.103059
0 0.600732 0.193484
0.126452 0.600946 0.199832
0.616892 0.5635 0.180758
0.899992 0.516625 0.0999924
1 0.512489 0.0999924
0 0.899992 0.159884
0.0999924 0.899992 0.159884
0.357641 0.899992 0.0999924
0.899992 0.894316 0.0999924
1 0.883513 0.0999924
0 1 0.159884
0.0999924 1 0.159884
0.278889 1 0.0999924
0.899992 0.995407 0.0999924
1 0.994934 0.0999924
0.00271611 0 0.8
0.273381 0 0.790005
0.780865 0 0.736767
0.899992 0 0.665187
1 0 0.655207
0.00227359 0.210239 0.747112
0.221073 0.210971 0.632471
0.648142 0.177325 0.618601
0.899992 0.10045 0.650858
1 0.0999924 0.652903
0.0447547 0.576425 0.621515
0.177325 0.575677 0.615228
0.581857 0.56556 0.564965
0.838163 0.541054 0.545144
0.936858 0.536095 0.540002
0 0.899992 0.5906
0.0999924 0.899992 0.59266
0.490715 0.893584 0.570687
0.899992 0.88191 0.475746
1 0.867704 0.435157
0 1 0.553002
0.0999924 1 0.540734
0.372503 1 0.478737
0.899992 0.995865 0.271962
1 0.995956 0.208545
0.00341802 0 0.899992
0.254047 0 0.899992
0.756191 0 0.899992
0.899992 0 0.899992
1 0 0.899992
0 0.188479 0.899992
0.20209 0.180179 0.899992
0.727932 0.124086 0.899992
0.899992 0.0999924 0.899992
1 0.0999924 0.899992
0 0.581781 0.899992
0.0999924 0.583978 0.899992
0.574304 0.560067 0.855772
0.841382 0.537865 0.860441
0.940154 0.531823 0.858396
0 0.899992 0.899992
0.0999924 0.899992 0.899992
0.530053 0.884077 0.897322
0.897551 0.880949 0.836378
0.998566 0.860044 0.818784
0 1 0.899992
0.0999924 1 0.899992
0.43769 0.990387 0.868452
0.866804 0.998566 0.77467
1 0.994675 0.766278
0.00341802 0 1
0.246174 0 1
0.747204 0 1
0.899992 0 1
1 0 1
0 0.183719 1
0.199115 0.176715 1
0.72517 0.121233 1
0.899992 0.0999924 1
1 0.0999924 1
0 0.577615 1
0.0999924 0.579995 1
0.570855 0.556222 0.954528
0.840833 0.533806 0.961685
0.939696 0.527031 0.960525
0 0.899992 1
0.0999924 0.899992 1
0.512642 0.887236 1
0.889677 0.874815 1
0.990967 0.852064 1
0 1 1
0.0999924 1 1
0.370153 1 1
0.84651 1 1
0.986969 1 1
