LUTs/86.cube
TITLE "Generate by Resolve"
LUT_3D_SIZE 5
0.00704967 0.00906386 0.0197452
0.265995 0.00958267 0.0122225
0.899992 0 0
0.949996 0 0
1 0 0
0.000793469 0.237705 0.0470893
0.237766 0.218112 0.0207828
0.833463 0.138933 0.000762951
0.949996 0.0612192 0
1 0.0597848 0
0 0.635889 0.113191
0.0783703 0.636606 0.120516
0.654597 0.583932 0.108156
0.949996 0.521065 0
1 0.516014 0
0 0.949996 0.0798505
0.0500038 0.949996 0.0798505
0.31133 0.949996 0
0.949996 0.943252 0
1 0.932616 0
0 1 0.0798505
0.0500038 1 0.0798505
0.213687 1 0
0.949996 0.993744 0
1 0.993255 0
0.0089723 0.000762951 0.272953
0.257908 0.00976577 0.249638
0.89662 0 0.169665
0.949996 0 0.0630961
1 0 0.0507973
0.0175631 0.225788 0.237491
0.221363 0.21883 0.194827
0.76849 0.153979 0.138598
0.949996 0.0605325 0.0500038
1 0.0595865 0.0540932
0 0.634318 0.17464
0.0852827 0.634592 0.183108
0.655863 0.584665 0.157687
0.949996 0.522179 0.0500038
1 0.516655 0.0500038
0 0.949996 0.129839
0.0500038 0.949996 0.129839
0.310185 0.949996 0.0500038
0.949996 0.942412 0.0500038
1 0.928008 0.0500038
0 1 0.129839
0.0500038 1 0.129839
0.205188 1 0.0500038
0.949996 0.993866 0.0500038
1 0.993255 0.0500038
0.00363165 0 0.899992
0.281178 0 0.886687
0.874495 0 0.815702
0.949996 0 0.720256
1 0 0.706935
0.00302129 0.196994 0.82948
0.211429 0.197971 0.676631
0.69752 0.153094 0.658137
0.949996 0.0506142 0.701137
1 0.0500038 0.703868
0.0596628 0.601892 0.662013
0.153094 0.6009 0.653651
0.609155 0.587411 0.586633
0.867552 0.554742 0.560189
0.915801 0.548135 0.553338
0 0.949996 0.620813
0.0500038 0.949996 0.623545
0.487633 0.941451 0.594247
0.949996 0.925872 0.467674
1 0.90695 0.41355
0 1 0.570672
0.0500038 1 0.554314
0.330007 1 0.471641
0.949996 0.994492 0.195956
1 0.994598 0.111391
0.00456245 0 0.949996
0.255406 0 0.949996
0.841596 0 0.949996
0.949996 0 0.949996
1 0 0.949996
0 0.167987 0.949996
0.186114 0.156909 0.949996
0.803922 0.0821241 0.949996
0.949996 0.0500038 0.949996
1 0.0500038 0.949996
0 0.609033 0.949996
0.0500038 0.611978 0.949996
0.599069 0.580102 0.891035
0.871839 0.550484 0.897246
0.920211 0.542428 0.89453
0 0.949996 0.949996
0.0500038 0.949996 0.949996
0.540063 0.928771 0.946426
0.946746 0.92459 0.865171
0.998093 0.896727 0.841703
0 1 0.949996
0.0500038 1 0.949996
0.416922 0.987182 0.907927
0.90573 0.998077 0.782895
1 0.992905 0.77171
0.00456245 0 1
0.244907 0 1
0.829618 0 1
0.949996 0 1
1 0 1
0 0.161624 1
0.182147 0.152285 1
0.800229 0.0783093 1
0.949996 0.0500038 1
1 0.0500038 1
0 0.603494 1
0.0500038 0.606668 1
0.594476 0.574975 0.939376
0.871107 0.545083 0.948913
0.9196 0.536034 0.947356
0 0.949996 1
0.0500038 0.949996 1
0.516854 0.932982 1
0.936248 0.916411 1
0.987945 0.886091 1
0 1 1
0.0500038 1 1
0.326879 1 1
0.878691 1 1
0.98262 1 1
