LUTs/86.cube
TITLE "Generate by Resolve"
LUT_3D_SIZE 33
0.00704967 0.00906386 0.0197452
0.0340887 0.0068513 0.0172274
0.0688334 0.00386053 0.0142061
0.103716 0.00102235 0.0113527
0.137682 0 0.00888075
0.170596 0.00015259 0.00709544
0.201923 0.00247196 0.00663767
0.232563 0.00585946 0.00825513
0.265995 0.00958267 0.0122225
0.304829 0.0130159 0.0159609
0.350545 0.0155337 0.0188907
0.407187 0.0159609 0.0198672
0.488731 0.0101015 0.0149538
0.613672 0 0.00254826
0.751354 0 0
0.866987 0 0
0.899992 0 0
0.906249 0 0
0.912505 0 0
0.918746 0 0
0.925002 0 0
0.931243 0 0
0.937499 0 0
0.943755 0 0
0.949996 0 0
0.956252 0 0
0.962493 0 0
0.96875 0 0
0.975006 0 0
0.981247 0 0
0.987503 0 0
0.993744 0 0
1 0 0
0.00361639 0.0260319 0.0178378
0.0277867 0.023682 0.0144961
0.0617227 0.0203403 0.0118715
0.0973831 0.0168154 0.00958267
0.132418 0.0141299 0.00762951
0.166384 0.0126345 0.00627146
0.198779 0.0128481 0.00619516
0.229572 0.0144503 0.00819409
0.262547 0.0168002 0.0121157
0.300725 0.0193027 0.0157321
0.345342 0.021622 0.0186618
0.400778 0.0223545 0.0199588
0.479698 0.0172122 0.0157168
0.59939 0.00624094 0.00314336
0.737911 0.00624094 0
0.862119 0.00624094 0
0.899992 0.00624094 0
0.906249 0.00624094 0
0.912505 0.00624094 0
0.918746 0.00624094 0
0.925002 0.00624094 0
0.931243 0.00624094 0
0.937499 0.00624094 0
0.943755 0.00624094 0
0.949996 0.00624094 0
0.956252 0.00624094 0
0.962493 0.00624094 0
0.96875 0.00624094 0
0.975006 0.00624094 0
0.981247 0.00624094 0
0.987503 0.00624094 0
0.993744 0.00624094 0
1 0.00624094 0
0.00077821 0.0522011 0.0157015
0.0158694 0.0504311 0.0120089
0.0512093 0.0458534 0.00749218
0.0894636 0.0412146 0.0059205
0.125566 0.0373693 0.0049897
0.161135 0.0340276 0.00466926
0.195285 0.0316167 0.00573739
0.227558 0.0300908 0.00875868
0.260029 0.0293431 0.0129091
0.296895 0.0284581 0.0164187
0.340307 0.0279393 0.0186007
0.393729 0.0287633 0.0200351
0.470237 0.0243839 0.0165103
0.584985 0.0124971 0.00381476
0.724666 0.0124971 0
0.851514 0.0124971 0
0.899992 0.0124971 0
0.906249 0.0124971 0
0.912505 0.0124971 0
0.918746 0.0124971 0
0.925002 0.0124971 0
0.931243 0.0124971 0
0.937499 0.0124971 0
0.943755 0.0124971 0
0.949996 0.0124971 0
0.956252 0.0124971 0
0.962493 0.0124971 0
0.96875 0.0124971 0
0.975006 0.0124971 0
0.981247 0.0124971 0
0.987503 0.0124971 0
0.993744 0.0124971 0
1 0.0124971 0
0 0.0808881 0.0136416
0.00827039 0.0794232 0.0110323
0.0349279 0.0762493 0.00503548
0.07776 0.070573 0.00195315
0.117937 0.0654459 0.00227359
0.155062 0.0613565 0.00331121
0.191318 0.0575875 0.00564584
0.225925 0.0542763 0.00962844
0.25922 0.0514839 0.0145571
0.295399 0.048661 0.0187686
0.337575 0.0458381 0.0215152
0.38793 0.0433204 0.022797
0.459998 0.0368048 0.0193179
0.569741 0.021912 0.00642405
0.710964 0.0187533 0
0.841276 0.0187533 0
0.899992 0.0187533 0
0.906249 0.0187533 0
0.912505 0.0187533 0
0.918746 0.0187533 0
0.925002 0.0187533 0
0.931243 0.0187533 0
0.937499 0.0187533 0
0.943755 0.0187533 0
0.949996 0.0187533 0
0.956252 0.0187533 0
0.962493 0.0187533 0
0.96875 0.0187533 0
0.975006 0.0187533 0
0.981247 0.0187533 0
0.987503 0.0187533 0
0.993744 0.0187533 0
1 0.0187533 0
0 0.110216 0.0142519
0.00624094 0.108919 0.012726
0.0209812 0.107286 0.00712596
0.058793 0.102983 0.0010071
0.106722 0.0960861 0.000381476
0.147967 0.090837 0.00248722
0.186435 0.0866255 0.00628672
0.223499 0.082826 0.0108339
0.259174 0.07953 0.0166323
0.29575 0.0766613 0.022446
0.336873 0.0728161 0.0262303
0.384543 0.0680552 0.0279393
0.449531 0.0596933 0.0251164
0.550454 0.0421302 0.0127108
0.691264 0.0271763 0
0.829252 0.0249943 0
0.899992 0.0249943 0
0.906249 0.0249943 0
0.912505 0.0249943 0
0.918746 0.0249943 0
0.925002 0.0249943 0
0.931243 0.0249943 0
0.937499 0.0249943 0
0.943755 0.0249943 0
0.949996 0.0249943 0
0.956252 0.0249943 0
0.962493 0.0249943 0
0.96875 0.0249943 0
0.975006 0.0249943 0
0.981247 0.0249943 0
0.987503 0.0249943 0
0.993744 0.0249943 0
1 0.0249943 0
0 0.140429 0.0185855
0.00624094 0.139116 0.0178073
0.0143893 0.138186 0.014023
0.0377661 0.136461 0.00604257
0.0863508 0.130632 0.000457771
0.136934 0.123125 0.0010071
0.179767 0.117662 0.00607309
0.219791 0.113222 0.0122377
0.257969 0.109575 0.0187991
0.295995 0.106416 0.0260929
0.336965 0.103014 0.0315404
0.383505 0.0984817 0.0343175
0.441215 0.0912642 0.0331731
0.528374 0.0762798 0.0225528
0.659602 0.0499123 0.0018616
0.804196 0.0328985 0
0.899641 0.0312505 0
0.906249 0.0312505 0
0.912505 0.0312505 0
0.918746 0.0312505 0
0.925002 0.0312505 0
0.931243 0.0312505 0
0.937499 0.0312505 0
0.943755 0.0312505 0
0.949996 0.0312505 0
0.956252 0.0312505 0
0.962493 0.0312505 0
0.96875 0.0312505 0
0.975006 0.0312505 0
0.981247 0.0312505 0
0.987503 0.0312505 0
0.993744 0.0312505 0
1 0.0312505 0
0 0.171542 0.0258488
0.00624094 0.170397 0.0254673
0.0124971 0.169589 0.0235294
0.0242008 0.169146 0.0174258
0.0599222 0.167636 0.00521859
0.115892 0.160006 0.000564584
0.168551 0.152087 0.00363165
0.213367 0.146502 0.0120546
0.25536 0.141955 0.0208438
0.295949 0.138445 0.0297856
0.337362 0.13521 0.0371252
0.383093 0.131289 0.041413
0.436423 0.125872 0.0422522
0.510475 0.115053 0.0347295
0.623758 0.0939651 0.0136416
0.7682 0.0644083 0.000183108
0.892241 0.0394751 0
0.906249 0.0374914 0
0.912505 0.0374914 0
0.918746 0.0374914 0
0.925002 0.0374914 0
0.931243 0.0374914 0
0.937499 0.0374914 0
0.943755 0.0374914 0
0.949996 0.0374914 0
0.956252 0.0374914 0
0.962493 0.0374914 0
0.96875 0.0374914 0
0.975006 0.0374914 0
0.981247 0.0374914 0
0.987503 0.0374914 0
0.993744 0.0374914 0
1 0.0374914 0
0 0.203815 0.0352941
0.00624094 0.202884 0.0348974
0.0124971 0.202121 0.0340429
0.020737 0.201938 0.0301061
0.0456092 0.202274 0.021149
0.0873121 0.199939 0.00791943
0.147158 0.191699 0.00231937
0.201999 0.183627 0.0103456
0.249104 0.177829 0.0211032
0.294194 0.173236 0.0328069
0.337743 0.169802 0.0429084
0.383215 0.166415 0.0490883
0.434043 0.162203 0.0517891
0.498283 0.154818 0.047776
0.593256 0.139498 0.0304265
0.729091 0.113603 0.00402838
0.873137 0.0855421 0
0.906249 0.0708629 0
0.912505 0.0609598 0
0.918746 0.0533913 0
0.925002 0.0471351 0
0.931243 0.0438849 0
0.937499 0.0437476 0
0.943755 0.0437476 0
0.949996 0.0437476 0
0.956252 0.0437476 0
0.962493 0.0437476 0
0.96875 0.0437476 0
0.975006 0.0437476 0
0.981247 0.0437476 0
0.987503 0.0437476 0
0.993744 0.0437476 0
1 0.0437476 0
0.000793469 0.237705 0.0470893
0.00697337 0.236851 0.0466926
0.0131838 0.236332 0.0464179
0.0211337 0.236072 0.0445258
0.0390173 0.237095 0.0384375
0.0706493 0.237873 0.0276188
0.117327 0.234928 0.0144198
0.180133 0.226276 0.0108949
0.237766 0.218112 0.0207828
0.288457 0.212177 0.0341192
0.336828 0.207584 0.0477455
0.38381 0.204257 0.0570535
0.433799 0.200946 0.061738
0.491234 0.196002 0.0612039
0.570764 0.185626 0.0486458
0.68954 0.165545 0.0196384
0.833463 0.138933 0.000762951
0.906249 0.118807 0
0.912505 0.108309 0
0.918746 0.0982834 0
0.925002 0.0889296 0
0.931243 0.0803693 0
0.937499 0.0731212 0
0.943755 0.0668193 0
0.949996 0.0612192 0
0.956252 0.0569619 0
0.962493 0.0565042 0
0.96875 0.0567178 0
0.975006 0.0569009 0
0.981247 0.0571756 0
0.987503 0.0574502 0
0.993744 0.0583658 0
1 0.0597848 0
0.00616464 0.273335 0.0607767
0.0122683 0.272908 0.0605783
0.0183719 0.27248 0.0603647
0.0252689 0.272297 0.0599222
0.0392157 0.272969 0.0565957
0.0642252 0.275013 0.0489815
0.0993362 0.276036 0.0373846
0.150683 0.272572 0.0248112
0.216297 0.263783 0.0234684
0.27715 0.255741 0.0354925
0.331777 0.249821 0.0505837
0.383261 0.245563 0.0640269
0.434195 0.242405 0.0717784
0.488518 0.239155 0.0746166
0.556115 0.232792 0.0672313
0.654475 0.219028 0.0428779
0.791669 0.195727 0.00820935
0.901747 0.17171 0
0.912505 0.160388 0
0.918746 0.150713 0
0.925002 0.141375 0
0.931243 0.13257 0
0.937499 0.124529 0
0.943755 0.117052 0
0.949996 0.110369 0
0.956252 0.105211 0
0.962493 0.104616 0
0.96875 0.105623 0
0.975006 0.106783 0
0.981247 0.10811 0
0.987503 0.109407 0
0.993744 0.110719 0
1 0.112016 0
0.0163729 0.311727 0.075639
0.0225223 0.311376 0.0754711
0.0287327 0.311269 0.0754253
0.0350195 0.311406 0.0754711
0.0441596 0.311513 0.074342
0.0628367 0.31313 0.0700847
0.0929274 0.316106 0.0619059
0.131914 0.317037 0.0500038
0.187793 0.313115 0.0387884
0.257527 0.304189 0.0399023
0.321614 0.296407 0.0538033
0.378973 0.291096 0.0687572
0.433539 0.287404 0.0803693
0.488426 0.284398 0.0866255
0.548363 0.280659 0.0847486
0.630152 0.272038 0.066743
0.750454 0.254261 0.028275
0.883909 0.230976 0.00163272
0.912505 0.215549 0
0.918746 0.205951 0
0.925002 0.196704 0
0.931243 0.188006 0
0.937499 0.180041 0
0.943755 0.172549 0
0.949996 0.165942 0
0.956252 0.16051 0
0.962493 0.159197 0
0.96875 0.160235 0
0.975006 0.161273 0
0.981247 0.162615 0
0.987503 0.163958 0
0.993744 0.165148 0
1 0.166339 0
0.0261997 0.353094 0.090898
0.0324407 0.353094 0.090898
0.0387579 0.353338 0.0909895
0.0451057 0.353704 0.0911574
0.0519722 0.353796 0.0909895
0.0651408 0.354559 0.0892042
0.0915236 0.357565 0.0841993
0.124987 0.360708 0.0763256
0.168719 0.361181 0.0645457
0.230488 0.356435 0.0550851
0.304326 0.347478 0.0596017
0.370535 0.340307 0.0734569
0.429892 0.335775 0.0868086
0.487251 0.332403 0.0960098
0.54461 0.329442 0.0993973
0.615702 0.323934 0.0877089
0.714534 0.312352 0.0552834
0.850523 0.292439 0.0112764
0.912245 0.272541 0
0.918746 0.263081 0
0.925002 0.25391 0
0.931243 0.245411 0
0.937499 0.237324 0
0.943755 0.229999 0
0.949996 0.223255 0
0.956252 0.217563 0
0.962493 0.215351 0
0.96875 0.216266 0
0.975006 0.217319 0
0.981247 0.218372 0
0.987503 0.219577 0
0.993744 0.220951 0
1 0.222141 0
0.0352178 0.398154 0.106554
0.0415198 0.398398 0.106661
0.0478828 0.398901 0.106859
0.0542611 0.399496 0.107088
0.0606851 0.400183 0.107347
0.0697795 0.400351 0.106813
0.0910201 0.40235 0.10425
0.122911 0.405814 0.0993668
0.160372 0.40856 0.0912795
0.209949 0.408347 0.0797589
0.279683 0.402304 0.0723125
0.356298 0.393133 0.0798505
0.423575 0.386755 0.092668
0.483879 0.382773 0.103304
0.542428 0.37966 0.109529
0.607233 0.375708 0.10428
0.69218 0.367758 0.0783093
0.811002 0.352697 0.0303655
0.90486 0.333349 0.000900282
0.918746 0.32134 0
0.925002 0.312322 0
0.931243 0.303792 0
0.937499 0.295796 0
0.943755 0.288411 0
0.949996 0.281788 0
0.956252 0.275685 0
0.962493 0.272389 0
0.96875 0.273304 0
0.975006 0.274388 0
0.981247 0.275624 0
0.987503 0.277012 0
0.993744 0.278401 0
1 0.279805 0
0.0419318 0.446815 0.121355
0.0482185 0.447517 0.121553
0.0545205 0.448356 0.121782
0.0608225 0.449195 0.122026
0.067155 0.450416 0.122362
0.0740215 0.450568 0.122316
0.0895705 0.451255 0.121248
0.11931 0.454002 0.118456
0.155978 0.45716 0.113512
0.198749 0.459129 0.104799
0.256764 0.457099 0.0934768
0.334005 0.449287 0.089601
0.412146 0.440131 0.0986801
0.47892 0.434409 0.109758
0.539086 0.430808 0.11693
0.601495 0.427222 0.116304
0.677791 0.421408 0.0959182
0.779538 0.410803 0.0529488
0.889723 0.394354 0.00781262
0.918746 0.380011 0
0.925002 0.370947 0
0.931243 0.362524 0
0.937499 0.354528 0
0.943755 0.34725 0
0.949996 0.340551 0
0.956252 0.334646 0
0.962493 0.330541 0
0.96875 0.331258 0
0.975006 0.332341 0
0.981247 0.333745 0
0.987503 0.335149 0
0.993744 0.336553 0
1 0.337957 0
0.041062 0.500343 0.131685
0.0471351 0.501442 0.131823
0.0532235 0.502541 0.131945
0.0592813 0.503792 0.132097
0.0652628 0.505226 0.13225
0.0714275 0.505867 0.132311
0.0814984 0.505409 0.132296
0.109224 0.50602 0.132113
0.149126 0.508278 0.130388
0.190524 0.510307 0.125521
0.241047 0.510567 0.115648
0.3084 0.506294 0.105272
0.391135 0.496712 0.105608
0.469093 0.487755 0.114549
0.534493 0.48275 0.122499
0.597589 0.479042 0.122911
0.668849 0.474189 0.107622
0.759976 0.466331 0.0695201
0.871244 0.4533 0.018265
0.918746 0.438865 0
0.925002 0.429252 0
0.931243 0.420996 0
0.937499 0.413336 0
0.943755 0.40621 0
0.949996 0.399817 0
0.956252 0.394003 0
0.962493 0.389715 0
0.96875 0.38967 0
0.975006 0.390936 0
0.981247 0.392355 0
0.987503 0.393759 0
0.993744 0.395163 0
1 0.396567 0
0.022385 0.562264 0.130831
0.027985 0.563684 0.130694
0.0335851 0.565133 0.130541
0.0390936 0.566735 0.130373
0.0445258 0.568444 0.130159
0.0502174 0.569574 0.130037
0.057145 0.569024 0.13019
0.0796674 0.567117 0.132403
0.128542 0.565591 0.1364
0.176562 0.565225 0.137301
0.226337 0.565179 0.132845
0.286381 0.563333 0.123278
0.363302 0.556298 0.115755
0.449744 0.54551 0.118471
0.525841 0.537469 0.125216
0.592462 0.532647 0.125154
0.661357 0.528283 0.112322
0.745632 0.521859 0.0776074
0.851347 0.511864 0.0268864
0.918746 0.498756 0
0.925002 0.488487 0
0.931243 0.480354 0
0.937499 0.472816 0
0.943755 0.465995 0
0.949996 0.459754 0
0.956252 0.454246 0
0.962493 0.44979 0
0.96875 0.448936 0
0.975006 0.450217 0
0.981247 0.451499 0
0.987503 0.453101 0
0.993744 0.454398 0
1 0.455848 0
0 0.635889 0.113191
0.00624094 0.63769 0.112505
0.0124971 0.639689 0.111742
0.0187533 0.641703 0.110994
0.0249943 0.643809 0.110201
0.0312505 0.64567 0.109499
0.0374914 0.645411 0.10959
0.0437476 0.64268 0.111971
0.0783703 0.636606 0.120516
0.138872 0.630549 0.13022
0.199481 0.626352 0.135531
0.261341 0.622995 0.132769
0.331838 0.617884 0.124849
0.41915 0.607492 0.120653
0.506981 0.596445 0.12256
0.582727 0.588968 0.121569
0.654597 0.583932 0.108156
0.733852 0.578515 0.0762951
0.830945 0.570565 0.0293431
0.918746 0.559533 0
0.925002 0.548959 0
0.931243 0.540978 0
0.937499 0.533776 0
0.943755 0.527123 0
0.949996 0.521065 0
0.956252 0.515755 0
0.962493 0.511147 0
0.96875 0.509331 0
0.975006 0.510643 0
0.981247 0.51194 0
0.987503 0.513405 0
0.993744 0.514717 0
1 0.516014 0
0 0.717052 0.0852522
0.00624094 0.718837 0.0846265
0.0124971 0.720821 0.0839094
0.0187533 0.72282 0.0831922
0.0249943 0.72462 0.0825513
0.0312505 0.726955 0.0817273
0.0374914 0.726787 0.0817731
0.0437476 0.724437 0.0830396
0.0500038 0.718303 0.0883497
0.0775921 0.708568 0.0999924
0.141985 0.699199 0.111879
0.215808 0.691417 0.118898
0.291051 0.684215 0.117968
0.376318 0.674601 0.113619
0.473579 0.661128 0.11136
0.563653 0.649729 0.10837
0.643992 0.642145 0.0936141
0.722927 0.636378 0.0645304
0.813474 0.629465 0.021912
0.914885 0.62002 0.00015259
0.925002 0.609506 0
0.931243 0.601587 0
0.937499 0.59469 0
0.943755 0.588312 0
0.949996 0.582498 0
0.956252 0.577295 0
0.962493 0.572625 0
0.96875 0.569863 0
0.975006 0.570993 0
0.981247 0.57229 0
0.987503 0.573571 0
0.993744 0.574716 0
1 0.576013 0
0 0.796124 0.0610666
0.00624094 0.797833 0.0605325
0.0124971 0.799756 0.0599527
0.0187533 0.80145 0.0594339
0.0249943 0.802945 0.0589761
0.0312505 0.80499 0.058381
0.0374914 0.805249 0.0582895
0.0437476 0.803311 0.0588998
0.0500038 0.799054 0.0607156
0.0563211 0.789899 0.0666056
0.0785382 0.77908 0.0759594
0.14728 0.768185 0.0853742
0.23064 0.758114 0.0891432
0.318456 0.747402 0.0873121
0.419501 0.732937 0.0834058
0.52462 0.717128 0.0780041
0.620142 0.704692 0.0643778
0.707927 0.695613 0.0392309
0.796948 0.687922 0.00929274
0.89369 0.679103 0
0.925002 0.669047 0
0.931243 0.660838 0
0.937499 0.654017 0
0.943755 0.647807 0
0.949996 0.642298 0
0.956252 0.637186 0
0.962493 0.632776 0
0.96875 0.629404 0
0.975006 0.63003 0
0.981247 0.631128 0
0.987503 0.63209 0
0.993744 0.633036 0
1 0.633997 0
0 0.863127 0.0565194
0.00624094 0.864332 0.0565499
0.0124971 0.865675 0.0566567
0.0187533 0.866926 0.0569009
0.0249943 0.868009 0.0570993
0.0312505 0.869352 0.0573739
0.0374914 0.870039 0.0575113
0.0437476 0.869032 0.0572976
0.0500038 0.866926 0.0559091
0.0562448 0.865187 0.0475624
0.062623 0.857816 0.0449378
0.0815442 0.84654 0.0496529
0.15816 0.835142 0.0521706
0.248371 0.823697 0.0491951
0.348913 0.809415 0.0429999
0.46421 0.790433 0.0354314
0.577844 0.772213 0.0238041
0.679927 0.758083 0.00991836
0.775891 0.7467 0
0.872236 0.736812 0
0.924224 0.72668 0
0.931243 0.717678 0
0.937499 0.710964 0
0.943755 0.704936 0
0.949996 0.69955 0
0.956252 0.69456 0
0.962493 0.690227 0
0.96875 0.686748 0
0.975006 0.686244 0
0.981247 0.686992 0
0.987503 0.687892 0
0.993744 0.688502 0
1 0.689235 0
0 0.914549 0.0659953
0.00624094 0.914916 0.0661936
0.0124971 0.915389 0.0664378
0.0187533 0.915816 0.0666819
0.0249943 0.916228 0.0668956
0.0312505 0.916838 0.0671397
0.0374914 0.917266 0.067277
0.0437476 0.91696 0.0671702
0.0500038 0.915984 0.0664378
0.0562448 0.914992 0.0610208
0.062501 0.914519 0.0469673
0.0687419 0.913375 0.0306401
0.0888685 0.907423 0.0218662
0.175738 0.898436 0.0139773
0.273182 0.885801 0.00334173
0.388479 0.867079 0.00267033
0.515694 0.844541 0.00158694
0.635309 0.824491 0
0.745174 0.807813 0
0.848051 0.794339 0
0.917906 0.78262 0
0.931243 0.772625 0
0.937499 0.765423 0
0.943755 0.759625 0
0.949996 0.75436 0
0.956252 0.749447 0
0.962493 0.745022 0
0.96875 0.74136 0
0.975006 0.739864 0
0.981247 0.740444 0
0.987503 0.741039 0
0.993744 0.741482 0
1 0.741924 0
0 0.931243 0.0747387
0.00624094 0.931243 0.0749523
0.0124971 0.931243 0.0751659
0.0187533 0.931243 0.0754101
0.0249943 0.931243 0.0755779
0.0312505 0.931243 0.0757763
0.0374914 0.931243 0.0759594
0.0437476 0.931243 0.0758984
0.0500038 0.931243 0.0755322
0.0562448 0.931243 0.0726024
0.062501 0.931243 0.0601358
0.0687419 0.931243 0.0425269
0.0749981 0.931243 0.0228733
0.119509 0.931243 0.00292973
0.205737 0.931243 0
0.311849 0.930129 0
0.439872 0.916808 0
0.57467 0.89427 0
0.701305 0.871977 0
0.816724 0.852705 0
0.905562 0.837766 0
0.931243 0.826276 0
0.937499 0.818402 0
0.943755 0.812482 0
0.949996 0.807233 0
0.956252 0.80235 0
0.962493 0.797833 0
0.96875 0.79382 0
0.975006 0.791577 0
0.981247 0.791867 0
0.987503 0.792157 0
0.993744 0.792309 0
1 0.792447 0
0 0.937499 0.0793774
0.00624094 0.937499 0.0794385
0.0124971 0.937499 0.0795148
0.0187533 0.937499 0.0795758
0.0249943 0.937499 0.0796368
0.0312505 0.937499 0.0796826
0.0374914 0.937499 0.0796979
0.0437476 0.937499 0.0796826
0.0500038 0.937499 0.0796216
0.0562448 0.937499 0.078584
0.062501 0.937499 0.0690013
0.0687419 0.937499 0.0520333
0.0749981 0.937499 0.03299
0.0945144 0.937499 0.0113375
0.168902 0.937499 3.0518e-05
0.257404 0.937499 0
0.369894 0.937499 0
0.504829 0.937499 0
0.645716 0.930694 0
0.777676 0.910521 0
0.885084 0.892775 0
0.9308 0.878996 0
0.937499 0.869795 0
0.943755 0.863706 0
0.949996 0.858152 0
0.956252 0.853284 0
0.962493 0.848615 0
0.96875 0.844297 0
0.975006 0.841199 0
0.981247 0.841199 0
0.987503 0.841199 0
0.993744 0.841199 0
1 0.841047 0
0 0.943755 0.0798505
0.00624094 0.943755 0.0798505
0.0124971 0.943755 0.0798505
0.0187533 0.943755 0.0798505
0.0249943 0.943755 0.0798505
0.0312505 0.943755 0.0798505
0.0374914 0.943755 0.0798505
0.0437476 0.943755 0.0798505
0.0500038 0.943755 0.0798505
0.0562448 0.943755 0.079408
0.062501 0.943755 0.0728466
0.0687419 0.943755 0.0569772
0.0749981 0.943755 0.0384375
0.0848554 0.943755 0.0175479
0.149203 0.943755 0.00105287
0.231174 0.943755 0
0.332723 0.943755 0
0.456748 0.943755 0
0.595895 0.943755 0
0.734981 0.943755 0
0.852781 0.941192 0
0.923781 0.92874 0
0.937499 0.91902 0
0.943755 0.912947 0
0.949996 0.9075 0
0.956252 0.902388 0
0.962493 0.897642 0
0.96875 0.893294 0
0.975006 0.889754 0
0.981247 0.888975 0
0.987503 0.888685 0
0.993744 0.888395 0
1 0.887953 0
0 0.949996 0.0798505
0.00624094 0.949996 0.0798505
0.0124971 0.949996 0.0798505
0.0187533 0.949996 0.0798505
0.0249943 0.949996 0.0798505
0.0312505 0.949996 0.0798505
0.0374914 0.949996 0.0798505
0.0437476 0.949996 0.0798505
0.0500038 0.949996 0.0798505
0.0562448 0.949996 0.0796368
0.062501 0.949996 0.0754711
0.0687419 0.949996 0.0607919
0.0749981 0.949996 0.0423285
0.0822614 0.949996 0.0222477
0.135012 0.949996 0.00328069
0.214481 0.949996 0
0.31133 0.949996 0
0.430335 0.949996 0
0.56672 0.949996 0
0.706722 0.949996 0
0.828519 0.949996 0
0.914107 0.948898 0
0.937499 0.944762 0
0.943755 0.943252 0
0.949996 0.943252 0
0.956252 0.943252 0
0.962493 0.94284 0
0.96875 0.939666 0
0.975006 0.935973 0
0.981247 0.934478 0
0.987503 0.933898 0
0.993744 0.933318 0
1 0.932616 0
0 0.956252 0.0798505
0.00624094 0.956252 0.0798505
0.0124971 0.956252 0.0798505
0.0187533 0.956252 0.0798505
0.0249943 0.956252 0.0798505
0.0312505 0.956252 0.0798505
0.0374914 0.956252 0.0798505
0.0437476 0.956252 0.0798505
0.0500038 0.956252 0.0798505
0.0562448 0.956252 0.0797894
0.062501 0.956252 0.0776226
0.0687419 0.956252 0.0642252
0.0749981 0.956252 0.0458686
0.0812543 0.956252 0.0263828
0.122576 0.956252 0.00569161
0.199847 0.956252 0
0.292348 0.956252 0
0.406958 0.956252 0
0.54107 0.956252 0
0.681956 0.956252 0
0.808377 0.956252 0
0.903487 0.955779 0
0.937499 0.951904 0
0.943755 0.949554 0
0.949996 0.949493 0
0.956252 0.949493 0
0.962493 0.949493 0
0.96875 0.949493 0
0.975006 0.949493 0
0.981247 0.949371 0
0.987503 0.949203 0
0.993744 0.949035 0
1 0.948852 0
0 0.962493 0.0798505
0.00624094 0.962493 0.0798505
0.0124971 0.962493 0.0798505
0.0187533 0.962493 0.0798505
0.0249943 0.962493 0.0798505
0.0312505 0.962493 0.0798505
0.0374914 0.962493 0.0798505
0.0437476 0.962493 0.0798505
0.0500038 0.962493 0.0798505
0.0562448 0.962493 0.0798505
0.062501 0.962493 0.0787671
0.0687419 0.962493 0.0673533
0.0749981 0.962493 0.0491188
0.0812543 0.962493 0.0299229
0.111147 0.962493 0.00822461
0.186557 0.962493 0
0.275685 0.962493 0
0.385458 0.962493 0
0.517082 0.962493 0
0.658427 0.962493 0
0.788846 0.962493 0
0.891432 0.962402 0
0.937469 0.959091 0
0.943755 0.955978 0
0.949996 0.955749 0
0.956252 0.955749 0
0.962493 0.955749 0
0.96875 0.955749 0
0.975006 0.955749 0
0.981247 0.955749 0
0.987503 0.955749 0
0.993744 0.955749 0
1 0.955749 0
0 0.96875 0.0798505
0.00624094 0.96875 0.0798505
0.0124971 0.96875 0.0798505
0.0187533 0.96875 0.0798505
0.0249943 0.96875 0.0798505
0.0312505 0.96875 0.0798505
0.0374914 0.96875 0.0798505
0.0437476 0.96875 0.0798505
0.0500038 0.96875 0.0798505
