LUTs/86.cube
TITLE "Generate by Resolve"
LUT_3D_SIZE 9
0.00704967 0.00906386 0.0197452
0.137682 0 0.00888075
0.265995 0.00958267 0.0122225
0.488731 0.0101015 0.0149538
0.899992 0 0
0.925002 0 0
0.949996 0 0
0.975006 0 0
1 0 0
0 0.110216 0.0142519
0.106722 0.0960861 0.000381476
0.259174 0.07953 0.0166323
0.449531 0.0596933 0.0251164
0.899992 0.0249943 0
0.925002 0.0249943 0
0.949996 0.0249943 0
0.975006 0.0249943 0
1 0.0249943 0
0.000793469 0.237705 0.0470893
0.0390173 0.237095 0.0384375
0.237766 0.218112 0.0207828
0.433799 0.200946 0.061738
0.833463 0.138933 0.000762951
0.925002 0.0889296 0
0.949996 0.0612192 0
0.975006 0.0569009 0
1 0.0597848 0
0.0352178 0.398154 0.106554
0.0606851 0.400183 0.107347
0.160372 0.40856 0.0912795
0.423575 0.386755 0.092668
0.69218 0.367758 0.0783093
0.925002 0.312322 0
0.949996 0.281788 0
0.975006 0.274388 0
1 0.279805 0
0 0.635889 0.113191
0.0249943 0.643809 0.110201
0.0783703 0.636606 0.120516
0.331838 0.617884 0.124849
0.654597 0.583932 0.108156
0.925002 0.548959 0
0.949996 0.521065 0
0.975006 0.510643 0
1 0.516014 0
0 0.914549 0.0659953
0.0249943 0.916228 0.0668956
0.0500038 0.915984 0.0664378
0.0888685 0.907423 0.0218662
0.515694 0.844541 0.00158694
0.917906 0.78262 0
0.949996 0.75436 0
0.975006 0.739864 0
1 0.741924 0
0 0.949996 0.0798505
0.0249943 0.949996 0.0798505
0.0500038 0.949996 0.0798505
0.0749981 0.949996 0.0423285
0.31133 0.949996 0
0.828519 0.949996 0
0.949996 0.943252 0
0.975006 0.935973 0
1 0.932616 0
0 0.975006 0.0798505
0.0249943 0.975006 0.0798505
0.0500038 0.975006 0.0798505
0.0749981 0.975006 0.0552224
0.245335 0.975006 0
0.74789 0.975006 0
0.949996 0.968292 0
0.975006 0.968246 0
1 0.968246 0
0 1 0.0798505
0.0249943 1 0.0798505
0.0500038 1 0.0798505
0.0749981 1 0.0599832
0.213687 1 0
0.683162 1 0
0.949996 0.993744 0
0.975006 0.993255 0
1 0.993255 0
0.00729381 0.00485237 0.130892
0.132952 0 0.112688
0.269017 0.00839246 0.0821698
0.477623 0.0123751 0.0565805
0.899992 0 0.0249943
0.925002 0 0.0249943
0.949996 0 0.0249943
0.975006 0 0.0249943
1 0 0.0249943
0 0.103655 0.0982223
0.0985885 0.0944991 0.0752728
0.260243 0.0769513 0.0640116
0.445594 0.0589456 0.0543374
0.899992 0.0249943 0.0249943
0.925002 0.0249943 0.0249943
0.949996 0.0249943 0.0249943
0.975006 0.0249943 0.0249943
1 0.0249943 0.0249943
0.000762951 0.236042 0.0779431
0.0384222 0.235828 0.0686503
0.236988 0.217548 0.0474403
0.433677 0.200671 0.0868544
0.83473 0.138994 0.0257572
0.925002 0.0894942 0.0249943
0.949996 0.0614481 0.0249943
0.975006 0.057145 0.0249943
1 0.060914 0.0249943
0.0352178 0.398154 0.131548
0.0607462 0.400534 0.132494
0.161074 0.409354 0.116533
0.424826 0.387655 0.11812
0.694179 0.368688 0.102861
0.925002 0.313375 0.0249943
0.949996 0.282567 0.0249943
0.975006 0.275471 0.0249943
1 0.281025 0.0249943
0 0.63769 0.137499
0.0249943 0.645624 0.134508
0.0787213 0.638056 0.145098
0.332662 0.618982 0.149844
0.656214 0.584939 0.132464
0.925002 0.550072 0.0249943
0.949996 0.522194 0.0249943
0.975006 0.511788 0.0249943
1 0.516991 0.0249943
0 0.914916 0.0912032
0.0249943 0.916655 0.0921187
0.0500038 0.916381 0.0916304
0.089662 0.907897 0.04654
0.517037 0.845548 0.0263066
0.918608 0.783337 0.0249943
0.949996 0.754879 0.0249943
0.975006 0.740154 0.0249943
1 0.741634 0.0249943
0 0.949996 0.104845
0.0249943 0.949996 0.104845
0.0500038 0.949996 0.104845
0.0749981 0.949996 0.067155
0.311604 0.949996 0.0249943
0.828336 0.949996 0.0249943
0.949996 0.943252 0.0249943
0.975006 0.934783 0.0249943
1 0.931044 0.0249943
0 0.975006 0.104845
0.0249943 0.975006 0.104845
0.0500038 0.975006 0.104845
0.0749981 0.975006 0.0804608
0.243671 0.975006 0.0249943
0.744411 0.975006 0.0249943
0.949996 0.968307 0.0249943
0.975006 0.968246 0.0249943
1 0.968246 0.0249943
0 1 0.104845
0.0249943 1 0.104845
0.0500038 1 0.104845
0.0749981 1 0.0857099
0.21033 1 0.0249943
0.6766 1 0.0249943
0.949996 0.99379 0.0249943
0.975006 0.993255 0.0249943
1 0.993255 0.0249943
0.0089723 0.000762951 0.272953
0.108003 0.0043183 0.27306
0.257908 0.00976577 0.249638
0.449058 0.020798 0.20708
0.89662 0 0.169665
0.925002 0 0.108965
0.949996 0 0.0630961
0.975006 0 0.0527047
1 0 0.0507973
0.0151827 0.0911269 0.266773
0.0930495 0.0856031 0.266926
0.255177 0.070161 0.241428
0.430686 0.0603799 0.190829
0.894209 0.0249943 0.151141
0.925002 0.0249943 0.0979629
0.949996 0.0249943 0.0584878
0.975006 0.0249943 0.0533913
1 0.0249943 0.0574197
0.0175631 0.225788 0.237491
0.0556191 0.225452 0.23299
0.221363 0.21883 0.194827
0.433524 0.201022 0.187366
0.76849 0.153979 0.138598
0.925002 0.0883497 0.0706798
0.949996 0.0605325 0.0500038
0.975006 0.0561685 0.0504158
1 0.0595865 0.0540932
0.0462348 0.39498 0.216022
0.0724346 0.397833 0.219471
0.163638 0.409323 0.19704
0.422629 0.389929 0.172869
0.675929 0.372396 0.16408
0.925002 0.312825 0.0500038
0.949996 0.281758 0.0500038
0.975006 0.274784 0.0500038
1 0.280308 0.0500038
0 0.634318 0.17464
0.0257725 0.641505 0.175311
0.0852827 0.634592 0.183108
0.332692 0.618082 0.17792
0.655863 0.584665 0.157687
0.925002 0.549935 0.0500038
0.949996 0.522179 0.0500038
0.975006 0.51162 0.0500038
1 0.516655 0.0500038
0 0.914824 0.116136
0.0249943 0.916548 0.117067
0.0500038 0.916365 0.116594
0.0898146 0.907912 0.0714885
0.516945 0.845487 0.0513313
0.918395 0.783062 0.0500038
0.949996 0.754208 0.0500038
0.975006 0.739132 0.0500038
1 0.740169 0.0500038
0 0.949996 0.129839
0.0249943 0.949996 0.129839
0.0500038 0.949996 0.129839
0.0749981 0.949996 0.0923171
0.310185 0.949996 0.0500038
0.825681 0.949996 0.0500038
0.949996 0.942412 0.0500038
0.975006 0.932403 0.0500038
1 0.928008 0.0500038
0 0.975006 0.129839
0.0249943 0.975006 0.129839
0.0500038 0.975006 0.129839
0.0749981 0.975006 0.105943
0.240482 0.975006 0.0500038
0.738613 0.975006 0.0500038
0.949996 0.968338 0.0500038
0.975006 0.968246 0.0500038
1 0.968246 0.0500038
0 1 0.129839
0.0249943 1 0.129839
0.0500038 1 0.129839
0.0749981 1 0.111833
0.205188 1 0.0500038
0.666102 1 0.0500038
0.949996 0.993866 0.0500038
0.975006 0.993255 0.0500038
1 0.993255 0.0500038
0.00823987 0 0.578744
0.100237 0.00270085 0.505577
0.234501 0.0148928 0.458091
0.444282 0.0185245 0.438087
0.841871 0 0.49015
0.925002 0 0.440131
0.949996 0 0.380224
0.975006 0 0.363989
1 0 0.362081
0.0218204 0.0780652 0.485969
0.0885176 0.0760204 0.460609
0.219837 0.0702678 0.438773
0.420249 0.0538491 0.413886
0.811841 0.0249943 0.462745
0.925002 0.0249943 0.42739
0.949996 0.0249943 0.376272
0.975006 0.0249943 0.368856
1 0.0249943 0.375341
0.0495308 0.209247 0.444511
0.0849165 0.208331 0.441672
0.214038 0.209247 0.442023
0.426139 0.194339 0.419699
0.664149 0.174929 0.396078
0.925002 0.0879072 0.389105
0.949996 0.0562753 0.351644
0.975006 0.0507973 0.348287
1 0.0509194 0.355673
0.0745251 0.384222 0.423743
0.100725 0.38764 0.428
0.188251 0.396643 0.424659
0.400061 0.393393 0.386984
0.637934 0.380621 0.377066
0.883589 0.345113 0.340459
0.940642 0.304875 0.296376
0.97467 0.295323 0.286336
0.997452 0.302647 0.295201
0.0825208 0.598459 0.427329
0.106065 0.604334 0.432898
0.167102 0.601617 0.430579
0.339071 0.611261 0.389624
0.631128 0.586572 0.352865
0.897612 0.568017 0.308186
0.949722 0.536614 0.250721
0.975006 0.523995 0.230289
1 0.529259 0.238407
0 0.89749 0.336507
0.0249943 0.901061 0.343633
0.0500038 0.900755 0.343221
0.205692 0.857496 0.335424
0.537423 0.819348 0.283833
0.905989 0.778164 0.143389
0.949996 0.750484 0.0825818
0.975006 0.734035 0.0749981
1 0.734768 0.0749981
0 0.949996 0.265766
0.0249943 0.949996 0.27097
0.0500038 0.949996 0.270222
0.0749981 0.949996 0.20737
0.303838 0.949996 0.0908675
0.813886 0.949996 0.0749981
0.949996 0.938354 0.0749981
0.975006 0.926543 0.0749981
1 0.921447 0.0749981
0 0.975006 0.212833
0.0249943 0.975006 0.213535
0.0500038 0.975006 0.208026
0.0749981 0.975006 0.162127
0.232136 0.975006 0.0751812
0.725109 0.975006 0.0749981
0.949996 0.968368 0.0749981
0.975006 0.968246 0.0749981
1 0.968246 0.0749981
0 1 0.206256
0.0249943 1 0.200504
0.0500038 1 0.188357
0.0749981 1 0.150835
0.195209 1 0.0749981
0.648112 1 0.0749981
0.949996 0.994232 0.0749981
0.975006 0.993255 0.0749981
1 0.993255 0.0749981
0.00363165 0 0.899992
0.101183 0 0.899992
0.281178 0 0.886687
0.530007 0 0.800473
0.874495 0 0.815702
0.925002 0 0.764248
0.949996 0 0.720256
0.975006 0 0.707607
1 0 0.706935
6.10361e-05 0.0472572 0.899992
0.0705272 0.0412757 0.899992
0.247456 0.0348058 0.838666
0.494301 0.0249943 0.759457
0.853147 0.0249943 0.797238
0.925002 0.0249943 0.757824
0.949996 0.0249943 0.719432
0.975006 0.0249943 0.713054
1 0.0249943 0.717891
0.00302129 0.196994 0.82948
0.038819 0.195621 0.817273
0.211429 0.197971 0.676631
0.411322 0.191806 0.617853
0.69752 0.153094 0.658137
0.925002 0.074052 0.724926
0.949996 0.0506142 0.701137
0.975006 0.0500038 0.698665
1 0.0500038 0.703868
0.0540322 0.38323 0.675013
0.0778363 0.387594 0.681193
0.204623 0.387411 0.630396
0.395224 0.387717 0.624231
0.633249 0.375677 0.608988
0.822126 0.358129 0.598718
0.857496 0.324361 0.577722
0.885878 0.315404 0.572168
0.907317 0.32221 0.575601
0.0596628 0.601892 0.662013
0.0810864 0.60795 0.668605
0.153094 0.6009 0.653651
0.36672 0.597253 0.620935
0.609155 0.587411 0.586633
0.838651 0.577401 0.581903
0.867552 0.554742 0.560189
0.889815 0.544091 0.549554
0.915801 0.548135 0.553338
0 0.864775 0.665171
0.0249943 0.870756 0.670222
0.0500038 0.87068 0.670192
0.323156 0.807828 0.644862
0.538018 0.803571 0.595911
0.836652 0.772946 0.559594
0.920699 0.755428 0.552346
0.942412 0.740536 0.53518
0.967437 0.740658 0.535317
0 0.949996 0.620813
0.0249943 0.949996 0.624292
0.0500038 0.949996 0.623545
0.0988785 0.949996 0.595728
0.487633 0.941451 0.594247
0.788678 0.936446 0.51696
0.949996 0.925872 0.467674
0.975006 0.912459 0.425711
1 0.90695 0.41355
0 0.975006 0.579141
0.0249943 0.975006 0.579431
0.0500038 0.975006 0.57528
0.0750134 0.975006 0.540078
0.403098 0.974411 0.529564
0.715969 0.971069 0.441062
0.949996 0.964996 0.314733
0.975006 0.966934 0.24715
1 0.967681 0.218189
0 1 0.570672
0.0249943 1 0.565728
0.0500038 1 0.554314
0.0749981 1 0.51339
0.330007 1 0.471641
0.643549 0.999985 0.368078
0.949996 0.994492 0.195956
0.975006 0.994324 0.137713
1 0.994598 0.111391
0.00456245 0 0.925002
0.0865644 0 0.925002
0.270909 0 0.925002
0.552377 0 0.925002
0.857282 0 0.925002
0.925002 0 0.925002
0.949996 0 0.925002
0.975006 0 0.925002
1 0 0.925002
0.000946059 0.034699 0.925002
0.0601358 0.0311589 0.925002
0.246311 0.0251316 0.925002
0.531456 0.0249943 0.925002
0.845121 0.0249943 0.925002
0.925002 0.0249943 0.925002
0.949996 0.0249943 0.925002
0.975006 0.0249943 0.925002
1 0.0249943 0.925002
0 0.1794 0.925002
0.0249943 0.17821 0.925002
0.195346 0.16701 0.925002
0.467735 0.144091 0.925002
0.807294 0.094667 0.925002
0.925002 0.0607156 0.925002
0.949996 0.0500038 0.925002
0.975006 0.0500038 0.925002
1 0.0500038 0.925002
0 0.3832 0.925002
0.0249943 0.387869 0.925002
0.123262 0.384543 0.925002
0.396139 0.38117 0.818448
0.625422 0.374151 0.783291
0.869764 0.338537 0.823789
0.91133 0.301946 0.815351
0.940032 0.291936 0.812192
0.961563 0.298955 0.813031
0 0.618341 0.925002
0.0249943 0.623713 0.925002
0.0509041 0.619562 0.924956
0.377646 0.590326 0.795621
0.600107 0.583001 0.794888
0.839963 0.572641 0.769833
0.872465 0.5514 0.74699
0.894087 0.540383 0.736294
0.920226 0.544045 0.739269
0 0.854871 0.913115
0.0249943 0.859693 0.916716
0.0500038 0.859709 0.916548
0.297124 0.809247 0.835721
0.561242 0.790204 0.784405
0.826566 0.77052 0.733043
0.926818 0.751247 0.722499
0.946136 0.735912 0.708537
0.971038 0.735637 0.708339
0 0.949996 0.872831
0.0249943 0.949996 0.875669
0.0500038 0.949996 0.875074
0.101442 0.949996 0.840726
0.535058 0.92752 0.794476
0.739834 0.946166 0.72752
0.949996 0.923964 0.712428
0.974411 0.906584 0.698192
0.998871 0.900191 0.693507
0 0.975006 0.832715
0.0249943 0.975006 0.832609
0.0500038 0.975006 0.829084
0.0749981 0.975006 0.802731
0.478523 0.953994 0.763668
0.692866 0.970916 0.712215
0.949996 0.962386 0.687678
0.975006 0.961639 0.675029
1 0.961273 0.667796
0 1 0.822492
0.0249943 1 0.818082
0.0500038 1 0.809186
0.0749981 1 0.78024
0.42974 0.982879 0.740108
0.655283 0.992599 0.694713
0.932113 0.985504 0.654108
0.975006 0.985168 0.643336
1 0.984771 0.6318
0.00456245 0 0.949996
0.0726482 0 0.949996
0.255406 0 0.949996
0.534463 0 0.949996
0.841596 0 0.949996
0.925002 0 0.949996
0.949996 0 0.949996
0.975006 0 0.949996
1 0 0.949996
0.00202945 0.0285344 0.949996
0.0509804 0.0268101 0.949996
0.234104 0.0249943 0.949996
0.516335 0.0249943 0.949996
0.831891 0.0249943 0.949996
0.925002 0.0249943 0.949996
0.949996 0.0249943 0.949996
0.975006 0.0249943 0.949996
1 0.0249943 0.949996
0 0.167987 0.949996
0.0249943 0.167422 0.949996
0.186114 0.156909 0.949996
0.459983 0.132433 0.949996
0.803922 0.0821241 0.949996
0.925002 0.0558633 0.949996
0.949996 0.0500038 0.949996
0.975006 0.0500038 0.949996
1 0.0500038 0.949996
0 0.372503 0.949996
0.0249943 0.377478 0.949996
0.107774 0.374578 0.949996
0.387518 0.36878 0.919753
0.630579 0.361273 0.877958
0.920348 0.308217 0.949996
0.949996 0.266407 0.949996
0.975006 0.254856 0.949996
1 0.262348 0.949996
0 0.609033 0.949996
0.0249943 0.613962 0.949996
0.0500038 0.611978 0.949996
0.344137 0.588403 0.940887
0.599069 0.580102 0.891035
0.830076 0.572045 0.902068
0.871839 0.550484 0.897246
0.894911 0.538872 0.893904
0.920211 0.542428 0.89453
0 0.842008 0.949996
0.0249943 0.846922 0.949996
0.0500038 0.846891 0.949996
0.197375 0.824674 0.949996
0.579812 0.78085 0.934051
0.808927 0.765957 0.942458
0.928252 0.744701 0.919402
0.950027 0.728786 0.900664
0.974807 0.727947 0.899702
0 0.949996 0.949996
0.0249943 0.949996 0.949996
0.0500038 0.949996 0.949996
0.0898604 0.949996 0.949996
0.540063 0.928771 0.946426
0.746883 0.939941 0.917235
0.946746 0.92459 0.865171
0.972946 0.904479 0.847715
0.998093 0.896727 0.841703
0 0.975006 0.949996
0.0249943 0.975006 0.949996
0.0500038 0.975006 0.949996
0.0749981 0.975006 0.949996
0.473671 0.957275 0.926192
0.705806 0.967025 0.886564
0.943221 0.97232 0.819577
0.975006 0.970977 0.80621
1 0.970428 0.798627
0 1 0.949996
0.0249943 1 0.949996
0.0500038 1 0.949996
0.0749981 1 0.949996
0.416922 0.987182 0.907927
0.671595 0.987579 0.862074
0.90573 0.998077 0.782895
0.975006 0.993683 0.779507
1 0.992905 0.77171
0.00456245 0 0.975006
0.066743 0 0.975006
0.247807 0 0.975006
0.524712 0 0.975006
0.83212 0 0.975006
0.925002 0 0.975006
0.949996 0 0.975006
0.975006 0 0.975006
1 0 0.975006
0.002533 0.0266117 0.975006
0.0470741 0.0255283 0.975006
0.228229 0.0249943 0.975006
0.508415 0.0249943 0.975006
0.824674 0.0249943 0.975006
0.925002 0.0249943 0.975006
0.949996 0.0249943 0.975006
0.975006 0.0249943 0.975006
1 0.0249943 0.975006
0 0.162127 0.975006
0.0249943 0.162158 0.975006
0.181659 0.151919 0.975006
0.456138 0.126604 0.975006
0.798795 0.0775311 0.975006
0.925002 0.0528878 0.975006
0.949996 0.0500038 0.975006
0.975006 0.0500038 0.975006
1 0.0500038 0.975006
0 0.366369 0.975006
0.0249943 0.371679 0.975006
0.102922 0.368872 0.975006
0.382071 0.362463 0.951354
0.626871 0.354345 0.905547
0.924102 0.299855 0.975006
0.949996 0.258625 0.975006
0.975006 0.246998 0.975006
1 0.254429 0.975006
0 0.602945 0.975006
0.0249943 0.607721 0.975006
0.0500038 0.606027 0.975006
0.337011 0.583185 0.967254
0.594324 0.574975 0.914366
0.8262 0.567102 0.925902
0.871244 0.545754 0.924041
0.894606 0.533776 0.922393
0.919738 0.537057 0.922484
0 0.837003 0.975006
0.0249943 0.841932 0.975006
0.0500038 0.841962 0.975006
0.189456 0.820447 0.975006
0.575799 0.776181 0.965728
0.803235 0.762051 0.975006
0.920562 0.742962 0.974014
0.940337 0.727764 0.972244
0.964828 0.72636 0.971832
0 0.949996 0.975006
0.0249943 0.949996 0.975006
0.0500038 0.949996 0.975006
0.0870527 0.949996 0.975006
0.521996 0.932815 0.975006
0.759487 0.932982 0.975006
0.935821 0.920867 0.975006
0.962554 0.899992 0.975006
0.987945 0.891615 0.975006
0 0.975006 0.975006
0.0249943 0.975006 0.975006
0.0500038 0.975006 0.975006
0.0749981 0.975006 0.975006
0.424353 0.96939 0.975006
0.72488 0.962341 0.975006
0.920424 0.975006 0.974685
0.960479 0.975006 0.969329
0.986664 0.975006 0.963348
0 1 0.975006
0.0249943 1 0.975006
0.0500038 1 0.975006
0.0749981 1 0.975006
0.342824 1 0.975006
0.689479 0.983734 0.975006
0.878386 1 0.963119
0.965911 0.999985 0.934081
0.992828 0.999786 0.918456
0.00456245 0 1
0.0643931 0 1
0.244907 0 1
0.52134 0 1
0.829618 0 1
0.925002 0 1
0.949996 0 1
0.975006 0 1
1 0 1
0.00271611 0.0263218 1
0.0460975 0.025452 1
0.2271 0.0249943 1
0.507652 0.0249943 1
0.824674 0.0249943 1
0.925002 0.0249943 1
0.949996 0.0249943 1
0.975006 0.0249943 1
1 0.0249943 1
0 0.161624 1
0.0249943 0.16202 1
0.182147 0.152285 1
0.456992 0.127337 1
0.800229 0.0783093 1
0.925002 0.0529335 1
0.949996 0.0500038 1
0.975006 0.0500038 1
1 0.0500038 1
0 0.3673 1
0.0249943 0.372946 1
0.103716 0.370092 1
0.383291 0.363561 0.975006
0.627665 0.355306 0.93022
0.924269 0.300801 1
0.949996 0.259586 1
0.975006 0.248295 1
1 0.255756 1
0 0.603494 1
0.0249943 0.608423 1
0.0500038 0.606668 1
0.337667 0.583474 0.992157
0.594476 0.574975 0.939376
0.825956 0.566674 0.950774
0.871107 0.545083 0.948913
0.894499 0.533104 0.94728
0.9196 0.536034 0.947356
0 0.836698 1
0.0249943 0.841642 1
0.0500038 0.84152 1
0.188312 0.819638 1
0.574517 0.774853 0.990326
0.801358 0.760128 1
0.919829 0.740749 0.998779
0.939406 0.72517 0.996765
0.963745 0.723323 0.996185
0 0.949996 1
0.0249943 0.949996 1
0.0500038 0.949996 1
0.0849928 0.949996 1
0.516854 0.932982 1
0.756512 0.930694 1
0.936248 0.916411 1
0.962798 0.895109 1
0.987945 0.886091 1
0 0.975006 1
0.0249943 0.975006 1
0.0500038 0.975006 1
0.0749981 0.975006 1
0.414527 0.970687 1
0.721294 0.961822 1
0.918151 0.975006 1
0.95761 0.975006 1
0.98262 0.975006 1
0 1 1
0.0249943 1 1
0.0500038 1 1
0.0749981 1 1
0.326879 1 1
0.686976 0.982986 1
0.878691 1 1
0.95761 1 1
0.98262 1 1
