LUTs/90.cube
LUT_3D_SIZE 6
0.000000 0.000000 0.063887
0.075602 -0.000542 0.063866
0.403515 -0.001461 0.063640
0.877188 -0.002575 0.062905
0.989994 -0.003407 0.061914
0.998955 -0.003795 0.061309
-0.000934 0.173972 0.063805
0.075781 0.173972 0.063781
0.403513 0.268615 0.063468
0.877188 0.341998 0.062635
0.989994 0.328785 0.061646
0.998955 0.285308 0.061098
-0.002515 0.494310 0.062960
0.139146 0.494310 0.062910
0.408373 0.494309 0.062699
0.877187 0.579861 0.061463
0.989994 0.566105 0.060446
0.998955 0.513936 0.060164
-0.004433 0.707090 0.060039
0.206657 0.707090 0.059957
0.574674 0.707090 0.059597
0.877655 0.707089 0.058838
0.989994 0.689920 0.057684
0.998955 0.641627 0.058074
-0.005866 0.862610 0.055419
0.188961 0.862610 0.055319
0.534601 0.862610 0.054861
0.837889 0.862609 0.053880
0.987679 0.862609 0.052193
0.998955 0.752315 0.054189
-0.006533 0.944404 0.051889
0.148048 0.944404 0.051795
0.432920 0.944404 0.051373
0.722946 0.944403 0.050479
0.929709 0.944402 0.048911
0.997957 0.944402 0.046370
-0.000373 -0.000373 0.286678
0.075975 -0.000625 0.286678
0.403515 -0.001507 0.404756
0.877188 -0.002606 0.479072
0.989994 -0.003428 0.466565
0.998955 -0.003809 0.422874
-0.000975 0.174358 0.286677
0.073599 0.174597 0.292954
0.468489 0.110073 0.210535
0.898793 0.081016 0.166859
0.992066 0.075092 0.149628
0.999359 0.073968 0.142407
-0.002537 0.494310 0.407183
0.032356 0.499188 0.189496
0.408646 0.495870 0.101358
0.884987 0.565811 0.079652
0.991292 0.544562 0.074118
0.999281 0.488231 0.073328
-0.004447 0.707090 0.479265
0.028963 0.708219 0.190335
0.533866 0.708176 0.072658
0.877595 0.707493 0.072891
0.990487 0.685369 0.074068
0.999172 0.636360 0.073558
-0.005875 0.862610 0.463142
0.029941 0.863629 0.183214
0.484189 0.863657 0.079018
0.826398 0.863365 0.080839
0.987625 0.862923 0.083762
0.999062 0.749578 0.080249
-0.006540 0.944404 0.418839
0.030797 0.945211 0.178945
0.385504 0.945279 0.085084
0.705819 0.945142 0.086498
0.925805 0.944911 0.088729
0.998003 0.944623 0.092003
-0.001005 -0.001005 0.612195
0.140938 -0.001178 0.612195
0.413398 -0.001685 0.612194
0.877188 -0.002733 0.692564
0.989994 -0.003515 0.676986
0.998955 -0.003866 0.626615
-0.001523 0.273015 0.612195
0.054541 0.146402 0.668325
0.460360 0.101082 0.638131
0.895934 0.079573 0.683814
0.991942 0.074773 0.657742
0.999395 0.073863 0.606978
-0.002628 0.497336 0.612190
0.031832 0.500675 0.615949
0.389826 0.495905 0.620478
0.946580 0.428611 0.575139
0.998699 0.364374 0.524386
0.999942 0.424401 0.560328
-0.004509 0.707090 0.692820
0.028974 0.708173 0.675402
0.178620 0.717410 0.524135
0.874853 0.710478 0.457393
0.994597 0.667309 0.445030
0.999928 0.618878 0.476830
-0.005917 0.862610 0.672887
0.029990 0.863595 0.651072
0.135251 0.873182 0.483999
0.756834 0.871178 0.410647
0.987137 0.865859 0.402669
0.999562 0.742518 0.412043
-0.006567 0.944404 0.622224
0.030838 0.945225 0.601404
0.125615 0.953735 0.469359
0.610028 0.953636 0.397018
0.904902 0.950841 0.392943
0.997827 0.947248 0.388038
-0.001770 -0.001770 0.892182
0.206394 -0.001894 0.892182
0.574082 -0.002328 0.892182
0.877106 -0.002969 0.892182
0.989994 -0.003682 0.866623
0.998955 -0.003978 0.782185
-0.002180 0.341982 0.892182
0.037836 0.115813 0.928714
0.562233 0.085233 0.916237
0.890098 0.077486 0.904220
0.991730 0.074263 0.863865
0.999350 0.073678 0.776033
-0.003288 0.579824 0.892181
0.029954 0.567747 0.901431
0.346355 0.471937 0.958615
0.929959 0.403324 0.946410
0.998251 0.352102 0.859572
0.999941 0.415571 0.767845
-0.004631 0.706836 0.892179
0.029006 0.707510 0.893669
0.171666 0.712652 0.905456
0.862975 0.707513 0.904296
0.997011 0.690827 0.874519
0.999907 0.693742 0.871872
-0.005999 0.862610 0.859587
0.030089 0.863477 0.851888
0.133708 0.871691 0.818685
0.692825 0.883607 0.796618
0.985672 0.870215 0.779577
0.999859 0.778758 0.827273
-0.006621 0.944404 0.775286
0.030917 0.945196 0.766421
0.124981 0.953094 0.733865
0.726137 0.960528 0.796783
0.926000 0.959049 0.784120
0.997377 0.952775 0.726639
-0.002343 -0.002343 0.994077
0.185107 -0.002427 0.994077
0.525595 -0.002747 0.994076
0.828507 -0.003273 0.994076
0.984795 -0.003928 0.994076
0.998955 -0.004149 0.944690
-0.002634 0.321409 0.994076
0.032822 0.102334 0.998351
0.490340 0.079685 0.997705
0.825993 0.075789 0.996510
0.986310 0.073737 0.995523
0.999289 0.073484 0.945243
-0.003552 0.558035 0.994076
0.029503 0.538525 0.996059
0.356728 0.467985 0.999934
0.811211 0.442182 0.999895
0.992174 0.375678 0.999847
0.999939 0.399901 0.952996
-0.004780 0.681131 0.994076
0.029044 0.677217 0.994832
0.170302 0.664386 0.999471
0.859989 0.697307 0.999691
0.991888 0.690851 0.999532
0.999901 0.690844 0.976665
-0.006128 0.849459 0.994075
0.030247 0.850026 0.994297
0.131502 0.854175 0.995812
0.676227 0.859497 0.998004
0.987222 0.862226 0.996682
0.999672 0.855368 0.995042
-0.006707 0.944403 0.937292
0.031042 0.945044 0.934686
0.124020 0.952031 0.927166
0.696983 0.960036 0.946986
0.978622 0.955754 0.989169
0.998235 0.949749 0.988115
-0.002609 -0.002609 1.007264
0.145384 -0.002665 1.007264
0.425675 -0.002885 1.007264
0.713836 -0.003272 1.007264
0.922469 -0.003783 1.007264
0.996882 -0.004376 1.007263
-0.002806 0.278407 1.007264
0.075600 0.176048 1.007264
0.394917 0.173959 1.007264
0.702322 0.173963 1.007264
0.919510 0.173959 1.007264
0.996855 0.173961 1.007263
-0.003486 0.504715 1.007264
0.075595 0.486525 1.007264
0.403498 0.491227 1.007264
0.707762 0.494303 1.007264
0.921030 0.494301 1.007263
0.996845 0.494297 1.007263
-0.004478 0.634241 1.007263
0.075594 0.630052 1.007263
0.403483 0.631085 1.007263
0.877183 0.702182 1.007263
0.966376 0.707088 1.007263
0.997946 0.707087 1.007262
-0.005617 0.738108 1.007263
0.075581 0.735868 1.007263
0.403511 0.736446 1.007263
0.877181 0.784402 1.007262
0.989993 0.859524 1.007262
0.998805 0.862607 1.007262
-0.006825 0.929442 1.007262
0.075569 0.929414 1.007262
0.403496 0.929468 1.007262
0.877212 0.934716 1.007261
0.989993 0.941486 1.007261
0.998955 0.943636 1.007261
