LUTs/90.cube
LUT_3D_SIZE 16
0.000000 0.000000 0.063887
0.013662 -0.000135 0.063886
0.038008 -0.000319 0.063884
0.075602 -0.000542 0.063866
0.138060 -0.000809 0.063829
0.246961 -0.001118 0.063759
0.403515 -0.001461 0.063640
0.585510 -0.001829 0.063463
0.753844 -0.002208 0.063214
0.877188 -0.002575 0.062905
0.950045 -0.002905 0.062562
0.978316 -0.003185 0.062216
0.989994 -0.003407 0.061914
0.995220 -0.003572 0.061671
0.997695 -0.003692 0.061482
0.998955 -0.003795 0.061309
-0.000233 0.036010 0.063883
0.013666 0.036010 0.063882
0.038008 0.043573 0.063878
0.075602 0.050942 0.063861
0.138060 0.059569 0.063821
0.246961 0.069967 0.063749
0.403515 0.081791 0.063628
0.585510 0.093416 0.063448
0.753843 0.103077 0.063197
0.877188 0.109047 0.062886
0.950045 0.110499 0.062541
0.978316 0.108283 0.062197
0.989994 0.103882 0.061896
0.995220 0.098485 0.061653
0.997695 0.092860 0.061465
0.998955 0.087698 0.061294
-0.000549 0.094387 0.063866
0.016697 0.094387 0.063865
0.038034 0.094387 0.063860
0.075602 0.110339 0.063835
0.138059 0.129084 0.063788
0.246961 0.151702 0.063704
0.403515 0.177380 0.063575
0.585510 0.201503 0.063386
0.753843 0.220703 0.063123
0.877188 0.232265 0.062804
0.950045 0.235034 0.062454
0.978316 0.230796 0.062110
0.989994 0.222305 0.061814
0.995220 0.211710 0.061577
0.997695 0.200437 0.061395
0.998955 0.189850 0.061230
-0.000934 0.173972 0.063805
0.019712 0.173972 0.063802
0.045231 0.173972 0.063796
0.075781 0.173972 0.063781
0.138059 0.201890 0.063718
0.246960 0.234015 0.063616
0.403513 0.268615 0.063468
0.585510 0.300941 0.063253
0.753843 0.326624 0.062972
0.877188 0.341998 0.062635
0.950045 0.345700 0.062275
0.978316 0.340080 0.061936
0.989994 0.328785 0.061646
0.995220 0.314594 0.061421
0.997695 0.299529 0.061252
0.998955 0.285308 0.061098
-0.001393 0.270450 0.063667
0.023316 0.270450 0.063667
0.054011 0.270450 0.063657
0.091819 0.270450 0.063638
0.138887 0.270450 0.063606
0.246961 0.309030 0.063478
0.403512 0.351313 0.063291
0.585509 0.390137 0.063043
0.753843 0.420309 0.062728
0.877187 0.438135 0.062362
0.950044 0.442366 0.061994
0.978316 0.435936 0.061658
0.989994 0.422873 0.061375
0.995220 0.406313 0.061167
0.997695 0.388468 0.061019
0.998955 0.371470 0.060886
-0.001925 0.380369 0.063405
0.027768 0.380369 0.063403
0.065154 0.380369 0.063392
0.112915 0.380369 0.063367
0.174825 0.380369 0.063328
0.249645 0.380369 0.063271
0.403510 0.425920 0.063040
0.585508 0.468439 0.062739
0.753842 0.500308 0.062375
0.877187 0.518478 0.061976
0.950044 0.522675 0.061594
0.978316 0.516270 0.061254
0.989994 0.502941 0.060982
0.995220 0.485657 0.060798
0.997695 0.466611 0.060683
0.998955 0.448185 0.060579
-0.002515 0.494310 0.062960
0.032889 0.494310 0.062956
0.078442 0.494310 0.062942
0.139146 0.494310 0.062910
0.219383 0.494309 0.062862
0.311222 0.494309 0.062792
0.408373 0.494309 0.062699
0.585508 0.533876 0.062329
0.753842 0.563724 0.061905
0.877187 0.579861 0.061463
0.950043 0.583567 0.061050
0.978315 0.577905 0.060701
0.989994 0.566105 0.060446
0.995220 0.550267 0.060297
0.997695 0.532106 0.060227
0.998955 0.513936 0.060164
-0.003148 0.586970 0.062265
0.037945 0.586970 0.062260
0.092042 0.586970 0.062242
0.167209 0.586970 0.062204
0.264532 0.586970 0.062143
0.371877 0.586970 0.062060
0.482592 0.586970 0.061950
0.591065 0.586970 0.061810
0.753841 0.610900 0.061308
0.877186 0.625486 0.060791
0.950043 0.628876 0.060334
0.978315 0.623706 0.059974
0.989994 0.612998 0.059740
0.995220 0.599024 0.059643
0.997695 0.583128 0.059630
0.998955 0.566926 0.059624
-0.003800 0.650918 0.061301
0.042112 0.650918 0.061296
0.103678 0.650918 0.061275
0.191893 0.650918 0.061232
0.302108 0.650918 0.061161
0.421300 0.650918 0.061061
0.541366 0.650918 0.060927
0.655555 0.650918 0.060757
0.757600 0.650918 0.060547
0.877185 0.664759 0.059933
0.950042 0.668535 0.059413
0.978315 0.662840 0.059039
0.989994 0.651523 0.058836
0.995220 0.637588 0.058801
0.997695 0.622509 0.058871
0.998955 0.607703 0.058936
-0.004433 0.707090 0.060039
0.044567 0.707090 0.060034
0.110707 0.707090 0.060006
0.206657 0.707090 0.059957
0.324312 0.707090 0.059873
0.449942 0.707090 0.059754
0.574674 0.707090 0.059597
0.691053 0.707090 0.059393
0.792426 0.707089 0.059143
0.877655 0.707089 0.058838
0.950041 0.711837 0.058238
0.978315 0.704211 0.057844
0.989994 0.689920 0.057684
0.995220 0.673283 0.057734
0.997695 0.656795 0.057913
0.998955 0.641627 0.058074
-0.005001 0.764348 0.058542
0.044921 0.764348 0.058534
0.111751 0.764348 0.058504
0.208829 0.764348 0.058448
0.327570 0.764348 0.058353
0.454078 0.764348 0.058216
0.579491 0.764348 0.058035
0.696053 0.764347 0.057802
0.797313 0.764417 0.057517
0.882212 0.764417 0.057182
0.947832 0.764416 0.056785
0.978314 0.756140 0.056386
0.989994 0.735538 0.056284
0.995220 0.712898 0.056449
0.997695 0.691757 0.056755
0.998955 0.673828 0.057032
-0.005483 0.817667 0.056947
0.043671 0.817667 0.056939
0.108173 0.817667 0.056907
0.201373 0.817667 0.056846
0.316366 0.817667 0.056748
0.439794 0.817667 0.056605
0.562883 0.817667 0.056414
0.678614 0.817667 0.056172
0.780227 0.817667 0.055867
0.866237 0.817667 0.055495
0.936088 0.817666 0.055051
0.975640 0.817666 0.054521
0.989993 0.795238 0.054498
0.995220 0.762396 0.054828
0.997695 0.732868 0.055330
0.998955 0.709155 0.055769
-0.005866 0.862610 0.055419
0.041591 0.862610 0.055415
0.102270 0.862610 0.055382
0.188961 0.862610 0.055319
0.297703 0.862610 0.055211
0.415573 0.862610 0.055059
0.534601 0.862610 0.054861
0.648266 0.862610 0.054600
0.750378 0.862610 0.054274
0.837889 0.862609 0.053880
0.911457 0.862609 0.053404
0.962098 0.862609 0.052838
0.987679 0.862609 0.052193
0.995220 0.827631 0.052736
0.997695 0.785358 0.053514
0.998955 0.752315 0.054189
-0.006149 0.897116 0.054075
0.039162 0.897116 0.054071
0.095502 0.897116 0.054034
0.174623 0.897116 0.053969
0.275911 0.897116 0.053862
0.387001 0.897116 0.053705
0.500695 0.897115 0.053502
0.611151 0.897116 0.053240
0.712941 0.897115 0.052913
0.802025 0.897115 0.052519
0.878006 0.897115 0.052061
0.939665 0.897115 0.051517
0.975153 0.897114 0.050871
0.993287 0.897114 0.050112
0.997695 0.853710 0.051245
0.998955 0.807275 0.052206
-0.006355 0.922497 0.052943
0.036703 0.922497 0.052934
0.088766 0.922496 0.052904
0.160403 0.922496 0.052837
0.253854 0.922496 0.052730
0.357702 0.922496 0.052588
0.465407 0.922496 0.052396
0.571844 0.922496 0.052152
0.672141 0.922496 0.051853
0.762123 0.922496 0.051483
0.840226 0.922496 0.051038
0.906799 0.922495 0.050506
0.955829 0.922495 0.049875
0.982568 0.922495 0.049127
0.996212 0.922494 0.048237
0.998955 0.878110 0.049722
-0.006533 0.944404 0.051889
0.034474 0.944404 0.051884
0.082786 0.944404 0.051851
0.148048 0.944404 0.051795
0.234004 0.944404 0.051696
0.331035 0.944404 0.051557
0.432920 0.944404 0.051373
0.534876 0.944404 0.051137
0.632851 0.944403 0.050840
0.722946 0.944403 0.050479
0.802500 0.944403 0.050045
0.871428 0.944403 0.049525
0.929709 0.944402 0.048911
0.966977 0.944403 0.048181
0.987776 0.944402 0.047322
0.997957 0.944402 0.046370
-0.000093 -0.000093 0.063887
0.013668 -0.000156 0.063887
0.038008 -0.000329 0.063887
0.075602 -0.000549 0.063887
0.138060 -0.000814 0.063887
0.246961 -0.001122 0.063887
0.403515 -0.001465 0.104181
0.585510 -0.001832 0.138244
0.753844 -0.002210 0.162080
0.877188 -0.002577 0.175463
0.950045 -0.002907 0.178584
0.978316 -0.003186 0.173814
0.989994 -0.003409 0.163946
0.995220 -0.003573 0.151137
0.997695 -0.003693 0.136780
0.998955 -0.003796 0.122441
-0.000243 0.036015 0.063887
0.013352 0.036119 0.063887
0.043075 0.025296 0.063887
0.080337 0.018420 0.063887
0.142416 0.016072 0.063887
0.251017 0.015560 0.063887
0.406828 0.015933 0.063887
0.587804 0.016872 0.063887
0.755305 0.018206 0.063887
0.877911 0.019742 0.063887
0.950356 0.021289 0.063887
0.978459 0.022714 0.063887
0.990054 0.023887 0.063887
0.995224 0.024794 0.063887
0.997718 0.025462 0.063887
0.998974 0.026046 0.063887
-0.000554 0.094387 0.063887
0.006745 0.095956 0.063887
0.038018 0.094896 0.063887
0.077301 0.106007 0.063887
0.140642 0.121000 0.063887
0.249967 0.140344 0.063887
0.406287 0.162993 0.063887
0.587592 0.185097 0.063887
0.755259 0.202812 0.063887
0.877901 0.213468 0.063887
0.950361 0.215941 0.063887
0.978453 0.211986 0.063887
0.990067 0.204041 0.063887
0.995214 0.194155 0.063887
0.997712 0.183663 0.063887
0.998979 0.173818 0.063887
-0.000937 0.173972 0.063887
0.005743 0.174888 0.063887
0.042307 0.174754 0.063887
0.075788 0.174241 0.063887
0.138993 0.199690 0.063887
0.248534 0.229954 0.063887
0.405315 0.262991 0.063887
0.586992 0.294022 0.063887
0.754926 0.318796 0.063887
0.877801 0.333577 0.063887
0.950326 0.337017 0.063887
0.978429 0.331396 0.063887
0.990053 0.320229 0.063887
0.995210 0.306323 0.063887
0.997717 0.291585 0.063887
0.998974 0.277730 0.063887
-0.001395 0.270450 0.063887
0.005836 0.270959 0.063887
0.049379 0.270971 0.063887
0.089955 0.270817 0.063887
0.138900 0.270584 0.063887
0.247566 0.307713 0.063887
0.404435 0.348928 0.063887
0.586434 0.386862 0.063887
0.754624 0.416482 0.063887
0.877606 0.433838 0.063887
0.950224 0.437793 0.063887
0.978400 0.431259 0.063887
0.990039 0.418223 0.063887
0.995210 0.401683 0.063887
0.997715 0.383955 0.063887
0.998968 0.367134 0.063887
-0.001927 0.380369 0.063887
0.006397 0.380663 0.063887
0.058943 0.380727 0.063887
0.109475 0.380653 0.063887
0.173116 0.380548 0.063887
0.249679 0.380485 0.063887
0.403874 0.425068 0.063887
0.585978 0.466934 0.063887
0.754316 0.498433 0.063887
0.877388 0.516293 0.063887
0.950164 0.520347 0.063887
0.978410 0.513732 0.063887
0.990028 0.500300 0.063887
0.995200 0.482954 0.063887
0.997709 0.463891 0.063887
0.998967 0.445509 0.063887
-0.002517 0.494310 0.106654
0.007348 0.494490 0.063887
0.070481 0.494511 0.063887
0.134040 0.494505 0.063887
0.216200 0.494449 0.063887
0.309788 0.494408 0.063887
0.408429 0.494377 0.063887
0.585694 0.533387 0.063887
0.754090 0.562985 0.063887
0.877246 0.578887 0.063887
0.950144 0.582416 0.063887
0.978391 0.576650 0.063887
0.990016 0.564729 0.063887
0.995191 0.548778 0.063887
0.997708 0.530555 0.063887
0.998963 0.512308 0.063887
-0.003149 0.586970 0.140251
0.008613 0.587031 0.063887
0.082316 0.587039 0.063887
0.160353 0.587047 0.063887
0.259997 0.587027 0.063887
0.369330 0.587010 0.063887
0.481509 0.587001 0.063887
0.591099 0.586997 0.063887
0.753993 0.610680 0.063887
0.877270 0.625000 0.063887
0.950057 0.628295 0.063887
0.978347 0.623002 0.063887
0.990009 0.612251 0.063887
0.995189 0.598225 0.063887
0.997703 0.582238 0.063887
0.998961 0.565983 0.063887
-0.003801 0.650918 0.163312
0.010065 0.650959 0.063887
0.092424 0.650962 0.063887
0.183635 0.650959 0.063887
0.296629 0.650963 0.063887
0.417818 0.650957 0.063887
0.539416 0.650951 0.063887
0.654765 0.650933 0.063887
0.757591 0.650926 0.063887
0.877216 0.664575 0.063887
0.950074 0.668214 0.063887
0.978325 0.662377 0.063887
0.990004 0.651111 0.063887
0.995228 0.637110 0.063887
0.997699 0.622014 0.063887
0.998960 0.607177 0.063887
-0.004434 0.707090 0.175569
0.011621 0.707099 0.063887
0.098624 0.707102 0.063887
0.197710 0.707099 0.063887
0.318171 0.707079 0.063887
0.445947 0.707070 0.063887
0.572202 0.707097 0.063887
0.689687 0.707102 0.063887
0.791924 0.707078 0.063887
0.877675 0.707103 0.063887
0.950062 0.711688 0.063887
0.978324 0.703947 0.063887
0.990002 0.689592 0.063887
0.995217 0.672999 0.063887
0.997694 0.656468 0.063887
0.998961 0.641232 0.063887
-0.005001 0.764348 0.177259
0.013071 0.764365 0.063887
0.099704 0.764385 0.063887
0.199808 0.764382 0.063887
0.321229 0.764377 0.063887
0.449823 0.764370 0.063887
0.576700 0.764363 0.063887
0.694416 0.764354 0.063887
0.796473 0.764361 0.063887
0.881826 0.764354 0.063887
0.947812 0.764348 0.063887
0.978314 0.755862 0.063887
0.989994 0.735249 0.063887
0.995220 0.712587 0.063887
0.997696 0.691470 0.063887
0.998957 0.673542 0.063887
-0.005484 0.817667 0.171224
0.013574 0.817667 0.063887
0.096846 0.817673 0.063887
0.192759 0.817672 0.063887
0.310253 0.817670 0.063887
0.435505 0.817668 0.063887
0.560027 0.817667 0.063887
0.676766 0.817667 0.063887
0.779255 0.817667 0.063887
0.865660 0.817667 0.063887
0.935910 0.817666 0.063887
0.975634 0.817666 0.063887
0.989993 0.795101 0.063887
0.995220 0.762144 0.063887
0.997695 0.732665 0.063887
0.998955 0.708898 0.063887
-0.005867 0.862610 0.160605
0.013559 0.862610 0.063887
0.091822 0.862610 0.063887
0.180921 0.862610 0.063887
0.291873 0.862610 0.063887
0.411364 0.862610 0.063887
0.531670 0.862610 0.063887
0.646242 0.862610 0.063887
0.749144 0.862610 0.063887
0.837174 0.862610 0.063887
0.911054 0.862609 0.063887
0.961976 0.862609 0.063887
0.987676 0.862609 0.063887
0.995220 0.827444 0.063887
0.997695 0.785184 0.063887
0.998955 0.752107 0.063887
-0.006149 0.897116 0.147373
0.013546 0.897116 0.063887
0.085994 0.897116 0.063887
0.167246 0.897116 0.063887
0.270445 0.897116 0.063887
0.382963 0.897116 0.063887
0.497814 0.897115 0.063887
0.609128 0.897115 0.063887
0.711559 0.897115 0.063887
0.801167 0.897115 0.063887
0.877533 0.897115 0.063887
0.939464 0.897114 0.063887
0.975098 0.897114 0.063887
0.993295 0.897114 0.063887
0.997695 0.853630 0.063887
0.998955 0.807104 0.063887
-0.006356 0.922497 0.132735
0.013536 0.922496 0.063887
0.080201 0.922496 0.063887
0.153910 0.922496 0.063887
0.248824 0.922496 0.063887
0.353949 0.922496 0.063887
0.462638 0.922496 0.063887
0.569831 0.922496 0.063887
0.670739 0.922496 0.063887
0.761186 0.922496 0.063887
0.839625 0.922495 0.063887
0.906494 0.922495 0.063887
0.955736 0.922495 0.063887
0.982525 0.922494 0.063887
0.996210 0.922494 0.063887
0.998955 0.878054 0.063887
-0.006534 0.944404 0.118128
0.013527 0.944404 0.063887
0.075039 0.944404 0.063887
0.142259 0.944404 0.063887
0.229393 0.944404 0.063887
0.327521 0.944404 0.063887
0.430208 0.944404 0.063887
0.532937 0.944404 0.063887
0.631381 0.944403 0.063887
0.721920 0.944403 0.063887
0.801908 0.944403 0.063887
0.870973 0.944403 0.063887
0.929478 0.944403 0.063887
0.966905 0.944402 0.063887
0.987728 0.944402 0.063887
0.997956 0.944402 0.063887
-0.000219 -0.000219 0.140988
0.016710 -0.000257 0.140988
0.038068 -0.000368 0.140988
0.075602 -0.000576 0.178219
0.138060 -0.000835 0.215116
0.246961 -0.001139 0.253221
0.403515 -0.001479 0.290944
0.585510 -0.001844 0.323680
0.753843 -0.002221 0.348327
0.877188 -0.002587 0.362611
0.950045 -0.002915 0.365952
0.978316 -0.003194 0.360845
0.989994 -0.003415 0.350336
0.995220 -0.003579 0.336914
0.997695 -0.003698 0.322274
0.998955 -0.003801 0.308125
-0.000332 0.043636 0.140988
0.011017 0.030979 0.182108
0.041796 0.023270 0.163664
0.079691 0.017991 0.176422
0.142094 0.015988 0.203077
0.250840 0.015564 0.236462
0.406786 0.015963 0.271515
0.587794 0.016909 0.302548
0.755268 0.018249 0.326160
0.877893 0.019782 0.339839
0.950345 0.021334 0.343010
0.978456 0.022749 0.337915
0.990053 0.023921 0.327661
0.995223 0.024823 0.314599
0.997718 0.025490 0.300384
0.998973 0.026066 0.286716
-0.000574 0.094463 0.140987
0.006615 0.095519 0.144698
0.037106 0.094686 0.147027
0.088262 0.081326 0.115473
0.161892 0.062847 0.063887
0.274267 0.051372 0.063887
0.427841 0.045237 0.063887
0.603739 0.042184 0.063887
0.765406 0.040838 0.063887
0.883796 0.040451 0.063887
0.952894 0.040580 0.063887
0.979527 0.040946 0.063887
0.990603 0.041353 0.063887
0.995543 0.041717 0.063887
0.997911 0.042013 0.063887
0.999092 0.042290 0.063887
-0.000950 0.173972 0.178694
0.005735 0.174770 0.167434
0.022910 0.179152 0.063887
0.075537 0.175733 0.063887
0.146419 0.190015 0.063887
0.261681 0.210614 0.063887
0.419866 0.235175 0.063887
0.599605 0.259217 0.063887
0.763551 0.278730 0.063887
0.883083 0.290154 0.063887
0.952736 0.292012 0.063887
0.979476 0.286158 0.063887
0.990592 0.275695 0.063887
0.995553 0.263021 0.063887
0.997869 0.249687 0.063887
0.999103 0.237295 0.063887
-0.001405 0.270450 0.216108
0.005844 0.270923 0.200030
0.017645 0.274075 0.063887
0.079940 0.273394 0.063887
0.138911 0.271597 0.063887
0.252307 0.302745 0.063887
0.412043 0.338745 0.063887
0.594291 0.372370 0.063887
0.760613 0.398679 0.063887
0.881618 0.413843 0.063887
0.952129 0.416427 0.063887
0.979304 0.409147 0.063887
0.990536 0.395831 0.063887
0.995497 0.379482 0.063887
0.997886 0.362089 0.063887
0.999083 0.345704 0.063887
-0.001935 0.380369 0.255046
0.006409 0.380682 0.236520
0.015859 0.382811 0.063887
0.091851 0.382725 0.063887
0.164921 0.381983 0.063887
0.249783 0.381098 0.063887
0.406866 0.422018 0.063887
0.590298 0.460955 0.063887
0.758189 0.490347 0.063887
0.880290 0.506760 0.063887
0.951646 0.509720 0.063887
0.979044 0.502275 0.063887
0.990441 0.488239 0.063887
0.995464 0.470529 0.063887
0.997847 0.451328 0.063887
0.999117 0.432899 0.063887
-0.002524 0.494310 0.293212
0.007362 0.494478 0.273135
0.015429 0.495757 0.063887
0.108623 0.495862 0.063887
0.200754 0.495540 0.063887
0.303208 0.495182 0.063887
0.408477 0.494729 0.063887
0.587437 0.531575 0.063887
0.756267 0.559819 0.063887
0.879233 0.574763 0.063887
0.951114 0.577508 0.063887
0.978860 0.571067 0.063887
0.990366 0.558521 0.063887
0.995423 0.541989 0.063887
0.997800 0.523309 0.063887
0.999090 0.504767 0.063887
-0.003155 0.586970 0.325745
0.008626 0.587029 0.304668
0.015677 0.587654 0.063887
0.126863 0.587732 0.063887
0.238199 0.587647 0.063887
0.357111 0.587515 0.063887
0.476421 0.587349 0.063887
0.591159 0.587184 0.063887
0.754913 0.609748 0.063887
0.878323 0.623260 0.063887
0.950807 0.625926 0.063887
0.978734 0.620109 0.063887
0.990299 0.609052 0.063887
0.995366 0.594593 0.063887
0.997814 0.578263 0.063887
0.999069 0.561683 0.063887
-0.003806 0.650918 0.349713
0.010076 0.650959 0.328016
0.016321 0.651255 0.063887
0.142922 0.651356 0.063887
0.269815 0.651279 0.063887
0.401312 0.651238 0.063887
0.530466 0.651172 0.063887
0.651197 0.651117 0.063887
0.757650 0.651020 0.063887
0.877653 0.663890 0.063887
0.950469 0.666873 0.063887
0.978578 0.660621 0.063887
0.990190 0.649069 0.063887
0.995300 0.634925 0.063887
0.997775 0.619658 0.063887
0.999043 0.604666 0.063887
-0.004438 0.707090 0.362779
0.011631 0.707099 0.340921
0.017207 0.707446 0.063887
0.152673 0.707499 0.063887
0.288179 0.707470 0.063887
0.426539 0.707443 0.063887
0.560527 0.707356 0.063887
0.683619 0.707375 0.063887
0.789607 0.707288 0.063887
0.877640 0.707198 0.063887
0.950174 0.710925 0.063887
0.978466 0.702825 0.063887
0.990079 0.688113 0.063887
0.995300 0.671469 0.063887
0.997752 0.654856 0.063887
0.999026 0.639645 0.063887
-0.005005 0.764348 0.364630
0.013079 0.764364 0.342976
0.018172 0.764598 0.063887
0.153798 0.764691 0.063887
0.289958 0.764665 0.063887
0.428944 0.764631 0.063887
0.563381 0.764619 0.063887
0.686714 0.764578 0.063887
0.792585 0.764489 0.063887
0.880441 0.764489 0.063887
0.947792 0.764495 0.063887
0.978407 0.755295 0.063887
0.990029 0.734187 0.063887
0.995260 0.711379 0.063887
0.997706 0.690221 0.063887
0.999011 0.672344 0.063887
-0.005487 0.817667 0.358174
0.013573 0.817667 0.336745
0.019092 0.817952 0.063887
0.148311 0.818027 0.063887
0.279282 0.817990 0.063887
0.414152 0.817992 0.063887
0.545736 0.817938 0.063887
0.667792 0.817967 0.063887
0.774202 0.817952 0.063887
0.863262 0.817886 0.063887
0.935027 0.817812 0.063887
0.975646 0.817735 0.063887
0.990021 0.794511 0.063887
0.995213 0.761246 0.063887
0.997680 0.731635 0.063887
0.998994 0.707899 0.063887
-0.005869 0.862610 0.346995
0.013558 0.862610 0.325882
0.019885 0.862865 0.063887
0.139545 0.862952 0.063887
0.262112 0.862917 0.063887
0.390286 0.862908 0.063887
0.516976 0.862888 0.063887
0.636590 0.862895 0.063887
0.743153 0.862831 0.063887
0.833783 0.862755 0.063887
0.909358 0.862758 0.063887
0.961563 0.862669 0.063887
0.987662 0.862679 0.063887
0.995188 0.826946 0.063887
0.997717 0.784360 0.063887
0.998984 0.751237 0.063887
-0.006152 0.897116 0.333237
0.013546 0.897116 0.312590
0.020486 0.897315 0.063887
0.129654 0.897355 0.063887
0.242400 0.897388 0.063887
0.362636 0.897345 0.063887
0.483163 0.897317 0.063887
0.598995 0.897306 0.063887
0.704922 0.897259 0.063887
0.797012 0.897302 0.063887
0.875157 0.897291 0.063887
0.938407 0.897186 0.063887
0.974869 0.897174 0.063887
0.993278 0.897179 0.063887
0.997706 0.853182 0.063887
0.998974 0.806499 0.063887
-0.006358 0.922497 0.318439
0.013536 0.922496 0.298386
0.020957 0.922728 0.063887
0.119964 0.922764 0.063887
0.222672 0.922753 0.063887
0.334549 0.922757 0.063887
0.448391 0.922728 0.063887
0.559558 0.922736 0.063887
0.663619 0.922720 0.063887
0.756549 0.922710 0.063887
0.836685 0.922691 0.063887
0.904733 0.922635 0.063887
0.955149 0.922623 0.063887
0.982306 0.922543 0.063887
0.996197 0.922544 0.063887
0.998964 0.877686 0.063887
-0.006536 0.944404 0.304246
0.013527 0.944404 0.284787
0.021355 0.944565 0.063887
0.111461 0.944637 0.063887
0.205068 0.944612 0.063887
0.309146 0.944572 0.063887
0.416436 0.944567 0.063887
0.522662 0.944565 0.063887
0.624028 0.944564 0.063887
0.716900 0.944549 0.063887
0.798495 0.944549 0.063887
0.868909 0.944511 0.063887
0.928398 0.944468 0.063887
0.966525 0.944431 0.063887
0.987620 0.944455 0.063887
0.997958 0.944406 0.063887
-0.000373 -0.000373 0.286678
0.019758 -0.000399 0.286678
0.045341 -0.000490 0.286678
0.075975 -0.000625 0.286678
0.138060 -0.000874 0.324200
0.246961 -0.001172 0.364719
0.403515 -0.001507 0.404756
0.585510 -0.001869 0.439115
0.753843 -0.002243 0.464492
0.877188 -0.002606 0.479072
0.950045 -0.002932 0.482474
0.978316 -0.003209 0.477260
0.989994 -0.003428 0.466565
0.995220 -0.003590 0.452795
0.997695 -0.003708 0.437641
0.998955 -0.003809 0.422874
-0.000459 0.051152 0.286678
0.008093 0.024312 0.313099
0.045936 0.019602 0.304432
0.079143 0.017361 0.295676
0.141520 0.015857 0.324979
0.250504 0.015572 0.361506
0.406503 0.016024 0.399407
0.587646 0.016990 0.432522
0.755255 0.018336 0.457257
0.877892 0.019865 0.471410
0.950350 0.021422 0.474595
0.978449 0.022828 0.469274
0.990050 0.023992 0.458524
0.995221 0.024879 0.444769
0.997717 0.025543 0.429674
0.998973 0.026114 0.414988
-0.000692 0.110787 0.286678
0.006160 0.107752 0.293542
0.034572 0.089908 0.326225
0.086837 0.076219 0.318288
0.158807 0.060612 0.327272
0.271968 0.050487 0.346527
0.426399 0.044877 0.372851
0.602997 0.042047 0.398813
0.764980 0.040790 0.419361
0.883607 0.040449 0.430986
0.952818 0.040596 0.432669
0.979506 0.040970 0.426485
0.990589 0.041380 0.415399
0.995534 0.041739 0.401610
0.997906 0.042037 0.386657
0.999094 0.042310 0.372322
-0.000975 0.174358 0.286677
0.005722 0.174937 0.287788
0.022317 0.177924 0.293991
0.073599 0.174597 0.292954
0.162107 0.159134 0.275012
0.303916 0.131968 0.241105
0.468489 0.110073 0.210535
0.639738 0.095525 0.189403
0.789851 0.086443 0.175894
0.898793 0.081016 0.166859
0.959187 0.077891 0.159953
0.982252 0.076104 0.154132
0.992066 0.075092 0.149628
0.996445 0.074529 0.146430
0.998359 0.074207 0.144230
0.999359 0.073968 0.142407
-0.001425 0.270450 0.325263
0.005861 0.270867 0.321929
0.017516 0.273556 0.305304
0.049404 0.278964 0.234587
0.137800 0.273449 0.202466
0.268702 0.290375 0.174691
0.438819 0.312531 0.148369
0.621225 0.334021 0.125999
0.780792 0.351107 0.108468
0.894729 0.359903 0.095933
0.958054 0.358872 0.087652
0.981896 0.350075 0.082414
0.991967 0.336773 0.079290
0.996365 0.321339 0.077433
0.998338 0.305402 0.076399
0.999359 0.290637 0.075619
-0.001951 0.380369 0.366688
0.006434 0.380642 0.361267
0.015832 0.382600 0.333240
0.037556 0.387801 0.200444
0.142292 0.386319 0.145286
0.249566 0.382787 0.137631
0.416693 0.415754 0.120656
0.604410 0.447830 0.106260
0.770641 0.471774 0.094865
0.889321 0.484291 0.086747
0.956039 0.484428 0.081491
0.981155 0.474995 0.078194
0.991612 0.459746 0.076382
0.996219 0.441423 0.075395
0.998265 0.422133 0.074822
0.999353 0.403813 0.074397
-0.002537 0.494310 0.407183
0.007391 0.494473 0.400669
0.015428 0.495681 0.366238
0.032356 0.499188 0.189496
0.159556 0.498971 0.109052
0.286513 0.497510 0.105485
0.408646 0.495870 0.101358
0.593076 0.528125 0.091851
0.763179 0.553154 0.084588
0.884987 0.565811 0.079652
0.954293 0.566687 0.076652
0.980467 0.558576 0.075007
0.991292 0.544562 0.074118
0.996057 0.526830 0.073683
0.998164 0.507297 0.073478
0.999281 0.488231 0.073328
-0.003167 0.586970 0.441250
0.008650 0.587024 0.434146
0.015686 0.587650 0.396023
