LUTs/92.cube
LUT_3D_SIZE 16
0.000000 0.000000 0.063887
0.007450 0.008795 0.063887
0.020507 0.022779 0.063887
0.039935 0.041214 0.063887
0.070210 0.064646 0.063887
0.121557 0.093302 0.086959
0.216444 0.126845 0.173389
0.364254 0.164336 0.242173
0.542222 0.202376 0.302796
0.708115 0.236159 0.355081
0.828530 0.262767 0.396932
0.906266 0.282081 0.428203
0.949082 0.295340 0.449833
0.967606 0.304059 0.463966
0.976836 0.309901 0.473335
0.982933 0.314654 0.480767
0.005138 0.027037 0.063887
0.008956 0.028117 0.063887
0.021390 0.039003 0.063887
0.040652 0.054968 0.063887
0.070955 0.077109 0.063887
0.122492 0.105404 0.098073
0.217739 0.139215 0.179546
0.365645 0.176892 0.246604
0.543643 0.213462 0.306225
0.709111 0.245052 0.357791
0.829305 0.269224 0.399041
0.906817 0.286617 0.429792
0.949335 0.298596 0.451045
0.967738 0.306489 0.464914
0.976901 0.311798 0.474089
0.982960 0.316144 0.481362
0.013939 0.070807 0.063887
0.016581 0.071364 0.063887
0.024879 0.073688 0.063887
0.043648 0.091087 0.063887
0.074102 0.114359 0.063887
0.126524 0.144239 0.134832
0.223381 0.179937 0.203042
0.372005 0.216140 0.264238
0.549395 0.248048 0.320094
0.713665 0.272647 0.368805
0.832234 0.289906 0.407655
0.908788 0.301921 0.436345
0.950343 0.310084 0.456031
0.968253 0.315404 0.468794
0.977245 0.318941 0.477193
0.983212 0.322013 0.483879
0.026462 0.129850 0.063887
0.028639 0.130264 0.063887
0.036642 0.131927 0.063887
0.049498 0.135232 0.063887
0.080417 0.162493 0.125240
0.134778 0.195207 0.184814
0.234813 0.229967 0.240990
0.384720 0.261734 0.294766
0.561099 0.286208 0.345082
0.722474 0.303162 0.388957
0.838155 0.314236 0.423401
0.912629 0.321500 0.448370
0.952274 0.326219 0.465292
0.969417 0.328958 0.476103
0.978016 0.330516 0.483051
0.983657 0.331932 0.488638
0.044272 0.204160 0.158791
0.046444 0.204420 0.160019
0.054977 0.205631 0.165173
0.069986 0.208041 0.175029
0.090816 0.211734 0.189293
0.148321 0.242975 0.238064
0.253133 0.273400 0.286591
0.404815 0.297923 0.333929
0.579250 0.315694 0.378219
0.736020 0.328104 0.416021
0.847464 0.336565 0.444530
0.918673 0.342156 0.464681
0.955155 0.345214 0.478040
0.971055 0.346155 0.486254
0.979024 0.345888 0.491338
0.984418 0.345687 0.495513
0.070252 0.274860 0.258321
0.072805 0.275015 0.259080
0.083194 0.275688 0.262264
0.102568 0.277068 0.268537
0.131141 0.279185 0.278029
0.169789 0.282113 0.290639
0.279006 0.305343 0.334669
0.432432 0.324142 0.376834
0.604103 0.339542 0.414951
0.754399 0.353197 0.445787
0.859740 0.364036 0.467924
0.926709 0.370748 0.482991
0.958992 0.372951 0.492535
0.973186 0.371550 0.498069
0.980522 0.368459 0.501198
0.985413 0.365771 0.503821
0.109643 0.324136 0.347020
0.113054 0.324223 0.347538
0.127219 0.324552 0.349795
0.154816 0.325263 0.354223
0.196944 0.326385 0.361078
0.251423 0.327937 0.370326
0.316151 0.329937 0.381714
0.468025 0.348010 0.418948
0.635264 0.369986 0.450351
0.777119 0.393933 0.474161
0.875037 0.412781 0.490312
0.935846 0.422230 0.500750
0.963453 0.422047 0.506962
0.975916 0.415221 0.510153
0.982281 0.405968 0.511598
0.986644 0.398144 0.512804
0.172536 0.372124 0.424322
0.177207 0.372245 0.424676
0.196586 0.372764 0.426166
0.233370 0.373767 0.429155
0.286649 0.375440 0.433733
0.353542 0.377855 0.439904
0.430686 0.381136 0.447447
0.514619 0.385484 0.456204
0.671798 0.426332 0.480816
0.803334 0.471579 0.498256
0.892724 0.502464 0.509386
0.945453 0.513159 0.516244
0.968386 0.506628 0.519986
0.978795 0.489231 0.521473
0.984286 0.468469 0.521614
0.988036 0.451055 0.521716
0.266975 0.492850 0.481081
0.272085 0.493116 0.481260
0.293344 0.494194 0.482115
0.333713 0.496470 0.483837
0.391737 0.500174 0.486440
0.463750 0.505375 0.489909
0.544922 0.512344 0.494245
0.630314 0.521257 0.499196
0.714670 0.532151 0.504600
0.831960 0.594954 0.516962
0.912000 0.629850 0.524602
0.955140 0.636193 0.529132
0.973418 0.621239 0.531356
0.981980 0.593210 0.531738
0.986439 0.560190 0.530972
0.989578 0.530756 0.530260
0.380424 0.686572 0.515098
0.385238 0.686844 0.515231
0.405129 0.687907 0.515663
0.443195 0.689968 0.516569
0.498035 0.693562 0.517932
0.565971 0.698209 0.519796
0.641566 0.704518 0.522104
0.719354 0.712411 0.524839
0.793768 0.721788 0.527940
0.862108 0.732427 0.531338
0.931429 0.760265 0.537239
0.964149 0.759941 0.540840
0.978394 0.739624 0.542272
0.985135 0.706211 0.541824
0.988670 0.665927 0.540234
0.991264 0.628096 0.538751
0.492566 0.828552 0.534343
0.496414 0.828692 0.534427
0.512962 0.829328 0.534712
0.544658 0.830494 0.535272
0.590704 0.832371 0.536191
0.648098 0.835004 0.537472
0.712019 0.838363 0.539118
0.777371 0.842613 0.541213
0.840219 0.847335 0.543764
0.898389 0.852884 0.546833
0.946618 0.858847 0.550559
0.972199 0.856929 0.554316
0.983043 0.837863 0.555269
0.988226 0.806767 0.553678
0.990934 0.767220 0.550806
0.992873 0.727165 0.548220
0.588755 0.894821 0.549019
0.591774 0.894927 0.549083
0.604387 0.895193 0.549354
0.628698 0.895717 0.549952
0.664519 0.896526 0.550873
0.709527 0.897680 0.552195
0.760231 0.899153 0.554010
0.813207 0.900976 0.556360
0.865305 0.903089 0.559372
0.914414 0.905577 0.563137
0.953309 0.908317 0.567815
0.977388 0.911294 0.573582
0.987209 0.901041 0.573844
0.991095 0.878944 0.570218
0.993019 0.848501 0.564894
0.994515 0.813614 0.560331
0.662086 0.923471 0.563918
0.664320 0.923523 0.563972
0.673609 0.923637 0.564348
0.691885 0.923918 0.565018
0.718787 0.924371 0.566124
0.753162 0.924957 0.567698
0.792910 0.925819 0.569913
0.835488 0.926781 0.572749
0.878723 0.928030 0.576380
0.920346 0.929390 0.580866
0.953400 0.930873 0.586466
0.975359 0.932546 0.593273
0.989459 0.934423 0.601445
0.993621 0.922520 0.594435
0.994928 0.901801 0.585137
0.995924 0.876982 0.577335
0.712710 0.937683 0.578647
0.714387 0.937722 0.578759
0.721516 0.937800 0.579136
0.735187 0.937980 0.579840
0.755809 0.938245 0.581134
0.782475 0.938683 0.582887
0.814052 0.939127 0.585287
0.848890 0.939792 0.588425
0.884933 0.940579 0.592358
0.920683 0.941473 0.597231
0.950351 0.942567 0.603201
0.971247 0.943672 0.610353
0.985574 0.944991 0.618905
0.994779 0.946310 0.628975
0.996567 0.934674 0.613939
0.997250 0.917420 0.601280
0.747351 0.945828 0.591984
0.748546 0.945856 0.592073
0.753999 0.945896 0.592496
0.764657 0.945980 0.593281
0.780874 0.946197 0.594505
0.802302 0.946488 0.596328
0.827871 0.946908 0.598818
0.856674 0.947445 0.601966
0.887252 0.947963 0.605925
0.918382 0.948637 0.610858
0.945590 0.949413 0.616743
0.965953 0.950305 0.623752
0.980651 0.951263 0.631986
0.990956 0.952316 0.641607
0.997225 0.953414 0.652804
0.998292 0.943343 0.633937
0.775251 0.951872 0.605432
0.776296 0.951922 0.605566
0.780557 0.951920 0.605918
0.789048 0.952018 0.606725
0.802011 0.952209 0.608021
0.819251 0.952409 0.609816
0.840393 0.952742 0.612230
0.864411 0.953080 0.615411
0.890396 0.953517 0.619298
0.917402 0.954093 0.624049
0.942047 0.954717 0.629748
0.961381 0.955407 0.636494
0.976097 0.956167 0.644379
0.986883 0.957023 0.653445
0.994430 0.957987 0.663954
0.998681 0.958919 0.675720
0.001824 0.005793 0.063887
0.007641 0.010298 0.063887
0.020610 0.023581 0.063887
0.040016 0.041759 0.063887
0.070292 0.065089 0.063887
0.121650 0.093681 0.118179
0.216623 0.127165 0.194864
0.364400 0.164635 0.260533
0.542373 0.202632 0.318519
0.708163 0.236364 0.367731
0.828640 0.262931 0.406398
0.906371 0.282185 0.434867
0.949121 0.295430 0.454506
0.967645 0.304133 0.467365
0.976862 0.309945 0.475896
0.982943 0.314701 0.482723
0.005380 0.027490 0.063887
0.008985 0.028603 0.063887
0.023485 0.031179 0.063887
0.042423 0.044934 0.063887
0.072334 0.066743 0.063887
0.123694 0.094650 0.092429
0.218882 0.127810 0.175872
0.366516 0.165067 0.243741
0.543991 0.202911 0.303905
0.709271 0.236546 0.355887
0.829315 0.263058 0.397495
0.906844 0.282274 0.428612
0.949284 0.295499 0.450162
0.967732 0.304192 0.464239
0.976898 0.310041 0.473580
0.982966 0.314744 0.480951
0.014077 0.071026 0.063887
0.014644 0.072144 0.063887
0.024946 0.074110 0.063887
0.044185 0.088537 0.063887
0.074802 0.109852 0.063887
0.127336 0.138352 0.130917
0.224268 0.173181 0.199818
0.372693 0.209383 0.261535
0.549786 0.241950 0.317824
0.713757 0.267696 0.366943
0.832267 0.286086 0.406111
0.908794 0.298994 0.435171
0.950330 0.307820 0.455116
0.968257 0.313604 0.468121
0.977265 0.317474 0.476632
0.983235 0.320772 0.483433
0.026566 0.130017 0.063887
0.026789 0.130612 0.063887
0.035646 0.132300 0.063887
0.049559 0.135493 0.063887
0.080615 0.161046 0.124269
0.135091 0.192715 0.182981
0.235142 0.226958 0.238977
0.385042 0.258783 0.292792
0.561167 0.283583 0.343279
0.722450 0.300924 0.387382
0.838181 0.312317 0.422154
0.912712 0.319869 0.447388
0.952243 0.324780 0.464531
0.969395 0.327724 0.475498
0.978015 0.329408 0.482562
0.983657 0.330962 0.488268
0.044371 0.204254 0.170722
0.044507 0.204582 0.160740
0.053494 0.205839 0.165323
0.069272 0.208212 0.175396
0.090887 0.211905 0.189964
0.148416 0.242259 0.237571
0.253173 0.272307 0.285559
0.404715 0.296763 0.332678
0.579150 0.314587 0.376913
0.735890 0.326999 0.414863
0.847308 0.335424 0.443576
0.918609 0.340972 0.463935
0.955125 0.344036 0.477420
0.971021 0.345091 0.485771
0.979005 0.344938 0.490945
0.984411 0.344802 0.495159
0.070362 0.274918 0.266559
0.070461 0.275083 0.259354
0.081150 0.275775 0.262183
0.101158 0.277145 0.268558
0.130429 0.279263 0.278244
0.169923 0.282186 0.291035
0.278987 0.305070 0.334383
0.432364 0.323699 0.376191
0.603898 0.338911 0.414192
0.754213 0.352292 0.445072
0.859600 0.362897 0.467318
0.926565 0.369472 0.482447
0.958938 0.371686 0.492124
0.973135 0.370365 0.497704
0.980491 0.367391 0.500917
0.985403 0.364766 0.503569
0.109762 0.324165 0.353443
0.109863 0.324223 0.347654
0.124258 0.324571 0.349696
0.152367 0.325279 0.354155
0.195243 0.326398 0.361137
0.250646 0.327967 0.370471
0.316347 0.330011 0.382000
0.467975 0.347782 0.418827
0.635104 0.369450 0.450025
0.776894 0.392930 0.473805
0.874885 0.411355 0.489953
0.935715 0.420587 0.500396
0.963396 0.420393 0.506700
0.975869 0.413735 0.509904
0.982237 0.404646 0.511347
0.986615 0.397011 0.512596
0.172706 0.372150 0.428717
0.172843 0.372234 0.424728
0.192503 0.372750 0.426082
0.229981 0.373780 0.429088
0.284113 0.375466 0.433725
0.351993 0.377876 0.439947
0.430033 0.381171 0.447566
0.514774 0.385539 0.456367
0.671703 0.425942 0.480754
0.803132 0.470446 0.498105
0.892519 0.500948 0.509260
0.945381 0.511340 0.516066
0.968307 0.504727 0.519800
0.978766 0.487444 0.521302
0.984304 0.466886 0.521473
0.988011 0.449693 0.521585
0.267164 0.492943 0.483442
0.267297 0.493006 0.481270
0.288797 0.494192 0.482088
0.329826 0.496459 0.483778
0.388796 0.500131 0.486417
0.461619 0.505389 0.489955
0.543684 0.512361 0.494298
0.629843 0.521371 0.499255
0.714742 0.532293 0.504700
0.831907 0.594382 0.516976
0.911897 0.628691 0.524542
0.955087 0.634778 0.529080
0.973358 0.619696 0.531252
0.981916 0.591643 0.531630
0.986442 0.558625 0.530855
0.989559 0.529317 0.530145
0.380644 0.686673 0.516241
0.380792 0.686777 0.515225
0.400879 0.687745 0.515631
0.439498 0.689953 0.516522
0.494986 0.693551 0.517915
0.563692 0.698214 0.519792
0.640104 0.704515 0.522122
0.718467 0.712435 0.524882
0.793417 0.721760 0.527990
0.862106 0.732494 0.531385
0.931415 0.759914 0.537242
0.964126 0.759318 0.540794
0.978321 0.738662 0.542226
0.985105 0.704954 0.541726
0.988634 0.664618 0.540135
0.991243 0.626852 0.538672
0.492715 0.828600 0.534971
0.492872 0.828625 0.534426
0.509467 0.829326 0.534692
0.541519 0.830418 0.535228
0.588119 0.832243 0.536185
0.646046 0.835008 0.537470
0.710517 0.838288 0.539128
0.776402 0.842587 0.541202
0.839675 0.847344 0.543799
0.898272 0.852945 0.546848
0.946626 0.858876 0.550607
0.972192 0.856706 0.554346
0.983019 0.837429 0.555242
0.988193 0.806135 0.553618
0.990913 0.766497 0.550732
0.992856 0.726295 0.548163
0.588910 0.894860 0.549602
0.589030 0.894857 0.549079
0.601717 0.895177 0.549362
0.626330 0.895650 0.549945
0.662402 0.896472 0.550861
0.707851 0.897659 0.552193
0.758984 0.899124 0.554010
0.812291 0.901006 0.556391
0.864762 0.903079 0.559362
0.914142 0.905579 0.563177
0.953196 0.908342 0.567843
0.977411 0.911306 0.573651
0.987221 0.900969 0.573865
0.991095 0.878693 0.570181
0.993007 0.848158 0.564857
0.994504 0.813099 0.560279
0.662260 0.923487 0.564511
0.662323 0.923505 0.563956
0.671698 0.923593 0.564346
0.689996 0.923899 0.564988
0.717149 0.924357 0.566090
0.751889 0.924976 0.567702
0.791880 0.925784 0.569907
0.834730 0.926788 0.572733
0.878188 0.928000 0.576377
0.920004 0.929372 0.580896
0.953283 0.930900 0.586485
0.975319 0.932555 0.593313
0.989467 0.934437 0.601519
0.993613 0.922453 0.594484
0.994916 0.901666 0.585167
0.995921 0.876719 0.577316
0.712855 0.937713 0.579237
0.712956 0.937702 0.578723
0.720003 0.937757 0.579085
0.733757 0.937973 0.579852
0.754574 0.938263 0.581097
0.781405 0.938637 0.582849
0.813221 0.939134 0.585285
0.848173 0.939812 0.588415
0.884363 0.940549 0.592360
0.920367 0.941468 0.597272
0.950197 0.942550 0.603228
0.971146 0.943666 0.610386
0.985541 0.944943 0.618942
0.994779 0.946324 0.629031
0.996562 0.934657 0.613967
0.997242 0.917317 0.601230
0.747446 0.945852 0.592618
0.747512 0.945841 0.592056
0.752872 0.945850 0.592467
0.763563 0.945994 0.593232
0.779904 0.946216 0.594477
0.801401 0.946485 0.596303
0.827056 0.946901 0.598796
0.856134 0.947431 0.601968
0.886758 0.947939 0.605919
0.918036 0.948618 0.610846
0.945427 0.949391 0.616739
0.965833 0.950291 0.623762
0.980585 0.951256 0.632027
0.990938 0.952316 0.641673
0.997226 0.953422 0.652850
0.998299 0.943352 0.633971
0.775375 0.951893 0.606008
0.775376 0.951882 0.605554
0.779614 0.951922 0.605896
0.788110 0.952018 0.606698
0.801179 0.952172 0.607963
0.818531 0.952404 0.609799
0.839634 0.952772 0.612224
0.863882 0.953071 0.615397
0.890038 0.953511 0.619305
0.917046 0.954067 0.624048
0.941854 0.954694 0.629758
0.961218 0.955400 0.636499
0.976031 0.956154 0.644414
0.986846 0.957019 0.653484
0.994426 0.958028 0.664049
0.998682 0.958923 0.675852
0.004788 0.015012 0.063887
0.010218 0.017916 0.063887
0.021076 0.026690 0.063887
0.040358 0.044057 0.063887
0.070653 0.066943 0.126053
0.122118 0.095287 0.193370
0.217202 0.128598 0.257265
0.365126 0.165904 0.316756
0.543036 0.203695 0.368115
0.708665 0.237175 0.408581
0.828990 0.263541 0.437534
0.906611 0.282646 0.457609
0.949214 0.295789 0.471153
0.967662 0.304396 0.479827
0.976875 0.310183 0.485511
0.982938 0.314876 0.490296
0.007748 0.035472 0.063887
0.009114 0.029021 0.063887
0.023334 0.033170 0.063887
0.042486 0.047102 0.063887
0.072559 0.068584 0.119435
0.124072 0.096260 0.184988
0.219437 0.129243 0.248327
0.367172 0.166369 0.307717
0.544592 0.203968 0.359596
0.709684 0.237365 0.401368
0.829641 0.263670 0.431908
0.907016 0.282755 0.453358
0.949386 0.295841 0.467967
0.967810 0.304469 0.477446
0.976944 0.310251 0.483663
0.983017 0.314916 0.488802
0.014686 0.072047 0.063887
0.015241 0.072957 0.063887
0.024900 0.074961 0.063887
0.048657 0.075097 0.063887
0.082643 0.083039 0.063887
0.136798 0.104321 0.126591
0.234810 0.134458 0.192544
0.382035 0.169956 0.254092
0.556797 0.206324 0.310936
0.718173 0.238947 0.360863
0.835097 0.264751 0.401150
0.910749 0.283533 0.431282
0.951317 0.296479 0.452195
0.968975 0.305019 0.465926
0.977798 0.310758 0.475021
0.983604 0.315386 0.482217
0.027020 0.130702 0.119506
0.027260 0.131278 0.113989
0.030239 0.135101 0.076294
0.049954 0.137347 0.086044
0.083355 0.155457 0.128751
0.139950 0.181530 0.178781
0.241827 0.212777 0.232190
0.391741 0.243993 0.285491
0.566723 0.270213 0.336293
0.726284 0.289581 0.381257
0.840738 0.302840 0.417118
0.914453 0.311957 0.443497
0.953211 0.318062 0.461571
0.970079 0.321954 0.473197
0.978500 0.324461 0.480819
0.984062 0.326713 0.486902
0.044802 0.204754 0.210608
0.044934 0.205071 0.205191
0.046253 0.207534 0.174686
0.065660 0.209920 0.180305
0.091422 0.213124 0.195269
0.150195 0.239742 0.237107
0.256104 0.267861 0.282207
0.408142 0.291819 0.328072
0.582249 0.309702 0.372025
0.738259 0.322193 0.410350
0.848997 0.330532 0.439851
0.919969 0.336054 0.460940
0.955852 0.339304 0.475066
0.971581 0.340657 0.483895
0.979484 0.340915 0.489484
0.984783 0.341246 0.493999
0.070808 0.275209 0.296346
0.070919 0.275345 0.291456
0.071705 0.276468 0.265798
0.094212 0.277952 0.269608
0.127200 0.279951 0.279739
0.170664 0.282767 0.293120
0.280199 0.304058 0.333637
0.433683 0.321912 0.373815
0.605256 0.336469 0.411230
0.755355 0.348836 0.442178
0.860612 0.358422 0.464780
0.927344 0.364365 0.480349
0.959403 0.366556 0.490403
0.973565 0.365627 0.496275
0.980796 0.363164 0.499765
0.985633 0.361043 0.502653
0.110286 0.324274 0.377274
0.110401 0.324360 0.372988
0.111011 0.324802 0.351354
0.140943 0.325579 0.354176
0.187491 0.326661 0.361404
0.247184 0.328233 0.371099
0.317050 0.330224 0.383028
0.468442 0.347068 0.418224
0.635541 0.367334 0.448646
0.777274 0.389001 0.472201
0.875235 0.405852 0.488457
0.936039 0.414206 0.499098
0.963687 0.413949 0.505543
0.976119 0.407817 0.508940
0.982465 0.399491 0.510524
0.986819 0.392506 0.511877
0.173434 0.372392 0.444914
0.173552 0.372458 0.441934
0.174079 0.372903 0.426788
0.213858 0.374065 0.428809
0.272289 0.375758 0.433587
0.344593 0.378179 0.439995
0.426858 0.381487 0.447836
0.515310 0.385892 0.456856
0.671853 0.424362 0.480391
0.803170 0.466337 0.497447
0.892614 0.494745 0.508463
0.945532 0.504198 0.515300
0.968493 0.497276 0.519124
0.978901 0.480412 0.520639
0.984407 0.460661 0.520870
0.988176 0.444311 0.521067
0.268004 0.493413 0.492311
0.268157 0.493486 0.490590
0.268544 0.494403 0.482276
0.311624 0.496892 0.483500
0.374592 0.500516 0.486216
0.451730 0.505873 0.489842
0.537786 0.512868 0.494282
0.627414 0.521875 0.499375
0.715107 0.532880 0.504902
0.831936 0.592172 0.516800
0.911944 0.624504 0.524218
0.955127 0.629442 0.528604
0.973405 0.613631 0.530788
0.981996 0.585366 0.531203
0.986498 0.552594 0.530480
0.989667 0.523617 0.529763
0.381453 0.687042 0.520624
0.381639 0.687120 0.519754
0.381873 0.687908 0.515655
0.422015 0.690186 0.516370
0.480905 0.693711 0.517771
0.553207 0.698451 0.519679
0.633116 0.704811 0.522050
0.714562 0.712690 0.524857
0.791871 0.722061 0.528017
0.862274 0.732951 0.531476
0.931420 0.758288 0.537165
0.964113 0.756467 0.540569
0.978331 0.734890 0.541909
0.985148 0.700647 0.541415
0.988726 0.660099 0.539825
0.991321 0.622097 0.538382
0.493520 0.828857 0.537666
0.493658 0.828872 0.537120
0.493835 0.829251 0.534666
0.526823 0.830487 0.535114
0.575837 0.832402 0.536059
0.636592 0.835077 0.537358
0.703757 0.838448 0.539036
0.772103 0.842574 0.541166
0.837377 0.847513 0.543783
0.897355 0.853029 0.546883
0.946659 0.859089 0.550681
0.972185 0.855932 0.554218
0.983059 0.835807 0.555000
0.988212 0.803808 0.553373
0.990944 0.763507 0.550438
0.992913 0.722965 0.547897
0.589580 0.894978 0.552053
0.589693 0.894976 0.551533
0.589823 0.895175 0.549271
0.614935 0.895734 0.549783
0.652714 0.896530 0.550731
0.700042 0.897686 0.552080
0.753086 0.899188 0.553907
0.808169 0.901022 0.556317
0.862104 0.903150 0.559335
0.912713 0.905643 0.563162
0.952795 0.908419 0.567910
0.977429 0.911387 0.573755
0.987221 0.900526 0.573749
0.991098 0.877841 0.569987
0.993028 0.846740 0.564608
0.994536 0.811194 0.560046
0.662837 0.923543 0.567146
0.662888 0.923544 0.566588
0.662974 0.923626 0.564259
0.681551 0.923927 0.564830
0.709768 0.924384 0.565968
0.745722 0.924975 0.567566
0.786974 0.925776 0.569765
0.831115 0.926775 0.572676
0.875582 0.928010 0.576262
0.918365 0.929419 0.580809
0.952661 0.930883 0.586486
0.975156 0.932595 0.593390
0.989473 0.934486 0.601681
0.993618 0.922239 0.594426
0.994921 0.901107 0.584951
0.995925 0.875860 0.577095
0.713348 0.937721 0.581946
0.713425 0.937711 0.581410
0.713610 0.937779 0.579045
0.727473 0.937998 0.579666
0.748747 0.938247 0.580907
0.776533 0.938677 0.582707
0.809147 0.939135 0.585135
0.845040 0.939815 0.588305
0.882023 0.940580 0.592268
0.918673 0.941510 0.597170
0.949342 0.942570 0.603192
0.970862 0.943695 0.610420
0.985427 0.944969 0.619011
0.994767 0.946308 0.629172
0.996569 0.934505 0.613922
0.997251 0.916998 0.601127
0.747749 0.945836 0.595182
0.747817 0.945839 0.594630
0.747911 0.945886 0.592430
0.758644 0.945994 0.593057
0.775372 0.946232 0.594324
0.797314 0.946502 0.596178
0.823766 0.946924 0.598660
0.853312 0.947420 0.601837
0.884617 0.947981 0.605867
0.916440 0.948661 0.610752
0.944511 0.949449 0.616696
0.965401 0.950305 0.623755
0.980398 0.951264 0.632055
0.990889 0.952335 0.641768
0.997227 0.953448 0.653033
0.998296 0.943246 0.633962
0.775646 0.951925 0.608495
0.775688 0.951921 0.608023
0.775812 0.951917 0.605904
0.784249 0.952040 0.606564
0.797516 0.952231 0.607800
0.815222 0.952429 0.609704
0.836827 0.952753 0.612118
0.861474 0.953121 0.615248
0.887976 0.953527 0.619207
0.915505 0.954090 0.623972
0.940944 0.954714 0.629738
0.960739 0.955375 0.636490
0.975722 0.956186 0.644437
0.986767 0.957038 0.653578
0.994404 0.958010 0.664106
0.998681 0.958964 0.675975
0.008856 0.027109 0.147066
0.013908 0.029233 0.148096
0.026093 0.036809 0.152485
0.041278 0.048339 0.160881
0.071364 0.070552 0.212973
0.122996 0.098448 0.269568
0.218468 0.131451 0.328015
0.366538 0.168463 0.382485
0.544336 0.205780 0.425951
0.709678 0.238822 0.455918
0.829703 0.264793 0.474786
0.907069 0.283560 0.486578
0.949466 0.296481 0.493725
0.967799 0.304957 0.497811
0.976965 0.310639 0.500151
0.983024 0.315241 0.502268
0.011287 0.046042 0.150841
0.011077 0.034411 0.175903
0.026767 0.040340 0.171217
0.043018 0.051169 0.170794
0.073052 0.072181 0.214805
0.124830 0.099433 0.267974
0.220572 0.132110 0.324807
0.368529 0.168945 0.378632
0.545872 0.206062 0.422167
0.710690 0.239032 0.452599
0.830288 0.264932 0.472028
0.907529 0.283668 0.484318
0.949650 0.296561 0.491909
0.967904 0.305032 0.496295
0.977025 0.310713 0.498916
0.983047 0.315285 0.501221
0.018380 0.086542 0.165884
0.018329 0.084639 0.171382
0.024072 0.073088 0.201141
0.048724 0.075261 0.201210
0.082166 0.085788 0.224085
0.136695 0.107339 0.262299
0.235225 0.137296 0.310920
0.382859 0.172519 0.360628
0.557736 0.208423 0.403785
0.718961 0.240604 0.436368
0.835711 0.265998 0.458565
0.911035 0.284459 0.473514
0.951548 0.297195 0.483290
0.969106 0.305561 0.489391
0.977892 0.311200 0.493275
0.983622 0.315765 0.496665
0.027932 0.132333 0.191642
0.028197 0.132845 0.192878
0.031082 0.136061 0.200585
0.049001 0.137368 0.206980
0.090293 0.134525 0.202744
0.160019 0.136128 0.206936
0.270391 0.155887 0.240056
0.420101 0.184745 0.284427
0.589427 0.216384 0.331505
0.741633 0.245932 0.375369
0.850716 0.269655 0.411566
0.921134 0.287141 0.438950
0.956611 0.299320 0.458083
0.972161 0.307380 0.470689
0.980074 0.312827 0.479099
0.985323 0.317268 0.485785
0.045635 0.205745 0.263909
0.045800 0.206057 0.262262
0.047159 0.208354 0.254805
0.054556 0.214823 0.224871
0.093262 0.217402 0.225926
0.159127 0.234182 0.247975
0.271250 0.256416 0.281765
0.425751 0.278297 0.322313
0.598269 0.296326 0.364247
0.750090 0.309535 0.402572
0.857369 0.318578 0.433134
0.925709 0.324795 0.455575
0.958956 0.328863 0.470901
0.973545 0.331223 0.480745
0.981081 0.332558 0.487082
0.986041 0.333828 0.492226
0.071706 0.275764 0.340150
0.071831 0.275903 0.337675
0.072671 0.276995 0.326097
0.076528 0.280462 0.287786
0.118490 0.282714 0.289022
0.173518 0.284844 0.302666
0.286312 0.302326 0.335623
0.442108 0.318295 0.371448
0.613689 0.331318 0.406774
0.762237 0.341922 0.437297
0.865899 0.349777 0.460361
0.931116 0.354682 0.476657
0.961601 0.356818 0.487427
0.975105 0.356540 0.493927
0.982064 0.355085 0.497903
0.986682 0.353905 0.501208
0.111397 0.324605 0.412721
0.111512 0.324650 0.410289
0.112146 0.325073 0.398649
0.114970 0.326517 0.363235
0.167816 0.327813 0.364493
0.239179 0.329179 0.374594
0.319434 0.331007 0.387054
0.472053 0.345895 0.418390
0.639451 0.363509 0.446804
0.780848 0.381720 0.469666
0.878348 0.395473 0.485921
0.938284 0.402142 0.496837
0.965072 0.401809 0.503595
0.977114 0.396702 0.507306
0.983394 0.389806 0.509204
0.987626 0.384144 0.510833
0.174885 0.372802 0.468770
0.175035 0.372868 0.467000
0.175584 0.373367 0.458382
0.178090 0.375010 0.433069
0.243763 0.377064 0.434372
0.327646 0.379414 0.441050
0.420059 0.382681 0.449206
0.516952 0.386952 0.458526
