LUTs/92.cube
LUT_3D_SIZE 6
0.000000 0.000000 0.063887
0.039935 0.041214 0.063887
0.216444 0.126845 0.173389
0.708115 0.236159 0.355081
0.949082 0.295340 0.449833
0.982933 0.314654 0.480767
0.026462 0.129850 0.063887
0.049498 0.135232 0.063887
0.234813 0.229967 0.240990
0.722474 0.303162 0.388957
0.952274 0.326219 0.465292
0.983657 0.331932 0.488638
0.109643 0.324136 0.347020
0.154816 0.325263 0.354223
0.316151 0.329937 0.381714
0.777119 0.393933 0.474161
0.963453 0.422047 0.506962
0.986644 0.398144 0.512804
0.380424 0.686572 0.515098
0.443195 0.689968 0.516569
0.641566 0.704518 0.522104
0.862108 0.732427 0.531338
0.978394 0.739624 0.542272
0.991264 0.628096 0.538751
0.662086 0.923471 0.563918
0.691885 0.923918 0.565018
0.792910 0.925819 0.569913
0.920346 0.929390 0.580866
0.989459 0.934423 0.601445
0.995924 0.876982 0.577335
0.775251 0.951872 0.605432
0.789048 0.952018 0.606725
0.840393 0.952742 0.612230
0.917402 0.954093 0.624049
0.976097 0.956167 0.644379
0.998681 0.958919 0.675720
0.008856 0.027109 0.147066
0.041278 0.048339 0.160881
0.218468 0.131451 0.328015
0.709678 0.238822 0.455918
0.949466 0.296481 0.493725
0.983024 0.315241 0.502268
0.027932 0.132333 0.191642
0.049001 0.137368 0.206980
0.270391 0.155887 0.240056
0.741633 0.245932 0.375369
0.956611 0.299320 0.458083
0.985323 0.317268 0.485785
0.111397 0.324605 0.412721
0.114970 0.326517 0.363235
0.319434 0.331007 0.387054
0.780848 0.381720 0.469666
0.965072 0.401809 0.503595
0.987626 0.384144 0.510833
0.383210 0.688034 0.527828
0.385243 0.691363 0.516951
0.617791 0.706234 0.522078
0.862665 0.734009 0.531775
0.978535 0.727790 0.541458
0.991569 0.613266 0.537972
0.663834 0.923632 0.572693
0.664845 0.924082 0.565060
0.776493 0.925938 0.569590
0.915038 0.929495 0.580811
0.989478 0.934607 0.602075
0.996016 0.874306 0.576830
0.776234 0.951923 0.613611
0.777073 0.952148 0.606970
0.830911 0.952890 0.612061
0.912403 0.954179 0.623960
0.975159 0.956267 0.644585
0.998624 0.959045 0.676426
0.028991 0.082592 0.467326
0.085043 0.099045 0.469835
0.236607 0.149470 0.479682
0.716578 0.249438 0.534614
0.950986 0.301117 0.544830
0.983342 0.317728 0.538991
0.050013 0.218358 0.476183
0.047256 0.137469 0.505132
0.278120 0.171491 0.497526
0.744480 0.256204 0.533709
0.957469 0.303808 0.540841
0.985554 0.319706 0.535523
0.118909 0.327421 0.503671
0.123336 0.329112 0.506131
0.263064 0.327505 0.513399
0.848705 0.320451 0.503324
0.982939 0.329574 0.510770
0.991751 0.342035 0.520794
0.395035 0.694117 0.563875
0.397717 0.697256 0.559014
0.447918 0.731661 0.534807
0.869599 0.753639 0.538955
0.983723 0.681264 0.543135
0.995020 0.559665 0.540374
0.671505 0.924419 0.621353
0.672562 0.924799 0.612048
0.692871 0.929016 0.578456
0.886012 0.932087 0.585620
0.989569 0.936019 0.609306
0.997063 0.868204 0.580828
0.780357 0.952248 0.652989
0.781184 0.952379 0.645790
0.794116 0.954500 0.623260
0.888174 0.955780 0.629151
0.970816 0.957434 0.650473
0.998667 0.959661 0.683372
0.061975 0.158286 0.592890
0.163909 0.171112 0.594397
0.438687 0.213822 0.601242
0.741110 0.267441 0.616273
0.953891 0.309404 0.640165
0.984027 0.322457 0.595870
0.085610 0.286152 0.598680
0.073056 0.187267 0.632572
0.439287 0.221266 0.625952
0.761821 0.273411 0.630280
0.959314 0.311910 0.640464
0.986050 0.324348 0.593499
0.190600 0.380758 0.626431
0.182134 0.371679 0.633044
0.207198 0.311356 0.715455
0.840429 0.319578 0.717217
0.982306 0.334893 0.649756
0.992135 0.345411 0.587129
0.418805 0.706472 0.694343
0.422544 0.709272 0.696962
0.471743 0.734525 0.723498
0.827129 0.727519 0.745964
0.988681 0.686498 0.691254
0.995965 0.685764 0.682216
0.686479 0.925917 0.767035
0.687872 0.926357 0.759502
0.708214 0.930102 0.732556
0.831174 0.937312 0.698868
0.989243 0.939856 0.712156
0.998242 0.890996 0.726959
0.788438 0.952824 0.750487
0.789390 0.952952 0.743687
0.801997 0.954920 0.723514
0.889386 0.957553 0.744614
0.967194 0.959182 0.746365
0.998417 0.961105 0.753074
0.096646 0.215229 0.842541
0.196763 0.222977 0.844476
0.469090 0.250580 0.852109
0.755867 0.287555 0.866898
0.952868 0.320395 0.888225
0.985170 0.329381 0.768186
0.119476 0.299607 0.849209
0.106213 0.231228 0.884287
0.444465 0.254220 0.883231
0.756740 0.290446 0.885678
0.956741 0.322572 0.898760
0.986860 0.331191 0.771454
0.227933 0.387442 0.875608
0.215657 0.373712 0.886619
0.211191 0.308720 0.921020
0.726797 0.318710 0.930964
0.971268 0.342210 0.946193
0.992813 0.351170 0.793231
0.448417 0.683103 0.918470
0.442910 0.671578 0.920905
0.451631 0.631939 0.950964
0.724081 0.568178 0.952797
0.974332 0.603660 0.962596
0.995965 0.656547 0.868372
0.709075 0.924306 0.963606
0.710864 0.924592 0.964292
0.729503 0.927134 0.970456
0.831342 0.929907 0.980972
0.988395 0.934943 0.983632
0.998938 0.936007 0.981778
0.800996 0.953633 0.905229
0.802024 0.953837 0.902650
0.814098 0.955602 0.897863
0.891611 0.958324 0.912853
0.987843 0.960784 0.976798
0.998914 0.961844 0.982048
0.117350 0.239117 0.939918
0.188903 0.243821 0.940675
0.404075 0.261292 0.943587
0.658337 0.287456 0.949180
0.867009 0.314107 0.957328
0.981078 0.338556 0.967213
0.135099 0.294913 0.942546
0.125158 0.249359 0.940451
0.369067 0.263724 0.943363
0.643590 0.289494 0.949103
0.862949 0.315682 0.957374
0.981040 0.340148 0.967393
0.218184 0.361217 0.952506
0.208529 0.351127 0.950959
0.231079 0.312201 0.946548
0.586435 0.319179 0.951706
0.849847 0.337192 0.960012
0.981127 0.362776 0.970087
0.389206 0.547625 0.968946
0.383118 0.531281 0.967957
0.412513 0.480305 0.965540
0.735410 0.566304 0.972363
0.905824 0.608159 0.977246
0.987222 0.666125 0.983821
0.615046 0.837480 0.986498
0.613947 0.832993 0.986221
0.644769 0.819573 0.985512
0.849861 0.853736 0.988685
0.988035 0.928836 0.996843
0.997579 0.934757 0.998277
0.817660 0.951904 0.998371
0.819563 0.951860 0.998354
0.843153 0.951768 0.998437
0.943481 0.953229 0.999151
0.993831 0.958029 0.999975
0.999371 0.960846 0.999975
