LUTs/97.cube
LUT_3D_SIZE 6
0.125442 0.125919 0.119878
0.274194 0.130254 0.121376
0.565998 0.098358 0.073817
0.820234 0.079082 0.036336
0.953905 0.067805 0.026162
0.997733 0.057684 0.021210
0.115264 0.261516 0.104924
0.265301 0.262814 0.097366
0.555837 0.289051 0.059041
0.817662 0.292691 0.030424
0.953511 0.258051 0.020080
0.997688 0.220643 0.013406
0.078155 0.546139 0.040088
0.283698 0.545591 0.037942
0.553403 0.553079 0.027359
0.815519 0.553100 0.010436
0.953318 0.488940 -0.003856
0.997632 0.418249 -0.004666
0.073246 0.815401 -0.005494
0.291584 0.815401 -0.005549
0.553063 0.815428 -0.005752
0.806432 0.806432 -0.006053
0.953108 0.725264 -0.005899
0.997631 0.620704 -0.005496
0.064706 0.953315 -0.006422
0.257778 0.953315 -0.006455
0.488933 0.953315 -0.006578
0.725262 0.953107 -0.006815
0.929415 0.929415 -0.006977
0.997327 0.824053 -0.006516
0.086127 0.862115 0.077579
0.239814 0.862108 0.080491
0.471739 0.861409 0.062841
0.692297 0.861145 0.051644
0.870785 0.860779 0.044354
0.988307 0.841906 0.038211
0.111021 0.605886 0.219336
0.255313 0.604964 0.218019
0.525720 0.602529 0.237237
0.767056 0.601544 0.232705
0.916408 0.601433 0.204507
0.992817 0.595310 0.176279
0.104269 0.261576 0.240020
0.258371 0.255332 0.217698
0.575053 0.226182 0.181927
0.830450 0.201917 0.155650
0.961614 0.174372 0.135601
0.998846 0.169601 0.145233
0.042429 0.546150 0.260655
0.209578 0.550822 0.157780
0.552661 0.551008 0.088244
0.822680 0.531354 0.074338
0.959730 0.461818 0.070433
0.998869 0.398105 0.122233
0.022322 0.815486 0.266808
0.197045 0.817690 0.150538
0.529012 0.817885 0.071721
0.805690 0.805498 0.070790
0.955895 0.717356 0.067562
0.998507 0.612126 0.118143
0.022032 0.953310 0.235828
0.172124 0.954424 0.133909
0.459478 0.954585 0.067619
0.716271 0.954054 0.068137
0.928962 0.928862 0.068012
0.997692 0.821077 0.117141
0.075743 0.861942 0.259850
0.208995 0.862031 0.228765
0.457011 0.861707 0.231692
0.686216 0.861422 0.230489
0.868710 0.860952 0.206094
0.988158 0.841633 0.186796
0.094614 0.604724 0.526842
0.271951 0.603289 0.515023
0.521173 0.602646 0.496772
0.763615 0.602082 0.487178
0.915277 0.601849 0.432258
0.992762 0.595306 0.380203
0.074157 0.295018 0.558231
0.247065 0.240560 0.581391
0.577522 0.169450 0.567691
0.838413 0.129052 0.524521
0.966353 0.125642 0.451789
0.998975 0.163707 0.392298
0.035584 0.551832 0.538679
0.142087 0.553020 0.543416
0.540022 0.540533 0.517922
0.871329 0.482561 0.457230
0.983538 0.447291 0.434512
0.999527 0.445012 0.438898
0.022449 0.815481 0.541354
0.099217 0.819700 0.510804
0.415522 0.835826 0.377466
0.812158 0.811466 0.335911
0.976529 0.718169 0.387173
0.999484 0.642319 0.454322
0.022065 0.953308 0.478315
0.088740 0.955567 0.442637
0.346603 0.966726 0.323276
0.686345 0.964719 0.287052
0.932627 0.933428 0.298450
0.998838 0.831422 0.431891
0.064469 0.861546 0.517708
0.213146 0.861918 0.501323
0.462287 0.863272 0.493541
0.688729 0.863188 0.485743
0.870560 0.862279 0.448167
0.988631 0.842659 0.432665
0.074317 0.603439 0.776235
0.266240 0.602205 0.770977
0.532222 0.602205 0.766279
0.787324 0.602003 0.774240
0.927549 0.601907 0.705859
0.994040 0.596936 0.633936
0.051871 0.295489 0.836827
0.224794 0.221576 0.861545
0.547993 0.139263 0.859406
0.827617 0.114425 0.826536
0.964819 0.119881 0.717293
0.998870 0.161904 0.608149
0.028159 0.557323 0.821989
0.123271 0.534546 0.840761
0.483716 0.479823 0.889549
0.857336 0.447843 0.861514
0.982862 0.460219 0.732667
0.999523 0.478401 0.648113
0.022475 0.812807 0.809949
0.097091 0.813979 0.812400
0.396384 0.823242 0.826756
0.807358 0.811715 0.817193
0.974488 0.791594 0.790082
0.999453 0.784587 0.785342
0.022130 0.953305 0.718856
0.088453 0.955339 0.708757
0.354482 0.967024 0.689922
0.743030 0.967341 0.742349
0.944037 0.948268 0.751852
0.998895 0.902017 0.797481
0.052881 0.861340 0.721827
0.201535 0.861753 0.714642
0.471030 0.863175 0.721695
0.768825 0.863142 0.796041
0.912453 0.862524 0.780730
0.992393 0.850639 0.754619
0.061768 0.602690 0.915510
0.232898 0.601901 0.913434
0.477966 0.602113 0.911261
0.741292 0.601973 0.929276
0.937447 0.601787 0.931610
0.996303 0.599711 0.850262
0.043454 0.257247 0.969039
0.195637 0.194778 0.982753
0.468938 0.141767 0.982637
0.725429 0.122151 0.974645
0.946796 0.114375 0.948494
0.998833 0.159017 0.818711
0.027867 0.487600 0.959228
0.126731 0.462236 0.974016
0.438246 0.438575 0.989223
0.730236 0.446028 0.988788
0.960067 0.439062 0.964168
0.999523 0.466958 0.832362
0.020855 0.724075 0.957614
0.095883 0.717116 0.964741
0.417798 0.720393 0.985457
0.770797 0.772092 0.984682
0.962605 0.781163 0.967650
0.999419 0.791563 0.897512
0.021989 0.938393 0.939127
0.087545 0.939154 0.940331
0.355346 0.947920 0.951416
0.748233 0.955315 0.958932
0.950704 0.952349 0.956772
0.998653 0.948626 0.950028
0.045748 0.861263 0.883128
0.180740 0.861629 0.880702
0.442782 0.863054 0.884370
0.748182 0.862986 0.921211
0.933014 0.862071 0.955503
0.996155 0.858272 0.935420
0.082178 0.603598 0.987313
0.203478 0.603212 0.987121
0.420347 0.603225 0.987729
0.662818 0.602665 0.991842
0.850072 0.601924 0.996300
0.982912 0.601466 0.998518
0.081988 0.220839 1.002322
0.186526 0.186503 1.002228
0.393742 0.170279 1.001640
0.598679 0.166138 1.000834
0.801160 0.162494 1.000155
0.976402 0.161665 1.000002
0.057045 0.408320 1.000874
0.165732 0.392137 1.000769
0.417353 0.417359 1.000208
0.628380 0.452359 1.000054
0.813322 0.452927 1.000005
0.977655 0.452926 1.000001
0.029777 0.604902 1.000028
0.161773 0.597699 1.000022
0.452277 0.628326 1.000002
0.750344 0.750344 1.000000
0.884490 0.779836 0.999980
0.985530 0.780037 0.999979
0.028097 0.803811 1.000000
0.161657 0.801024 1.000000
0.452924 0.813316 1.000000
0.779836 0.884490 0.999979
0.942016 0.942016 0.999978
0.994000 0.949449 0.999978
0.027963 0.976670 0.999979
0.161643 0.976398 0.999979
0.452921 0.977653 0.999979
0.780035 0.985529 0.999978
0.949448 0.994000 0.999978
0.997487 0.997488 0.999978
