LUTs/97.cube
LUT_3D_SIZE 16
0.125442 0.125919 0.119878
0.149341 0.129381 0.123290
0.199639 0.132172 0.125322
0.274194 0.130254 0.121376
0.365263 0.121647 0.109163
0.464664 0.109806 0.092102
0.565998 0.098358 0.073817
0.662359 0.089670 0.057646
0.748205 0.083599 0.045026
0.820234 0.079082 0.036336
0.877559 0.075178 0.030956
0.921363 0.071467 0.027934
0.953905 0.067805 0.026162
0.976880 0.064106 0.024618
0.991031 0.060480 0.022663
0.997733 0.057684 0.021210
0.128403 0.149889 0.122521
0.150849 0.151573 0.124136
0.199439 0.153506 0.124313
0.272618 0.153841 0.119138
0.363023 0.151536 0.106475
0.462476 0.148406 0.089479
0.564266 0.145840 0.071595
0.661213 0.143761 0.055943
0.747519 0.141186 0.043819
0.819773 0.137433 0.035521
0.877286 0.132443 0.030424
0.921229 0.126572 0.027512
0.953834 0.120221 0.025603
0.976822 0.113680 0.023761
0.991055 0.107443 0.021610
0.997714 0.102621 0.020122
0.126372 0.195416 0.119157
0.149452 0.195781 0.119343
0.197581 0.196672 0.117887
0.269141 0.198735 0.111953
0.358334 0.202398 0.099599
0.457979 0.207682 0.083474
0.560729 0.212878 0.066720
0.658742 0.215839 0.052219
0.745954 0.215320 0.041155
0.818882 0.211238 0.033680
0.876772 0.204296 0.029050
0.920944 0.195505 0.026155
0.953662 0.185775 0.023830
0.976767 0.175706 0.021409
0.991002 0.166153 0.019028
0.997674 0.158759 0.017587
0.115264 0.261516 0.104924
0.143118 0.261275 0.104472
0.194385 0.261223 0.102568
0.265301 0.262814 0.097366
0.352776 0.268382 0.087213
0.452036 0.278208 0.073549
0.555837 0.289051 0.059041
0.655370 0.296189 0.046389
0.743826 0.297381 0.036855
0.817662 0.292691 0.030424
0.876109 0.283507 0.026205
0.920607 0.271482 0.023082
0.953511 0.258051 0.020080
0.976653 0.244108 0.017089
0.990941 0.230896 0.014639
0.997688 0.220643 0.013406
0.099283 0.345041 0.083250
0.135982 0.344724 0.082717
0.193623 0.344251 0.081125
0.265607 0.344603 0.077450
0.350610 0.348329 0.070525
0.447739 0.357736 0.060547
0.551344 0.370574 0.049249
0.652011 0.380560 0.038950
0.741748 0.383174 0.031032
0.816503 0.377808 0.025395
0.875515 0.366285 0.021185
0.920350 0.350915 0.017505
0.953374 0.333638 0.014079
0.976620 0.315635 0.011051
0.990949 0.298591 0.008934
0.997650 0.285357 0.008031
0.085654 0.442001 0.060317
0.132716 0.441822 0.059905
0.197774 0.441422 0.058850
0.272707 0.441110 0.056665
0.356100 0.442470 0.052667
0.449173 0.448018 0.046416
0.549944 0.458382 0.038486
0.650079 0.468183 0.030445
0.740399 0.471107 0.023687
0.815764 0.464864 0.018219
0.875170 0.450916 0.014097
0.920218 0.432073 0.010597
0.953295 0.410830 0.007522
0.976585 0.388726 0.004645
0.990930 0.367737 0.002035
0.997635 0.351446 -0.001544
0.078155 0.546139 0.040088
0.133643 0.546051 0.039814
0.204706 0.545872 0.039162
0.283698 0.545591 0.037942
0.367787 0.545749 0.035875
0.457635 0.547853 0.032431
0.553403 0.553079 0.027359
0.650497 0.559523 0.021035
0.740064 0.560901 0.015330
0.815519 0.553100 0.010436
0.875048 0.536576 0.006782
0.920163 0.514206 0.002635
0.953318 0.488940 -0.003856
0.976578 0.462630 -0.004593
0.990926 0.437666 -0.004698
0.997632 0.418249 -0.004666
0.075393 0.648159 0.023184
0.135692 0.648134 0.023026
0.210367 0.648087 0.022647
0.292453 0.647976 0.021982
0.378382 0.647933 0.020947
0.467318 0.648410 0.019225
0.559336 0.650113 0.016320
0.652312 0.652286 0.011868
0.740070 0.651162 0.007303
0.815284 0.641716 -0.002313
0.874980 0.622716 -0.004786
0.920156 0.596848 -0.005175
0.953316 0.567531 -0.005137
0.976577 0.537036 -0.005069
0.990926 0.508033 -0.004993
0.997632 0.485511 -0.004927
0.074483 0.739509 0.010179
0.136332 0.739501 0.010098
0.212119 0.739485 0.009908
0.295245 0.739458 0.009571
0.381948 0.739468 0.009093
0.470621 0.739514 0.008244
0.560778 0.739872 0.006587
0.651142 0.740025 0.001245
0.737610 0.737610 -0.004966
0.813550 0.727942 -0.005621
0.874330 0.708128 -0.005636
0.920023 0.679614 -0.005589
0.953316 0.646452 -0.005504
0.976577 0.611669 -0.005399
0.990925 0.578673 -0.005289
0.997632 0.553020 -0.005198
0.073246 0.815401 -0.005494
0.134514 0.815401 -0.005501
0.209434 0.815401 -0.005518
0.291584 0.815401 -0.005549
0.377267 0.815401 -0.005598
0.464661 0.815401 -0.005665
0.553063 0.815428 -0.005752
0.641678 0.815276 -0.005857
0.727941 0.813549 -0.005969
0.806432 0.806432 -0.006053
0.870722 0.789144 -0.006072
0.918915 0.760901 -0.006013
0.953108 0.725264 -0.005899
0.976576 0.686573 -0.005758
0.990925 0.649528 -0.005614
0.997631 0.620704 -0.005496
0.071048 0.875021 -0.005895
0.130500 0.875021 -0.005902
0.203194 0.875021 -0.005916
0.282902 0.875021 -0.005942
0.366031 0.875021 -0.005983
0.450830 0.875021 -0.006040
0.536555 0.875021 -0.006113
0.622714 0.874978 -0.006205
0.708127 0.874330 -0.006308
0.789144 0.870722 -0.006403
0.859583 0.859582 -0.006453
0.913838 0.836466 -0.006419
0.951666 0.802189 -0.006304
0.976352 0.761224 -0.006138
0.990925 0.720508 -0.005962
0.997631 0.688594 -0.005819
0.068070 0.920155 -0.006199
0.125057 0.920155 -0.006204
0.194727 0.920155 -0.006216
0.271092 0.920155 -0.006238
0.350766 0.920155 -0.006273
0.432029 0.920155 -0.006321
0.514197 0.920155 -0.006383
0.596846 0.920155 -0.006461
0.679612 0.920022 -0.006553
0.760900 0.918914 -0.006652
0.836465 0.913838 -0.006733
0.899741 0.899741 -0.006754
0.945536 0.872501 -0.006681
0.974661 0.833699 -0.006522
0.990610 0.791178 -0.006327
0.997631 0.756465 -0.006161
0.064706 0.953315 -0.006422
0.118904 0.953315 -0.006426
0.185155 0.953315 -0.006436
0.257778 0.953315 -0.006455
0.333545 0.953315 -0.006484
0.410795 0.953315 -0.006525
0.488933 0.953315 -0.006578
0.567529 0.953314 -0.006644
0.646451 0.953314 -0.006724
0.725262 0.953107 -0.006815
0.802189 0.951707 -0.006909
0.872501 0.945536 -0.006978
0.929415 0.929415 -0.006977
0.967721 0.898971 -0.006872
0.988702 0.859467 -0.006692
0.997327 0.824053 -0.006516
0.061205 0.976575 -0.006579
0.112500 0.976575 -0.006582
0.175208 0.976575 -0.006591
0.243911 0.976575 -0.006607
0.315584 0.976575 -0.006631
0.388705 0.976575 -0.006666
0.462624 0.976575 -0.006711
0.537032 0.976575 -0.006768
0.611667 0.976575 -0.006835
0.686571 0.976575 -0.006915
0.761223 0.976351 -0.007005
0.833698 0.974660 -0.007094
0.898970 0.967721 -0.007151
0.949807 0.949807 -0.007130
0.981112 0.920042 -0.007015
0.995237 0.889115 -0.006869
0.066625 0.959897 0.042466
0.110786 0.959914 0.043694
0.169286 0.959926 0.045097
0.235380 0.959905 0.045178
0.305501 0.959842 0.043163
0.377678 0.959812 0.040061
0.450739 0.959749 0.037023
0.523704 0.959709 0.034698
0.595889 0.959687 0.032971
0.666934 0.959720 0.031510
0.736751 0.959714 0.030073
0.805206 0.959436 0.028591
0.870584 0.957499 0.027077
0.927726 0.949487 0.025541
0.969396 0.932700 0.024061
0.991445 0.911303 0.022925
0.086127 0.862115 0.077579
0.119498 0.862157 0.079333
0.173205 0.862156 0.081167
0.239814 0.862108 0.080491
0.314122 0.861881 0.075911
0.392316 0.861625 0.069303
0.471739 0.861409 0.062841
0.549533 0.861272 0.057897
0.623479 0.861193 0.054375
0.692297 0.861145 0.051644
0.755968 0.861122 0.049172
0.815209 0.861111 0.046758
0.870785 0.860779 0.044354
0.921553 0.858244 0.041984
0.962624 0.851628 0.039782
0.988307 0.841906 0.038211
0.113287 0.605823 0.112655
0.138458 0.605970 0.114464
0.188779 0.606052 0.116105
0.259705 0.605761 0.114075
0.344055 0.605007 0.106363
0.435142 0.604100 0.095727
0.527844 0.603336 0.085331
0.616825 0.602837 0.077347
0.697647 0.602543 0.071759
0.767747 0.602378 0.067677
0.826665 0.602224 0.064229
0.875682 0.602124 0.061015
0.916626 0.602038 0.057911
0.950674 0.601314 0.054938
0.976776 0.599308 0.052303
0.992805 0.595698 0.050621
0.125694 0.353433 0.127750
0.147840 0.353673 0.128062
0.196702 0.353809 0.127685
0.269574 0.353293 0.123157
0.358808 0.351919 0.112126
0.456436 0.350365 0.097507
0.556065 0.349128 0.082889
0.650996 0.348265 0.071213
0.735789 0.347456 0.063043
0.807423 0.346555 0.057638
0.865105 0.345506 0.053833
0.910024 0.344372 0.050848
0.944419 0.343262 0.048304
0.969878 0.342224 0.046223
0.986964 0.341339 0.044901
0.996235 0.340748 0.044798
0.125277 0.195547 0.129158
0.147462 0.195705 0.127156
0.196719 0.195866 0.124503
0.269602 0.196379 0.118320
0.359641 0.197826 0.106160
0.459497 0.200870 0.090317
0.562089 0.204312 0.074155
0.659875 0.206153 0.060716
0.746826 0.205079 0.051032
0.819533 0.200873 0.044778
0.877292 0.194101 0.040892
0.921345 0.185691 0.038404
0.954017 0.176468 0.036687
0.976942 0.167028 0.035761
0.991136 0.158221 0.035924
0.997772 0.151574 0.037349
0.112089 0.261588 0.118103
0.138172 0.261463 0.113051
0.191515 0.261201 0.108413
0.264723 0.262059 0.102128
0.353503 0.266315 0.091686
0.453175 0.274628 0.077590
0.556949 0.284173 0.062607
0.656355 0.290420 0.049598
0.744628 0.291089 0.039995
0.818229 0.286207 0.033904
0.876548 0.277064 0.030541
0.920952 0.265234 0.028906
0.953769 0.252106 0.028192
0.976797 0.238549 0.028358
0.991072 0.225775 0.029590
0.997706 0.215945 0.031802
0.093199 0.345126 0.102493
0.127380 0.345056 0.093530
0.188190 0.344597 0.086752
0.263356 0.344681 0.081135
0.350298 0.347807 0.074053
0.448214 0.356310 0.063900
0.552059 0.368148 0.052509
0.652646 0.377324 0.042454
0.742309 0.379407 0.035382
0.816911 0.373820 0.031390
0.875808 0.362198 0.029512
0.920577 0.346905 0.028748
0.953537 0.329777 0.028468
0.976747 0.312019 0.028671
0.991009 0.295228 0.029542
0.997699 0.282213 0.031106
0.075766 0.442109 0.089505
0.120803 0.442099 0.075683
0.190165 0.441772 0.065543
0.268813 0.441409 0.059887
0.354632 0.442556 0.055891
0.448920 0.447662 0.049794
0.550194 0.457378 0.042432
0.650431 0.466515 0.036018
0.740678 0.468918 0.032025
0.816011 0.462350 0.030284
0.875347 0.448242 0.029701
0.920345 0.429379 0.029517
0.953434 0.408205 0.029421
0.976638 0.386197 0.029518
0.990943 0.365386 0.030008
0.997662 0.349207 0.030988
0.064609 0.546232 0.082828
0.119597 0.546263 0.064535
0.195709 0.546112 0.049955
0.278592 0.545852 0.042814
0.365267 0.545952 0.041004
0.456618 0.547905 0.038280
0.553161 0.552816 0.035010
0.650580 0.558748 0.032505
0.740160 0.559674 0.031376
0.815609 0.551597 0.031115
0.875153 0.534811 0.031059
0.920259 0.512333 0.030945
0.953347 0.487061 0.030757
0.976631 0.460808 0.030631
0.990960 0.435923 0.030743
0.997645 0.416608 0.031199
0.059780 0.648246 0.080866
0.120806 0.648288 0.060344
0.200750 0.648267 0.042862
0.286693 0.648149 0.034155
0.375150 0.648102 0.033760
0.465617 0.648514 0.033258
0.558596 0.650111 0.032751
0.652100 0.652063 0.032585
0.740088 0.650617 0.032756
0.815357 0.640847 0.032875
0.875027 0.621597 0.032722
0.920207 0.595606 0.032377
0.953308 0.566223 0.031962
0.976600 0.535694 0.031600
0.990939 0.506723 0.031407
0.997637 0.484242 0.031452
0.058405 0.739559 0.080427
0.121369 0.739539 0.059650
0.202333 0.739560 0.041826
0.289192 0.739540 0.033059
0.378285 0.739536 0.033186
0.468441 0.739573 0.033376
0.559589 0.739888 0.033663
0.650602 0.740038 0.034034
0.737447 0.737481 0.034343
0.813528 0.727551 0.034308
0.874361 0.707501 0.033847
0.920053 0.678789 0.033188
0.953293 0.645529 0.032542
0.976588 0.610711 0.032021
0.990931 0.577684 0.031685
0.997633 0.552064 0.031552
0.057525 0.815422 0.079356
0.119904 0.815451 0.059252
0.199789 0.815466 0.042271
0.285485 0.815469 0.034159
0.373393 0.815468 0.034269
0.462210 0.815466 0.034396
0.551561 0.815488 0.034556
0.640846 0.815314 0.034735
0.727553 0.813519 0.034832
0.806281 0.806279 0.034668
0.870710 0.788839 0.034132
0.918928 0.760394 0.033402
0.953122 0.724648 0.032682
0.976584 0.685909 0.032109
0.990928 0.648786 0.031734
0.997632 0.619973 0.031558
0.055935 0.875033 0.077093
0.116414 0.875051 0.057853
0.193841 0.875060 0.041769
0.276894 0.875063 0.034181
0.362182 0.875063 0.034213
0.448241 0.875062 0.034243
0.534826 0.875062 0.034278
0.621602 0.874995 0.034314
0.707502 0.874352 0.034318
0.788838 0.870708 0.034193
0.859461 0.859461 0.033836
0.913807 0.836215 0.033264
0.951670 0.801820 0.032623
0.976358 0.760730 0.032071
0.990928 0.719989 0.031701
0.997632 0.687985 0.031528
0.053684 0.920163 0.073939
0.111613 0.920175 0.055691
0.185743 0.920180 0.040542
0.265298 0.920182 0.033467
0.346971 0.920182 0.033467
0.429421 0.920182 0.033464
0.512357 0.920182 0.033458
0.595612 0.920182 0.033450
0.678789 0.920046 0.033434
0.760393 0.918927 0.033382
0.836215 0.913806 0.033229
0.899652 0.899652 0.032917
0.945547 0.872308 0.032465
0.974659 0.833416 0.032000
0.990612 0.790832 0.031658
0.997631 0.756119 0.031491
0.051143 0.953319 0.070378
0.106214 0.953284 0.053239
0.176645 0.953287 0.039141
0.252249 0.953288 0.032643
0.329853 0.953288 0.032639
0.408259 0.953288 0.032635
0.487085 0.953288 0.032630
0.566226 0.953288 0.032622
0.645528 0.953288 0.032614
0.724646 0.953120 0.032598
0.801819 0.951669 0.032554
0.872308 0.945546 0.032429
0.929318 0.929318 0.032190
0.967740 0.898837 0.031870
0.988698 0.859287 0.031593
0.997327 0.823785 0.031445
0.048545 0.976578 0.066695
0.100638 0.976581 0.050778
0.167216 0.976583 0.037850
0.238702 0.976583 0.032015
0.312136 0.976583 0.032013
0.386250 0.976583 0.032009
0.460828 0.976583 0.032004
0.535698 0.976583 0.031997
0.610710 0.976583 0.031989
0.685907 0.976583 0.031980
0.760728 0.976357 0.031965
0.833415 0.974658 0.031928
0.898836 0.967739 0.031834
0.949740 0.949740 0.031674
0.981086 0.919925 0.031499
0.995232 0.888951 0.031390
0.058816 0.959914 0.078671
0.101441 0.959923 0.069852
0.162629 0.959924 0.065282
0.230914 0.959897 0.065336
0.302462 0.959836 0.066933
0.375484 0.959809 0.067824
0.449135 0.959749 0.068192
0.522523 0.959711 0.068095
0.595012 0.959689 0.067390
0.666270 0.959679 0.066007
0.736322 0.959717 0.064040
0.804885 0.959438 0.061699
0.870354 0.957494 0.059188
0.927602 0.949462 0.056634
0.969342 0.932674 0.054235
0.991431 0.911231 0.052405
0.083792 0.862162 0.109727
0.114671 0.862178 0.107014
0.169163 0.862168 0.107320
0.236881 0.862059 0.110268
0.311975 0.861838 0.112922
0.390734 0.861601 0.114247
0.470530 0.861399 0.114654
0.548658 0.861268 0.114284
0.622812 0.861192 0.112836
0.691794 0.861145 0.110136
0.755577 0.861122 0.106339
0.814924 0.861111 0.101805
0.870595 0.860779 0.096921
0.921467 0.858238 0.091938
0.962557 0.851610 0.087263
0.988287 0.841870 0.083681
0.114015 0.605974 0.148205
0.137926 0.605986 0.148449
0.187929 0.605907 0.150637
0.259046 0.605436 0.154298
0.343703 0.604526 0.156390
0.435053 0.603465 0.156701
0.527962 0.602574 0.156064
0.616956 0.602041 0.154799
0.697805 0.601705 0.152382
0.767915 0.601530 0.148447
0.826820 0.601465 0.143096
0.875805 0.601440 0.136772
0.916747 0.601422 0.129981
0.950810 0.600797 0.123116
0.976820 0.598858 0.116849
0.992866 0.595343 0.112347
0.126039 0.353738 0.165303
0.147563 0.353577 0.165196
0.196531 0.353093 0.165533
0.270450 0.351513 0.166187
0.360684 0.348673 0.164454
0.458800 0.345523 0.160880
0.558382 0.342950 0.157087
0.652961 0.341247 0.153757
0.737484 0.340148 0.150229
0.808712 0.339409 0.145784
0.866147 0.338849 0.140264
0.910902 0.338338 0.133946
0.945188 0.337898 0.127256
0.970546 0.337574 0.120781
0.987459 0.337455 0.115461
0.996417 0.337623 0.112588
0.124355 0.195720 0.170018
0.144996 0.195352 0.167311
0.194496 0.193833 0.162380
0.271037 0.189725 0.156870
0.364163 0.183191 0.148309
0.465314 0.176966 0.137675
0.567729 0.172433 0.127508
0.664635 0.169015 0.119787
0.750631 0.165252 0.114101
0.822617 0.160298 0.109272
0.879822 0.154096 0.104515
0.923487 0.147006 0.099642
0.955885 0.139536 0.094729
0.978519 0.132583 0.090871
0.992213 0.127483 0.089670
0.998188 0.125752 0.092214
0.108722 0.261501 0.167840
0.130053 0.261604 0.160144
0.182482 0.261200 0.146548
0.262656 0.259614 0.134644
0.356908 0.258522 0.122383
0.458974 0.260017 0.108611
0.562904 0.263474 0.094367
0.661545 0.265469 0.082765
0.748860 0.263744 0.074747
0.821774 0.257908 0.069387
0.879514 0.248820 0.065485
0.923492 0.237698 0.062322
0.956043 0.225651 0.059577
0.978758 0.213694 0.059444
0.992446 0.203321 0.064227
0.998290 0.196743 0.073532
0.086081 0.345099 0.165324
0.110446 0.345556 0.152042
0.168937 0.345858 0.127936
0.254220 0.345344 0.109064
0.349418 0.345909 0.095725
0.451468 0.350207 0.084219
0.556384 0.357460 0.071086
0.656772 0.362923 0.059335
0.745797 0.362539 0.050830
0.819932 0.355627 0.045634
0.878427 0.343660 0.042694
0.922881 0.328489 0.041042
0.955718 0.311872 0.040073
0.978561 0.295039 0.043416
0.992333 0.279727 0.053002
0.998210 0.268768 0.066266
0.062603 0.442154 0.166009
0.093975 0.442702 0.148291
0.161070 0.443287 0.114548
0.251925 0.443097 0.087691
0.348009 0.443395 0.073257
0.448376 0.446505 0.066788
0.552090 0.453269 0.058899
0.652902 0.459338 0.051754
0.743125 0.459315 0.046749
0.818233 0.451213 0.043849
0.877365 0.436340 0.042202
0.922154 0.417220 0.041182
0.955206 0.396155 0.040481
0.978207 0.374631 0.043789
0.992106 0.354654 0.053153
0.998121 0.339758 0.066191
0.042835 0.546289 0.169713
0.084933 0.546776 0.149259
0.159762 0.547401 0.108923
0.255730 0.547412 0.074371
0.353434 0.547352 0.056340
0.452186 0.548477 0.053654
0.552605 0.551974 0.050272
0.651603 0.555865 0.047223
0.741679 0.554671 0.045093
0.817190 0.544926 0.043743
0.876665 0.527121 0.042778
0.921663 0.504145 0.041993
0.954813 0.478724 0.041327
0.977902 0.452620 0.044449
0.991901 0.428208 0.053495
0.998049 0.409696 0.066260
0.029018 0.648323 0.173481
0.081907 0.648631 0.151765
0.160995 0.649200 0.108244
0.260098 0.649335 0.069329
0.359545 0.649275 0.048004
0.457771 0.649460 0.047391
0.555488 0.650483 0.046657
0.651563 0.651401 0.045986
0.740645 0.648487 0.045399
0.816355 0.637236 0.044760
0.876102 0.616882 0.044021
0.921237 0.590126 0.043237
0.954458 0.560372 0.042488
0.977636 0.529792 0.045334
0.991714 0.501058 0.053970
0.997983 0.479056 0.066397
0.023036 0.739592 0.174681
0.081060 0.739862 0.152650
0.161005 0.740255 0.108308
0.260682 0.740432 0.068219
0.360439 0.740419 0.045914
0.458127 0.740389 0.046048
0.554128 0.740492 0.046239
0.648346 0.740212 0.046427
0.736974 0.736881 0.046472
0.813891 0.726050 0.046193
0.875033 0.704899 0.045576
0.920794 0.675333 0.044753
0.954166 0.641544 0.043886
0.977321 0.606499 0.046399
0.991551 0.573512 0.054552
0.997872 0.548139 0.066570
0.022299 0.815487 0.172446
0.079932 0.815641 0.150787
0.158454 0.815946 0.107124
0.256401 0.816106 0.067822
0.354468 0.816129 0.046260
0.450420 0.816073 0.046511
0.544433 0.816036 0.046835
0.636996 0.815738 0.047205
0.725912 0.813640 0.047508
0.805898 0.805853 0.047557
0.870955 0.787630 0.047179
0.919421 0.758503 0.046423
0.953735 0.722094 0.045475
0.977108 0.682969 0.047639
0.991369 0.645730 0.055242
0.997828 0.617044 0.066776
0.022447 0.875085 0.167346
0.077774 0.875237 0.146437
0.153581 0.875446 0.104409
0.248203 0.875569 0.066948
0.343037 0.875592 0.046933
0.435784 0.875554 0.047167
0.526698 0.875507 0.047472
0.616550 0.875396 0.047852
0.704617 0.874625 0.048256
0.787596 0.870777 0.048561
0.859223 0.859178 0.048546
0.913979 0.835343 0.048056
0.952058 0.800363 0.047176
0.976761 0.758888 0.049027
0.991222 0.717795 0.056032
0.997801 0.685862 0.067011
0.022271 0.920204 0.160403
0.074872 0.920285 0.140496
0.147245 0.920451 0.100673
0.237592 0.920535 0.065622
0.328199 0.920556 0.047507
0.416849 0.920529 0.047717
0.503768 0.920493 0.047991
0.589792 0.920453 0.048333
0.675083 0.920330 0.048737
0.758321 0.919108 0.049160
0.835264 0.913822 0.049444
0.899416 0.899381 0.049372
0.945652 0.871609 0.048784
0.974920 0.832347 0.050481
0.990898 0.789415 0.056903
0.997731 0.754573 0.067261
0.022029 0.953310 0.152574
0.071660 0.953419 0.133813
0.140251 0.953519 0.096458
0.225873 0.953613 0.064096
0.311782 0.953632 0.047956
0.395928 0.953611 0.048142
0.478405 0.953586 0.048384
0.560091 0.953556 0.048684
0.641272 0.953521 0.049045
0.721877 0.953302 0.049467
0.800225 0.951817 0.049886
0.871564 0.945555 0.050150
0.929125 0.929098 0.050019
0.967778 0.898315 0.051818
0.988825 0.858483 0.057792
0.997420 0.822777 0.067498
0.022382 0.976603 0.144472
0.068852 0.976637 0.127068
0.133494 0.976778 0.092819
0.214084 0.976802 0.064092
0.295080 0.976817 0.050684
0.374475 0.976802 0.050824
0.452373 0.976784 0.051011
0.529527 0.976760 0.051245
0.606248 0.976785 0.051524
0.682730 0.976755 0.051857
0.758710 0.976497 0.052233
0.832229 0.974733 0.052594
0.898267 0.967721 0.052786
0.949577 0.949562 0.054604
0.981089 0.919512 0.059752
0.995262 0.888373 0.068123
0.046930 0.959916 0.149150
0.078805 0.959927 0.136271
0.136055 0.960017 0.113838
0.210748 0.960040 0.100097
0.288248 0.959998 0.097728
0.365524 0.959928 0.100643
0.441872 0.959908 0.102882
0.517143 0.959858 0.103901
0.591001 0.959821 0.103565
0.663318 0.959791 0.101971
0.734231 0.959810 0.099414
0.803489 0.959506 0.096292
0.869592 0.957555 0.092911
0.927259 0.949417 0.090148
0.969265 0.932515 0.089091
0.991397 0.910916 0.090662
0.079201 0.862125 0.176526
0.104448 0.862121 0.170274
0.155086 0.862110 0.161164
0.224969 0.862003 0.158070
0.303054 0.861833 0.161619
0.384273 0.861622 0.167141
0.465816 0.861445 0.171356
0.545135 0.861340 0.173132
0.620158 0.861263 0.172257
0.689778 0.861209 0.168892
0.754118 0.861179 0.163570
0.813912 0.861160 0.157009
0.869910 0.860814 0.149881
0.921071 0.858243 0.142738
0.962401 0.851554 0.136402
0.988210 0.841798 0.132133
0.111021 0.605886 0.219336
0.135220 0.605708 0.217778
0.184738 0.605434 0.216234
0.255313 0.604964 0.218019
0.340097 0.604175 0.224521
0.432113 0.603302 0.231788
0.525720 0.602529 0.237237
0.615373 0.602010 0.239362
0.696643 0.601714 0.237792
0.767056 0.601544 0.232705
0.826236 0.601479 0.224788
0.875363 0.601443 0.215075
0.916408 0.601433 0.204507
0.950632 0.600801 0.193743
0.976781 0.598847 0.183750
0.992817 0.595310 0.176279
0.121288 0.353805 0.238196
0.144886 0.352878 0.238062
0.195709 0.351470 0.238285
0.269791 0.349422 0.239957
0.360138 0.346342 0.244601
0.458746 0.342867 0.249373
0.558810 0.339749 0.252665
0.653685 0.337629 0.253222
0.738143 0.336406 0.250538
0.809408 0.335773 0.244553
0.866804 0.335462 0.235845
0.911488 0.335300 0.225392
0.945670 0.335244 0.214162
0.970965 0.335400 0.203041
0.987672 0.335850 0.193243
0.996489 0.336439 0.186249
0.117879 0.196880 0.242203
0.139837 0.194373 0.241808
0.191518 0.189606 0.240461
0.270254 0.182207 0.237876
0.366238 0.170184 0.236239
0.469523 0.154571 0.234230
0.572849 0.138655 0.231639
0.669651 0.125484 0.228174
0.755100 0.115666 0.223385
0.826404 0.108222 0.216790
0.883042 0.102026 0.208424
0.926328 0.096500 0.198864
0.958284 0.092400 0.189148
0.980316 0.092095 0.180657
0.993116 0.097307 0.175114
0.998463 0.103610 0.172237
0.104269 0.261576 0.240020
0.123483 0.261042 0.237240
0.175232 0.259439 0.230077
0.258371 0.255332 0.217698
0.360952 0.246978 0.205755
0.468962 0.236156 0.193691
0.575053 0.226182 0.181927
0.673177 0.217892 0.171520
0.759115 0.210187 0.163024
0.830450 0.201917 0.155650
0.886932 0.192829 0.148494
0.929986 0.183195 0.141333
0.961614 0.174372 0.135601
0.982941 0.168598 0.134248
0.994516 0.168140 0.139458
0.998846 0.169601 0.145233
0.083822 0.344779 0.242912
0.099055 0.345417 0.235599
0.150726 0.346316 0.218074
0.237786 0.346114 0.189819
0.347311 0.342902 0.167349
0.459228 0.338698 0.150863
0.568182 0.335659 0.136411
0.668800 0.332439 0.122667
0.756743 0.326451 0.111766
0.829518 0.316713 0.103899
0.886885 0.303860 0.097924
0.930447 0.289172 0.093063
0.962296 0.274344 0.091817
0.983656 0.261338 0.099130
0.994945 0.252425 0.115572
0.999068 0.247012 0.128922
0.061948 0.441860 0.250773
0.074057 0.442831 0.239375
0.128476 0.444641 0.212377
0.219553 0.446240 0.168157
0.334056 0.445661 0.134228
0.448338 0.444595 0.115343
0.558965 0.444669 0.104392
0.661591 0.443899 0.093192
0.751660 0.438521 0.083898
0.826141 0.427070 0.077301
0.884625 0.410588 0.072832
0.928973 0.391094 0.069774
0.961333 0.370669 0.071638
0.983064 0.351238 0.084383
0.994773 0.335090 0.106287
0.999014 0.323801 0.123363
0.042429 0.546150 0.260655
0.053603 0.547043 0.246577
0.114413 0.548820 0.213334
0.209578 0.550822 0.157780
0.327266 0.551129 0.113694
0.442386 0.550870 0.092917
0.552661 0.551008 0.088244
0.655766 0.550336 0.083025
0.747023 0.544618 0.078245
0.822680 0.531354 0.074338
0.882038 0.511416 0.071291
0.926922 0.487381 0.068941
0.959730 0.461818 0.070433
0.982006 0.436638 0.082305
0.994387 0.414358 0.103722
0.998869 0.398105 0.122233
0.028848 0.648282 0.268058
0.042236 0.648894 0.252612
0.108512 0.650373 0.216232
0.205710 0.652086 0.155040
